/* XPM */
static char *c9f08320358a486288b3929a0bfd4463lVXcnyr3DYSECMPC[] = {
/* columns rows colors chars-per-pixel */
"360 360 256 2 ",
"   c #000001",
".  c #03020C",
"X  c #09040D",
"o  c #0A0606",
"O  c #040213",
"+  c #0A0613",
"@  c #0C0916",
"#  c #03011B",
"$  c #0B051A",
"%  c #0E0A1B",
"&  c #070914",
"*  c #110C1C",
"=  c #100A17",
"-  c #14111E",
";  c #171419",
":  c #0F101D",
">  c #0E0C22",
",  c #080428",
"<  c #110E24",
"1  c #120E2A",
"2  c #140529",
"3  c #141224",
"4  c #14112C",
"5  c #19162B",
"6  c #1C1A2C",
"7  c #191725",
"8  c #040138",
"9  c #140C35",
"0  c #151333",
"q  c #191535",
"w  c #1D1B33",
"e  c #16143A",
"r  c #19163B",
"t  c #1B193C",
"y  c #171839",
"u  c #0C1532",
"i  c #211E33",
"p  c #211C3B",
"a  c #211430",
"s  c #242235",
"d  c #26233A",
"f  c #29263C",
"g  c #2B293E",
"h  c #282736",
"j  c #23222C",
"k  c #1F2139",
"l  c #040147",
"z  c #160647",
"x  c #1B1642",
"c  c #1D1A43",
"v  c #1E1B4B",
"b  c #181546",
"n  c #1D1A53",
"m  c #090952",
"M  c #211C45",
"N  c #221D4C",
"B  c #221646",
"V  c #231E53",
"C  c #271D59",
"Z  c #25054D",
"A  c #1C224D",
"S  c #242343",
"D  c #2A2642",
"F  c #2D2B43",
"G  c #24224C",
"H  c #2D2C4B",
"J  c #29254B",
"K  c #312E46",
"L  c #322F49",
"P  c #30264D",
"I  c #323046",
"U  c #35324C",
"Y  c #38354E",
"T  c #3A394D",
"R  c #242254",
"E  c #292455",
"W  c #25235B",
"Q  c #2A245C",
"!  c #2C2A5C",
"~  c #2B2B54",
"^  c #322C58",
"/  c #363551",
"(  c #393652",
")  c #3B3955",
"_  c #3E3C5A",
"`  c #36355A",
"'  c #2E3153",
"]  c #120D6A",
"[  c #291966",
"{  c #262462",
"}  c #2B2563",
"|  c #2C2A64",
" . c #2C266A",
".. c #2D2A6B",
"X. c #252769",
"o. c #322B64",
"O. c #32256B",
"+. c #332C6C",
"@. c #352868",
"#. c #383768",
"$. c #2E2C73",
"%. c #2B2876",
"&. c #332C73",
"*. c #342C7B",
"=. c #3A2C7C",
"-. c #362974",
";. c #343274",
":. c #3B3274",
">. c #34327C",
",. c #3B337C",
"<. c #3B3B77",
"1. c #2D3270",
"2. c #1C2369",
"3. c #403E5C",
"4. c #403D56",
"5. c #413E4F",
"6. c #413E64",
"7. c #43377A",
"8. c #412B78",
"9. c #3C4371",
"0. c #3F405B",
"q. c #42415E",
"w. c #464559",
"e. c #535459",
"r. c #454363",
"t. c #484666",
"y. c #4A4966",
"u. c #45436B",
"i. c #494769",
"p. c #4C4B6B",
"a. c #454968",
"s. c #504E6E",
"d. c #514A65",
"f. c #53526D",
"g. c #4E4C71",
"h. c #464778",
"j. c #514E71",
"k. c #524C7C",
"l. c #535274",
"z. c #565579",
"x. c #59567B",
"c. c #5B5A7D",
"v. c #585776",
"b. c #4C5276",
"n. c #61627D",
"m. c #3A2D84",
"M. c #353483",
"N. c #3B3484",
"B. c #3B388A",
"V. c #3C3B94",
"C. c #2D2E8B",
"Z. c #232995",
"A. c #453889",
"S. c #433C93",
"D. c #483998",
"F. c #533C97",
"G. c #47318A",
"H. c #4A3BA4",
"J. c #543CA8",
"K. c #533BB3",
"L. c #643CB3",
"P. c #3B4295",
"I. c #3C47A9",
"U. c #494686",
"Y. c #5D5C82",
"T. c #575688",
"R. c #474399",
"E. c #564399",
"W. c #53528E",
"Q. c #615E86",
"!. c #625797",
"~. c #596C89",
"^. c #626284",
"/. c #64648A",
"(. c #6A698B",
"). c #79798A",
"_. c #696895",
"`. c #767698",
"'. c #6B7394",
"]. c #4A45A7",
"[. c #5746A8",
"{. c #4B4AB5",
"}. c #5749B7",
"|. c #5753BA",
" X c #5154AD",
".X c #6449A9",
"XX c #664BB7",
"oX c #6C53B7",
"OX c #7979A7",
"+X c #7170B0",
"@X c #5966AD",
"#X c #584BC5",
"$X c #5855C7",
"%X c #5757D2",
"&X c #654BC7",
"*X c #6855C7",
"=X c #7757C9",
"-X c #6757D7",
";X c #7859D7",
":X c #6A4CD3",
">X c #706CD2",
",X c #705AE8",
"<X c #6766E7",
"1X c #746EF2",
"2X c #5A65DC",
"3X c #3650C1",
"4X c #817DB2",
"5X c #807A97",
"6X c #855AD3",
"7X c #866DD4",
"8X c #8E6DEF",
"9X c #AB75F8",
"0X c #865EE3",
"qX c #73849D",
"wX c #7888F8",
"eX c #7887D1",
"rX c #868597",
"tX c #83828C",
"yX c #8787A8",
"uX c #8888B7",
"iX c #9594B0",
"pX c #A8A8B4",
"aX c #9EA2B5",
"sX c #9897C8",
"dX c #8E8DD1",
"fX c #9AABCD",
"gX c #B5B6CC",
"hX c #ACAED2",
"jX c #9998E8",
"kX c #8C8FF4",
"lX c #A696F1",
"zX c #96A8F5",
"xX c #A8A5EA",
"cX c #A9A7F5",
"vX c #B8B7F9",
"bX c #B3B5EE",
"nX c #A29DCF",
"mX c #CAA7F4",
"MX c #B9C8F4",
"NX c #B0C5DD",
"BX c #C5C6D8",
"VX c #D1D2DE",
"CX c #C8C7E5",
"ZX c #D9D7E6",
"AX c #C7C8FC",
"SX c #C9D5F7",
"DX c #D7D8FB",
"FX c #CED1EC",
"GX c #E1DDEC",
"HX c #DCE4FA",
"JX c #D6F2F9",
"KX c #E7E8FB",
"LX c #EAF8FE",
"PX c #FDFCFF",
"IX c #F5F5FD",
"UX c #E6E5ED",
/* pixels */
"q.4 d F F K I K F D g g g g g g g g g g g g g g g g g g g F g g g F F F F F F F K K K K K K I K F F F F F K K K I L I I U g / / / U I I I I I I I I L L K L L L I I K K I I I K L F 6 I Y U / F ( ( g j I ( ( ( ( 4.I K ( ( Y Y Y / U U U U Y Y Y U U U U U I I U U U U I I K Y ( ( ( ( ) ) ) ) ) ) ) ) ) ) ) ) ) ) ) ) ) ) ) ) ) ) ) ) ) ) _ _ ) _ _ _ _ _ _ _ ) ) _ ) _ _ _ ) ) _ _ _ _ ) _ _ _ _ _ _ _ _ _ _ _ ) ) ) ) ) ) ) ) ) ) ) ) ) ) ) ) ) ) _ ) ) ) ) ) ) ) ( / / / / ) ) ) ) ) ) ) ) ) ) ) ) ) ) ) ) ) ) ( ( ( ( ( ( ( ( ( ( ( ( ( ( ( ( ( ( ( ( ( ( ( ( ( ( ( ) Y I / Y ( ( Y U K I U I I U I U U I I I I U I L L I I f 6 F L K I K K H F F F F F F K F F F F F F F F K F L F D D g g f g d g g g f d d d d s s s d f d f f s s s i ",
"r.K 5 g D F K f F 6 s g g g f g g g g g g g g g g g g g g g g g g F F F F F F F K K F K K K I K F g F F K K K K K L I g * g q.D D F F f K I I I I L K L K F F K g g L L L L I L L d g I Y U / F ) ( ) ( ( / ( ( ( ( ) ) ( / / Y Y Y Y U U U U Y Y U U U U I I L F L I I K g w I Y ( ( ( ) ) ) ) ) ) ) ) ) ) ) ) ) ) ) ) ) ) ) ) ) ) ) ) ) ) _ ) ) _ _ _ _ _ _ _ _ ) _ _ _ _ _ _ _ _ _ _ _ _ _ _ _ _ _ _ _ _ 4._ _ _ ) ) ) ) _ ) _ _ _ ) ) ) ) ) ) ) ) ) ) _ ) ) ) ) ) / / / / ) ) ) ) ) ) ) _ ) ) ) ) ) ) ) ) ) ) ) ) ) ) ) ) ) ) ) ) ) ( ( ( ( ( ( ( ( ( ( ( ( ( ( ( ( ) ) ) ( / / ( ( Y U Y / U / / U U I I I I U U I L I I I L L L I L I K I L K F F F F F F F H F K K K K K F F F F g g g f g g F f f f f f f f d d d s s s d f d f h f s s ",
"U 4.4 s g F g s g 6 f g g s i g g g g g f g g g g g g g g g g g g F F F F F F F F K K K I K K I 3 6 g i i K K K K L I Y Y K K K s K g 7 F I L L L L L L K K K I g s L I I I I L L I Y / U Y Y F ( / U Y U Y ( ( ( Y Y Y ( ( ( Y Y Y Y U U U U Y Y U K I U U I F F F F L L F F U U Y / ) ) ) ) ) ) ) ) ) ) ) ) ) ) ) ) ) ) ) ) ) ) ) ) ) ) ) ) ) ) _ _ _ _ ) _ _ _ _ ) _ _ ) ) ) ) _ _ _ _ ) _ _ _ _ _ _ _ _ _ _ _ ) ) ) ) ) ) _ _ _ _ ) ) ) ) ) ) ) ) ) ) ) ) ) ) ) ) ) ( ( ( / ) _ _ _ ) ) ) ) ) ) ) ) ) ) ) ) ) ) ) ) ) ) ) ) ) ) ) ( ( ( ( ( ( ( ( ( ( ( ( ( ( ( ( ( ( ( Y Y Y ( ( Y Y U U U U I I I I I I I I I I U I I L F F L I I I I K K K K F K F F F F F F F K F K K K F F F f d g g g g d w d f f f f f d d d f d f - 3 f d f f h i g ",
"g 4.F 6 g g g f f f f f g g g g f g f g f f g g g g g g g g g g g F F F F F F F F K K K K K K I g f K I F K K K K K K K I L K I K K I I Y F K K K L K K K L K Y q.( L L I I I L L L L U U U / F / Y Y Y Y Y Y ( Y Y Y Y Y Y ( ( Y Y / Y U U Y Y Y U K I Y U U I L K F L K F L U / ( / ) ) ) ) ) ) ) ) ) ) ) ) ) ) ) ) ) ) ) ) ) _ ) ) _ _ ) ) _ _ _ _ _ _ _ _ _ _ _ ) _ _ _ ) ) ) _ _ ) ) _ ) _ _ _ _ _ _ _ _ _ _ _ _ _ ) ) ) ) _ _ _ ) ) ) ) _ ) ) ) ) ) ) ) ) ) ) ) ) ) ) K * L _ _ _ ) ) ) ) ) ) ) ) ) ) ) ) ) ) ) ( ( ( ) ) ) ( ( ( ( ( ( ( ( ( ( ( ( ( ( ( ( / ( ( Y Y Y U U Y Y Y Y U U U U I U I U I U U U I I L I L K K K I I I I I I L K K K K K K F F F F F K F K K K K K K g s d g g g g j i s d f g d d d d f d f f f f s f f s s K ",
"g Y 4.w d f s s s s s f f f f d d d d g f f g g g g g g g g g g g g F F F F F F K K K I K L K K I F F I I K K K K K K K K K g g F F F F F F F F F K F F K K K F F F K L I I I L L I I U U U / F / Y Y Y Y ( / Y Y Y Y Y Y / ( ( ( / / Y / U / Y Y U U I s 5 5 6 5 5 5 5 7 3 g / ( ( ) ) ) ) ) ) ) ) ) ) ) ) ) ) ) ) ) ) ) ) ) _ _ _ _ _ _ _ _ _ _ _ _ _ _ _ _ _ _ _ _ _ _ _ ) ) ) ) ) _ _ ) ) _ _ _ _ _ _ _ _ _ _ _ _ _ _ _ ) ) ) ) ) ) ) ) ) _ ) ) ) ) ) ) ) ) ) ) ) ) ) ) ( q._ ) _ _ _ ) ) ) ) ) ) _ ) ) ) ) ) ) ) ) ) ) ) ) ) ) ) ) ( ( ( ( ( ( ( ( ( ( ( / / / / / / / / U U Y / Y Y Y U U U U U U U U U U I I L K L L I U U U I I I I I I K K K K K K K F F F F F L K K K K K F I I d g f f g D g g F g g g f f f f f f d s s h s d j g Y ",
"f D 4.D w f d s s d s f f f d d d d d d g f d g g g g g g g g g g F F F F F F F K F K K K K K K F F F F F F F K K K K K K K g F F F K F F F F F F K F K K K K K K K L I I I I I L L I U U U / F / Y ( U Y Y Y Y Y Y Y Y Y Y ( ( ( / / Y U U U Y U U U g                     7 ( ( ( ( ) ) ) ) ) ) ) ) ) ) ) ) _ ) ) ) ) ) ) _ 4._ _ _ _ ) _ _ ) _ _ _ _ _ _ _ _ _ _ _ _ _ _ ) ) ) ) _ _ ) _ _ _ _ _ _ _ _ _ _ 3._ _ _ _ _ _ _ ) _ _ _ _ ) _ _ _ ) ) ) _ _ ) ) ) ) ) ) ) ) ) ) r._ ) _ _ _ _ ) ) ) ) _ _ ) ) ) ) ) ) ) ) ) ) ) ) ) ) ) ) ) ) ( ( ) ) ( ) ( ( ( / / / / / / / / Y U Y / Y Y / U U U U U U U U U U U I I K L U I U U U U I I I I L K K K K L K F K F K K F K K K K K F F g g g g f f f f g f f g g g f g f f f f h s s s s s s I Y ",
"i d L Y 5 s d s s s d f s g s s i s s i s s i i i s d s s s s s s s s d D F K I F F F K K K K F F F F K K F F K F K K K K K K K K K F g g g g D F F F F F g g F F F F F K L I L L L I U U U / F / ( ( ( ( Y Y Y Y U Y Y Y Y ( Y ( ( / / Y U U U U U U I K ( ) ) ( ( ( ( 3.I L ( ( ( ( ( ) ) ) ) ) ) ) ) ) ) ) ) _ _ ) ) ) ) _ _ _ _ _ _ _ _ ) _ _ _ _ _ ) ) _ _ _ _ _ _ _ ) ) ) ) _ _ _ _ _ _ _ _ _ _ _ _ _ _ _ _ _ _ _ _ _ _ _ _ _ _ _ _ _ _ _ _ _ _ _ _ _ ) ) ) ) ) ) ) ) ) ( ) ) _ _ ) ) ) ) ) ) _ _ ) ) ) ) ) ) ( ( ) ) ) ) ) ) ) ) ) ) ) ) ) ) ) ( ( ( ( ( ( / / / / / / / / / / / / Y U Y / / / U Y U U U U U I F d U U / / ( ( U Y U U I U I I I I I L L L K L L L K L L L K F F F g g f f g g g f f f g g f f f f d h s s s s s i g ( Y ",
"6 d g ) g 6 f d s s f f f f f f d g g g g D g D g D F D g g g D F D F F F K L I L K F K F K K F F F K K K K K F F F K K K K K K K K K F g d g F g f g d d d d d d f g Y F D U U L I U Y Y Y ( F ( ( / / / / / Y Y U Y Y Y Y ( ( ( Y ( Y U U Y U U U I Y 4.4.3.3._ _ _ _ _ ) ( ( ( ( ( ) ) ) ) ) ) ) ) ) ) ) ) ) ) ) ) ) ) ) _ _ ) _ _ _ _ _ ) ) ) _ _ _ _ _ _ _ _ _ _ _ _ _ _ ) _ _ _ _ _ _ _ _ _ _ _ _ _ _ _ _ _ _ 4.4._ _ ) _ _ _ _ _ _ _ _ _ _ _ _ _ _ ) _ _ ) ) ) ) ) ) ) _ _ ) _ ) ) ) ) ) ) ) _ ) ) ) ) ) ) ) ) ) ) ) ) ) ) ) ) ) ) ) ) ) ) ) ) ( ) ) ) ) ) ( / / / / / / / ( ( ( ( ( ( / / U / / Y Y Y U U U U I H I I Y Y Y I I L I K K K K K K K K F F F F F F F F F F F F F F F g g g g f g g g g g g g g f f f s s s s s s s i F Y g ",
"d i D ( ) 5 d d d d d f f g g g g g g g g g g g F F F F F D F F F F F F F K K K K K K K K F F F F K K K K K F F K K K F K K K K L L ) ) U L U ( Y Y / U / / / / / / Y t.) H U U U U Y / / / ( F Y Y ( / / / / / U U Y Y Y Y / / / Y Y Y Y U U U U I U F .                   6 ) ( ( ( ) ) ) ) _ ) _ ) ) ) ) ) ) ) ) ) ) ) _ _ _ _ _ ) _ _ _ ) ) _ _ _ _ _ _ _ _ _ _ _ _ _ _ ) _ ) ) _ _ _ _ _ _ _ _ _ _ _ _ _ _ _ _ _ _ _ _ _ _ _ _ _ _ _ _ _ _ _ _ _ _ _ _ _ _ _ _ _ _ ) _ _ ) _ _ _ ) ) ) ) ) ) ) ) ) ) ) ) ) ) ) ) ) ) ) ) ) ) ) ) ) ) ) ) ( ( ) ( ) ) ) ) ) ) / / / / ( / / / ( ( ( ( Y h I / Y / / / / / U U / U U g 5 + + + X . . . X .   . . X X X . X . . X . . X . X O O + % 3 s g g g g g g g f g g g g g g g f d s s s s s i s K F i ",
"D w g F w.g 6 d d d d f f g g g g g g g f g g g F F F F F F F F F F F K F K K K K K K K K K F F K K F K K K K K K K K K K K K K L L L L U U I F F F F F K K K I I U I d D H L U U Y / / / / ( F U ( / / / / / / Y Y / / Y Y ( / / / Y U U U U U U I U F - d g g g g g g g s s ( ( ) ) ) ) ) ) ) _ _ _ _ _ ) ) ) ) ) ) ) ) _ _ _ _ _ ) _ ) _ ) ) _ _ _ _ _ _ _ _ _ _ _ _ _ _ _ ) ) _ _ _ _ _ _ _ _ _ _ _ _ _ _ _ _ _ _ _ _ _ _ _ _ _ _ _ _ _ _ _ _ _ _ ) _ _ _ _ _ _ _ _ _ _ _ _ _ _ _ _ _ ) ) ) ) ) ) ) ) ) ) ) ) ) ) ) ) ) ) ) ) ) ) ) ) ) ) ) ) ) ( ( ( ) ) ) ) / / / / ( / ( ( ( ) ( ) U 6 I U / / / / / / Y Y / Y F d d i 5 7 7 7 7 7 7 5 5 7 7 7 7 5 5 5 5 7 5 5 7 7 7 7 7 3 3 7 5 3 s g g g g g g g g g g g g f f f i i s s s s 6 f K d 5 ",
"F d d D ) ) 3 d d g g F 7 * 7 7 7 5 5 6 i s g F F F F g g g F F F F F K K K K K K K K K K K F K K K K K K K K K K K K K K K K L I L I U U Y s 5 5 5 5 5 5 5 6 i w 6 6 w H U U U Y Y / / ( ( ) F U ( / / Y / ( ( Y Y / / Y / ( / / / / Y U U I U U U I U U ( ( ( Y ( ( ( ( Y ( ( ( ) ) ) ) ) ) _ _ ) _ _ _ ) ) ) ) ) ) _ ) _ _ _ _ _ _ _ _ _ _ _ _ _ _ _ _ _ _ _ _ _ _ _ _ _ _ _ ) _ _ _ _ _ _ _ _ _ _ _ _ 3._ _ _ _ _ _ _ _ _ _ _ _ _ _ _ _ _ _ _ _ _ _ ) _ _ _ _ _ ) ) _ _ _ _ _ _ _ _ _ _ ) ) _ _ ) ) ) ) ) ) ) ) ) ) ) ) ) ) ) ) ) _ _ ) ) ) ) ) ) ( Y ) ) ) ) ( / ( / / / ( ( ( ( ) ( ( ( ( U / / Y Y Y / / / / / w.q.K g d d d s i s d d f f f g g F F F g g g F g g g g g d d d ) q.D F F g g g f f f f d f d s i i i s s s s 6 i g g i 3 ",
"F g i D I w.w i f f g F f g g g g g g g g D F F F F F g F F F F F F F F K K K K K K K K K K K K K K K L K K K K K K K K K K K I I I I U U U I F K L L L L I I Y Y Y Y Y / / / / / Y / ( / / ) F U U U I Y ( ( ( / / Y Y Y Y ( / I d s F U U U U / U I I I g f h h g g g g g U ) ) ) ) ) ) _ _ _ _ ) _ _ _ ) ) ) _ _ ) ) _ _ _ _ _ _ _ _ _ _ _ _ _ _ _ _ _ _ _ _ _ _ _ _ _ _ _ _ _ _ _ _ _ 4.4._ _ _ _ _ _ 3._ _ _ _ _ _ _ _ _ _ _ _ _ _ _ _ _ _ _ _ _ _ _ _ _ _ _ _ _ _ _ _ _ _ _ _ ) _ _ _ _ ) ) ) ) ) ) ) ) ) ) ) ) ) ) ) ) ) ) ) ) ) ) ) ) ( ) ) ) ) ) ) ) ) ) ( ( ( ( ( ( ( ( ( ( ( ( U U U / / / / Y Y Y Y / / ( ) r.r.r.r.r.r.y.t.t.r.r.y.t.t.r.r.r.r.r.w.w.r.r.w.r.r.q.r.q.q.q.q.( D F F g g g f f f f d s s s d f f f h s s 6 d F i 7 * ",
"F D i d F 4.I 5 d d d d g g g g g g f g f g g F F F F F F F F F F F F F K K K K K K K K K K K K K K K L K K K K L K L L K L K I I I I U U U U U U U U U U U ( ( ) ) ) ) ) ( ( ( / / ) / s.v.l.v.f.f.y.t.F Y Y ( / / Y Y Y ( Y U f d k w L U U Y / U Y g                     s _ ) ) ) ) ) _ _ _ _ _ _ _ _ _ ) _ _ _ _ _ _ _ _ _ _ _ _ _ _ _ _ _ _ _ _ _ _ _ _ _ 3._ _ 3._ _ _ _ _ _ _ _ 3.4.3._ _ _ _ _ 4.4.3._ _ _ _ _ _ _ _ _ _ _ _ _ _ 3.3.4.4._ _ _ _ _ _ _ _ _ _ _ _ _ _ _ _ _ _ ) ) ) _ ) ) ) ) ) ) ) ) ) ) ) ) ) _ ) ) ) ) ) ) _ ) ) ) ) ) ) ) ) ) ) _ ) ) ) ( ( ) ( ( ( ( ( ( ( ( Y Y Y / / ( / / ( / / ( ( ( ( / ) _ ) _ ) _ _ _ ) ) ) ) ) ) ) ) ) ( ( ( ( ) ( ( ( / / Y U U F F F F F g g g g f f d s s s s d f f f f s i w F K j - 6 ",
"F F f w F I ) 6 i d d g g f g g g g g g g g F F F F F F F F F F F F F F F K K K K K K K K K I I I I I I I K L L L L s g L L L I U U U U U U U U I I U U U U U ( ( ( ( ( ( ( ) ( ( ( ) / r.r.r.3._ ) ( / f U U / / Y Y Y ( ( ( L F F F d H U U U / U / K s f g g g g g g F K ) _ ) ) ) ) ) _ _ _ _ _ _ _ _ _ _ _ _ _ _ _ _ _ _ _ _ _ _ _ _ _ _ _ _ _ _ _ _ _ _ 3.3._ _ 3._ _ _ _ _ _ _ _ _ _ _ _ _ _ _ _ 3.3.3._ _ _ _ _ _ _ _ _ _ _ _ _ 3.3.3.3._ _ _ _ _ 4._ _ _ _ _ _ _ _ _ _ _ _ _ _ _ _ _ _ ) ) ) ) ) ) ) ) _ _ _ _ _ _ _ _ ) ) ) ) ) ) ) ) _ _ _ ) _ _ _ _ ) ) ) ) ) ) ( ( ( ( ) ( ( ( ( ( ( ( ( ( / / / / / / ( ( ( / U U U U U L U U U U I I I L L L L L L I U I I I K L K K L K K F F F g g g g f f f d s s d s f g g f s 5 d K f 5 7 s ",
"F F F 6 d D ) K 5 g g g g f g f h s s s d F F F F F F F F F F F F F F F F K K K K K K K K K K I I I L I I K L L L K s g L L I I I I I I I U U U U U U U I L Y ( ( ( ( ( ( ( ( ( ( / ( I / q.3._ _ _ / D f / / U Y Y Y Y ( ( ( I D f d d L Y Y U / U U / ) _ r.r.t.t.i.t.t.i.r.) _ _ _ _ ) _ _ _ _ _ _ _ 4._ _ _ _ _ _ _ _ _ _ _ _ _ _ _ _ _ _ _ _ _ _ _ 3._ 3.3.3.3.3.3.3.3._ _ _ _ _ _ _ _ _ _ 3._ _ _ _ 3.3._ _ _ _ _ _ _ _ _ _ 3.3.3.3.q._ _ _ _ _ _ _ 4.4.3.4.3._ _ _ _ _ _ _ _ _ _ _ _ _ _ ) ) ) _ ) ) _ _ _ _ _ _ _ _ _ _ ) _ _ _ ) ) _ ) _ _ _ _ _ ) _ ) ) ) ) ) ) ) ) ( ( ( ) ( ( ) ) ) ) ( ( / / / / / / / / / ( / / / U U U U U U U U U U I I U U I U I U U I I I I I L K K K K F F F F g g g f h s s s s s f f f f g s 6 K K i 3 6 d ",
"F F D s 6 D L w.i d g g g F i . X X X   * F F F F F F F F F F F F F F K K K K K K K K K K I I I I I I I I K K L L I T ( L I I I I L L U U U U U U U U I s 7 g ( ( ( / ( Y U ( ( ( Y / / f K K F F F d d I U U / Y Y Y ( ( ( / F D d d d I / Y U / U U H F d D F F K D L ) ) ) ) ) ) ) ) ) _ _ _ _ _ _ _ _ _ _ _ _ 4._ _ _ _ _ _ _ _ _ _ _ _ _ _ _ _ 3._ 3.3.3.3.3.3.3.3.3.4._ _ _ _ _ _ _ 3._ _ 3._ _ 3.3.q.q._ _ _ q._ 3._ _ 3.3.3.3.3.3.3.3.3._ _ _ _ _ _ 3.3.3.3.3._ _ _ _ _ _ _ _ _ _ _ _ ) _ _ _ _ _ _ ) ) _ _ _ _ _ _ _ _ ) _ _ _ ) ) ) _ _ _ _ _ _ _ ) _ ) ) ) ) ( ( ( ) ) ) ) ) ( I F ( ) ) ) ) ( / / / / / / / ( ( / / / U L f L U / U U U U U U U U U I I I I I I K F K K F F K F F F F F g g 6 6 s 5 3 + * s f f f g 6 s I F 5 3 s d ",
"F D D d 5 d D ) F 6 g g g I q.D L L I U I K F F F F F F F F F F F K K K K K K K K K K I I I I I I U I I I I L L I I L L U U U I I U L U U U U U U U U U F F U / ( ( / ( ( ( ( ( ( ( ( I I h d 3 h g D / Y / / ( ( ( ( ( ( ) F F F g f d I / Y / ( Y U U s . 3 3 % j 3 F _ _ _ _ _ ) ) ) ) ) _ _ _ _ _ _ _ _ _ _ 4._ _ _ _ _ _ _ _ _ _ _ _ _ _ _ _ 3.3.3.4.3.3.3.3.3.3.3.3.3.3._ _ _ _ _ _ 4.4._ 3.3.4.4.4.3.q._ _ _ q.3.3.3.3.3.3.3.r.3.3.3.3.3.3.3._ _ 3.3._ 3.3._ _ _ _ _ _ _ _ _ _ _ _ _ _ _ _ _ _ _ _ _ _ _ _ _ _ _ _ _ _ _ _ _ _ ) ) _ _ _ _ _ _ _ _ _ _ _ ) ) ) ) ) ) ( ( ) ) ) ) ) ) K ) ) ) ( ( ( ( ( / / / / / / / / / / ( d - i Y Y Y U U U U U U U U U I I L L K F F F K g F K K F F F F F F F F F F g d T I g g g d w K U g 7 w d d ",
"g g f d 6 5 D I ( 7 f F F D U U F F F L K F F F F F F F F F F F F F K K K K K K L L I I I I I U I U U I I I I I I U U U U U U U I U U U U U U U U U U U / ) ) / ( ( ( ( ( ( ( ( ( Y ( Y ( / ) I r.r._ ) ( ( ) ( ( ( ( ) ) ) L / U U / D U ) ( ( ( ( ( ( I s 5 s f F Y ) _ _ _ ) ) ) ) ) _ _ _ _ _ _ _ _ _ _ _ _ _ _ _ _ _ _ _ _ _ _ _ 3.3.3._ _ _ 3.3._ 4.4.3.3.3.3.3.3.3.3.3._ _ _ 3.3.4._ _ 3.3.3.4.3.3.3.3.3.3.3.3.3.3.3.3.3.3.3.3.3.3.3.q.q.3.3.3.3.q.3.3.3.4.3.3._ _ _ 3.3.3._ _ _ 4._ 3._ 4.4._ _ _ _ _ _ _ _ _ _ _ _ _ _ ) _ _ _ _ _ _ _ _ _ _ _ _ _ _ _ _ ) ) ) ) ) ) ) ) ) ) ) ) ) _ ) ) ) ) ( ( ( ( ( ( / / / / / / / ( ( ) ) U / Y Y U U U U U U U I I I I I L L L K L I F F K K F F F F F F F F F F F K I F F g g s g Y U s 7 d f f ",
"g g d d s 7 g F ) d i F F F D D D F F F F F F F F F F F F F F F K K K K K K K K I I I I I I I I U U U U I I I I I U U U U U I Y I U U U U U U U U / / / U U U ( ( ( ( ( ( ( ( / ( ( ( I ( / / F U ( ) ) ) ) ) ) ) ( ) ) ) ) H / / U / F Y ) ) ( ( ( ( ) 3.3._ _ _ ) _ _ _ _ _ ) _ ) ) _ _ _ _ _ _ _ _ _ _ _ _ _ _ _ _ _ _ _ _ _ _ _ 4.3.q.3._ _ _ q.q.q.4.4.3.3.q.3.3.q.q.3.3.3.3.3.3.3.3.3.3.3.3.4.3.3.3.3.3.3.3.3.3.q.q.q.3.3.3.3.3.q.q.q.q.q.3.3.q.q.q.q.3.3.3.3.3.3.3.3.3.3.q.3._ _ _ _ 3.4.4._ _ _ _ _ _ _ _ _ _ _ _ _ _ _ ) ) _ _ _ _ _ _ _ _ _ _ _ _ _ _ _ _ _ _ ) ) ) ) ) ) ) ) ) ( ( ) ) ) ) ( ( ( ( ( ( ( ( ( ( ( ( ( ( ( ( ( / / / Y Y U U U U U U I I I I U L I L L L L L L K K F F F F F F F F F F F F F F F g g i K ( F 5 6 f f f ",
"g d d d d 6 w D Y ( 5 F F F F F F F F F F F F F F F F F F F F F F K K K K K K L I I I I I U I I I I I U I I I I I U U U U U U U U U U U U U U U U / / / Y / / ( ( ( ( ( ( ( ( / / ( Y F ( ) ) I ( ) ) ) ) ) ) ) ) ) ) ) / H F U L U U F / _ ( ) ) ) ) ) _ _ _ ) ) ) ) ) _ _ _ ) ) ) _ _ _ _ _ _ _ _ _ _ _ _ _ _ _ _ _ _ _ _ _ _ _ _ 4.3.3.3._ _ _ 3.q.q.3.3.3.q.q.q.3.3.3.q.3.3.3.3.3.3.3.3.3.3.3.3.3.3.3.3.3.3.3.q.q.q.q.q.q.q.q.q.q.q.q.q.r.r.r.q.q.r.q.q.3.3.3.3.3.3.3.3.3.3.3.q.3._ _ _ 3.3.4._ _ _ _ _ _ _ _ _ _ _ _ _ _ _ _ _ _ _ _ _ _ _ _ _ _ _ _ _ _ _ _ _ _ _ _ _ ) ) ) 4._ ) ) ( ( ) ) ) ) ) ( ( ( ( ( ( ( ( ( ( ( ( ( ( ( / / / / / Y U U U / U I I I U I I I I U U L L L L L L F F F F F F F F F F F F F F F F s d I ( g 7 s f f f ",
"d d d s d s 3 d D ) d d F F F F F F F F F F F F F F F F F F F K K K K K K K K L U U U U U U U I U U U L I U U U U U U U U U U U U U U U U U U U / / Y / U / / ( ( ( ( ( ( ) / / / ( ( ( ) ( ) I ( ) ) ) ) ) ) ) ) ) ) Y I L F U U L H H ) _ / ) ( Y ) ) _ _ _ ) ) _ ) _ _ _ ) ) _ ) ) _ _ _ _ _ _ _ _ _ _ _ _ _ _ _ _ _ _ _ _ 3.3.3.3._ _ _ 4._ _ 3.3.4.3.3.3.q.3.3.3.3.3.3._ 3._ 3.3.3.3.3.3.3.3.3.3.3.4.q.3.q.3.3.q.q.q.q.q.q.q.q.q.q.q.q.q.r.r.q.r.r.q.3.3.3.3.6.r.r.3.3.3.3.3.3.3.3.3._ 4.3.3.4.3._ _ _ _ _ _ _ _ _ _ _ _ _ _ _ _ _ _ _ _ _ _ _ _ _ _ _ _ _ _ _ _ _ _ _ _ _ _ _ _ ) ( ( ( ) ) ) ( ( ( ( ( ( ( / ( ( ( / / / ( ( ( Y / Y Y / / / / / U U U U U L L L U I U U I I K L L L K F F F F F F F F F F F F F F g i F I F w 5 d d f f ",
"d d d s d d 5 5 D U Y i F F F F F F F F K K F K F F F F F F F K K K K K K K L L U U U U U U U U U U U U U U U U U / U U U U U U U U U U U U U U U U Y Y Y / ( ( ( ( ( ( ) ( / / / / / ( ( ( ) I ) ) ) ) ) ) ) ) ) ) Y F I H F U / U U ) _ _ _ _ ) ) _ _ ) _ _ _ _ _ _ _ _ _ ) ) ) ) ) _ _ _ _ _ _ _ _ _ _ _ _ _ _ _ _ _ _ _ 4.3.3.3.3._ 3.4.4._ 3.4.3.3.3.3.3.q.3.3.3.3._ _ _ 3.3.3.3.3._ 3.3.3.3.3.3.3.3.3.3.3.3.3.q.q.q.q.q.q.r.r.r.q.q.r.r.r.r.r.r.6.q.q.3.3.q.r.q.q.q.3.3.3.3.3.3.4.4.4.3.3.3.3.3.3.3._ 4.3.4.4._ 4.4._ _ _ _ _ _ _ _ _ _ _ _ _ _ _ 4._ _ 4._ _ _ _ _ _ _ _ _ ) ) / / / / / ) ) ) ( ( ( ( ( ( ( ( ( ( / / / / ( / Y U U U Y U U / U U U U U L U L L I I U U I L K L K K K F F F F F F F F F F F F F F d d I ( D 7 i d s f f ",
"d s s s d d i 3 d F ( s f F F F F F F K K K K K K K F F K K K K K K K K L K L I U U U U I I U U U U U U U U U U U / U U U U U U U U U U U U U U U / Y Y Y Y Y ( ( / ( ( ( ( ( / ( / ( ( ( ( ) I ) ) ) ) ) ) _ _ _ _ ( ( ) Y U U L I U _ _ _ _ _ _ _ ) ) ) _ _ _ _ ) _ _ _ ) ) ) ) ) ) ) _ _ _ _ ) _ _ _ _ _ _ _ _ _ _ _ _ 4.3.3.3.3.3.3.3.3.4.4.4.3.3.3.3.3.3.3.3.3.q.3.3._ _ 3.3.3.3.3.3.3.3.3.3.3.3.q.3.q.q.3.3.q.q.q.r.r.r.r.r.r.r.r.r.r.r.r.r.r.r.r.q.r.r.r.q.q.r.r.q.q.q.q.q.3.q.3.4.3.4.4.4.q.q.3.3.4.4.4.3.3.3.3.4.3._ _ _ _ _ _ _ _ _ 4._ _ _ _ _ 4._ _ _ 4._ _ _ _ _ _ ) _ _ _ ) ) ) ) ) ) ( ( ( ( ( ( ( ( ( ( / / ( / / / / / / U / / / U U U U U U U U U L I I I I I I K K K K K K F F F F F F F F F g F F F F s g U ( i 5 s s s f f ",
"f s s s s s d 7 6 g ( Y w F F F g F K K K K K K K K F F K K K K K K K K K K K I U U U U I I I U U U U U U U U Y Y U U U U U U U U U U U U U U U Y ( Y / / / ( ( ( / ( ( ) ) ( ( ( ( ( ( ) ) ) I ) _ ) 4._ _ _ _ _ ) _ 4._ _ _ ) ) _ / ) _ _ _ _ ) ) ) ) ) ) _ _ _ _ _ _ ) ) ) ) ) ) ) ) _ _ _ _ ) _ _ _ _ _ _ _ _ _ _ _ _ _ 3.3.3.3.3._ 3._ _ 4.3._ _ 3.3.3.q.3.3.3.3.3._ _ _ 3.3.3.3.3.4.4.4.4.3.q.q.q.3.q.3.3.3.q.q.r.r.r.r.r.r.r.r.r.r.r.r.r.r.r.r.r.r.r.r.r.q.q.q.q.r.r.r.r.r.r.q.q.q.q.q.3.q.q.q.q.w.q.3.q.q.r.q.q.q.3._ _ _ _ _ _ _ 4.3.3.4._ _ _ _ 4.3.4.4.4._ _ _ 4._ _ ) _ _ _ _ ) ) ) ) ( / ( / ( ( ( ( ( ( ( / / Y / Y Y U U Y / / / / U U U U U U I U L I I L L I I L K F F K K K F F F F F F F F g 6 g F F g s K U F 5 6 i s s h s ",
"g d s s s s d i 3 g I ) i g L F g K K I I I I I I K F K K I K K K I L I L K K I I I U U U U I U I I U U Y U U Y / / U U Y Y U U I U I U U U Y U Y / ( / / / ( ( ( ( ( ( ) ) ( ) ( ( ( ) ) ) _ U ) _ _ ) _ _ _ _ 4._ 3.q._ ) q.q.) 3._ ) _ _ _ _ ) ) ) ) ) ) ) ) _ ) ) ) ) ) ) ) ) ) ) ) _ _ _ _ _ _ _ _ _ _ _ _ _ _ _ _ _ _ 3._ _ 3._ _ _ _ _ _ 3.3.3.3.3.3._ _ 3.3._ _ _ _ _ _ _ _ 3.3._ _ _ 3.3.3.3.3.q.3.3.3.3.3.r.r.r.r.r.r.r.r.r.r.r.r.r.r.r.r.r.r.r.r.r.r.r.3.q.r.r.3.q.3.q.q.3.3.4.4.4.4.4.q.w.w.q.q.4.q.q.3.3.4._ _ _ _ _ _ _ 3.3.3.3.4._ 4.4.4.4._ _ _ _ _ ) ) ) ) _ _ _ _ ) _ _ ) ) ) _ / / / / ( ( ( ( ( ( ( ( / U U Y Y Y U U U / Y Y Y / U U U U I U U I I I I U U I L L L I L L K K K K K K K F f g K F F s F Y 4.d 5 i i s s s s ",
"g d s s d d d f 7 i K ( g i I I I K g F g g g g g f d g g F g s d s g D g F L I U U U U U U L L I U U U U U U Y / / U U U U U U U U U U U U U U U ( ( ( ( / / / ( ( ( ( ( ( ( ( ( ) ) ) ) _ 3.I ) _ ) ) _ _ _ _ 4.3.q.q.q.4.4._ ) 3._ _ ) ) ) ) ) ) ) ( ) ) ) ) ) ) ) ) ) ) ( ) ( ( ( ( ) ) ) ) ) ) _ _ _ _ ) ) ) _ ) _ ) _ _ _ _ _ _ _ _ _ _ _ _ _ _ _ 4._ _ 3._ _ _ _ _ _ _ _ _ _ _ _ _ _ _ _ _ _ _ _ _ _ _ 3._ 3.q.r.r.r.r.r.r.r.r.r.r.r.r.r.r.r.r.r.r.r.r.r.r.q.r.r.t.p.i.p.i.i.p.y.i.t.t.t.t.t.r.y.t.r.t.r.i.l.j.j.l.r._ q.q.4._ _ 4.4.4.3.3.3.4.4.q.t.t.t.t.r.r._ r.r._ _ _ _ _ _ _ _ _ ) ) / / / ( ) ( ( ( / / ( / / Y U U Y U U / U U U U U U U U U U U U F F I F g g g f d d d d d d s s d d d s g F F K F g f d L / U w 6 s s s s s s ",
"d f s d d d d f s 6 K I ) i I I I I I f s i s i i i i s s d s i 6 3 + % % 6 L L I U I L L L L L L L U U U U U U U Y U U U L U U U U U U U U U U U U Y ( ( ( ( / ( ( ( ( ( ( ( ( ) ) ) 4._ 4.3.I ) _ ) _ _ _ _ _ _ 3.3.4._ _ 4.q.4.q.4.4._ 4._ _ ) ) ) ) _ _ _ ) ) ) _ ) ) ) ) ) ) ) ) ) ) ) ) _ ) _ _ 3._ 3.4._ _ _ _ _ _ _ 3.3.3._ _ _ q.q.q.q.q.r.r.q.q.3.q.q.q.3.4.4.4.3.3._ 4.3.q.q.3.3.4.q.q.q.q.q.q.q.q.q.q.w.r.r.r.r.r.r.r.r.r.r.r.r.r.r.r.r.r.r.r.r.r.r.r.r.r.r.r.i.i.i.r.r.r.r.r.3.3._ _ ) ) _ _ ) ) I q.l.j.l.l.U - 7 -   g w.I ( ( ( ( ( ( ( p.s.l.l.l.y.- % w.p.q.( U / Y Y / ( q.( / / ( ) ) ) ) ( ( / / / / / / U U U U / U / U U U U U U U U U U L F D d 3 - s d w i i i w w i w 6 i i s 5 g K F g F g i D U ) D 5 i i s s d d d ",
"f f s s g d f g g 6 g L ) F F I I U F w ) ) / U Y U U ( ) _ _ / ( ( d Y _ g F I U I I I L L L L L U U U U Y ( ( ( F L U U U U U U U U U U U U U I F Y / ( ( ( ( ( ( ( ) ) ) ) ) ) ) ) K I 4.3.I ) _ _ ( ) _ _ q.q.q.q.3.3.4.( g d i i w w 6 6 w w w w w i i s s i i w w w w w i i i 6 i i i w w 6 6 i i s d f h s d d f g g g g g D F F F F F F F I I K F F F g g g d d d d d d f d f g g i i s i d d d d d f f d d g g U t.t.t.t.r.r.r.r.r.r.r.r.r.r.r.r.r.r.r.r.r.r.r.r.6.6.r.r.q.q.r.r.r.r.q.q.q.3.3.3.3.q.i.p.t.r.t.i.p.l.l.l.l.c.p._ r.r.q.q.3.3.3.t.y.t.t.t.r.) w.r.q.r.r.r.r.r.r.r.q.q._ _ ) ( ) ) ) ) ) ( ( / / / / / / / / / / / / / / Y / / / / / U Y ( / U L ( I r.p.r.q._ _ ) ) ( / / / / / / w.Y F K K g f I ( ( d d s s s s d d d ",
"d f 5 3 g g g g g s i L U U s K g w 3   g I D d h d d d D K F g D D w d D i 6 6 d g g g f f f f g F F F F F K K I F D U U U U U U U U U U U U U U F U U Y ( ( ( ( ( ) ) ) ) ) ) ) ) _ Y T I ) K ( _ ( 7 j ) _ F ) q.q.4.3.( D l.l.l.l.c.c.v.l.l.l.l.l.l.l.l.l.s.l.v.v.v.l.s.s.p.y.y.l.p.s.i.p.l.l.l.l.l.l.p.p.p.s.l.p.t.r.r.r.i.r._ ( _ _ #.r.6._ _ r.r.r.a.r._ _ r.y.p.p.p.s.p.p.i.a.p.g.Y.c.c.c.c.v.v.v.v.v.l.l.l.p.s.d I y.r.t.i.r.r.r.r.r.r.r.r.r.r.r.r.r.r.r.r.r.r.r.r.r.r.r.r.r.r.r.r.r.r.r.r.r.r.r.t.t.r.r.r.r.3.3.r.r.i.i.i.r.) _ _ _ ) ) ) ( ( / U U I L L ) _ / / U F ( ( ( ( ( ( ( ) ) ( ) ) ) ) ) ( ( ( / Y U U g g D F F F D D g g D D g g g D D D g f f g g F K Y Y I I K F F F F F F F F L s 6 s d f i F / s.( f F g s s d d d d ",
"d f s % g D g g g F 5 ) p.( F ) ) s i 5 X               + @ @ * * - % + + * 3 * - 3 7 5 7 3 3 7 5 w w 6 6 6 i s s w F K L I I I I I U I I I I U Y Y U I U U Y ( / ( ( ) ) ) ) ) ( ) _ r.r._ _ D ( ) ) ( / _ _ F ) r.q.4.3.d _ l.p.p.p.p.p.p.p.p.p.p.p.p.p.p.p.i.p.p.s.s.p.p.t.4.( L p._.i.r._ u.i.r.r.6.3.3._ 4.i.r._ ( 6.r.r.( K d p d f F F U F D D L ` / ` _ S ` _ _ _ 3.q.3.3./ ' #.OXk.g.j.l.j.p.p.p.p.s.l.p.p.r.y.p.p _ i.r.i.r.r.r.r.r.r.r.r.r.r.r.r.r.q.q.r.q.r.r.r.r.r.r.r.r.r.r.r.r.r.r.r.r.r.r.r.r.r.r.r.r.q.r.r.r.r.r.r.3.3._ 3.) ) _ ( ) ) ( ) ) Y / U U / / ) U F _ ) ) ) ) ) ) ) ) ) ) ) ) ) ( ( ( Y I I I i + O 3 6 6 6 6 6 7 3 7 7 7 3 3 3 7 3 7 3 3 3 - % + . O . . . X O .       $ 5 6 6 j 7 g Y d F ( r.F g F F d d d d d d ",
"D g g 6 D D g D g F g ( r._ U g H H i 6 - 6 9.` S t % 3 6 w s d d f s d d s s s i s i f s i i i i g I H U U / ( U w d F K K I U I U Y I I Y I Y Y ( Y U Y Y / ( ( ( ) ) ) ) ) ) ) ) _ _ _ _ 3.D ( _ _ _ _ 3.r.r.r.q.q.r.F F i._ ) _ _ _ _ _ _ _ 4._ 4.4.3.3.3.4.q.q.q.4.q.4.) F i   i l.D D D D g D D D g D L - w D D H ( L   _.dXdXdX7X>XeXeXdXeX>X>XdXdXdX_., t t H ) ( ( ( I ) F $ / ^.D H H ( 4._ 4.4.q.4._ ) ) Y / r.p.d r.i.r.r.r.r.r.r.r.r.r.r.r.q.q.q.q.q.r._ r.r.q.q.q.r.r.r.r.r.r.r.r.r.r.r.r.r.r.r.r.r.r.r.r.q.r.r.r.r.r.r.r.r.q._ _ 3._ _ 4.) _ _ ) ) ( ( ) ) _ _ _ _ _ _ _ ) _ _ _ ) ) ) ) ) ) ) ) ( I Y / F w f w F / / / ( / F i d g g d f d g g f d d d d d s s s i i 6 6 6 g D d ) F 6 s i K U i g F / r.q.w F K F D f f d f d ",
"F F D g D D D g 7 6 F p / ( / d p w 6 3 5 D W.#.q t < 3 7 6 w i i i i i i w w 6 6 6 6 6 6 6 6 6 5 6 D F U U / 4.d 6 w g F F K K K K K K K K K K K K K K L I I U U Y Y Y Y Y / Y ( ) _ _ 4.3.r.F ( _ _ 3.3.3.q.r.q.q.r.U w r.3._ 3.q.q.q.q.q.q.q.q.q.w.w.w.r.r.w.r.r.r.r.) g g s + X     1 p 6 +   3 d f 6 . X   $ p w i L K   !.dXdXdXdXdXkXkXkXkXdXdXkXkXkX>X  5 @ 7 d 6 5 -   5 7 + y     + + 7 I U Y / / U _ r.r._ _ 3.l.i.d y.i.a.r.r.r.r.r.w.r.r.r.q.q.q.q.q.r.3.q.q.q.q.r.r.r.r.r.r.r.r.r.r.r.r.r.r.r.r.r.r.r.q.q.q.r.r.r.r.r.) ) ) ) ) ) ) ( ( / ( ( / / U U I U U U Y Y Y Y ( ( ( ( ( Y Y Y Y Y I I I I K F K F s D d w F I U / / ( g 5 6 6 6 6 w 6 6 i i i s i i i i i i i w 6 5 s d d p 4.D 5 i i 6 I g i ( _ p.I d i 6 F F g g f f f ",
"F g g g g D D D s g g g H r./ H 5 3 * - * @ +     o % * * 3 7 5 7 5 5 5 5 7 7 3 3 7 3 3 3 3 3 3 - O w._ / / ) K $ < % + % % % @ O O O O @ @ $ @ @ O O .       3 < 3 3 3 3 3 3 3 3 7 6 i s d g w F K I Y ( ( ) ) ( ( I 0 y.r.) _ r.r._ ) _ 3.3.q.q.q.q.q.w.r.r.q.q.r.r.t.) h w.s +   s (.X * D g 6 - f d 5 X     I 7           # #.7.7.h.h.h.h.U.U.W.W.W.W.@XU.  O   3 F D D d 6 g 7   S S   - @ 6 f D D F F g F 4.r.r.q.r.a.c.q.F r.3.3.3.3.3._ 4.4.4._ _ _ _ ) ) _ _ _ ) ) _ _ _ _ _ _ 4.4.3.q.3.q.4._ _ _ ) _ _ ) ) ) ) _ 4.q.) 6 5 d w w w w i w w w 5 5 w w w 5 5 6 w 5 5 4 5 5 4 1 % $ O . O O . . . O . . O O . O > 5 5 3 I q.w.) ( ( d 3 6 5 6 6 6 6 6 6 6 6 i w i i i j i 6 6 6 5 %         . * 5 6 5 6 w I r.t.t.d I I h F F D g f d d ",
"D D g g g g D F F g F F F x._ d +   . X + O X + X % 5 5 6 6 s s s s s s s i i i 6 i w i i i i i 6 i s g F U q.Y f f d g F K Y Y Y Y Y Y Y Y Y I Y ) _ 3.q.y.w.3 d s s w w 6 6 6 s 6 O 5 F F K F 3 < 5 6 s F g g D F D l.l.) 3.4.I r.r.r.3.3.3.3.q.q.r.r.r.r.r.r.r.r.r.r.r.t.p.t._ U 4.(.) ) r.q._ Y ) ( F w 3 5 i.K @ 3 d U ( g                               % %   F r.r.r.r.r.v.v.F ` u.r._ U H U U L L I I I / q.t.q.I a.p.^._ K Y Y Y Y Y I I I I K F F I I I U I U I I I I I I I I I I I Y Y I I K I I I I I I I I F F I g F r.n.`.^.Q.Y.^./././././.(.(.(.(.(.(.(._.'._.(./.Y.^.l.1 g F F K K d d f f g g g g F F F F g g g I ) r.4.K ( w 6 s s s s s s s s d d d d d d d d h s s s 6 @ @ % * - * - 3 - 3 3 s / ^.w.i K I I F D g g f d d ",
"D g g g g g g F F F F I f Y d % + . & % % @ % % < 3 5 5 j i i i i 6 i w 6 6 5 7 5 6 6 i i i i i s g i F I F L q.w.q.r.y.p.p.l.l.l.l.v.v.l.v.l.p.p.l.l.x.c.Y.Q.F < < < O O $ > 1 5 @     s g g I ( Y Y F l.^.Y.c.c.c.c.c.r.y.t.r.) r.r.r.6.3.q.q.r.r.r.r.r.r.r.r.r.r.r.r.r.r.r.r.i.t.r./ _ q.3.3.r.r.r.t.r.4.) _ 3.r.3.3./ _ r.r.( g g g F h s g F g F q._ Y D D F F / _ _ _ 3.6.p.p._ r.g.c.i./ U / / U U U / / U _ r.r.Y / g.g.c.^./.(.(.(.(.(./.^.^.Y.Y.Y.^.^.^./././.^.^.^.^.^.^.^.^./././././.Y.c.c.Y.^./././.^.^.^.^.Y.c.l.c.v.r.i.p.i.i.p.p.p.p.g.g.g.g.g.g.g.g.g.g.g.r.r.r.t.p.p./.n.c.c.n.c.c.v.v.v.v.l.l.l.l.l.l.l.l.l.y.H r.) I i d 3 O * % % > < * * < < 3 3 < < < 3 7 7 7 7 5 6 6 i w 6 3 7 7 3 % O % % & g s g g g g g g g g f f f ",
"g g g g g g F F F F F F 3   % d t s ( ( ( 4.r.y.y.y.p.p.s.l.l.s.l.l.l.l.s.l.l.p.p.p.s.l.l.s.s.s.l.v.s.4.) I ( ( U L Y Y ( ( ) ) ) ) ) _ _ _ _ ) U ) 3.r.r.t.j.c.l.l.s.s.p.p.p.g.l.l.l.g.i.r.q.t.p.i.r.r.r.6.r.q._ 3.r.r.r.i.y.y.r.r.r.r.q.3.r.r.q.r.r.r.r.r.r.r.r.r.r.r.r.r.r.i.t.( 3.r.q.r.r.r.r.r.r.r.q.4.q._ _ 6.r.6./ _ _ r.r.r.3.q.q.) ( / ) _ 3.3.r.r.r.r.r.r.r.r.r.r.r.3.r.#.) g.p.( F U / / / / U / / / / / 3.r.r.s r.j.i.i.i.p.p.p.i.i.r.r.r.3./ r.t.t.t.p.p.p.i.i.i.i.p.i.i.i.i.i.i.i.i.r.r.r.r.r.r.r.r.r.r.r.r._ _ _ _ 3.3.r.t.r.t.i.r.r.i.i.i.i.i.a.r.r.i.i.i.r.H U q.3.w.r.y.r.4.4.) ) ) ( ) ) ) ) ( ( ( ) ) ) ( ( I I ) r.t.y.q.q.p.s.p.p.p.p.p.s.p.p.p.p.s.s.p.p.y.y.y.y.y.y.p.s.s.y.q.) w.t.s.Y % 6 7 . + j f g g g g g g f g f ",
"g g g g g F F F F F F 5 % 6 7 7 6 d F F I _ _ r.q.q.w.w.r.r.r.r.t.y.t.r.r.r.r.r.r.r.r.r.t.t.t.y.p.s.4.I L K ) q.) ( ) ) 4.4.4.4.4._ q.q.q.r.q.q.q.r.r.r.p.c.c.Y././.Q.Q.Y.Y.Y.Y.Y.Y.Y.Y.z.v.v.l.v.v.g.g.r.r.r.r.q.r.t.i.r.t.y.t.r.q.r.r.r.q.r.r.r.r.r.r.r.r.r.r.r.r.t.r.r.r.r.y.t.r.t.r.r.r.r.r.r.y.r.r.( _ r.r.r.r.r._ ) r.r.r.r.r.4._ _ ) ) _ _ _ 3.q.w.r.r.r.r.r.r.i.i.i.r.r.r.r.r.r.q.F L U U U L L U U U / / / / r.g.r.6 i.j.p.p.p.s.s.p.i.y.r.i.i.q.r.i.p.p.p.p.p.p.i.p.p.p.p.p.p.p.p.i.i.i.y.t.y.y.t.t.y.t.t.r.r.r.r.q.r.r.r.r.r.t.t.i.i.i.i.i.i.i.i.i.t.t.r.i.i.r.i.r.r.r.4.q.r.r.q._ r.q.q.4.4.4.4.4._ _ 4._ 4.4.4._ ) ) Y U / U ) ) ( 3.r.r.r.r.r.r.t.r.r.r.r.i.t.i.t.t.r.r.r.r.r.r._ 4._ ) U U ) _ U 3 6 5 w 7 + s F g g g g g g g g ",
"g g g g g F F F K K 5 % 6 6 w 7 6 g g h 7 s H F F F F F F L L K K K K L L K K L U U U U / ( ) _ g 6 I L U I ( 4._ 4.) ( _ 4.3._ _ 4.3._ _ _ 3.3.q.q.q.r.q.3.3._ ) ) ) ) _ _ _ _ ) / ( ) ) 4._ 3._ 3.q.r.r.r.r.r.r.) _ r.r.t.t.y.t.r.r.r.r.r.r.r.r.r.r.r.r.r.r.q.4.r.r.r.r.r.t.t.r.r.r.r.r.r.r.r.r.r.t.r.t.w.r.r.) r.r.3._ r.r.r.r.) L F I Y F Y r.q.r.r.r.r.r.r.r.r.i.p.i.i.i.i.r.r.r.6.6.) / / / / ( ) ) _ _ _ _ _ _ r.p.l.Y 6 l.g.p.p.p.y.0.0.r.r.r.t.p.y.y.t.y.i.y.i.i.i.i.i.t.p.p.i.i.p.i.i.i.y.y.i.t.t.t.y.t.r.r.r.q.q.q.) q.r.r.t.r.t.t.i.i.t.t.i.r.r.r.t.r.r.r.r.r.r.r.r.r.r.r.r.q.q.q.q.3._ _ _ _ _ _ _ _ _ _ _ 3.( ) ) ) ( _ ) Y F Y f Y Y I I I I L L I I I I L I I U Y I I U U U U I U I U D 7 g L L w 6 w w w 7 % f F g g g g g g g ",
"g g g g D F F K L 6 @ 6 6 w 6 i F g F F j d U U I I I I U K I I I Y Y ( ( Y Y Y ( ( ( ) ) ) _ _ _ ) ) Y ( I ) 4._ 4._ ) 4._ 4.4._ _ _ _ _ _ _ 3.3.q.r.r.r.r.0.q.r.r.r.r.r.r.r.r.r.r.r.r.r.r.r.r.r.r.r.r.r.r.r.r.r.g Y r.r.r.t.w.( i r.r.r.r.r.r.r.r.r.r.r.r.r.(   D i.r.r.t.t.t.r.t.r.t.r.i.r.r.t.t.t.r.r.( w.p.6 ) i.q._ a.r.i.r.g Y _ _ q._ _ r.r.t.t.t.i.i.i.p.p.p.p.p.p.p.p.p.p.p.p.g.p.p.p.p.p.p.p.p.g.g.g.j.j.j.p.i.r.l.D ) l.p.s.p.q.q.r.r.r.r.i.i.p.p.p.p.p.i.p.i.i.i.p.p.p.p.p.i.i.i.i.i.i.i.i.t.r.t.r._ r.r.q.I _ r.Y _ r.r.r.r.t.t.r.t.t.t.t.t.r.r.r.r.r.r.r.r.r.r.r.r.r.r.r.w.4.3.3.3.4._ _ _ _ _ _ _ _ _ _ _ _ q.w.w.) ) 4.3.r.t.4.) ) ) ( ( ( ( ( ( ( ( ( ( ( ( ) ) ) ( ( ( ( Y Y U I U F K I U L K s 6 i w w 7 3 f g g g g g g g ",
"g g g g F F F I i : 6 6 w 6 w F F g F K F H L L I I U U I - g I I U Y ( ( Y Y Y ( ( ( ( ( ) ) ) ) ) ) ( ( K Y Y ( q._ 4.4._ 4.4.4._ _ _ _ _ 4.4.3.3.q.q.q.q._ _ q.q.q.q.r.r.r.q.r.r.r.r.r.r.r.r.r.r.r.r.r.r.r.r.r.r.t.r.r.r.4.d q.) r.r.r.r.r.r.r.r.r.r.q.3.r.r.I ) t.r.r.r.t.t.t.r.r.r.r.t.t.t.t.t.t.t.i.i.i.p.r.t.i.r._ i.i.i.i.y.p.p.p.p.p.p.i.i.i.i.i.i.i.p.p.p.p.p.p.p.p.p.p.p.p.p.p.p.p.p.p.p.p.p.p.p.g.j.j.p.j.l.s.t.p.x.d t.l.p.p.p.p.p.p.y.i.p.p.p.i.p.p.p.p.i.i.i.i.p.p.p.p.p.p.i.i.y.y.i.i.t.t.r.t.( I r.r.4.T i.i.i.y.r.r.r.r.r.r.r.r.r.t.r.r.r.r.r.r.r.r.r.r.r.r.q.) q.q.r.q.q.q.3.q.4.4._ _ _ _ _ _ _ _ _ 4.) ( ) ) Y ) T w.r._ ) ( ) ( ( ( ( Y / Y Y Y U Y Y Y ( Y Y ( U I ( Y Y U U U U I I L K K K i 5 w i i 3 3 g D g g g g g ",
"F g g g g F K s % w 6 6 6 6 F F F K K K F L L L I U U U / I ) Y F ( ( ( ( ( Y Y ( ( ( ) ) ) ( ( ( ( ) U ( F K I ( _ ( ) ) ) _ _ 4.4._ 4._ 4._ _ 4.3.q.3.3.q.q.3.3.q.q.q.q.r.r.r.q.r.r.r.r.r.r.q.r.r.r.r.r.r.r.r.r.r.q.3.q.r.r.r.t.r.r.r.r.r.r.r.r.r.r.r.q.3.q.r.r.r.r.r.r.r.r.r.t.t.r.r.r.r.t.t.y.t.y.t.t.t.t.r.i.i.i.r.3.i.i.i.p.i.p.i.i.i.i.p.i.i.i.p.p.p.p.p.p.p.p.p.g.p.p.p.p.p.p.p.p.g.p.p.g.p.p.p.p.s.j.j.j.g.j.s.p.j.i.Y.v.F p.p.s.p.p.g.s.p.p.p.p.i.i.p.p.p.p.p.i.i.i.p.p.p.p.i.i.i.i.i.t.t.t.t.t.r.r.r.r.r.r.4.Y r.r.r.r.r.r.r.r.r.r.t.r.t.t.t.r.r.r.r.r.r.r.r.r.r.r.r._ r._ r.r.q.q.q.3._ _ _ _ _ _ ) ) ) _ _ ) I ( ( ) L ) ) ( ) _ _ ) / ( ( / / / ( / / Y Y Y Y U / D D ( / Y ( Y Y U U U U I L L L L K F 5 6 s s s % 3 F F g g g g ",
"F F g g g F s * 5 w w w 6 g F g F K K K K L L L U I U U / / U / Y ( ( ( ( ( ( ( ( ( ( ( ) ( ( ( ( ( ) ( ( F I Y _ 4.4._ _ _ _ _ _ _ 4.3.3.3._ _ _ _ 3.3.3.3.3.3.3.q.q.q.q.r.r.r.r.r.r.r.r.r.r.r.r.r.r.r.r.r.r.r.r.r.q.r.r.r.r.r.r.r.r.r.r.w.r.r.r.r.r.r.q.q.3.q.q.r.r.r.r.r.r.r.r.r.r.r.r.t.t.t.y.t.y.r.t.r.t.i.i.t.i.r.3.i.p.p.i.p.p.i.p.p.p.p.p.p.p.p.p.p.p.p.p.g.p.g.g.p.p.g.p.p.p.p.g.g.g.j.g.p.j.p.p.p.j.j.j.l.l.j.p.p.g.i./.p.L l.j.j.g.p.p.s.p.p.p.i.i.i.p.p.p.p.i.i.p.p.p.p.p.p.i.i.y.t.t.t.t.y.t.r.r.r.r.r.r.r.r.r.r.t.r.r.r.r.r.r.r.t.t.t.r.t.r.r.r.r.r.r.r.r.r.r.r.r.r.r.r.r.r.q.q.q.q._ _ 4._ _ _ ) _ ) _ _ _ ) _ _ _ U ) _ _ _ _ ) ) ) ) ( ( / / ( ( / / ( Y Y Y Y ( ( / ( ) ( / Y Y Y U U U I I L L K F g 6 i s d i @ 5 F g g g g ",
"F F D g g s % 6 w w i w g g g f F K K K K I I I U U U U U U U U Y ( ) ( ( ( ( ( ) ) ) ) _ _ _ _ _ _ _ _ _ F ( ) q.q.q.3.3.q.q.q.w.q.q.r.r.r.q.q.q.q.r.q.q.r.q.r.r.r.r.r.r.r.r.r.r.t.r.t.t.t.t.t.r.r.r.r.r.t.t.t.t.r.r.r.r.r.r.t.t.t.t.r.r.t.t.t.t.r.r.r.r.r.r.r.r.r.t.t.t.t.t.t.t.t.y.i.i.i.i.p.i.p.i.i.i.i.p.p.p.p.p.i.r.j.g.p.p.p.j.l.l.l.l.l.l.l.l.j.j.j.l.l.l.l.l.l.l.l.l.l.l.l.l.l.l.l.l.l.l.l.l.l.l.l.l.l.l.l.l.l.l.l.j.j.g.Y.3._ l.l.l.l.l.s.s.s.s.p.s.p.s.s.p.p.p.p.p.p.p.p.p.p.p.p.p.i.i.i.i.i.i.t.r.r.t.t.t.t.t.r.r.t.t.t.t.t.y.y.y.t.t.t.y.y.t.t.t.i.t.t.i.t.r.r.r.r.t.t.i.t.r.r.r.r.r.r.q.q.q.q.q.q.q.q._ 3._ _ _ _ _ Y _ 3.3.3.3._ _ _ _ _ _ ) ) ) ) ) ) ) ) ) ) ) ( ( ) ( ( ( / / Y Y Y / U I I L I F K F K 6 i s s w O 6 D g g g ",
"F D D F s % 5 w i i 6 D g f f - s K K K K I I I I I I I U U U / I g K g g g g F F K F F F F L F F D D F L 1 5 i d F i d g g F F F F F F F H F F F L I I L L L U U I L L I U U U U U Y ( U U U U / U U U U U / / Y ( ( ( ( / ( ( ( ( / U U U U U U I L L U U L L L L U U U U U U L L K L L L U / U / ( ( U U U U U U L H D H H L P D D L L L L L L / U H D D D P H D D S D D M B M J P P J M D P P P L / / ( ( ( U U / / U U U ( ( ) c.d F L L L F D D F U ( ( ) ) ) ) ) ( ) ) 4.4.4.) ) ) ) ) ) ) ) ) ) ) ( ( ( ) ) ) ) ) ) ( ( ( ( ( ( ( ( Y Y Y ( ( ( ( Y U U U U U I U U I I I Y ( U L L H L L F D D g D D g D g f g d d d d d i g g g D F F F F F F F F F F F F F K K K K D Y ) ) ( ( ( / / / / / / U I I U g 7 K F K F 5 i s s 6 . 6 g g g ",
"F F F f * 6 w w i 6 g F f 3 Y F K L L I I I I I U I K I I U / I f ^.Y.v.c.c.c.c.^.^.^.^.^././././.^./.^.^./.(._.(.x._./.c.Y././././.^././././.^.^././.^./.^./././.(.(.(.(./././.^./././././.^./.(././.^.^.^./.^.(././.(./.(.(.(.(.(.(.'.(.(.'.(.'.'.'.'.'._.(.(.(._._._.'.'.'.`.`.`.`.`.`.OXOXOXOXOXOXOXOX`.`.`.OXOXOXOXyXyXyXyXuXyXuXuXuXuXuXuXuXuXuXuXuXuXuXuXuXuXuXuXuXiXiXiXiXiXiXiXiXuXiXiXiXiXiXuXuXuXuXuXuXuXuXuXyXyXyXyXOXOXOX`.'.`.OXOXOX`.`.OXqXOXyXOXOXqXOXOXOXOXOXOXOXOXOX`.`._.(.'.'.'.`.'.'.'.(.(._./._.'.'.'._._.'.'.`.`.`.`.`.`.`.`.`.`.`.`.`.`.`.`.`.`.'.(.'.'.(.'.'.'.(.(.'.'.'.'.(.(.(.'.(.(.(./././././././.^.^.^.^.^.^.^.^././././././.^.Y.Y.Q.^.Q.Y.c.c.c.i U ) ( ( Y / ( / / / Y Y U U U U I I K F I D 5 i i i 7 . i F g ",
"F F F 7 6 i i i 6 f F F F F U L L L U I I I I U U U I U I U U f I ) / / ) 3.3.r.r.r.r.r.t.i.i.g.l.l.l.l.l.v.Y.Y.c.g.OX/.x.x.c.c.c.x.v.v.v.v.v.l.l.l.l.l.l.l.l.l.l.v.v.v.l.l.l.l.l.l.v.l.v.v.l.l.l.g.p.y.r.r.i.i.j.l.l.l.l.l.l.l.l.v.v.c.v.l.l.l.v.v.v.v.v.v.c.c.c.c.x.c.c.Y.Y.Q./././././._._.(._.(././.(._._._._._._.'.'.`.OXOXOXOXOXOXOXOXOXOXOXOXOXyXuXuXuXuXuXuXuXuXuXuXsXsXsXsXuXuXuXuXuXuXuXuXuXuXuXOXOXOXOXOXOXOXOXOXOXOX'._./.(._.'.'.'.'.(.(././.^.^.Y.c.Y.c.c.l.i.q._ ( / Y L F F H U U H H F H U I U / / ( ) ( / U U / / ) _ 3.r.r.r.r.r.r.i.p.p.p.p.p.p.p.p.i.p.p.g.p.p.p.p.p.i.p.p.p.l.l.l.l.l.l.l.l.p.p.p.g.j.j.g.g.l.l.l.l.l.l.z.v.z.v.v.l.j.p.i.p.p.p.i.r.4.q.j.H s K ( U Y Y I / / / Y Y U U U I I L I I I U F 7 j i i 3 O F L ",
"F F 5 5 i w i 6 f F F F F F F L L L U U I I I U K I U I I I d d 5 $ 5 6 5 w s d g g F F F F K L Y Y U K K U ( ) _ 4.D F F F F F F F K I U U Y ( Y Y Y Y ( ( Y I I Y ) ) ( ( Y U I I I Y Y ( ( Y I K F g g g F F U ( ( ( / U I Y ) q.q._ ) ( I H F F L I U U / ( ) / U U U ( ) _ _ _ 4.q.q.r.q.r.r.r.q.q.r.t.p.p.i.i.r.r.i.i.p.p.p.p.p.i.i.a.p.g.p.a.r.r.i.p.p.p.p.r.r.r.r.u.p.k.z.g.p.u.r.p.g.u.p.p.p.p.r.3.3.r.p.p.a.r.r.i.p.i.r.3.3.4.3._ _ _ ) ) ) ) ) ) ( ) ) _ 4._ _ ) ( Y I K I I I U Y ( ( Y F g g F K K I I I I I D d d d g F K I I Y Y Y U I I I I I K K I I I L L I Y U I K F F K F F F I ) q.) ) ( ( ( Y K g g g F F F F F I I H L I / ) ) ( / I F F F F g d s i 5 . w D i F / U U U / / Y I ( U U I I I I I I I I I d 7 s i i 3 3 ( ",
"F 6 5 i i i 6 d F F F F F F K K L I U I I U U U F F I I I s i w d d 5 3 : 3 3 3 7 7 5 5 5 5 6 6 s s j 6 6 i s s h s h s 6 6 6 6 6 6 j 6 s s s s i i w i s s s 6 6 s d d d d h s s s s s s d d h s s i 6 j i i s d f d d d s s s f F F g g d s s s d d h d d d f g d d d s h d f f f g g g g g g g g g f g F F I I I F F K K I I I I I I I K L I I F F F I I U U U K F K I I U Y Y Y Y U I I I I I I I I I K F I I I F F F I I I I F F F K g g g g g g g g g f g g g g F F g g d s s h h d d g g g g s i i s s s h h d g h i 6 6 6 6 i s s h h h h s s s s s s i i s s i 6 6 w s s s 6 6 6 6 j 6 5 6 s h s s s s s j 6 5 5 6 6 6 6 6 6 6 6 6 6 6 w s s s j 6 6 6 5 6 6 7 6 s g f w i D 6 I / / / / / / U Y Y Y I I I I I I I I K K s 5 s s s 3 7 ",
"s 5 i i s 6 i g g F F F F K K K L I I U U U U Y U I I I s 6 d H D %           .     . . . . . . . . . O . . .         . . . . . . . . .       . .             .                 . . . . O . . . . . O O O . . .       . . O & & .         . . . . . . . . . . . O O & & & & & & & & & & @ @ @ @ @ @ % % - - - 3 3 % 3 * % % O O O & @ % % % % + + @ & O . . o . O . . X + X . o . . O O $ @ $ @ $ $ $ $ $ O . O . . 3 3 % 3 3 < % $ $ $ $ O O . O O O . . . . .                                                                                                             . . . .           . . .             . . . . . . . . . . . . . . .             .                 X w H d g D 6 I U U U U ( / Y U U U I U U I I I L K F K s 5 s i s 7 ",
"7 i i s 6 s F g g F F F K K K K I U U / U U U Y U I I g w d ` / 3     X % % % % - 3 3 7 5 6 6 6 6 6 w w i i i i i i s s d f d g D F F g g g F F F g f f f f g F K K g g g f g g f g D F F D g g g g D g D D D D D g d d d F L L F F K I I I F L U U Y Y Y ( ) ) ) ) ) _ _ ) _ _ _ _ _ _ _ _ _ _ _ _ q.r.y.y.y.y.r.r.r.r.r.r.q.q.q.q.w.r.r.r.r.r.r.r.r.r.q.q.q.q.q.q.q.w.r.t.y.y.t.r.r.i.g.g.l.g.j.l.j.g.i.r.q.q._ _ q.q.r.r.t.r.q.3._ ) ) ( / / ) ) ) Y U Y / ( / / / / U I I I U Y Y Y ( ( ) ) ( Y I L I H F F F F I I K g d D F F D D D F g g f d d d s d d d f d d d d f F F D D f D f d f D F F F F F F g D g d s s i i s s s d d d d s w w w w 6 w w w 5 7 3 3 % % + X . . d / g s s 7 I Y U Y Y ( ( / I F U U U U I L L K F F K s 5 s s s ",
"i i d 6 s F F F F F F K L L L L I F h F / Y Y Y U Y D i w #.u.w     + 3 3 % + % + X X + @ @ * * % @ % % * % * - - - - 3 3 7 7 7 5 5 5 7 7 7 6 6 6 7 7 7 7 7 6 6 s s j 6 6 6 6 6 6 6 6 6 6 6 6 6 5 6 j 6 6 6 6 6 6 5 5 7 7 6 i j 6 6 s s h s 6 w s s s s s h h h h h h d d h h h d d d d h h d d d d d F I I K F D F F g F F F F F g F F K I F g g g g g f f d d f f d g F F I I K F D K I I I I U Y / Y I g g g d d d g F F I K g g g f h s s s h d h s s s h h s h s s s s i s s h h h f g g g g h s s s s s s 6 s s s s 7 7 6 6 6 6 6 s s s 6 6 5 5 5 7 7 5 5 6 7 7 7 7 5 i i 6 6 6 6 6 5 5 6 6 6 6 6 6 6 6 6 5 7 3 3 3 3 3 3 3 7 7 7 7 - - % % @ % % % % + + + + % 5 3 @ X .   f _ I d w w U ( U U ( ( ( U 3 h U U U U I L K K K K I i 5 s i ",
"i s w s K F F F F K K K L L L I U I s F ( ( ( L / F s d u.k.H   . 7 d 3 %   @ @     X . O % % % + % % * 3 3 % @ 3 5 6 3 % < < < 3 % + < 3 5 %   . < 3 5 7 * 3 6 w w 5 3 5 7 5 5 5 7 5 7 6 %   3 w w w 3 % 3 3 3 * < 3 7 5 5 5 3 6 5 6 w 3 5 w w w w 3 5 w i w q 4 5 5 5 5 3 3 3 1 5 5 3 w 6 w w 6 5 w p p i w 5 w w w 6 5 p d D d 6 5 p d d 6 3 5 5 3 3 * 3 6 w i s 6 5 w w d f d g d p i w w w 5 5 w q 5 5 5 < 3 3 5 w t d 6 w w w i 5 3 5 6 5 w 6 5 w 5 w w w 6 d p D d 5 6 w 6 w 5 5 w w p w < < 3 < w d 6 i p d w > % 5 < 5 5 3 i i w w 5 3 w 6 6 w w 6 w 5 w 6 3 w w 6 w i d d w w d i 6 5 7 5 3 < 3 6 5 w 6 % < 3 5 5 5 5 6 6 6 5 3 3 7 3 3 % X % % * + X X .   @ 3 3 : + .   H a._ D w i ( ( ( / U / / D % I U U I I L K K K K K I 6 5 i ",
"i w i K F F K K K K K I L I I I U / ) ) ( ( ( / F i f h.W.'   . 6 / U 7 j g f 6 3 5 w p d F H H H H L ` ` L L U _ _ #._ _ _ 6.6.6._ _ _ 3.3.` ( ` 6.6._ ` ( #.u.u.6.6.#.6.6.6.6.6.6.3._ _ ( ` a.g.g.g.#.) #.#._ _ _ _ #.6.#._ #.r.r.r.6.6.u.u.u.u.u.u.h.h.h.h.u.6.u.u.6.6.#.#.#.6.6.6.u.u.u.u.u.6.r.u.u.u.u.#.#.u.u.6.u.u.u.h.h.u.u.u.h.h.u.#.` ` ` ` H f s L / / / _ #.u.u.u.u.u.u.u.h.u.u.u.u.u.u.u.u.#.#.#._ 6.u.u.u.u.u.u.h.h.h.u.u.u.u.u.u.u.u.u.u.u.u.u.h.h.k.k.T.k.h.h.h.u.#.#.#.u.u.u.u.u.u.u.u.u.u.u.z.T.k.k.u.u.h.u.u.u.u.g.g.p.a.u.u.h.k.g.g.g.u.u.u.u.u.g.h.h.u.g.g.g.h.g.g.h.h.u.u.r.#._ _ r.#.#.#./ / #.#.` ` _ ) ) ) ` / / / / ` H D D F F D i 6 6 s d s - 3 w 3 % .   / g.r.d 3 i ( ( ( / U / / U U U U U I I L K K K K K K 6 5 ",
"i w K K K K K I I I I I I I I I U / / / ( ( ( F i i u.W.`   @ 6 U L < K 3.F d F g d w w i 3 6 w 6 5 6 d d i i i d d d s d d d g d d d d d d d d d D D d p i d d f d d d g D D f d f g d s s d g F F g d d d d d i i d d d d w i d d d d d d D D D d f D F F D d d D f d d d d d d d d d D f d d p d d f f d i d D d i d d D D D D d d D F D d i i d d i 6 3 i i 5 5 6 p d S S S d S F D S d f D D D D S d S d i d F D D D D D F H U H F D D D D D D D F F D D D F H L H F F F F F i d f D D D D d f D D d d D L L F D d f f d f f f g g g g g g F F F D D g f g D g D D D F F F F F F F D D D D d i w i d d i w 5 6 d d 5 w i i i w w 6 w w w i 5 7 6 6 6 w w i D F K L Y i 3 w w %     ` k.#.i 5 f ) ( ( / / / / U U U U U I L L K K K K K F 6 ",
"6 F K L I I I I I I I I U U U U U / / / / ( L s f u.T.`   X w ( L % Y r.U p d j * + o     o     o X o     o X   + X o         X + X X o o o o o X o o + + X o X   X   X X   X @ o   X o     o       o     X X + X X X X X X X X X X + X . o X X + +   X     X X X X X + + X X + o o     o X o . + X . o X X + + X @ @ @ X X X o X X X X X + % + + + + + + @ + X + @ @ + X o . X X       X X X X X X o     X X @ X   X o .               X X   o       o   o                       + X   X           o X + + o                   o                     o       X @           - @                                 X       .                       . X o     o o + 5 g K F ( p.i O D f 3 o o ` h.#.d 6 g ( ( ( / Y Y / Y U / U U I I K K K K F K F ",
"g K L I I I I I U I U U U U Y U Y ( ( / / F s s h.W.#.    6 r.) > r.p.P H 6 o X X + @ @ @ @ @ @ @ @ @ - % % @ @ * * * @ * * * * * * * * % % % % % * * * % * * * 7 * % * * * * * * * % % % % % * * * * * % * * * * * 3 * * * * % % < * % % % * 3 * * * * < 3 * * * < * < * * * * * * * % * * * * % * * * @ % * * 3 3 * * * 3 * < * * * < 3 < 3 * * < * 3 * 3 * * % * * * * % * < * * * * * < * * % 3 6 % * 3 3 * * * * < * * * * 5 3 * * % < * * % * % * 3 * * * * * * * % * * * * * * * * * * * % * * * * * * * * * % % % % * * % % % % @ 3 < + @ % % % % @ @ @ + @ @ @ % O 6 5 O @ % % % @ @ % @ + + @ @ @ + + + + + + + @ + @ @ @ 7 + + X - - + + + + 3 @ + + o   @ i F r.g.6 3 / F 3 X   ` h.#.d 6 D ) ( ( ( Y Y / U U U U I I K K K K F F K ",
"F F K I I I U U U I U U U Y Y / / ( ( ( I w s u.W.h..   6 g.u.t _ g.` i @ + @ @ + + + X X + @ @ + + + * @ @ @ @ @ @ @ @ @ @ @ * @ % % % @ @ @ @ + @ % @ @ @ @ % * % @ @ @ @ @ @ % % % % % @ % * * @ @ @ @ % * * * * * % = % % @ % % % @ @ @ % % % % % % % * % @ % % % % % % % % * % % @ % % % * % 5 3 @ d 5 % * * < % % % % % * * * % % < * % % % * % 3 % * * % % * % % % 7 % % % * % % % % % % % % * % % % * % % % % * % 3 3 % * % % % % @ - 3 % * @ % % % * * @ % * % % @ @ % * % % % % % % % % @ % % @ % % @ % @ @ @ @ @ % @ + + + + + @ O @ % + @ 6 X X + + + + % + + + . . + + + @ + + + + + + + + + + + + + + + + + + + + + + 7 + X X % % + + + + + + + + % @ + o * H g.r.3 i ( F 3 o   #.T.6.i 6 H ) ( ( ( / Y U U U U U I L K K K K K K ",
"F F I U U I U U U U U Y Y Y / / ( ( ) / d f u.W.h.$ o 5 l.g.D 6.u.P 5   @ @ @ + @ @ X + + + + @ * + + + + + @ @ @ @ @ @ * @ @ @ @ @ @ @ @ + + @ @ @ @ % @ @ % % % % @ @ @ @ % @ % @ @ @ @ @ @ @ % 7 * = * % * * 6 * % % % % @ @ * @ @ @ @ @ @ @ % % % % % % @ % % % % % % % @ % @ % @ * % @ % % % % % @ D 6 @ * % % % % % % % % % * % % % % % 3 3 @ = @ % @ @ % % % % % % 7 @ @ % @ % % % % % % % % * % % % % % % % % % * * * % @ @ % % % % @ @ + @ % % @ % % * * @ % % @ @ % % % % % % * @ @ @ @ @ @ @ @ % % @ @ + @ @ @ + + + + @ + @   h d   @ X @ 5 7 % X + + + @ + + + @ + + + + @ + + + X + + + + + + + + + + + + X X + % + X o @ X X X X + + + + + + + + + + + @ X   U u.l.i g ) H 3   % h.W.#.d w U _ ( ( / / Y U U U U U L L L K K K L ",
"F F U I I I I U U U U Y Y / / / / ( / f s u.!.h.:   > l.l.q r.g.U 3 X @ + + + @ @ @ + + + + @ % 3 + + + + @ @ @ @ + @ + @ @ @ @ @ @ @ % @ + + + @ @ @ @ @ @ @ % @ @ @ @ @ @ @ % % @ @ @ @ @ @ % % 7 % % % % * * % < < % % @ @ @ % % @ @ @ % * % * @ @ @ % % @ % % % % % % % % % % % % * % % * % % @ % *   @ * % % % % % % % % % % % 3 % * * % % 5 = % % % % % % % % % % % @ % % @ % % % % % @ % % % 3 % % % % % % % % % @ * 5 * @ % % % % @ @ * d % % % @ % % * * @ @ @ @ % % * * @ @ % * @ @ @ % @ @ @ @ % % @ @ + + @ + + + @ + + + @   h d   @ X * . * + X + + + + + + + @ + + + + + + % % X + + + + + + X + + + + X % @ X + + X + * X + + + + + + + + + + + + + + + @ @   F g.g.7 g 6.H 3   7 h.W.#.6 w U ( ( ( / Y U U U I I I L L L L F K ",
"F s U U U U I U U U U Y / Y / Y Y U s i / T.h.6   # t.v.t 3.k.` 6 X * + + + + @ + @ @ @ + + @ + + + + + + @ @ + + @ @ + + @ @ @ @ @ % @ @ @ @ @ @ % @ @ @ @ @ @ @ @ @ % @ @ @ @ @ @ % @ @ @ @ % % @ % % % % % % * < 3 % % @ @ @ @ % % % % % % % * @ @ @ @ @ % % % % % % % % % % % % % % % % % % % % % % 3 * @ % % % % % % % % % * % % % % % % % w < % * % % % % % % < 5 @ % 3 * % % % % % % < * % % % % % % % % % % % % @ < * % @ @ % % % % % % w % % @ @ % * % % @ % @ @ % % * % % % % % % @ % @ @ @ @ @ @ @ @ % @ @ @ + + + + + + + + @     @ + + + % X + + + + + + + @ % + * % % + + + + + + + + + + + . % % X + + + % + + + X + + O + X + + + + + + + + + + @ + @ + + + *   L g.l.h g _ D 3   5 h.T.` 5 i / ( / / Y Y U U U I I I I L I d 5 ",
"I g U U U U U U I I U / / ( / / ( d s / h.6.1 . 5 r.g.d 3.k.#.w . % @ @ + @ + + + + + + + + X + + + + @ @ @ @ + + @ + @ @ @ @ * * @ @ + @ @ @ @ @ % % @ @ @ @ @ @ @ % % @ @ @ % @ @ % @ % % % % % % @ @ % % % *   @ % % % % = * % @ @ % % % % % % @ @ % % % % % % % % % % % % % % % @ % % 3 5 % % % % % * * % % @ % % % % % * < 3 % % % % % % % $ % 3 3 % % % % % % * 3 @ % % % % % % % % % < % % % < % % % % % % % % % % 5 * % % % @ % % % % * % % @ @ % * % % % @ % @ @ @ % % % * % * * % % % % @ % % % @ @ @ % % @ @ + @ @ @ + + + + + @ % + + + + % + + + + + + + + @ * + @ + + + + + % + + + + + + + X + + + + + + + O + + X + + + + X + + + + + + + + + + + + + + @ + @ %   F x.(.* g ) F 3   5 h.T.` 7 d / ( ( / Y U U U U I U I I I L D ",
"U I F I U U U U I I U / ( ( ( ( D d _ W.h.5 o 1 6.j.d r.Q.6.5 X * @ @ @ + @ + + + @ + @ + + + + + @ + @ @ % @ @ @ @ * @ @ @ @ * % % @ + % % @ @ @ % % @ + @ @ @ % % % % % @ @ @ @ % % % % @ % % @ @ @ @ + @ 3 % F 3 % % % % % * % * % % % % % % % % @ % % % % % % * 3 * * % % % % % % % < < * % % % % % % % % % % % % % % % * 3 % % % < % % % % * % % % % % % % % % % % % % % % % % % 5 < % % % % % % % % % % % % % @ % % @ % % @ @ @ * % % * * % @ @ @ % * % % % @ % % @ % % % % * % % % % % % % % @ % % @ % % % * % @ @ @ @ % % @ + @ + + + + + + + + + + + + + + + + + + + + + + + @ + + + @ + + + + + + X + + + + % + + + + + + + + + + + + + + + + + + + + + + + + + @ + % %   D Y.l.  H #.D %   5 h.k.H w s / ( ( ( / / Y U U U U I I L g ",
"U K d U I I U U I I Y Y ( ( ) F s ` W.W.D   > U j.H 3./.h.5 o * % % @ @ + + + + + + + + + @ + + + + @ @ @ % @ @ @ + < % % @ @ @ % % + @ % @ @ @ @ % * @ @ % % % % 3 % % @ + + @ @ @ % % % @ % % + @ % % w @ * . _ d 1 % % % % @ % < % % % % * * % % @ @ % % % % @ * * * * = % % < 1 1 % % % % % % % % w % * * < % % % % % % % % % % + % % % % % % % % % < * % % % % % % % % % % % % % * % % % < % % % % % % % % % % @ % % % % % % @ % % % % % % % @ @ * * * % % * % % % % % % @ % % % % % % % % % % @ @ @ @ % @ + @ @ @ + @ @ + + @ + + % @ + + % % @ % + + + + + + + + + + + + + + + + + @ + + + + + + + + X + + + + X + X + X + + + + + + + + + + + + + + + X X + + + + + + + + %   / k.r.6 / ` w +   q k.T.U 5 g ( ) ( ( / / Y Y U Y Y I I K ",
"L L I U I U Y Y Y I U ( ( ) I d U W.W.H   : U g.L _ T.h.w   * @ @ % @ @ + + + @ @ + + + @ 3 + + + @ @ @ @ % @ @ @ % * + % @ @ @ @ @ @ @ % @ + @ @ @ % @ % % % % % % % @ + + @ @ @ @ % % % @ % % @ % % < 5 @ @ % . > 3 < % % % % % < % % % % @ + * % % % % % @ % @ % * < * < 3 % % > > > % % % % + % % 3 % * * * % % % % % % % % % % % % % % % < % < % % % * % * % * % % % % % % % % % % % % % > > % % % % % % % % % % % % % % % % % % % % @ % 7 + % % < 5 < % % % < 3 % * % % % % @ % @ * % % % % % @ @ + + + + + @ + % % + @ @ + @ % + + + + + + @ + + + + + + + + + + + + + + + + % @ + @ + + + + + + + @ + + + + X + + + X X + + + + + + + + + + + + + @ + + + + + + + + + + + + +   ` T.j.s U ` w &   D !.T.H w D ) ( ) ( ( Y ( / / I I U I ",
"L L K L I I U U U I I Y ) I d D U.W.'   $ / g.P / T.U.J   * @ % @ 3 % @ @ + @ + + + @ + @ @ + + @ @ @ @ % @ @ + % % % + @ % % % % @ @ @ @ @ @ @ % % % % * % % % % % + 5 % @ @ @ @ @ % < 3 % * @ % < < < @ < % > 3 % % % % % % % % % < > % + t S $ < 5 % % % % % % * * 3 * 5 5 < < % % % % % > % % % % % * % % % % % % % % % % % % % % % % % % % * % % % % % 3 < * % % % % % % % % % % % % % > < > % % % % % % % % % % % % % % % % % % % % * 3 % @ % + t q % % % % % 3 < % w w $ % % % % % % % % % % % % @ @ + @ % @ + % % + @ @ @ @ % @ + + + + + + + % % > % + + + + + + + + + + + + + + @ + @ @ + @ + + 3 O + X + + + + + X + + + + % + + + + + + + @ + @ + + + + + + + + % + + + @ @   U T.j.< H _ w O   ` !.h.d w F ) ) ) ( ( ( / ( U I U I ",
"L L K K I I U U U I U ( Y d i h.W.`   < L p.L d T.U.H   * @ @ @ @ @ % % @ @ % % + + + % @ + + + @ 3 @ % % @ % % % @ % % % % % % % @ @ @ @ @ % % % % % % % % % % + 3 ` < % @ % @ % % % @ * % @ @ % 3 @ % % 6 3 < % % * % % % % % % % % > > % 5 0 F w @ % % % % % % * < 3 3 * * < < % % % % % % % > % % % < % % % % % % > % % % % % % % % % % % 1 < % % % % < 3 < % < * % * % % % % % < % % % % % % % > 3 % % % % % % % % % % % % % % % % @ w F . * % < > > < % < % % % % % % > > % % % % % % % % % 3 3 @ % % @ + % @ % + + @ % @ @ % @ @ + + + + @ + @ % @ @ + + + + + + % + % + + @ + + + @ + + @ @ @ @ @ + o 6 d % + + + + + + + + O % + X + + + + @ @ + @ + + + + + @ + @ 3 + + + + + *   L Y.v.< L / 5 .   #.T.u.w w K ) ( ) ( ( ( ( Y I U U ",
"L I I I I I U U U I Y Y f i u.W.#.  7 H u.D ( W.U.J   * = = @ @ @ @ % * % @ @ % @ @ @ % + + + + @     % % % % % % % % % % @ % % % % % @ @ % % % % % % % % % % % @ % 5 @ % % % @ % @ 3 w @ % % % @ % % % % % % % 3 3 % % * % % % % % % % < 1 % $ * < % % % % % % < < < < < < * % > % % % % > % % % % % % < < % % % % > < % % % % % % % % % % % 5 < % * * < * < * * * < % < 1 % % % % > > < < % % < < 3 5 3 % % % % % 3 3 % % 3 < @ % % % % % 1 1 % * % q 5 > 3 < < % % % % % % > < % % % % % % % % < < % % % @ % % % % + + % % % % 3 + + + + + @ @ + + + + + @ + + @ + + % + % + + % @ + % @ + + @ O + + @ @ @ + @ + + % @ + @ @ + + + % + + + + + @ @ + + @ + + + + + % @ @ % @ + + * + @ @   / /.l.  L / 3 X . 6.T._ 3 i U ) ) ( ( ( ( Y Y U U ",
"L K F U Y U U U U Y Y g s 6.!.h.  : D u.L g _.!.S o - * * * @ @ @ @ + + % @ @ @ + + % @ @ + + @ , ~./   % @ % @ @ @ % + @ @ % % % % % @ % % % % % % % % % @ % 3 < 5 o @ < 3 % % @ % 5 6 > < % % % @ @ % % % * * * < * % % % % % % % % % % % < < % % % % % > > % > < % < < > % % < % % % % < 4 % O > 3 1 % < % % % % % % * % % % % > % % < < % 3 < < < 1 * * * < * * % < 1 1 % % % < < < < < * * * < % 3 5 % % % % % * < % % % < < % % % *   ` '   3 + S d $ < < * % % % % % % % < % % % * * % % % % % % % % @ % % % % % % % % % % 3 % @ + + @ + + + + + + @ @ + @ @ + + @ + + + @ % + + + + + @ @ + @ @ @ @ + + + + + + + + @ + + + % 5 + + + + + + + + + + + + + + @ % % + 5 % + + @ + + + %   ` !.i.. ` / $ + % u.T._ 6 f ( _ ) Y F ( ( Y U U ",
"L D 6 I Y ( Y U I L i 5 ` W.k.1 @ w r._ F Y._.(   - * * % @ % @ @ @ + @ @ + @ @ @ + % % % @ + = , '._   * % % + @ + % % % % % % % % % % % % % % % % % % % % % % % % % % % % % % < < < O % > % @ @ % % % % > % < % % % % % % % % % % % % > > % > % % 3 < < % % % > % % % % % % % < % < % % < 4 4 ~ 4 5 1 1 5 < % < % % % % > < % > > > % % 3 3 % 5 3 < < % * * * * < < 4 < % % % % > 1 < 3 < * % < 4 % % % % < 3 % % % % % % % < < % % % % * < < % % * % % < % > < > % % < < % % % < > < % % % % % % % % % % % % % % % % @ @ % % % % % % @ % @ @ + % + + + + + @ + @ + + % + + % + + + @ @ @ + + @ + + + + + @ @ + + + + + @ + + + + + % 3 + + + + + + + + + + + + + + @ + + X + @ + + + @ @ * @   _ Y.q.1 6.D > . w T._.) i F 3._ ) ( ( ( Y U U ",
"L I I U U U U U L ) d O ` u.p + i _ i.d Y.!.z.  3 7 = 6 * @ @ @ @ @ + @ @ + + + + @ @ @ @ + + @ @     3 % % % % % + % % % 3 @ % 4 % % % % % % % % % % % % % % % @ % % % % % % % < % % % % > % % % % % % % % % < % < * % % % % < % < % % < % < 4 D 7 % * % % > > > % > < % % % % % % < % % < % 1 q % > 1 < 1 1 % 1 > 5 3 % < < > < < < > * 3 3 % 5 5 < 5 > % < * < > 5 1 > < > % % % 1 1 3 3 % w 3 % % > 1 % < * < > % < S % % > > % % % % % % % % % % < < < % % % % % < < > % % % % > < % % % % % % % % % % % < 3 % % @ 5 * % % % > @ % % % @ 3 % + + + + + + + @ + + @ + + % % @ + % @ % % + @ & O + + + + @ + + + @ + @ @ + + + + + 3 5 @ @ + % + + + + + + + + + + + + + + + + + + + + @ @ @ +   r.Y.L H a.t *   L T.r.O d _ _ ) ( ( ( U U U ",
"I I I I U U Y U L _ p h.h.4   5 g 3.d 6.!.T.d X * * * % @ @ @ @ @ @ + @ + + @ @ @ @ @ + + % % @ @ 7 % > % % % % @ + % < X   1 3 > % % % % % % % % % % < % % % % @ % @ % % % % @ @ < < % % > < % % % % % % % % < % % * % < % w #.@ < % < % % % < 5 3 % % % > 1 1 > % % % % % > > > > 1 > % 4 1 < % * < < > < 1 > > 1 1 1 * 1 > < > > 1 < 1 > > > 1 > 1 < < < < 4 1 1 < > < > > % % 1 1 < < % * 5 4 y % * < * 5 % % > % $ 3 < . / d O % % * % % < % * < < < < < % 3 < % > 1 % % > > % % % 3 % % % % < 3 % % % % % 3 3 % % 5 % % % % @ @ % % % % % @ @ + + @ + @ + + + + + + + + . % % @ @ + @ + 3 @ @ @ @ + @ + + + @ @ @ @ + + + + + + @ + + % + + @ @ + + + + + + + % % + + + + + + + + + + @ @ %   i p.j.4 d d & +   0 u.k.L _ _ ) ( ( Y Y ( U ",
"I I I I Y Y f L U ) q @X@X5   3 I K d _._.i.  3 % = % % @ % @ @ % @ @ + + + + @ % @ @ @ + @ % % % % + % % % % % % % % $ A W.b % % % % % % % > 1 % % @ 5 3 @ % % + + % % % % < y H w O < < 1 > < 1 % % % % % % < % % 3 < < 1 1 < * % > % % > % 1 < > t < % 1 > 1 > % < 1 < < 1 < 1 1 > % y q 4 < > < < > > < 1 > > 1 $ ~ S % 4 4 4 t 4 4 1 w 1 > 1 1 4 1 > 4 5 1 0 1 1 < % % > > < < < < < < < % < w < * * % % % % % < p $ < 5 1 > 1 % 1 1 < % < % < < * 1 < < % 5 4 % 1 1 > % % % > % > D % % < < % < > % % % % % % % % @ 7 % % % % % % % % % % + + + + + + @ + + + + + +   w H   % @ @ + + + d $ @ + + @ @ @ < % > % O @ + + + @ @ + @ + + + + + + % 5 % + + @ + + @ % + + + + + + + + @ + + @ @ %   ( j.)   7 + 6   H +X+XM ) ) ) Y Y Y K F / ",
"I I Y U ( I - s U ( q +X>Xd * D 3.d U W._.6 @ * * % % @ @ @ @ @ @ @ @ @ + @ + + % % @ @ @ @ % @ % @ @ % % % % % % % % . | @Xb % 1 % % % > 4 % > % % < 3 4 > % % % % % % % @ 5 / > < % % % > % % > > % % 1 > < % 1 < < < * < w % * % > % > % < 5 1 < 5 3 < 1 1 < > > > 1 1 1 1 1 1 1 < % 5 0 < < % < < % > > % > > < % 0 q < 3 4 0 q 1 1 1 y 1 1 1 1 1 1 1 1 1 4 4 1 % 1 < % < % % < > < < < * 3 5 1 * < < % % > % % 3 D % < 5 5 1 > % % < < 4 < > % % * 3 < 1 1 % 4 > > % > > > % > $ % > % % < % % % < % % % % % % % % % 3 % % % % % % % % % % % % + @ + + @ @ + + + + + @ > 6 @ + + + + + @   @ @ + @ @ + @ + + + @ % @ + + O 3 > + + + + + @ + + 3 w . % + + + + + + + + + + @ + + + @ + @ + @ %   i u.6.> 7 L H * #.dX+Xy ) 4.K 3 L ( I I Y ",
"I I I / ( ( / _ / ( q +X+X  D k.k.w 6.6.u.  3 = * % @ @ @ @ @ @ @ @ @ + @ + + @ % @ @ % @ % % @ % % % % % % % * % + % 3 $   > % % % % % % % % % % % % @ > > % % % % % > 3 + % t % % % % % % % % 1 % % % % % % % % > % % < < * * % % 3 > > < * 4 1 % % 5 < < 5 5 % > 1 1 > < < < < > < 1 < 1 < 1 > > < > 1 > % < < 4 0 < 5 1 < < % % 1 1 < % 4 1 1 1 1 1 3 1 < 1 1 < < < < > < < < < < < < 1 < 3 5 4 % 4 1 < > 1 < < < O < < 3 5 < < > % % % < > > % % * 3 1 < < < > > > > % > < % % 5 >   % @ % < % % 4 < % % % % % % % % @ % % % % % % % % % % % % @ @ @ + @ @ + + + + + % $ O @ + + + + + . #.0 + @ @ + @ @ @ @ + + % + + @ @ @ + @ + + % % % @ % + + @ + + + + + @ + + + + + + + @ + + % @ + + @ @ . ` k.r.  ` ` s #.dX+X1 ) _ w.s U ( Y Y U ",
"L L L U ( ( ( ( ( _ t eXdX  ` OXY./ !.U.U   * * % % % @ @ @ @ @ @ + @ @ @ + @ @ % % @ @ @ @ % > % % @ @ % % % % % % % > % 7 > < % % % % 1 > % > > % % % % % % % % % % % % % < t % % % % % % % % % > 1 % > < % < % % > * < % % % < > < > % % % > 1 1 * 4 1 1 < 1 < 1 1 1 1 < 1 < < < 4 y 0 1 1 1 < < 1 1 > > > < 1 1 1 1 4 1 1 1 < < 1 1 < 1 1 1 1 5 4 1 4 4 1 1 4 1 1 < 1 < 5 1 < < < 1 < 1 1 < 1 > > * < < < > % < $ y c % * < * < < < < < % % % % < % < 3 < < 1 1 > > > % % % % % 0 S r.O % % % > % < > % % % % % % % % % % % % % % < % % % % % % @ 3 @ % @ + @ @ @ + % % % % + % @ @ + + O J 4 X @ + + @ + @ @ @ + @ @ % % @ @ @ + % + % + + + + % @ @ @ + + + + + + + + + + + + + + + + + + + + %   ` _.OX1 r.#.i #.dX+X1 _ ) t.) ) Y Y Y Y ",
"L L L I / ( ( ( ( _ p dXdX< P uXp.u.+X!.p % * % % @ % % @ @ % @ @ @ @ @ @ @ @ @ % % % % % % < % @ % + % % % % % % % % % % % % < % % < % % % % % % % % % % % > % % % % % % 3 3 H 3 % < 1 % % % < > < 1 > > 1 % 1 > % < < < < < < 3 > < > % % 1 > 1 4 < 1 1 4 < 1 1 4 4 1 1 > < < 1 3 5 1 1 1 < 4 1 1 1 1 > > 1 1 > 1 1 1 1 1 4 4 4 1 4 1 4 1 1 4 1 5 0 4 1 1 1 5 4 1 < 4 1 1 1 1 < 1 4 1 1 1 < > > < % 4 3 < < * < < 4 4 5 < 1 1 1 1 1 4 1 1 > % > % % > < < 3 < 5 1 < < > % % % < . D g.p % % % % % % % % % % % % % % % % % % % % % % O % % % > % % % % @ @ @ @ % @ $ @ @ @ % % @ @ @ % + @ @   @ % % @ @ @ + @ @ @ + % > $ % % % + @ + @ + % @ < % + % @ @ @ + o + + + + + + + + + @ + + + + + + + *   L _.7XI u.u.  #.dX+X, ) ) U ( Y Y Y Y ( ",
"I I L U ( ( ( ( ( _ p dXdX7 9 sXc.T.nX_.  - = = @ % * % % @ @ @ @ @ @ @ @ @ @ @ % @ % $ O < % % % % @ % % % % % % % * % % % % < % % % % % % % > % % % % % % % % % % % % <   O % O % < > > > > < > < % < > 1 > 3 7 % 1 5 < 3 3 1 < < < < < % 1 > 1 4 1 1 1 1 < < 1 < < < > < 1 < 5 1 1 1 < 1 < < < 1 1 1 < > > 1 1 1 1 1 4 4 4 1 4 4 1 1 1 4 1 0 4 4 4 1 1 1 4 4 1 1 1 4 1 4 1 1 1 1 < < < < > < < < > 5 < 0 4 1 4 1 5 < < 1 5 < 4 4 > > < < > 1 > > 1 > < 1 3 1 t 4 > 1 1 1 > < % 5 w # O   % % % % % > 1 % % > > % % > > % % % % % % p 1 % % % % % % % % % % @ @ @ @ @ @ + % @ @ @ @ % @ @ + @ + % $ @ + + + + + + > % 1 @ % @ @ @ + @ @ @ $ 3 . # 3 @ % % 3 . 6 3 + + + + + + @ + + + + + + + + @ *   H +X7X7 3.a.  #.dX+XO _ ( ) ( ( ( ( ( ( ",
"I I L U ( ( ) ( ) _ p dXdX6 8 sXc._.jX!.  7 * @ @ @ % % @ % % @ % @ @ @ + + @ @ @ *   ` U.. % % % % % % > % % % % % % % % % % % > % % % % > 1 > % 1 % % % % % % % % > 3   T.u., D 5 5 1 1 1 % % % % > < > > 4 l 8 5 1 < 1 1 1 1 < 1 1 1 5 4 4 5 0 1 1 1 < 1 > 1 1 < 1 1 1 < < < 5 5 t 1 1 3 1 1 1 1 1 1 1 < > 1 1 < 4 4 1 4 4 4 4 5 4 4 4 4 4 1 4 0 y 1 4 4 4 4 4 4 1 4 1 1 4 4 5 4 1 3 > 1 < > 1 1 > q d c t > 1 3 1 < 1 1 1 1 4 1 > > < > 1 3 > > > > 3 3 4 4 4 4 < 4 1 < > 3 . H / . # ' 4 @ < % % % % % % % % % % % % > % % % % > _ 5 % % % % % % % % % % % @ @ @ % @ @ % % % @ % @ @ @ @ @ @ $ 5 5 @ + + @ + @ > > 4 @ + % 4 > 3 < % > > , 9.! . % > 5 6 % 5 % + + + % @ + + + @ + + + + + @ % -   F 7XdX7 q.u.  #.jX+X  _ ) ) ( ( ( ( ( ( ",
"I I L U ( ( ) ) _ _ p dXjXj , sXv._.dXT.  3 % @ @ @ @ % % % % @ @ @ @ @ @ + @ @ @ % @ 4 y % % % % + % > % % % % % % % % % % % % % % % % % % % % > 5 > % % % % % % % % 1 > F d # w q y 1 % % > > > > > 1 1 5 , @X@X, w 4 1 4 5 < 1 3 1 1 5 1 t q 1 1 1 4 < < < 1 4 1 1 1 1 < < < < 5 5 1 1 3 1 1 1 4 1 1 1 1 1 1 4 4 5 0 4 5 5 4 4 4 0 4 0 0 1 4 0 m n e 4 4 1 1 1 1 1 1 1 4 1 1 1 1 1 1 1 1 1 1 % 1 1 y p 1 4 1 3 3 1 < 4 1 4 4 1 1 1 1 < < < > < > 1 < 1 3 1 1 1 4 < > < % < 1 > $ # 1 d ` 4 @ 3 1 < % > 1 > > % % % % % % % % % > % # > % % % % % % % % @ 3 > @ % % % @ @ % @ % % @ @ @ @ @ @ @ @ @ % < @ + + + + $ $ 3 > + > 5 % % > > > w l eX@X. 7 > % % % @ + @ % @ % + + + 3 % @ + + % + % @ *   F 7XjXY 3.g.  6.kX+XO _ _ ( ( ( ( ( Y ( ",
"I L K / ( ( ( ( ) _ M jXjXj , sXv.W.dXU.  3 % % @ @ @ % % % % @ @ @ @ @ @ + @ @ % 3 @ @ X @ @ 5 < % 5 ' @ % % % % < % % % % % % % % % % % % % @ @ % % > > % % % % > > 5 3 . O % O % $ > > % % > 1 > < > > 5 8 U.U.8 0 4 1 1 1 < 4 < 1 1 1 < 5 5 4 1 < 1 3 < 1 < 1 4 1 1 1 1 < 1 1 1 1 1 < < 4 0 4 1 4 1 1 4 1 < 5 0 1 4 4 4 q 4 4 4 4 4 0 0 4 t 8 @X Xl y 4 0 4 4 4 1 0 4 0 4 1 1 1 1 1 1 1 4 4 1 4 > > % 1 < 1 < < < < 3 3 5 1 1 4 1 4 1 1 1 1 1 > 1 1 < 3 < % % 1 > > % % % % % > > w a.  > > % % 3 1 < > > > > % > % 1 1 % % < % % 1 > < % % % % % @ % % % % % % > > @ < $ @ @ @ @ $ > < + + % @ % @ < @ + @ + @ > @ > @ + @ X @ @ @ @ $ 4 t n m 4 > % > % % % % @ @ @ % + % % % % % @ + + + + + %   g 7XjX( r.g.  u.kX+XX _ _ ) ( ( ( ( ( ( ",
"U L K U ( ( ( ( ) _ M jXjXj , nXv._.jXT.  7 % % % @ @ % % % % @ @ @ @ % + @ @ @ % % @ < > % % @ < 5 % 3 % % % % % % % % % % % % % % % % % % X c t @ > % < % % % % 1 > 1 < < < % % % > > > > % % > > > 1 > 4 0 , , y 4 < 5 1 < % % > 1 1 1 1 5 3 5 3 $ 1 1 1 4 1 < 1 1 1 1 1 1 1 1 1 4 1 1 5 1 1 < 1 1 4 1 0 4 1 1 4 4 5 1 4 0 4 5 1 0 0 4 0 4 0 b 1.1.1 4 4 0 4 4 4 1 0 0 q 0 1 4 1 1 4 1 y 5 1 1 1 1 1 4 1 1 1 < < 1 < < 5 5 1 1 1 1 1 1 1 1 4 1 > > < < 1 > % w 4 > > % % % % % > 1 > . 1 % > % % 1 1 3 3 > > % > 1 < > % % > > % % % % > > 1 < % % % % < 4 $ > > % % % % $ $ @ $ $ @ < 3 @ + 3 @ @ @ @ + @ O % > & @ % @ % $ @ @ % @ % 1 > $ 4 % % < % > % % % + @ % % % + @ @ @ @ < % @ + + + + *   D dXjX/ 3.g.  u.jX>Xo 3._ _ ) ( ( ( ( ( ",
"U U L U ( ( ) ) _ _ p jXjXs , nXv._.xXT.  i @ @ % @ @ @ @ % @ @ @ @ @ % @ @ @ @ % % % % % % @ % % < % 4 % % % % % > % % % % % % % % % % % % @ 5 4 % > % % > % % % > > 1 > > < < % > > > > > > % 1 4 > 1 1 0 1 5 5 4 4 > 4 1 1 4 4 5 5 % 1 q 5 5 < < S 5 1 4 4 3 5 1 1 1 1 1 4 1 4 4 5 1 5 4 4 0 > 1 1 1 1 1 1 1 1 4 0 4 4 0 4 4 4 5 0 4 4 0 q q q 2 2 q 4 4 1 1 0 1 1 > 1 4 4 1 1 3 1 5 5 1 < 4 1 1 1 < 1 1 5 3 1 1 1 3 5 1 5 5 5 4 1 < 1 1 4 4 1 1 < < 1 5 < % 0 5 > 1 1 1 1 > % > 4 > 3 > > > > > 3 3 * % % < > > > > % 1 % > > % % 1 > > < % % % @ % % % % % & 1 > % % % % % $ > > $ @ @ % @ $ @ @ % @ @ 3 3 @ % @ @ q @ @ % % % % > > > % % 4 > @ 4 4 + + + @ % < % @ + % % % @ @ + + @ + + + + *   L dXxX( 3.g.  6.jX+Xo _ _ _ ) ( ( ( U / ",
"Y U L / ) ) ) _ _ _ p jXjXs 8 hXn._.xX!.  3 @ @ @ @ @ @ % @ % @ % % @ @ @ @ @ @ @ @ % % % % % % @ @ % 3 % % % % % % % % % % % > > % % % % % % @ @ % % % % > % % > < < < % 3 < < < > > 1 < > > > < 1 1 1 5 1 1 5 3 < 1 4 1 4 > q 1 w 5 4 1 q 5 < S t w 5 1 0 4 5 q 1 0 4 1 4 0 1 q 5 1 1 1 1 4 4 1 4 1 4 1 4 4 1 5 0 1 > 4 q 0 0 4 q 0 4 q 0 q 4 5 q 0 q 0 4 4 4 4 1 0 > > 4 0 4 4 1 3 5 1 t y 4 4 1 4 1 4 1 3 < q 4 % , 5 1 1 5 4 4 q e 1 4 5 1 1 1 1 1 1 1 1 1 % 1 1 4 4 1 > > > 4 > > > % > > > 1 < 1 < < 1 > t 1 % % % > % % > > % % 4 4 % % % @ 5 > @ % % % w > > % $ 5 3 % > $ $ > @ @ $ $ @ $ > $ @ $ 4 5 @ > + @ @ @ @ 4 4 % > > % % % % > > > > 3 % > % + @ @ + @ $ @ % % + + @ + % + + @ + *   ( jXxX' q.p.  #.jX+X  4._ ) ( ) ) ( U / ",
"U U I ( ) ) ) _ _ _ p jXjXj 8 hXn./.jXT.  3 @ @ % @ @ @ @ % % @ % % @ @ @ @ @ @ @ @ % % % @ % % < % % % % % % % > % % % % > < < > % < % % % % % % % % % * > % > > < % % % % < < < > < < < > > > 1 4 1 1 > 1 1 4 1 4 < 1 < > < > S 5 1 y 4 < c 1 ' S v 4 0 q 1 5 1 4 4 4 1 4 4 1 1 1 4 1 1 1 1 4 1 1 0 4 1 4 4 4 q # #._ O q 4 0 4 4 5 4 y 4 4 4 4 4 0 4 q q 0 0 1 t q y S 0 0 1 4 5 4 1 q J 0 4 4 1 4 1 1 5 0 0 4 # H / # 4 0 q 5 q 0 t q 1 < 5 4 > > 4 3 1 5 4 1 < 4 1 1 > > > 4 4 > > > > 3 > 1 < < < < > e 1 4 % % > > > > > > 4 > > > $ > % > % 3 > 4 < 5 $ D 4 $ > % 3 > % > % > % @ @ 3 6 & @ @ @ + @ & & % @ + @ % @ @ > > > > % % @ > > % % < % % % > % @ > 5 @ % % @ % $ @ @ @ + + + + + + 3   _ lXxXH w.g.  #.kX+X  3._ ) ) ) ) ( U / ",
"( ( U ( ) ) _ _ _ _ p jXjX7 8 hXn._.jXT.  3 = @ % % % % * * * @ % % @ @ @ @ % @ @ @ % % @ % % % % < % % @ % % % < % % % % % < > % > 3 % % > % % % % % % % % % % % > % % > % < < < < < 1 < > > 1 4 1 > > 1 < 1 5 4 4 4 4 5 S > 1 ~ q 4 J c 1 e ~ 1 1 q q 1 4 0 4 4 5 4 4 4 0 1 1 1 1 1 4 1 1 1 1 1 1 4 4 4 4 5 4 q > q w 4 4 4 1 4 4 0 q 1 4 0 y 4 4 4 4 4 4 q e > # 4 q t q 0 1 q 5 4 t 5 w 3 5 4 4 4 4 5 4 4 y 4 > w d > 1 0 0 0 e q 1 4 1 1 1 > > 4 q 4 1 4 4 1 1 > > > % > > > < > < > < < > 1 1 3 3 3 * 4 5 % > % > > > > > % % > > w 5 > 4 4 1 $ % F < < < O > > > % @ $ $ > % 4 > % O 6 d & % @ @ @ + % % @ $ % @ @ @ > $ $ > @ @ % % @ @ $ % > % % % % $ > 1 3 @ @ + @ + @ % % + + + + + + @ *   ` jXxX` q.g.  ` kX+XX q._ _ ) ) ) ( / ( ",
"( ( U ( ) ) _ _ _ _ D jXjX; 9 hXn._.dXW.  3 = % % = + % 3 * % * 3 @ % % % % 1 % % % % 3 % % % % % % % % % % % % > > % % % % > > % % % % % % % % % % % % % % < 3 > > > % < < 1 1 < < < 1 < 1 1 1 1 1 > > 1 1 1 1 1 1 4 4 5 w % q ^ 4 4 1 y e 1 t q 0 5 4 4 4 4 1 4 4 4 0 4 q 0 0 1 4 1 4 1 1 1 1 1 4 4 5 1 4 5 1 4 G 1 1 4 4 4 1 4 4 4 0 0 1 4   > 0 4 4 4 4 4 > S #.# q q 0 4 4 q 5 0 0 4 1 5 4 4 q 5 4 4 4 1 q 1 1 > , 1 1 1 0 0 4 4 3 4 4 4 1 > > 1 4 1 1 4 3 1 > 1 4 > > > % > < < > < 1 > > % > < 3 4 < 5 5 > > > % > 1 > > % % % $ p d $ 3 4 > M S O < > > < > w p & % > % % % % > $ @ 1 $ % % % % $ @ % % $ % % @ @ % > @ @ + @ % @ % + $ % % % % % % > + $ < @ + + @ > % @ @ @ @ @ @ + + + @ *   ` jXxX` q.u.  ~ kX>X+ 3._ _ _ _ ) ) ( ( ",
"( ( Y ( ) _ _ _ _ _ D jXjX; b gXn._.jX!.  7 = = % % w % % < = % % + % % % < 5 % % 5 5 @ % % % % % % % % % > % % > 1 > < % % % > < < % > % 1 > % > % % % < < % < > > > > < 1 5 1 1 < < < 1 1 1 1 < < 1 > 1 1 1 5 1 4 < q 0 0 q 0 0 0 4 5 > c 0 1 5 4 4 5 4 0 0 0 0 4 0 0 4 0 4 4 1 1 1 1 4 0 0 0 1 4 4 5 1 4 0 t 4 S 4 5 1 0 1 1 4 1 4 1 4 5 1 9.G 1 4 4 1 1 4 1 c ^ 5 p q 4 q q 1 4 4 4 5 0 q 4 q y 5 4 0 4 4 4 4 1 1 1 1 1 1 4 1 4 4 5 q 4 0 0 1 4 1 4 1 4 4 3 > y S 0 % > 1 > 1 1 1 4 3 3 > > > 0 4 < y 5 5 4 > > > > > > > > % % % 0 > $ > > 0 1 y y % 4 > > % % < 5 @ % % @ @ > > > > > % > @ $ @ + > % @ $ $ $ + % @ > w $ @ @ % % @ @ @ @ @ + @ % @ % $ @ @ y > @ $ @ @ < > @ + @ @ @ + + % % *   ` jXxX` q.u.  ! kX>X+ q._ ) ) ) ) ) ( ) ",
") ) ( ( ) _ _ _ 3.3.H jXjXj b bX(.`.xX!.  4 % * * % w i *   * % @ % % % % * % % @ < 3 % * % 0 % % % % % % > 1 > 7 5 > 3 < % < 3 < < < 1 % < < > 1 1 > < < % 1 < < < 1 > < 1 5 1 1 1 5 0 < 1 < 1 1 1 1 1 > 1 < > 3 < q < t #.e q 1 0 4 1 1 q e 4 5 3 4 5 0 4 1 4 0 0 4 4 4 0 4 1 0 1 0 0 4 0 1 4 1 4 0 0 0 0 4 q 0 1 5 4 4 4 0 1 4 4 1 5 0 5 , +X#.# 0 0 4 1 5 1 1 , 5 y 0 4 4 4 4 4 4 0 e e 4 M e q 4 4 0 4 1 4 0 0 4 1 1 1 1 1 1 4 5 w 1 4 q 4 1 4 4 0 1 4 4 4 1 q q 1 5 5 1 4 1 1 4 4 < 1 > 1 0 q 5 < 5 4 % 4 1 1 > > > > 1 > > > > 1 4 > > 1 < 1 1 % 3 > > > > < > > % > > @ > t 4 % > > % % $ % % % < % $ $ % @ + @ @ $ % @ $ @ % @ @ > $ % % + @ > 3 % @ @ % $ $ @ @ + @ @ @ @ % % @ + + % % % 3   #.jXxX/ r.g.  <.zXdX# q._ _ ) _ _ ) ( ) ",
") ) ) ) ) _ _ 4.3._ P jXjXd V CX).`.xX!.  3 % * * @ . * 4 ` 7 * @ * % % % % % % % @ % % % 1 5 < < % 1 > % 4 > q , 8 q > > > > < < < < < > % 1 1 < < < < < < 1 < < < > < < 1 0 1 5 1 4 t 1 4 1 < 1 1 1 < 1 > t d > 4 1 t J 4 0 4 4 1 4 1 5 4 q 5 5 5 4 5 5 4 1 1 4 0 1 q 1 4 4 1 1 1 0 1 1 1 0 1 4 4 0 0 q 0 4 5 4 0 4 4 4 0 0 0 0 0 0 q 5 4 q # 1 4 0 4 0 4 0 t c S > 1 0 4 4 4 5 5 0 e 0 0 4 y G y 1 4 1 q q 1 0 0 1 1 4 1 1 1 4 4 4 4 4 4 0 0 0 0 1 0 q 4 5 4 0 0 4 0 y 0 4 4 t q 1 0 0 1 1 1 0 4 4 0 4 5 0 0 y 0 0 2 1 > > > > 1 > 1 > > > 1 < < 1 1 5 1 > > > > > > % % > > 4 1 $ % % % % % 4 % % > @ @ @ @ > @ @ @ @ @ $ @ $ @ @ % % $ $ % + . % @ 3 % @ @ + > > @ @ @ @ % @ @ $ $ @ $ @ % % % 3   #.jXxX/ r.k.$ k.cXdX# r.3.4._ _ _ ) ( ) ",
") ) ) ) ) _ _ 3._ 3.H jXjXd E CX)._.jX!.  6 * % @ % 3 % 4 9.    3 % % % % % % % % % % % % 4 < * < 3 5 1 1 4 q 8 @X@X8 q 1 3 3 < < > 3 < < % 1 < 1 1 < * < > 1 < < 3 < < 1 4 0 1 y 5 < y 5 1 5 3 < 4 5 1 4 > S D 1 q 1 t S % 5 4 4 4 4 0 4 1 q 4 5 5 5 4 1 0 4 1 0 v 0 4 y 4 1 1 1 1 4 4 4 1 0 4 0 0 4 4 4 0 0 4 t M 4 e 0 q e 0 0 0 t 4 4 q 0 y q 4 0 4 0 0 4 q 0 1 4 0 4 4 0 4 5 4 4 4 1 % 5 1 S 0 1 4 4 4 4 1 1 1 1 1 1 1 4 4 4 4 4 4 4 4 q e e 0 4 0 q 4 4 4 q e e 4 4 5 y 4 0 t q y S 1 4 4 4 4 1 0 4 4 q 1 > > , 0 4 > > > 1 > > 4 1 1 < < < 1 4 > > 1 > > 1 > > 1 > 1 % 0 4 4 5 > $ % > % q % @ > $ @ @ % % % % % @ % % @ $ % @ % $ 3 > . 6 w @ % O @ % > + @ $ @ @ @ % @ @ + $ $ @ % @ % % % 3   #.jXxX/ a.k.X U.cXdX, r.3.4.4._ _ ) ) ) ",
") 4.) ) 4.4._ _ _ r.H jXjXs E bX(._.jX!.  i % % @ 3 5 % @   T.#.  * @ % % % @ % % % % % < > % % % 1 3 < < 1 5 8 W. X8 5 4 3 3 > > % % > > % < 1 % 1 < < < < < < < 0 4 > 4 1 0 > > 4 1 1 1 1 4 1 < q 0 1 1 1 % # 1 < 5 4 > 4 1 1 4 4 1 0 4 1 q y 0 5 4 0 1 0 0 1 1 t 0 4 t 0 t S 1 5 4 4 4 4 e 4 0 t 1 4 0 4 e t O , q q 0 q q 0 e r 1 0 0 4 4 0 0 4 4 1 4 4 1 0 4 1 1 4 4 q q 4 4 4 4 > t H > t 1 4 4 3 5 1 0 0 1 1 4 4 1 1 4 4 4 4 4 4 4 4 0 4 e t 0 y c 0 q e 0 q q 1 0 4 4 0 y > 4 1 1 4 4 4 4 . 3 4 1 > > 4 > c d , 4 > 1 1 4 > > 4 1 > > > 3 < 1 1 > > 0 > > > > > > 1 0 > > 4 w $ > $ + @ @ % @ % $ % % % $ @ % @ @ % $ @ @ @ @ % O t 5   w w @   9.H   @ + @ $ @ @ + @ @ @ @ @ $ @ + + + + @ *   ` jXxX) r.b.  <.zXdX, r.3.3.4.) _ ) ) ) ",
") ) ) ) 4.4.4.4._ q.P jXjXs P gX(.!.jX!.  < % * % % @ % 3   g.#.  < w % % % % % % % > % > > < % 5 < < * < < 1 y , , 5 1 > < < > % % % % > < < 1 % < < < 1 1 < < 1 1 4 4 y 1 1 1 1 1 1 1 4 4 4 1 1 1 1 1 4 4 1 1 0 4 % 1 4 1 4 4 4 4 1 1 4 4 1 4 0 4 1 4 1 4 0 e 4 5 4 4 0 1 M ~ 4 y 0 1 0 q 0 q t 1 S t H 4 t 9 #.^ 1 q 0 q e q 0 0 4 0 0 4 0 0 4 4 0 0 1 0 0 4 4 0 4 1 0 0 0 4 4 1 4 0 c ~ > S e y 4 5 5 1 4 1 0 1 4 1 4 4 4 4 0 4 4 1 1 4 4 4 0 t A v v A v 0 q 4 4 0 q 4 3 0 q 1 4 1 4 4 4 1 y h.4 5 1 1 > 1 # H _ # 0 > 4 > > > > > 1 5 1 > 5 > 1 > > > q 4 1 1 1 > 1 4 > > 4 > & % > > > % % : $ $ > > 3 % $ % % @ > % @ @ % @ > < > O w > O O % + 4 > @ @ @ @ @ + + @ @ @ + @ @ @ @ % % @ % 5 3   ` jXxX_ r.k.  #.cXdX. r.r.3._ ) ) ) ) ) ",
") ) ) ) ) _ _ _ _ r.J jXxXs J gX(._.jX!.  7 @   % < @ < % 3     3 1 0 > % % % % % % % % % % < < < * 3 3 < 4 4 > 5 0 > 4 1 1 1 > > > % > 4 < 1 < 3 3 < < 5 5 1 < 1 1 1 1 > 1 > 1 1 1 4 1 4 4 1 > S t > 1 1 1 1 1 4 4 < 1 1 1 1 0 4 4 q 1 1 0 1 c M 1 0 4 4 4 4 0 5 4 0 4 4 c t > 0 4 4 4 5 4 0 e t 0 # 0 q c t . _.T.  t t e p #.0 0 4 0 0 0 0 e 4 0 0 q 4 0 0 4 4 4 0 4 q 0 0 0 0 0 t S , , 0 1 R q < 4 5 4 0 4 0 0 0 q 0 0 q y 0 q e 0 e q q q t v X.P. XX.x 0 0 0 0 0 4 4 5 4 0 1 1 1 1 5 1 3 0 W 0 > q 0 > > 4 0 . 4 4 1 0 1 > 4 0 1 1 4 4 1 > > > > > > > 0 y w 1 0 4 < > > 4 > > > > > > $ > % % @ > > . . % % % % % % % % % > @ 3 5 + 3 % @ % % % + % @ @ @ $ @ @ + @ @ @ @ + @ + @ % % % % 3 3   #.jXxX#.r.k.O <.cXdX, r.r.3._ _ ) ) ) ) ",
") ) ) ) ) _ _ _ 3.3.M jXxXd J gX(.+XcX!.  3 5 U @ < % % % 1 5 % % 5 % % % < % % % % % % % < * % * * < 1 < 4 1 1 1 4 3 1 4 1 4 1 > % < < 4 > < 1 4 4 < 1 1 1 < < 1 4 1 1 4 4 1 1 1 4 4 4 0 q q 1 0 0 4 0 1 1 1 1 1 1 1 4 1 4 4 0 4 1 1 1 1 4 4 0 c 0 0 0 0 0 0 e e 0 4 0 0 G M 1 4 5 4 0 4 4 0 0 q 2 _.#., v q t l 9 J 0 c G v E 0 t y q t 0 q 0 0 4 q t 0 0 4 0 0 4 0 0 e q 0 e t G G 1 1 4 y e c q t 4 5 4 0 0 v x 1 0 q 4 4 0 4 0 0 0 q q e t v ~ ] eXeX] ! v c y y 0 0 0 4 4 4 1 4 4 1 4 p > 9.t 1 4 4 > 1 1 0 c 0 1 1 1 4 1 4 4 4 4 1 3 4 1 1 1 1 > 4 > > q m l S q > > 4 3 % > % > % % % > > > % > > O d D O < > % % % % > $ % % % % % > + % @ @ % 3 3 $ @ @ $ $ @ @ @ @ @ @ + @ + @ % % @ % % 3   6.cXvXu.p.T.. h.vXnXz r.r.q._ _ ) ) _ ) ",
") ) ) ) ) _ _ _ _ 3.N jXjXd J BX).+XxX_.  7 5 / . * % % % % % * 3 % % < < % 5 < 5 y > % < 3 * * * < 4 4 1 1 > < 3 5 5 3 5 1 4 4 < > < > > > < < > < < 4 1 1 1 3 4 4 1 1 1 4 4 4 4 q 0 0 0 e y 1 1 4 0 0 1 1 1 4 1 1 1 4 4 4 4 4 0 q 1 0 1 1 4 4 0 4 4 4 4 q e e e 0 4 0 e 0 0 q q q 0 t 0 0 e S q 9 k.^ 1 4 4 q t t t t e e e 0 4 0 0 e e 0 e e 0 e y 0 0 e 4 e 0 0 0 0 0 0 q 9 G S x v 1 > J ! , 4 y y q t q 1 1 0 c 0 q 0 0 4 4 4 4 4 4 e q 0 e v ..M.C.2.v v v t y q e e 0 0 4 0 1 4 1 0 y > y > 1 0 4 1 > 4 4 0 0 > 1 4 4 4 0 4 4 4 1 4 4 1 4 4 1 1 4 4 y 8 @XdX] w 0 1 > 4 > > > > > > $ % > % % > 4 . F / . < @ 3 3 % > % $ > % % % % $ @ @ $ % @ t 3 $ $ @ $ % $ @ @ @ @ + + + @ % > % @ % % 3   6.cXvXr.l.T.  h.vXnX9 r.r.q._ _ _ ) _ ) ",
") 4.( ) _ _ _ _ _ 6.M jXjXs E CX)._.jX!.  3 3   % % * % % % % * < * * * < * 3 1 < 3 % 5 1 > * % 0 1 1 < 4 4 < % 4 4 3 < < < 1 4 1 1 1 1 < < 1 1 1 1 < > 1 0 5 1 3 1 1 4 0 0 q 0 0 e 0 0 e 0 1 1 4 1 4 4 1 4 1 1 1 1 1 4 4 q 0 4 0 y 1 4 1 1 4 1 q 4 4 0 0 0 q 0 4 4 4 0 e 1 0 0 q q 4 0 y , ^ Y.8 t . 2 e q 0 4 c t 4 e 0 c r 0 0 4 q q 0 0 0 e 0 t t 0 0 0 0 e 0 0 0 0 0 q 0 c 0 1 M q 1 1 t S 1 4 4 5 5 q q y q 0 y y y 4 t 4 4 0 q 4 5 e t q r v b n n W A y q q 0 4 0 0 4 4 4 0 4 4 q 0 $ c o.> 4 1 > 4 4 4 y 0 e 1 4 5 3 4 4 4 4 3 1 1 4 0 > > 4 4 1 1 y l @XdXZ.G c e 0 4 1 1 > > > > > > % > 3 % $ % $ . O > % > % @ % % $ % @ % % % @ % % % % % > @ @ $ $ $ % @ + + + @ @ @ + @ > % % % % > 5   #.cXvXr.l.T.  h.vXnX8 t.r.3._ _ _ ) _ ) ",
"4.4.4.) _ 4.4._ _ _ D jXjXs E CX`.`.xX!.  w * < * * * * * * < * * * % * 1 < % % * % % 5 4 4 % > v 1 % 1 4 4 < < 1 1 1 1 < < 4 1 1 1 > > > > > < < 1 < 4 1 1 1 < 4 4 1 4 q 4 q e 0 G x v e 1 5 4 e 0 q 4 4 4 1 4 1 1 q t 0 4 4 4 4 0 4 4 4 4 0 e 0 0 4 q 4 0 0 1 0 0 4 0 0 4 0 0 e 0 y x 4 0 0 1 e x y 0 r q 0 4 q 0 0 4 4 c q c q 4 t q e y 0 e e e q 0 0 0 4 4 0 4 1 0 0 q 0 t 0 c e 4 4 4 1 1 0 0 4 4 5 4 0 e 0 4 0 y y 5 4 4 q 1 , q 1 4 q e e 0 0 v c x v e e e 0 0 0 0 y 0 0 0 > y S > 4 0 q 4 4 0 4 1 4 4 4 4 4 0 q 4 3 0 4 4 4 4 4 3 4 4 4 1 1 > 4 4 0 t l l v e 4 4 4 4 4 4 1 1 1 > > > > > > % % @ 5 w w $ % % % % % % % @ @ @ @ @ @ % @ @ % % > % @ % % % @ % @ @ @ + % % + + % % % % % % 3   ` jXbXu.z.T.  <.vXsX8 r.r.q.3._ _ _ _ _ ",
"4.4.4._ _ 4.3.3.3.q.P jXjXs ! CX`.+XxX!.  i % * * 3 * * < < < 1 1 * * < < 1 % < * % < 3 > 0 w 4 4 > < 1 4 1 4 < < 1 < 5 < < 4 1 1 > > > > > > < 1 1 1 4 1 1 1 1 1 4 4 1 1 0 0 v 2.] 2.v 0 4 4 4 G e q 0 4 q E 1 4 4 4 4 4 4 0 q 4 q q 0 4 4 q r H p 1 q 4 4 4 4 4 0 4 4 0 0 0 q 0 q e N q 1 q v v e q q r r e 0 0 t 0 4 0 t 4 4 q q G S t c r e e r e r e 0 0 e 0 0 0 4 q 0 0 q 0 t q e q 5 4 q 0 0 0 1 4 t 0 q q c 0 0 0 0 0 4 , H k., 5 q r 0 0 0 q v c t r v 0 0 0 0 q 0 y 0 0 4 M c 1 4 4 4 1 4 5 q 0 1 1 1 4 y 1 1 0 1 5 4 4 1 4 0 1 > > > , 1 0 1 0 q 0 > c d 0 x 4 4 4 1 < > > > 3 > % > > % 3 > > 5   F p.  4 > % % % > % % % % % @ % % % % 4 @ + + + @ % % % % @ $ + %     + % % % % % % @ >   _ jXbXu.k.T.  <.vXsX8 r.r.r.3.3._ _ _ _ ",
"4.4.) _ _ 3.3.3.r.r.P jXjXh E CXrXOXxX!.  3 * % * % % * 1 1 > < 1 3 * < * > < % 5 5     3 , O # 4 1 1 < 0 4 1 1 1 1 < 1 1 1 1 1 1 1 1 1 > > < 1 1 5 1 1 1 1 4 1 0 0 0 4 q e v b P.jX].n v x x e r e 0 q 4 4 q 0 c 1 4 4 4 0 0 q 0 0 0 0 1 e c 0 G q 0 0 e 0 0 q 0 4 0 0 0 0 0 r x t q t e G N M 0 0 e e r c r q e G c ! r c c v v M c c e e c e e e q r e 0 0 e 0 0 0 0 0 0 q 0 0 e 1 M y 4 q 4 0 0 0 4 4 0 0 > q t t q e 4 4 q 4 t ' 2 t r 0 4 q 0 e v t e 4 0 e q 0 0 0 4 0 M 4 1 S e 4 4 5 5 1 0 4 4 q 4 4 1 4 4 c 0 0 0 3 4 0 1 0 q 4 4 > 0 / 1 e 0 > 4 4 4 q 0 4 q e 0 3 3 5 > 1 3 % % % > > > > > O   0.q.  3 > > % % % % $ @ % @ % % @ % $ % > @ % @ @ @ @ % % % @ % 3   #./   < % % % % % % 3   #.lXbX#.g.T.  h.MXnX8 r.r.3.3.3._ _ _ _ ",
"3.4.) _ 3.3.r.r.r.r.^ jXxXh ! FXrXOXcX!.  3 < * % % * < 1 1 1 < * 3 * < % * < % 5 , ` u.  1.dX;.O 5 1 < > > < < < 1 1 1 1 1 1 1 1 1 1 < 1 1 1 1 ,   5 1 5 4 5 1 0 0 0 4 0 e x b P.jX].2.A c x t e e q 1 4 4 t 0 0 4 4 4 0 e 0 4 q q 0 4 0 0 c t c 0 q 0 q 0 0 c 0 0 t 0 e r 0 x c 0 q q e c r 0 0 q 0 q e c 0 q q e G E v ! e G N e e q c c 0 0 e e e c x e 0 0 0 4 0 0 0 q e 4 0 0 0 4 4 4 4 4 q 0 0 r e 9 c E 1 q # 9 e 0 4 q e , #.S 1 q 0 4 q 0 r r 0 q q 4 e 0 q 0 0 5 0 q q q 1 4 4 4 4 4 4 4 0 4 4 1 y 0 4 4 y q M q 0 4 0 t 0 4 q 4 0 0 t x x 1 3 > 4 4 0 5 0 4 q 0 1 4 < > 1 % > % > % > % 0 O H y / ( O 3 > > 1 % % 3 q > > $ > % @ % $ $ @ @ % @ % % % % % % % % % & k S > < % % % % % % 3   #.cXbX` p.T.  k.MXnX8 r.r.3.3.3._ _ _ _ ",
"3.4.) _ 3.3.3.r.r.r.E jXxXs ! FXrXOXxX!.  5 * % % % % < % * % * % % % < < 1 1 % 3   b._.  ~ @X1., < 1 4 t y 5 1 1 3 5 1 1 1 1 1 1 1 1 < 1 < 5 # J u.# 5 1 1 4 4 1 4 1 4 4 4 0 v 2.] 2.A q q 0 q 0 0 e 4 q 0 t q 0 4 4 4 4 q 0 4 q e 0 q q 0 e t c 0 e 0 0 4 e 0 e e 0 0 0 e r q q M t q q 9 e t e q q e q r e 0 G t t 0 4 e q e t t c q t t e 0 0 0 e e r e 0 e e 0 e 0 0 0 e 0 c q 0 q 4 4 0 4 4 0 1 1 t G v h.4 8 x.` , 0 4 0 q e t q 4 q q q q 0 c e q q t 0 0 0 e e 0 4 q 4 0 q 4 4 5 q 4 4 1 4 q 0 1 1 1 1 4 4 > t 0 1 q 0 0 x , y e y M r r 1 1 4 1 3 1 4 4 4 5 4 1 4 0 > 1 > > > > 1 % % > % > . / F   . 3 > % % > > 1 > 3 1 > > > > % % % % @ @ % % % % % % % % % % % %   . 0 4 > % % % % % <   6.cXbX` g.T.  T.SXfX8 t.r.r.3._ _ _ _ _ ",
"3.3.) _ 3.3.3.6.r.r.J jXjX3 R FXrX+XxX!.  5 . O < * % % * % % % < < % % % * + < 3 3     5 O     c J $ 3 q c 4 1 1 1 1 3 4 1 4 5 1 1 1 1 1 4 5 $ S a.# # 5 1 1 1 1 4 1 1 4 0 c x y R x A v 0 q 4 0 0 4 0 q 4 0 4 4 4 4 q 0 0 4 0 0 q x q 0 q 0 q e 0 4 e q 0 e x e e 0 0 0 q e e q e q q 4 N c e e 4 q q 0 0 q q e q t q c t q G v 0 c e r r e 0 e 0 0 0 e e e 0 e e e x q 0 0 e e q 0 e 0 0 0 0 e q t t y G e , q 8 c.` , q q y 0 q 0 4 0 q 0 q 0 r e t q 4 0 0 0 4 0 0 0 0 4 4 y 4 > 4 4 0 4 4 4 1 1 1 q e 1 q 4 0 q 1 0 1 4 0 # 9.S #.^ y G 9 0 4 1 4 3 1 q 0 q 4 4 4 > > 1 0 1 > > > % > % % > > % >   , 5 1 1 % > % > > 1 > > > % > % % > > > > > % % % % % % % % % % > 3 % % 1 1 > % % % % % % 3   6.xXbX_ g.T.  T.SXfX8 r.r.r.3.3.3.3._ _ ",
"q.q.) ) 3.3.3.3.r.r.J jXjX. R FXrX+XxX_.  * H J   * % % % % % % % < * * < 5 J 1 5 % 3 5 > 1 6 1 5 y 1 4 y 0 4 < 1 < 1 1 4 1 1 1 4 4 1 1 1 1 1 5 $   / b.# 5 5 1 4 1 4 4 q r r 0 q x q q e t e q 0 e 0 0 0 4 0 q 4 4 1 0 0 0 0 q 0 0 t q 4 0 q x q e q 0 0 r x e q e q 0 0 0 e e e q 0 0 0 v e 0 q 0 q q e 0 0 t r x r e e r e c v 0 t e r x e 0 e c e e r 0 x x e 0 v v 0 q e e e q q q 0 4 0 q 0 0 v e e 0 e e ^ ~   e ~ 4 c t 0 q 0 0 4 4 q 0 0 x N c 0 t t 0 t 0 0 1 4 4 4 0 1 t y > 4 4 4 q 4 4 4 1 q e 0 1 > y t 4 t 4 1 4 1 ~ c 2 > t M > 4 4 4 4 1 > 4 4 4 4 1 4 3 1 5 4 4 1 > > > > < > % > % % 1 y w $ > 4 > 1 3 > 1 1 1 1 1 > > % > > % % > > % > > % < < < % 4 1 % % > % @ % % % % % > % 3   #.xXbX#.g.T.  W.SXnX, r.r.q.3.3.3.3.4._ ",
"3.3.( ) 4.3.3.3.r.r.N jXxX, ! FXrXOXcX+X. 5 J w + % % % % % % < % % < 1 t t 0 % % * % % < 1 1 1 > % 5 5 1 q q < 1 5 5 < q 1 4 1 1 1 1 1 1 1 1 > 4 1 d ' > 4 1 1 4 4 0 q t 4 0 0 0 e e t q y y q q t 0 0 4 4 0 e 1 1 c e q 0 0 0 0 0 t t 0 0 q e 0 0 r 0 r e 0 0 0 q q e 0 e e e q 0 0 0 0 0 0 0 0 q t r r 0 e e e e e e r r c x x 0 e t r c q 0 0 e 0 0 e e r r 0 0 r e 0 q e e q q e c e t 0 0 x v 0 0 0 0 0 e 0 e y M G 1 e t q e e 0 0 0 r r 0 e R c 0 t t e r q q 4 0 4 0 x , J S 2 q 4 0 0 0 4 4 4 0 > 1 1 1 1 c z 8 e e r y , 1 0 q 1 > 4 1 4 4 4 1 1 0 0 1 q 4 4 q 4 5 1 0 1 > > > > > > % % % % 1 % % > 4 > $ > % > 4 4 4 0 4 > 1 > > > > 4 > > % > > % > 5 > > 1 > % % % % % % % % % % > % 3   #.xXbX_ p.T.  T.HXhX, r.r.r.3.3.3.3._ _ ",
"3.4./ ) 3.3.r.r.r.t.C bXMXF ! FXrXOXcX+X  3 . + % % % % % % % % % % 1 w % % % % % < < < 1 < < 1 1 < 1 5 5 q r y 5 4 1 1 4 1 1 4 4 1 1 1 1 1 1 4 1 4 0 , 5 q q 1 0 4 4 0 q 0 4 0 e t e t t 0 0 q q 4 y 0 0 0 e q c 1 ^ S 0 q q 0 q 0 0 e c 0 e x 0 4 q r e 0 0 0 4 0 0 4 0 0 q q r c 0 0 c N e e r t q e e 0 e 0 e v r e e t e r e e e e x c 4 ~ Q 9 r r r r 0 e e r 0 e 0 0 q 0 9 c c G e x c 0 t t 0 q q q 0 q e 0 q e 9 q q e q e e e x x e e e q 1 0 e G 1 G G e e 0 0 4 4 4 0 , 2 4 4 4 0 4 1 1 1 4 0 1 1 1 1 q 8 W.eXm M 0 1 4 4 0 0 e 4 4 1 1 4 4 4 1 4 q 0 0 0 4 4 4 0 > , 1 % > > > % > % > > > > > > > t   ' ~ O 5 4 1 0 1 > % % < 1 > > 1 > > > > > > 1 > 4 > > % % > % % % % % % % > % % 5   r.cXbX` g.T.  T.HXhX, r.r.r.3.3.3._ _ _ ",
"_ _ ) _ q.3.r.r.r.r.Q bXMXU ! FXrXOXcX+X  i 5 @ % % % % % % * % % % * % * < < < % % > * 1 1 1 1 1 1 1 4 4 5 1 M q 1 1 1 1 1 1 1 1 1 1 1 1 4 1 4 1 4 q 0 4 5 5 0 e 4 4 5 0 q 4 4 0 q 0 q e e e 0 e t r e 0 q t e r e t J q 0 4 0 4 0 q 0 e c c c r v x e 0 r 0 q 0 0 0 0 0 0 0 0 0 0 0 0 c N N r N ! e e e q e c e c x G r x c e r e r e e r 0 R c 4 r 0 0 r e 0 c M 9 e #.c 9 E G E v e v 0 t c 0 q q q 0 q e 0 q q t c e e t q 0 R x r r x 0 0 r 0 q 0 r c G G 4 0 4 4 0 0 0 0 2 1 M S > 4 4 4 4 4 1 4 4 0 4 4 0 y , W.eXm t 0 0 4 0 0 0 q 4 1 1 4 0 1 1 1 1 4 4 q 4 0 4 4 $ S S # q 4 > > % > y > > > > > > 4 > > 4 4 > 0 0 4 4 > > > > > 1 > > 4 4 > 3 > 1 1 > > > 1 > % % > > > % % > % % > % 1 5   r.cXbX/ l.T.  T.HXfX, y.r.r.q.3.4._ _ _ ",
"3.3.) 4.3.3.q.r.r.a.V xXMXU W FXrXOXcX+X  i 3 @ % % * % * < * % * % % 3 < * * % > % < % < 1 < 1 < 1 4 4 5 5 5 1 4 1 1 4 1 4 1 1 1 1 1 1 4 1 4 0 1 e y 1 4 q 4 4 0 4 q y 5 4 4 q 0 q 0 0 4 0 e G q t e 0 q e q e q 0 4 M y e q 0 q q q q e v X.X.W v 0 q 0 0 0 0 0 0 0 0 0 x r e 0 0 0 q q r N N e n } R 9 e 0 r x c r t r q e r e 0 e r e e r x e x x r 0 e r r , 9 ! G e x r c v e e e t q q N e q q q 0 0 e e q q c G G 4 ! x r r 0 r c 0 r e 0 0 0 0 c 0 0 q e 0 4 0 e q 4 v G , q y 0 q 4 4 4 q 4 4 4 1 1 4 0 0 v 8 8 c 4 4 q 4 q 0 e v t 1 4 1 4 1 1 1 4 0 4 4 4 4 4 4 > p p $ 0 4 > 1 > 1 4 > 1 > > 1 > 4 > 4 > > 1 3 4 3 4 1 > > % 1 1 > 4 4 1 % $ > 1 4 > > % > 1 < % > > % % % @ % % % % > 3   a.cXvX` v.T.  T.HXfX, t.r.r.q.3.3.4._ _ ",
"3.3.4.4.3.3.6.r.6.r.N xXvXH n CXrXOXxX+X  * @ < * % % % * % % * 5 % % 1 < % % < > % < * * < < < > < 1 5 4 5 y S > t 5 < 1 1 1 4 1 4 4 1 1 1 1 4 4 0 0 4 4 4 4 0 e t 4 y 0 q 0 c 0 q 0 0 t e t q x 1 0 q q y 4 0 0 4 0 0 q t e e r r r x v l @X>X] W v r x x r x e e e e 0 e e r r e e r e e r v v r v v r r 0 e N G r r 0 G v 0 e 0 e c x e e 0 v v N x q e e x h.R ! G x v 0 r v x e 0 e e e 0 c x t c 0 q 0 q 0 q e c G 0 E x c 0 r r v t c t 0 q t 0 0 0 0 e 0 0 0 0 0 0 e v G c > 0 e 0 0 0 4 0 q , c 0 q c 0 c q q S 0 4 1 q 4 1 0 4 0 0 q 0 1 0 4 1 4 0 1 4 > > 4 4 4 4 > $ 4 4 2 $ % q 0 4 0 4 4 1 4 1 1 > > > > > 4 4 4 1 0 4 > 3 1 4 1 5 4 0 % > > > < % % % % > > % % > > > 1 y 1 > > % < 3   i.cXvX#.Y.Y.  h.MXfX, r.r.r.q.q.q.4._ _ ",
"3.3.4.4.4.3.3.3.r.r.N xXvXD V CX5XyXcX+X  d 5 @ * * * * * * * * 1 < % % % % % % % % < < > < < < < 1 5 4 4 4 0 c 4 t n 9 3 > 1 4 4 1 1 1 4 4 4 4 4 1 4 4 4 5 1 4 4 0 4 q 0 0 0 4 0 e q 0 S c e 0 W q v c 0 1 4 0 0 0 0 0 q 0 0 q 0 0 0 q q n B.P.n c t r r r r x e c e x 0 0 0 0 x e r e c r e x r r v x e r 0 e c M e r x N v r r x x v r r e q e c 8 8 t r r x U.R 9 v c r r 0 0 r e e e r t e x x r e v x r 0 0 x c x G e e C V x e 0 0 e e e 0 q t 0 0 0 0 0 0 0 e 0 0 0 e 4 x S 1 4 0 t 0 0 4 1 0 ' 4 4 y 0 e 4 4 4 c 0 v t 1 0 e 0 4 4 t e 1 4 1 > 4 4 1 4 1 3 3 4 4 4 1 4 1 3 , R J . 4 1 1 4 > > 1 1 1 > 1 > > q y 5 1 4 0 t y > 1 1 4 4 > 4 4 > > > > > % % % > $ > > > > 1 > > t # > % > 1 5   r.cXvX#.Y.Y.  9.MXsX8 r.r.r.r.r.q.3._ _ ",
"3.4.4.4._ _ _ 3.r.r.V bXMXD V CXrXyXvX+X  I 5 < * * < * < * * * * * * * < % < % * % < % 5 5 1 1 1 1 1 5 5 3 5 c t , >X@X  y 4 y 0 1 4 4 0 0 4 1 5 0 1 4 0 4 t 0 w y 4 1 q e 4 0 0 q 0 q 1 e y 1 c t 0 e 0 0 0 0 0 0 e 0 q q 0 0 4 r q 0 b x b n R c e e t e q 0 0 e e x e 0 c S c e e e r r e e r r c r r e c c n m x x v r x v e v v v r r x r N 8 @XU.8 x x r , t x e r r c G c c c c 9 8 r c v x c e x r r e r r e e r v 8 @XeX8 G x e c e t t q x e e 0 0 0 0 e 0 0 0 0 e x x 1 1 q 0 G c , ` ` 4 9.q 4 5 0 4 0 0 q r 0 e y 1 0 c q 0 0 4 q t 1 4 4 4 4 4 4 4 4 4 4 1 4 1 1 > 1 > M c 4 < 4 > > > > 4 1 1 1 0 1 0 1 0 4 > 4 3 4 4 4 4 4 < < 3 1 1 > > > > > > > > > % $ > > > 4 4 . H 9.  < % > 5   p.cXvX` Y.Y.  9.SXfX8 y.r.r.r.q.q.q.3.4.",
"_ ) 4.4._ _ 4.3.r.r.C bXMXF Q FXrXOXcX@X  5 @ t < * 1 w % % < < * < % < % % % % > 0 4 1 3 5 < 1 1 4 5 4 q y c 4 q 9 1.1., t e 4 0 4 4 4 0 q 0 0 4 4 0 1 y 0 G q t M q 4 4 0 0 4 0 q ^ 4 G c 1 0 0 e 0 e 0 0 0 0 0 0 0 0 0 q q 0 0 0 t c r 0 v v c v x t r v c 0 r t e e r e c ~ G 0 e c x r e r x x x r c r v z P.eX] c v x R R v b r r x t c r c z h.;.e r e x v e x t x x e c E x c v ~ #.b R v c x e e e r e e e r e r c e ..1.x c t q e e c c e e 0 e 0 0 r r e 0 e e 0 r e c e 0 e J J 1 0 t t 0 # 0 0 0 0 1 4 4 q y 0 0 e r 1 0 e e q 0 q 0 4 4 0 1 4 4 4 4 4 4 4 > 4 1 1 1 4 4 0 # ' w > v 0 4 1 > 4 4 1 4 1 4 4 4 > 4 y 1 4 3 q 0 4 1 1 4 4 > > > > 1 4 > 1 > > % % > > % > > 5 5 p $ > < 1 6   g.cXbX` Y.Y.  b.SXhXl i.r.r.r.q.q.q.3.3.",
"_ _ 4.4._ _ _ 3.r.r.B bXMXF Q FXrXOXcX!.  7 * % < 1 y 0 < < * 1 1 5 % 1 < % % > > > 1 1 % 4 1 < 1 1 5 5 q G c 4 q 4 # $ t 4 0 q y 0 1 0 e 0 4 0 4 1 1 t _ S ' > 5 1 q 4 1 0 0 y y 0 t q e 4 q q 0 0 0 ! r 0 e e 0 0 0 0 0 4 4 0 r c r e e e r x e r v c r c x e e e r r x e e 9 r x r c c c r r x x x x r r 0 b X.U.n e x x x x V v x r r c x R N R n 9 G c r v c r t v e x c r c r t b #.T.8 N x r c e e q e x e e e r x r c e n c c q q q e q e c r e e e e 0 0 e e e r r r N e 0 c , ` #.0 ` 4 e 0 e 0 0 q q 4 4 0 1 e q 0 0 0 e q 1 c c 1 0 4 4 4 1 v y 1 e 0 4 1 1 1 0 4 4 q 4 > 0 1 > 4 1 ~ 0 > > > 1 4 1 4 4 1 1 1 4 1 4 4 4 4 0 0 4 1 1 4 4 > > > > > 1 4 > > > > > > > > > < 5 $ O > > > > 5   g.cXbX/ Y.Q.  T.JXfXl p.r.r.r.q.q.r.r.q.",
"4.3.4.4.4.4.3.3.r.r.B bXMXD Q FXrXOXxX!.  5 * % % < < 4 < < < 5 1 * % % % % > < % > < 1 * q 4 < 1 5 1 1 q q < 1 4 < 0 4 5 4 4 4 4 4 4 0 q 4 5 5 4 t e 4 w q y 4 0 4 > t ~ 4 q e y q 0 # ^ ' 1 q 4 0 e G e 0 0 0 0 0 0 e 0 M c 1 ~ v 4 r e e c t r r c c r e 0 r t r x r e 0 e x c v r x c v r r x x c c R x v R b 8 R c r x N R e c c e W W x E r c R r v c r r c t t x e c v c c c t e x , c W e c v t t q x c e r N c c c v r n x , v c r c c v e x e e r 0 0 e e r x e 0 r c 0 q e 4 1 , y t 1 r 0 v c 0 t t 1 0 e 0 0 0 0 4 0 e q t e t q 0 c 4 1 1 c q 1 e 1 1 1 1 1 1 1 1 1 0 4 0 > 1 1 1 J q 4 > > > 1 1 > > > 1 4 > > 4 4 3 4 1 4 0 1 1 4 4 1 > 1 1 > > 0 0 > 4 1 > 4 > > > > > > > > > > 3 5   p.xXxX` Q.Q.  T.JXhXz p.r.r.r.r.r.r.r.r.",
"3.3._ 4._ 3.6.3.6.r.B bXMXD C FXrXOXxX!.  3 5 < 3 3 @ < <     < % * * % % < 1 > > < < < < > > 1 1 1 q 4 1 1 5 1 1 3 4 5 1 q q 5 q e 4 4 4 0 5 3 c c 0 1 4 1 4 4 0 0 < t ! M t 0 0 # G ~ G ~ 1 0 t q t r e e 0 r e e 0 e O h.^ 9 r e x e 0 0 r r r x 0 v N c 0 M M r r e 0 0 e x c r e c x x c r r x c c v c c ! G t R N e c x x x r R V N Q v N v N c c c c v c r c x x c x x c x c x v N N x c r c r t t e r x e x N N r v r e 9 N #.N t r c r ~ ~ x c x r 0 e e e e x e 0 0 0 0 0 t 0 r e 0 1 0 e 4 v c 0 0 1 4 4 4 4 4 0 e q 0 q 0 t 0 q 0 $ q 4 4 e 1 1 1 t G > 4 1 1 1 4 0 4 0 4 4 4 0 4 > 0 > y d > 4 > 1 > > > 1 1 > 1 > 4 4 4 > > e 0 > 4 1 > 1 4 > 1 1 1 4 > 1 1 > > > > > 3 1 1 > > > > 1 3   _ dXxX' Y.Q.  b.JXhXz p.r.r.r.r.r.r.r.r.",
"_ _ _ _ _ _ 3.6.r.y.C bXMXD C FX).OXjXW.  < p 5 % < % %   / `   < * * % > < > 1 < % < 1 1 1 1 4 1 1 4 4 5 5 < * 1 4 q 0 < 1 q 0 0 e 4 5 4 0 5 q M 1 1 4 4 4 y q 0 0 e 1 G #.q q c ^ G U.t 9 t e 0 0 e e e e 0 0 0 0 0 0 ! 9 x v 0 e 0 e e r e r e r x c R v e 1 0 e r r e r e e x x N x c c c r x c N N N | v v c c v v R x x E c v v v n V v v N V N c v V v c r x c x x x b b v c v v r c x c v x r t x v v v v x c G r e 0 c v e J v | v e e G ! e r e 0 0 0 r e x r e 0 0 0 0 e e 0 e 0 0 0 e 0 0 0 0 4 0 e 0 0 4 4 1 0 r t 1 x q q t 1 S ^ # 0 4 e e 0 e e q 1 1 q 1 1 1 0 0 0 4 4 1 4 0   a.' , S 1 > > 1 1 4 4 4 1 > 4 4 > 1 4 > 4 1 e 4 y 1 0 0 1 > 1 1 0 1 > 4 4 q 1 > > > > 1 1 > > > > > 5   ' dXjX! x.Q.$ b.JXhXZ p.r.r.r.r.r.r.r.r.",
"_ _ 3.3._ _ 3.3.r.i.C MXSXH Q CX)._.dXU.  d $ % * < % t O _ r.  5 < @ @ % % > < < < < < 1 < 1 1 3 < H ` O 3 4 t 1 4 0 0 c 5 q 4 4 0 0 4 0 0 4 t 1 4 0 4 4 4 4 0 q r v v ~ J 4 t t J O OXg., #.~ 9 e 0 x e r c x 9 r 0 e G c c e e e r r e x r x x N e c R R c R x v x x e x r r x x v x x r r r x c N c c W c c v c N v R c c o.v &.{ b R x x x x R R N v v x v c c c c c c v x v v v N x v v v v c x c t c v N Q x r 0 e r x c 8 k.#.e ! c v c 9 4 r c e e 0 e e e e e r 0 e e 0 1 e 0 q e x e 4 0 0 x 0 x e r 0 0 4 4 0 0 e x 0 0 q 0 t y q G t 0 y c 0 1 c v 1 4 0 4 0 4 4 4 0 1 4 0 4 0 0 1 v 1 4 , 4 4 1 > 1 4 0 1 1 > > 4 > 3 > 1 4 > 0 e 8 e e 1 0 4 4 1 1 1 > 4 > 0 4 > 3 4 4 4 1 > > 1 0 > 5   ^ +XdXG Y.Q.X b.JXhXm i.i.4._ r.r.r.r.r.",
"_ _ I K 4._ _ 3.r.p.Q MXSXU ^ CX`.:.!.k.  3 * * % * % 3 3   O 3 < * y t @ < % * < < 1 < 1 1 < % 1 y 5 1 % 5 q t 1 1 q 0 G 4 4 4 1 t q 4 4 4 0 1 4 4 4 4 4 4 q e x c c r 0 0 e c q 0 M 8 c M t e 0 r e x r N R e e r c e 9 e e e 0 e e e e r r r c c c x v v c | x v e x r e r x v R N e x x e x x c c c c c c x N c r x v c c b ! ..V o.v c c c N W V ! N v v v c x v c x v v V x v N c c c c v n n v x c c N c c N x r e q r e v ! E x 0 v x Q N v x r x x x x e e 0 e 0 e 0 0 0 v r 1 0 t t 0 0 0 e r 0 x e e e 0 4 4 0 4 0 A e 0 0 r e 4 0 0 t y , 8 c t 1 0 x e 0 0 4 4 0 4 1 4 0 0 0 4 1 y G 1 0 4 1 1 1 4 0 1 0 0 1 1 0 1 0 4 4 4 4 0 0 2.P.W 1 1 1 4 > 1 1 4 1 0 4 1 1 3 4 3 4 4 > > 0 > > 1 4 . ' +X@X, /./.$ b.JXfXl p.i.r.r.r.r.r.4.3.",
") _ K K 3.( g 3.r.p.Q MXSX/ | FXrX7.+Xk.  3 * % < % < % % 3 * 1 3   ! #.  3 < % < % 1 < 1 . > q 4 . O 5 w y 1 < 4 1 4 4 % 5 4 0 q e 1 4 4 4 4 4 4 4 4 4 0 1 1 A v x t t e t q e t e G 0 S ~ e x e e t 0 t r v G 9 e G t x x r r 0 e r r r r c r x e c e E E x R R R c c e v v e x v N e c x r c e e c c M c v R v x e x c r ! | x N # W.| b R R V N V c N R W c v c c c c v c v c c c x x N v R x v v c V c c c x c r x r e r x | R x c e v e G v N x c v e r e e t e 0 q 0 0 r x x e v e v x 0 r 0 0 e e 0 e 0 q 0 0 4 q 0 1 r v 1 q r x e r e t l W.U.b t 0 0 0 e 0 q 0 0 4 0 0 0 0 0 x q G 4 0 q 1 4 1 4 4 4 0 > 4 0 0 0 0 1 0 0 4 0 e c l  XbXC.b x e 1 1 1 4 1 4 4 1 4 4 1 4 < 0 ~ #.# 4 > 1 > 1 * 8 7XhXM /._.2 b.JXfXl i.i.w.3.i.r.r.Y ( ",
") ) ) ( _ _ I _ 6.r.E MXSXH } ZXrX+XcX_.  6 < % % * % * 3 < % y 5 * $ % 1 < < < < < < 1 O ` U.^   0.' , t 1 4 4 4 4 0 4 1 4 4 4 , S ` 2 0 5 5 4 4 q 0 q 1 M o.x t q t e 0 0 0 e r q q G q 0 e r r r e 0 0 x x N G e 0 q t r r e r e e r c c r x x c x c x c c c v ! v v c r c x R x e N c x x c r c c c c c R R c x r N R N N c v V Q z v x c R v v R v R W R V N v v v N c c r r c x x c c c R x r v c N r Q c e c N v r r e r x c v r e c e x N c c x e e t x c c r e q G x v x e R o.x e q q x x 0 v 0 0 t 0 0 4 0 0 4 4 0 r t 1 0 0 0 q 0 e t 8 eX>Xl R R e 4 e e e 0 4 4 1 e e 1 0 0 0 y 0 4 1 4 4 1 4 1 1 4 4 4 1 0 , > 0 1 1 1 4 1 0 n >.R.2.x x e e e 0 0 0 4 4 1 4 q > 4 4 4 4 y > > > > > 4 o b bXDX#./._.a z.JXfXl p.p.( F t.r.r.q.r.",
") ) ( ( ( _ 3.3._ r.C MXSXH | ZXyX+XvX+X  6 < < % % * < < < < % < < 3 < < < < < < < 1 4 > S M >   h.` O 1 0 0 4 4 4 0 0 0 1 q 0 S J t 1 4 0 0 0 e q w q 0 v G 1 0 e e 0 0 0 e e 0 q e t q 4 e x c v r e e c r V U.c r t r N e e e 0 e r x x r r c c x c r c N x c x x v c 4 r 9 9 x r c c v x r r v c c v V R v c G c N c v G c W R } V c R v r v N v v V | V R R v G N c c r x x c c c c r r c v v v v N c x x r c v x c r c c V V 0 c x e r x N E x r r e e r c r v M 1 v x e c R 0 0 t e q q e e 0 0 0 4 0 e e 0 4 0 4 4 0 0 4 0 e e 0 e 0 0 t v n 2.R r r y x e e r q 4 0 0 0 0 1 x x 1 G c 0 t > 4 0 1 0 0 1 4 4 > e A 2 0 1 4 4 1 1 c c 9 l 4 4 4 1 0 4 4 0 0 1 e 4 1 > > 4 4 > q > 1 4 1 0 1 4   Q bXDX<./._.a ~.JXhXz p.i.r.q.r.r.r.r.r.",
") ) ) / / _ _ 3.6.i.C MXSXF +.ZXyXOXvX4X  d 5 > < < < < < % < < < < < < 1 1 q 1 1 1 1 4 1 % % 4 4   # 5 4 e q 0 q 4 0 e G e t e t t 1 t t c G t q q , , q 0 9 q 0 0 0 0 0 0 q e e e e t e 0 e r x v c r r c R v m z c x c N r e x R v r r c x c c e e x x x x x v c v N x ! b #.;.b V v v v v v v v v v R R c R v N c N c N | v N v c n R R N R N v v V W R R N N c R N x c r r r c R v c V c c x c v v M x x n { b c x o.r e x v b v v v x x c c t c n x r e r x c 8 9 ^ J r r c c t r v x q e q x x 0 0 q 1 c R e 4 4 0 e 0 e x 0 4 q 0 q q t S e S t G G 1 r t t x e 0 t r 1 0 0 e e 9 e e e 0 q 4 4 0 1 0 q 1 4 0 0 e c 1 1 1 4 1 e x e 4 0 x e 4 q e 1 4 4 4 1 0 1 1 q 0 0 1 4 3 4 > 1 1 1 4 4 q   ^ bXDX#.^._.a ~.JXhXl s.r.r.r.3.3.q.r.r.",
"U Y I Y / _ _ ( _ q.C MXSXF #.ZXyXuXAX4X  w 1 4 4 1 0 1 < < 1 5 1 1 < < 1 1 q 5 < 1 < < < % 1 5 > 3 q 4 1 r e q q 4 4 e R q q t q 1 0 4 q 0 c O % 8 eX9.$ 0 q r 0 q 0 0 0 0 0 0 e e r r e e r 0 v t q N v c N m +X!.l c x r c e c W V v x N r x c r c x x x v x v c v z n +., h.W.l R v v c V v V V v v V V v c c x c c c R V V v v v v R V v N v N N v W V V R R ! v n V V W v c v R v v v V x c R R 8 , W n n W x c x x x G c v v N r x r x x c t c V b c c e 8 ! !.e G M r r r e c x e r e r c v x e e 0 0 r v v q 0 0 q 0 e x 1 q t 0 0 0 e e e t c x v c r 0 x v x 0 q 0 4 1 0 r e #.J x q 0 0 0 e e 0 4 1 e e 1 0 0 2 4 4 1 q q e e 0 4 4 0 0 0 q q 0 0 y 0 0 e 0 4 1 q W x 4 0 0 4 1 4 1 1 4 d   #.vXDX9.^._.9 ~.JXhXl w._ ) _ q.q.q.r.) ",
") _ F ( ( w.4./ r.r.C MXSXD #.ZXyXuXAXuX  w 3 3 3 < 0 4 < 1 1 4 1 < < 1 3 1 5 3 < 1 < 1 < S 1 1 1 1 1 1 < r N r 0 0 0 0 0 4 4 q q 0 q 0 t c , b.' 8 W.o.1 S q c c e 0 q q 0 q e e c c c r e e e R v t M c c R C U.<.b v N c c c N N c v c r R v v c c x x x x r v c 9 h.#.>.U.l z N v v v N V v v v v X.| W c x c c c v V v v v V v v R V c R N N R V W W V W W R +.<.| z n V v v c N c v c c c v n l T.+X] V x x v V x v v N c c v V v c c x N v r c r v v e ^ ~ 8 #.c r t r r v x r x e e e r c e e e 0 q 0 e c r e e 0 0 c c x 0 e e 0 r x 0 t e q t r x x x r v t 0 e 0 0 0 q 4 M R ~ c 0 e x 0 q 0 0 0 e q x x > 0 0 4 1 0 e M y 1 1 q q 0 e 0 t e 4 y e 0 4 0 0 e y 4 q v .., 4 4 1 4 0 1 3 4 y   9.vXDX#.Q._.9 ~.JXhX8 p.l.w._ i.r.r.r.q.",
"_ _ Y U / ) L / r.i.C MXSXt 6.ZXyXOXMX4X  i 3 1 < 1 0 1 < < < > < 1 1 1 1 < < < t 5 < 5 1 w 1 1 4 1 1 1 1 q q 0 r 4 0 0 q 1 0 0 q 0 q 0 1 q , b.' 1 # 4 t t e e c t 0 q q 0 q q q r x r e q q r 0 q c Q N X.} v 9 e R Q C c c R v c e c c x x x c v v x c c c c v R 8 _.U.$. Xn v v V R v v v v V R } R.R V V v N N c v N R V V v v v V V v R v v N N R R v V R v z <.#.b x x c x r c c v c x v R o.l OXOXl R R v V R v z c R R c b v c c c r t t t c N v c e N c.Q., M v c t q r r r c c x e x x v x r q q q 0 x x 0 e e e v c e e e r e e e e t t e e c R N 1 r e t t r 0 e 0 r r Q | 8 x e 0 0 0 4 e x 0 0 q 0 0 e 0 1 0 1 0 e q 4 4 1 0 4 4 1 4 0 0 t 4 4 0 0 e e > 1 4 G q 0 1 < 4 4 y 0 1 1 1 4   #.vXDX#.Y._.9 ~.JXfX8 i.a.F D r.3._ _ ) ",
"3.3.r.3._ r.r.r.r.i.C MXSX9 7.ZXyXOXvXOX  d 1 1 q 1 1 % c ~ $ 4 1 1 1 1 < < 1 1 1 1 5 < < % 1 1 1 q 4 1 4 1 1 4 0 0 q 1 1 4 q 0 q 0 0 q q 9 q   , t t t S q e q 0 c N e e 0 e e r t c E t e e e e x N W R W V v c G R R Q v x x N } V | b e #.! x V V V c c c r c v N 8 z e 8 N V x W ! n V V n v N n C n R Q v c v v v v R V n c c v v V n b v R W V V v V v c V { z b V n b c x v N c v x c 8 h.!.z l l N x N c V v N 9.x | R V h.x v x r x r x c v ! v x R z _ g.8 r N c c e e x r r r e e e r c x e q q q e x x r x x c x b e 4 ~ c e q 0 q e 0 G R e v R W e e 0 t e 0 e e x ~ x 1 e v b e c 0 0 0 v y 0 0 0 q e , 0 b 0 1 0 1 4 4 1 q 4 1 q 4 0 0 c 0 4 0 0 4 4 4 4 1 > 0 G y $ q 1 1 1 1 1 > 4   | bXDX#.c._.9 ~.JXfX8 i.a.r.r.r.r.3.3._ ",
"3.3._ _ 3.3.r.r.r.p.C MXSX9 7.ZXyXOXvX+X  d 0 1 c 1 4 0 0 v 1 1 4 5 5 5 1 1 5 1 < < 1 1 1 5 1 1 1 q 1 1 5 5 1 1 4 0 0 1 y q 0 0 q 0 q q 1 M 9 ^ ~ e G G M t e q q e x e e q e r t M c N M c t M c c N V N v V N c R R c Q | v Q N C v ;.+.b +.! v v c c c c c x v N v N R n R v R v v v v n W v W z U.W.z v v V v v c v V N v o.R x ;.R n n V v R v W W v V W n v n n n W n v c x R v v v x x W C n V R E v v e 0 c v V 9.v c v v #.V R R c v x N W V n c v V V z l c x e e e r v G x r e e e x x r r t q e 0 c v x r e q r x b x 0 W n 0 0 e x Q r r r v x R <.n R x v x e b b e e y e e v b 0 e e 0 e x c e 0 e 4 c R 9 0 4 1 4 0 4 4 0 e 0 1 0 1 1 0 c x 0 0 e 0 4 4 4 4 4 0 y y G e t 0 1 4 1 1 5   ! bXDXo.c._.9 ~.JXfX8 i.r.r.r.r.r.3.3._ ",
"_ 3.3.3.3.q.r.r.r.p.[ SXHXS 7.ZXyXuXvX4X  d 1 q > 1 1 1 1 < 1 1 1 q 4 4 1 1 1 1 1 1 1 < < 1 1 1 1 1 4 1 4 4 1 4 0 4 0 4 0 0 0 0 0 0 q 4 e c 1 #.G 0 c N ! c e t e e c e e e r t c N R M M x c t c r x V N N V v M V } } E } E o.Q C N | +.V v V V N V N N v V v v v v v V W V V N V V N n V V v W n <.;.n v v V R V N V W ..l _.h.l Q W W v V v v v v V R W } { v v c v v v v R v v N v R v X.{ v R G R R v V V v W { V b V V Q v ;.W V V V c v v v V v v V N x v c v v c v v x x c e e r x x x r x r e e r x c v e r r e r x v e e 9 x x v e x x x r r x c x 9 c b c e x x v b x e e x x x v v 0 e e x e e y e R 8 P.R., 0 0 0 0 0 4 0 0 0 1 1 0 e 0 0 M e u e b e 0 e 1 0 4 t c 1 e 0 0 4 1 4 4 1 0   #.vXDX#.c._.9 ~.JXhX8 p.r.r.r.r.r.q.3.3.",
"_ 3.3.3.3.3.q.r.r.s.} SXHX' 7.GXyXuXAX4X  w 0 1 0 1 > 1 1 4 0 1 1 1 1 5 4 1 4 q < 1 1 1 < 1 1 < 1 1 1 1 1 4 1 0 q 0 e e 0 0 0 0 0 q q < G ~ 2 G 0 q 0 c e M e q e 9 E ~ t c t x M N +.N c N c c c r c c c Q R N c N N V c Q o.C  .} C C } &.W } Q [ C R V v N v v v N N V W V C V } W V V V V V V R 8 l W V V V N v v V } V V n W W n W V v V v v W V V b V n ..W V x V v v V V W v v N W V W V N R R N N N R V R N N W V R W N W W V V W R v V v c v v v ;.V N v r x c v v c N N N e x x e x r x r x x r e x e r e e e e q e v e e v v x c v W R x v x v W V c x x x c e r v c b e v y e v R n e e x x e e e e x v z 8 0 1 4 0 1 e t e e 0 x c 1 y e , #.R G 1 0 0 0 0 0 y 0 1 e 0 > 0 1 1 1 1 1 4 0   #.MXDX#.c._.9 '.JXfX8 p.r.r.r.r.r.r.6.3.",
"_ ) I 3.3.6.r.r.r.p.} FXHX/ h.UXyXuXAXuX  i 4 1 4 < p t 1 0 0 0 0 1 1 < 1 1 5 1 1 0 1 1 4 1 1 t 4 1 5 5 4 4 0 0 0 0 e e e 0 r r e 0 q 0 0 t 1 H S 0 q e e e r q M E c M ~ E x M N M E N M E V N N E N v N N R ! c N N V N E ! Q C N C } C } } +.[ _.h.l ;.W v V v N v V V V V V C V V W R N V V | l T.h.m W C V V v V V v R V V W } n W v V W } V V n U.;.n U.{ C W V v c v V v v V V W | V v W N R R V W W V c V R V W R V W R W W R v V W W v v v W b N n v N v x v N c N x N N x c x e r x x x e x v x q e r x x r e e e e b x e N V b x e 8 b x R r r N v v W c W W v e c b c x A v c b b W v x v n b y x n W b 0 e q 1 y M 0 0 e e 0 e A M 4 0 G e 0 4 e e 9 0 e e 4 0 0 0 0 1 1 0 1 1 1 1 1 1 q   #.AXDX#.^._.Z '.JXfX8 p.r.r.r.r.r.r.F _ ",
"_ ) K 3.6.6.r.6.r.p.[ FXJXH h.KXyXuXvX4X  p 0 1 1 < t M < 4 4 1 1 1 0 x 4 q 1 t q q 1 1 q 1 < t 0 4 1 4 0 4 0 0 0 t 0 e c 9 c x e t t e G ^ 1 p t q e c 0 e t 9 E E t G M o.N M N M N N N N C E C @.Q N N c N E R V N R C N E } } C C C O. .} +.-.!.<.n } C N R W c N V W V V } C } } W Q V V V V n +XU.l V { { W V } W V v | P.n v W V W W V R V | n #.<.n <.;.} } { C n V W V n { W W W v R W W | R R } W R R N R R c V W R W W v W N V Q R v V V R V V #.W c N x v V c c e r x E v W v v v r c x r r t e x x x v e r r c x ` x r v #.v 9 V h.V x W x e R R n X.x V W W e x r n n v R c e e n W b W W b v V A e 0 c y 0 e e 0 0 1 0 e 0 0 9 4 4 0 1 4 0 1 9 9 R e 0 q 0 0 0 0 0 0 1 1 1 1 0 1 1 4 0 O #.MXDX#./.'.a ~.JXfX8 p.a.r.r.r.r.r.F 3.",
"_ 3.3.3.r.r.6.r.r.p.n FXHXc h.KXiXOXvXuX  w 0 1 < 1 < 1 4 1 4 1 1 $ ^ o.+ 4 1 r q 1 4 4 1 w t G < 1 5 0 4 e r e 0 e e 0 c ! 0 r t t M G t 0 q 0 q e r e 0 q e x N c c c e R E t M B ! Q V Q V Q Q C Q Q Q V +.! +.Q V C R N R V } }  .C O.O.=.=.G.m. .} } &.} Q } V V C W W W } C } } } } W W ..C 7.&.l } W V } V N W V V V } ..V R W { { V R W W R R v n W b W } | <.>.$.n W V ..{ { | v W { | R R R N R R V Q R ! R G R W R R Q R Q W W V v v V } | W n eX<.e x c v V x c v v v R x V n V v x c r e e r x c c r r x r x x G z.v x v c 9 <...<.W e e x v r 4 2.dX9.9 c x x r x c v e x v v c v X.%.%.2.X.{ v b e e e e e v e e e e 4 0 0 e 0 e c 1 e e 0 9 e e 0 e q 4 0 4 v x 0 e 0 e 4 4 0 0 1 1 0 O #.vXKXh.(.'.9 c.JXfXl p.r.r.r.r.r.r.r.r.",
"_ 3.3.3.6.r.r.r.a.p.Z FXHXc h.KXiXuXAXuX  H 4 1 1 1 1 0 0 4 1 1 1 1 q q 1 1 4 9 x 0 4 5 0 S S ^ t q 4 4 4 q 0 e q c e 0 c Q 4 M M 1 ~ G q q q e t e x r r 0 t N G c M c M V ! B N N N N C Q C V Q } C @.C N G E E E N +.! N c N V V +.C N V O.=.G.G.G.m.&.-...R W Q } Q W { } } } -.*.G.=.O.} .. .n } W C W V V R R V W W >. .;.X.o.+.W { R W W W W R V V W W W W V P...| { 1.W { { X.W ..W W W W W R N R | | Q V R W W ! R W ..+.} W W { | W R R W V v V { V c N v c c v v W V W N x c v v v x x c t r x x c c x c x v v c b 8 v R v n W | W z v c x r x 0 x { <.W b W v v v W W v n n n W W { X.I.2XI.%.n v e e e e e e e e 0 0 0 0 4 1 0 e 0 e 4 e e 4 0 e b 0 e y 0 0 0 c v 0 0 1 0 4 1 4 0 1 y p   #.MXKXh.(.`.9 c.JXfXl p.i.r.r.r.r.r.r.r.",
"3.3.3.3.r.r.r.r.a.p.n SXJXc h.UXyXuXAXdX  D 0 1 1 1 1 1 4 q 1 4 0 0 1 1 q q 1 9 e e 1 1 M 0 1 1 ~ J 9 q r q e e q r c r 0 0 v c c 0 M M t t q e q ~ E e x r E M c M N c M N V M V N N N Q V C V Q C V C V N N E Q R Q Q Q Q c M N N V C E } C } +.-.m.D.m.*.&.} Q Q } } } } &.&.O.m.m.F.m.-. .W } } { | } } W W ..} V W  .>...&.&.C { { { W { { { { W W | v ;.;.V W V } W *.Z.%.| W W { } | W W W R G N R W | W R Q ;...W W W .. .<.} C  .{ W R N N v N N R N N v N N c N N v V R c c v v R N N x x x r r x x r c c x v c 8 9.<.n | W | V n v N x c c x e ..+.v x c G v z m W v v b V n W W X.%.C.3XMXeXZ.>.X.V n n b b v x x x 0 e 0 e e e e e 9 0 e e 0 0 e e 0 0 0 q 0 q e 0 0 0 0 0 0 1 1 1 1 t S   u.AXKXb.(.`.9 n.JXfXl s.i.i.r.r.r.r.r.r.",
"6.r.3.q.q.r.r.r.a.p.C SXJXc h.UXyXiXAXdX  w 1 1 1 1 1 < t c 1 1 0 q 9 1 0 0 9 9 0 r 0 e 1 0 0 q 1 x ! , #.` 9 t t M x c r t e e r e 0 G c c c e q t e e x x x c c c N N M R E N N N N C V N N C V Q C Q N E E V ! E Q C V } R E o.N N N C Q N :.A.O.=.G.m.N.&.+.@. . . .} }  . .O.=.G.F.G.G.&. .;.;.{  .....} W { { +...{ { { } W W W X.X.W { } &.C W } ..V } W W } } X.$.V.eX]. .{ | W W W W W | W W ..} | W ;...<.} }  .{ ..| } $.<.;.} V V R v N N c v N c R R c v v N x V W c v v c V W V v v v x r c x x r v v c c V v Q W v V N N v N v c c c c x V ..V n v c G z R.R.n v c x v c c x n { M.I.>X{.C.X.W n V n v b n b b v e x e x e e x b x e e 0 0 0 0 e 0 x x e q e 0 0 0 0 q q 4 1 0 0 4 1 t O h.AXKXb.(.`.9 ~.JXfXz l.i.i.t.r.r.r.r.r.",
"r.r.r.r.r.r.r.r.i.j.[ SXJXc g.KXyXiXAXdX  p 1 1 1 1 4 1 1 1 0 1 1 9 e 9 0 1 0 0 q r 0 0 4 q 0 1 0 0 c t 0 e 0 t l l t c e 0 r t q q e c e q N r q N N e e e R N x c N ! R N N N N V } C N N N C V C C C C V E ! ! E @.Q C } Q ! E N N R Q Q C o.} } [ E.S.m.&.} +.&.&.O. . .&.*.A.E.G..XF.G.=.} } } } X.} } } W ..} W W { ..} &.} } W >.>...W W N.;.| X.n W { }  .} { X.{ I.zX XX...X.W | ..$.W ....{ ..} } W } } } &.} N.*.;.+.W  .;.Q W R W R ! R v N c N R E E c x x v x V W v V V v N R W W W V v c v x c x N v N c R N R W c R W v V c v N c v V R x ..{ x v c v m  X@Xm Q c c v b W R v $.>.>.Z.C.%.V v A x v c b v x e e e e t v v x b b e x b 0 0 0 4 e e x e e 0 0 e 0 0 0 0 0 4 4 0 0 4 0 y   h.SXKXb.'.OXZ ~.JXfXz l.p.i.i.r.r.r.r.r.",
"r.r.r.r.r.r.r.r.i.l.} SXHXu j.KXyXuXAXdX  i 4 5 5 1 4 0 1 4 0 0 1 4 0 9 0 q 0 q 0 4 0 4 1 0 0 0 0 9 e 0 c x E 8 @X@Xl y 0 e q 0 0 e e e e q 0 0 q x x e R c M c c c t x N N N V Q N C N V C V Q Q C O.C C V V V N N V C C Q } Q E R N Q E Q +.Q C } [ S.N.*.*. .} } +.O.&.=.=.G.[.[.G.D.D.G.D.} <.<.C } W W W { } | W }  .$.} X.{ | | ..} { { W | ..{ { { { W X.>.;.{ $.$.M.Z.B.,.$...>.....$.| W { W  .>...$.{ { } } } } B.%. .} ;.+.v R W V W ;.R N V N N N N N v R R N c v V v v N N N W Q Q Q W v x R N v Q N } | c N V R V v v N W v c N v x V ..V n } C c N v v W l n U.R R R Q x R { $. .R X.M.{ ..{ n v c b b b c x c v x r v e c e v c e e e 0 0 q 0 0 0 e 0 0 q q e 0 0 4 4 0 0 e 0 4 1 4 q O #.MXKXz.`.OXZ ~.JXfXz l.p.i.i.i.r.r.r.r.",
"r.r.r.r.r.r.r.r.i.l.:.SXHXu k.KXyXuXAXdX  w 5 1 1 1 9 G 9 1 0 0 5 0 q e 9 t q t 0 q 0 1 1 0 e 0 e 0 q 0 e c N 9 P.R.z c x c r r r e 0 e r r e x e r x e v v x B c c N x N N N N Q V C N C V C C C C 8.} } @.Q E V V E } C Q Q O.} } E V E } } C &.O.O.[ *.O.-.W W } &.+.+.+.=.G.G.G.G.D.D.D.D.O.&.} W W W W { { W } } $.$...X.} R R V ..X.| ..;.W } }  . .$.X...$.&.} | } ..B.>.;.>.M.B.B.M.>.>.M.>.M.$.*.*...W W } ..&.&.N...} | | C W | W W W V V R Q W R W R V N Q } v V V V N V | ! N | ! c N R Q N N v N W V W V N R R v V V V } V V v V W c W | n W V C V c N N V G Q <.W W x v V { X.{ V v W ..R R X.W b v A v x e e b v e e e e x x e e e e x e q e 0 1 0 0 0 0 c t e e e q 4 0 0 e 4 4 4 4 0 # ! MXKXb.`.yXZ ~.JXfXz p.i.i.i.t.r.r.r.r.",
"r.r.r.r.r.r.r.r.i.l.;.SXHXy j.UXyXuXAXdX  H 1 1 1 4 1 q r 1 0 e 4 4 e q 1 q q q 0 q 0 9 0 0 0 q e 0 q e c x q e 8 8 c e e e e r r r r 0 e x e e r c v v c v V c c N c M R N N N V V V V C N Q C +.} @.} @.+.} Q E Q } o.C E C } &.E.} @.E Q } @.O.O.=.&.-.O.*... .,.&.&.&.O.&.D.F.A.G.D.F.G.G.N.m...{ } W { W W } ....$.$.X.....} ..X...<...| } | } W X.} W W } X...;.} $.>.R.M.$.;.M.B.V.V.M.M.B.M.M.*.>.N.$.&...&. .&.&. .} R W } R Q } | W ..} V | Q W R Q W R R } V V C W N R C W V R Q R v ! Q } R C C C } C W } V Q Q V C Q V } N V V V W W v V W W R N V c R R V V >.n } ..n $. .%.n c W R W | W R V W W R R c b c b b r x c e e e x c c v e q e q e e 4 c y 0 t r e e e e q e e 0 4 4 4 4 4 y $ ! MXKXu.'.4XZ ~.JXNXZ j.p.i.i.i.r.r.r.r.",
"r.r.r.r.r.r.r.r.p.l.+.SXHXc j.UXrXuXAXdX, 3., 4 1 1 5 5 t c 0 q 4 q c q q 0 q t q e e e r 1 0 t 0 0 e v r r r 0 M c r c e c r e 0 r e x r e r e c v N c c v c V v N x M N c N N N N N N V N Q Q @.} O.} O.+.O.} Q E } } Q Q Q } =.A.=.O.Q Q Q -.*.=.=. .*.-.-.m.A.D.N.N.G.N.m.E.F.G.A.A.A.G.G.N.N.>.} } } } } W } ..$.$.....$.X.....$.....} W { } | } X.W { {  .$.X.$.$.>.B.|.V.M.$.B.V.B.P.V.M.M.B.M.M.N.*.&.&.&.&.&...&...} } ..W W Q } } } } W W W W Q } | W W R Q | W V N N V +.V v N R N ! Q W } | } Q W @.W Q | Q @.} Q Q } n V C W W W V V W W } Q R V v v N v c Q &...W } W } W n W v V R W W W W N V { W v b n v b v x x c x x c c v N v e e e e e e e b c e e e e W.G 9 e 0 e 0 0 0 4 4 0 q , | AXHX#./.OXZ '.LXNXZ l.p.p.i.i.a.r.r.r.",
"r.r.r.r.r.r.t.t.p.l.:.SXHXu k.UXrXyXAXuX  5 5 1 1 1 0 1 e ^ 1 0 0 1 1 0 e q t N x 1 c N 0 0 r r q e x r r e x t t c x r x x c c r t N c r c G e r e x v v v x c x c M c c c c N N N N V R N C Q C } @.@.} O.O.@.@.@.} } C C } } =.N.m.D.A.O.@.N.*.=.m. .*.*.*.N.N.B.B.D.D.[.oXJ.J.G.N.7.A.A.A.N.m. .*.&.} } } ......$.......>.......$.N.M.&.} ..} ..$...X. .$...X.$.,.;...M.V.>.;.>.>.M.M.B.M.B.M.,.....$.*.>.N.N.N...} ....} &.} Q Q Q Q | } ..| } } W Q | C R W V W W C N N N N C W V W Q W R R Q Q } &.} +.;. .} } +.+.} +.} } +.C W W R N G R C W Q W R R R V V } } C V W V { { V V N v n V V } W V V { V W { v W W n R v v v n v v v x x c x e x c v c e c x x { c e c R x x e e q e 0 0 0 0 0 y # | SXHX` /.OXZ qXLXNX[ l.g.p.i.i.i.r.r.r.",
"r.r.r.r.r.r.t.i.p.l.+.SXHXu k.KXyXOXvX4X  p 0 1 0 r q 1 1 1 0 0 1 x c 1 t q q e e e ! ! 2 t e q q x x q e x t x x c N x c c c v N x V V r c M c c x e r V v x v c c c c c N N V N V C V N V N Q } @.Q E Q O.=.O.} +.} Q } } @.+.O.&.=.F..Xm.N.m.*.m.=.A.N.m.G.m.m.B.D.D.D.}.*XK.}.H.=.7.A.G.A.m.*.*.M.&.$.$. ...$.&.>.$.+...>.&. .%.>.N.%.B.>.>.>.&.&.....$.*..... .,.$.>.M.B.1...$...>.>.>.,.>.&...X.X...>.V.N.B.M.>.&.} } } } ..} } } Q ..$.$...{ ..W } Q R V R R ! N V c N N V V V N R V Q Q Q } } +.*.N.C.Z.M...&.} ....} V ;.<.n W Q N N E ;.W  .W W } C Q W V } { ..;.n  .W V Q N v v V W { { W W V  .V V } { V W V W V V v n C n C v x x b n b v c r e e x e e e e v v 4 e r e x v 4 0 0 0 0 y , #.SXKX#.'.OXZ '.JXNX[ l.g.p.i.i.i.r.r.r.",
"r.r.r.r.r.t.r.t.p.l.+.SXZX8 k.KXyX+XcXOX  i , 1 0 0 1 5 1 0 q 0 1 t r e x 9 0 0 x ! M e M N e e t e e x N x e e x x c v v c x C W c x N x x x c x x c v c c x c N x t N N V V Q W Q Q Q V Q N Q O.@.Q Q } O.-.=.-.-.O.O.O. .O.=.O.&.=.=.=.A.H.|.H.=. .7.A.m.D.m.G.D.D.A.S.D.H.J.J.D.N.A.A.,.G.G.=.N.m.%.&. .>. . .&.>.>.&.N.&.,.N.M.B.R.B.V.>.B.,.$.M.$.>.>.M.>.>...X.$.>.M.P.;.;.1...>...1.;.$.{ | $.*.$.$.M.M.B.B.,.,.&.&...&...| | } ..&.>.&.} } } } } W V R N N R R N M N V N V V ! Q V R R R | } >.B.C.>XeXV.B.*.$.U.U.C Q C } 7.R R W Q Q ..$.*.%. .} N C } W }  .} | C } W v N N W V V V  .{ V W V } &.V } } { C C { { { { n C n b b x e b n c x e e x e e x e e e e v e e t c R 9 e 0 0 0 0 x , ! SXKX#.`.OXZ '.JXNX[ l.p.p.i.i.i.r.r.r.",
"r.r.t.r.t.t.i.i.p.l.:.SXZX, k.KXyX+XcXOX  p 3.0 1 4 1 1 1 1 e q 0 1 0 q q e e q r 9 , e #.E t t e t e x c c B c N N N V V V c x N N x c c c c x x v V v c N c v v c r x N C V N N &.@.Q C Q V V } O.O.Q C } O.-.-.-.-.N.*.O.=.=.O.O.-.=.[.[.K.7X}.m.=.+.} +.=.+.&.=.,.N.N.A.[.[.K.J.H.D.D.D.G.D.A.B.V.B.S.N...B.$.*.>.X...>.;.,.W.R.M.V.V.B.R.V.M.M.V.*.M.V.R.V.M.X.} >.*.*.$.| | { ....{ ! W | ....M.B.B.M.B.S.V.R.&...$.>.&.*. ...$.&.&.&. .+.;.+.} | R R R c +.;.N N t t c | R M c N Q Q R Q Q ..;.&.*.B.>XwXI.S.V.N.,.>.&.} +.} +.Q } ;.&...*.V.V.M.%.{ W  . .} C W V v R W C V N V W R V v } C V  .&.} Q Q Q } *.O.}  .} { C n n b b b n n x x r r x x R n b b b x e e x e e e e 8 e e e e 0 0 t , ! SXKX;.`.OXz ~.JXNX[ l.g.p.i.i.t.r.r.r.",
"r.r.r.t.i.i.i.i.p.l.:.SXZX, k.KXyXOXbXOX  p ` t r 1 1 q 4 1 q q 1 0 e q q 0 t e O #.uXn N M N t t t ^ N e B V C C C C C C C V N N R C B N N N N c c N v c N N v v N x x N C V V Q @.Q C Q } } Q } o.+.O.} &.O.-.-.-.-.G.m.-.*.-.=.m.m.N.D.D.H.K.}.[.D.,.O.&.+.} +.&.=.=.&.N.S.D.J.}.}.{.}.*XH.].].H.D.S.S.N.>.&.$.>.&.....&.....*.V.V.B.R.V.V.].].V.V.B.>.M.B.B.>.&.B.M.B.B.$.$.....1.......| ..>.$.*.V.V.V.V.V.M.M.>.>.<.&.&.&... .>.>.&.;...} ..} } ;.| R N N o.| N R c M N R R ! N N Q R R ..&.@.A.A.S.S.G.D.A.N.=.-.} } +.} } &...| >.,.N.N.N.H.S.S.M.-.*.*.*.-.} ..Q V | R C } C C V V } C  . .} } &.&.@.:. .*.*.-.%.} } }  .%.X.n n n n C x e r x x c v v b b b x c c e e x x c W.v 9 e q q e x 2 #.SXKX1.`.OX9 ~.JXNXO.l.g.p.i.i.i.a.r.r.",
"r.r.t.t.t.t.t.t.p.l.:.SXZX8 k.KXyX4XvX4X  i # 4 4 4 1 0 1 1 0 0 q q 0 e 0 r 9 ^ ! E T.N 2 ;.B.9 M M N c x B N C O.-.O.O.} [ C V C Q } N N Q N V V v V N v v v N V V v x V N N W C } C Q } C } } o.] ] @.} O.} O.-.=.G.G.m.G.=.-.N.S.G.G.N.G.D.[.J.&XJ.G.*.N.&.@.&.=.&.&.N.N.A.G.G.D.}.}.>X-XH.H.}.}.].H.].S.S.M.&.$.$.&.&.>.&.>.>.N.B.B.R.R.V.].].P.V.P.N.M.M.>.>.>.V.>.M.V.M.>.,.$...$.1.$.>.,.>.>.M.B.S.S.V.V.$.$.%.W.@X] >.....A.&...+.......&...} &...Q R ! } V R R N G N G N G N V Q Q o.,.=.G.A.R.F.F.A.A.A.A.A.N.+.@.o.Q } @.+.&.M.R.N.N.H.].N.>.N. . .*.-.O.+.Q R Q Q W }  .&...V  . .}  .{ } } } &.A.*.N.*.*.-.-. .} } *.%.[ C C C v b x e x c b V b x v x b b x v x e e c v #.c R x r r x G 8 9.SXKX1.`.OX2 ~.LXNX@.l.g.g.p.i.i.r.a.r.",
"r.r.r.t.r.t.t.t.p.l.7.SXHX8 Y.KXiXuXMXuX  D p 1 1 1 4 4 1 1 q 0 q 0 r B 0 t 9 Q N x , E B <.R.9 M p N N x B V } -.G.G.=.O.O.} V C V C V N v v V R N C V } C V o.} V V x E E c N | C V C } @.+.o.m +X+X] +.} &. .-.m.A.A.=.m.N.N.G.D.D.G.D.D.J.}.K.;X;X&XD.*.N.=.=.N.N.N.N.N.N.B.B.N.H.].].{.H.S.].}.}.].].R.S.S.>.*.>.B.>.;.&.,.>.,.R.R.].R.].].{.{.{.].V.S.V.>.>.B.].M.B.B.M.M.N.>.M.M.$.>.>.M.>.V.V.B.S.V.M.B.&.$.*.>.%.U.N...&.A.$.&.;.} @...Q | } ..&. .} Q Q R Q R E R ! @.Q N Q } @.+.@.,.A.A.A.F.F.E.R.N.G.N.G.=.=.+.+.:.@.&.&.=.S.S.D.N.S.D.,.| B.].S.C.m.&.Q } Q W }  . .} ....C ,.$.O. .$.} &.N.&...&.N.O.[ } O.} }  .%.%. .{ C V Q b v v v v W v c c v R v b b V b x v v v z x c c c R v G 9 9.SXKX| `.OX, ~.LXNXO.l.g.g.p.i.i.r.a.r.",
"r.r.r.t.r.r.t.i.p.x.A.DXGX8 Y.KXiXsXAXdX  S p 1 1 0 1 1 e r q 0 0 1 q q q 0 q r N V p E V B V N M B M N B V N C O.-.G.D.G.-.-.-.O.C } C } C C C C C &. .} } } }  .C C v :.o.x N c Q Q V Q o.,.+.] !.!.] &.+.Q Q O.=.-.O.O.=.D.G.D.D.D.F.A.A.H.J.XX;X9X8X&X[.H.D.N.m.D.D.B.B.H.}.}.].].].H.].].H.].}.$X{.[.].R.S.M.,.>.>.N.B.,.>.M.N.S.R.R.R.].{.{.{.#X$X].].R.V.N.V.V.R.B.N.R.U.N.$.>.M.$.$.>.R.$.M.V.V.N.R.B.>.&.&.>.&.&.A.B.&.>.&.&.@...| +.+.} | +. .N.,...} Q Q } Q o.@.@.+.@.o.O.&.N.,.N.A.:.7.F.F.F.F.F.A.A.A.S.A.A.N.+.+.| @.+.N.R.H.H.D.S.N.:.S.].*X|.E.N.*.} } Q Q  . .} } V C C C  .-.*.*.-.&.N.O.+. .-.*.*.}  .*.} [ R.B.C { C V C v c b n n n v V b v W W v n n v V R c c v c b b x c c v B 9.SXKX#.OXyX, ~.JXNX-.l.g.g.p.p.i.a.r.r.",
"r.r.r.r.r.r.i.t.p.v.U.DXUX8 Q.KXiXdXAXdX  w e 0 0 0 9 0 e e q 9 q 0 p e r t 0 r o.N r p M M V N N B B B N N B N @.7.O.G.G.G.G.m.} V } O.[ } C C C C C C C } [  .O.} Q C N N V V N C N N R Q +.@.@.Z C W. .,.Q Q Q Q } -.=.m.S.=.A.G.S.G.N.G.D.J.}.;X9X8X;X:XXX*X}.H.D.D.}.}.].}.].{.].{.{.{.{.$X].{.*X|.|. X].R.R.S.,.;.,.,.M.M.N.,.,.S.U.R.{.{.$X$X%X$X{.H.].].S.].V.R.R.R.E.R.M.R.V.M.M.>.$.&.*.*.*.*.R.B.M.;.>.>.m.V.V.&.&.&.>.,. .@.<.@.&.| ..@.@.&.+.&.| } ;.+.o.| ! | +.,.N.-.S.S.A.A.A.,.:.A..X[.F.[.].,.,.=.,.&.&.,.+.@.} o. .S.[.H.D.S.A.&.+.,.S.D.H.>XR.m.,.} Q Q O.*.&.+.{ }  . .-.B.=.O.=.&.O.=.=.m.*.*.*.*.*. . .%.%.m.%. .} { C C V V C n v n n n n n X.X...$.X.n c v v R v v x c c x N 9 1.SXKX<.yXuX9 ~.JXhX-.l.g.g.g.p.p.a.r.r.",
"r.r.r.r.r.r.i.i.p.z.W.HXUXu Q.KXiXdXAXsX  S q 1 0 q e 9 e R 0 0 q q q q q r 9 #.o.r M B V N N B B N B B B B C V } 7.C } O.8.G.G.m. .O.O.} O. .[ C [ C C } [ O.O.O.O. .O.C Q C N v C } Q N R | ! o.C o.T.v R R } +.} -.-.G.G.G.=.m.F.[.D.D.H.J.J.XX;X,X:X&XXX[.J.}.}.}.}.H.H.H.H.H.S.V.].{.H.].|.|.{.{.|.|.|.{.[.].R.R.B.N.N.N.B.N.>.M.N.V.S.R.].$X$X%X<X#X{.{.].].].D.V.R.R.V. XV.].R.B.M.M.B.M.>.>.&.;.,.&.B.,.,.&.{.cX|.m.,.>.,.>.A.A.,.+.&.:.,.&.+.:.@.+.o.o.+.&.o.o.! ;.+.N.A.N.F.D.F.F.G.A.A.F.[.E.,.S.A.:.:.+.,.+.+.+.@.=.&.+.,.N.,.N.[.}.[.A.N.=. .&.S.V.D.S.D.N.*.+.-.O. .}  . .-.*.N.D.m.m.m.m.G.D.G.G.m.m.B.m.*. . .%.%. .{ { C  .X.C W W } W W { { { { { X.B.Z.P.X.n n n W n n v v N v v R 9 9.SXKX;.yXuX8 ~.LXNX,.l.g.g.p.g.p.i.a.r.",
"r.r.r.r.r.r.i.i.p.z.W.HXUXA Q.KXiXuXAXsX. S 0 1 5 q 0 0 e N r q x B r r M +.B N M N N N C C C N N N B B B N B V N b C C @.-.=.=.=.-.-.} O.O.-. .C [ C } C } } O.O.-.-.=.} C C W V ,.} ! N N N R N ! Q l E V V Q Q  .=.*.*.G.H.J.H.G.D.J.K.J.D.J.L.&X&XXXJ.[.XXJ.J.}.*X&XH.].}.}.H.[.].B. X|.H.H.].{.{.|.|.|.|.{. X].].R.].V.V.S.B.R.V.V.V.R.B.].#X#X%X<X1X%X{.{.{.].].].].].R. X].].V.V.B.>.R.S.M.B.>.+.,.,.,.N.$.*.{.>X{.B.S.N.=.,.A.,.&.,.A.N.A.N.,.:.:.:.+.@.+.:.:.:.o.+.+.,.R. XF.F.F.F.F.E.D.F..X[.A.S.A.A.A.A.S.S.,.+.+.,.=.=.=.A.N.=.F.}.[.}.}.A.R.7.N.N.N.N.A.&.-.-.=.O. .O.&.&.*.N.D.D.G.G.G.D.D.D.D.m.m.m.S.B.*.-.%.-.%.*.&.C } { C C C V V V { W W W { %.>.I.zX>XZ.1.X.X. .} W <.V N v V R b 9.SXKX#.yXuX9 ~.LXNXU.l.g.g.p.g.p.i.a.r.",
"r.t.r.r.r.r.i.i.g.x.!.HXUXA /.KXyXuXAXsX  M q 0 0 r e e r x r e N B p p B B B N M N N V Q @.B V C V N V V B N V V } C } Q } =.-.=.m.=.-.-.-.-.-.O.O.} } } } O.O.O.m.=.=.-.} Q  . .} C } W W R ! Q Q o.E N R R R } } &.&.N.D.D.D.G.[.R.}.}.D.G.J.J.&XL.[.J.G.F.}.XXXXXX&X&X&X-X}.S.D.S.m.@X XV.S.{.{.].|.{.{.|.|.{.|.].]. XS.V.V.V.S.R.R.].S.R.].#X<X<X#X<X<X#X{.{.H.$X>XH.|.@XP.R.].R.V.>.N.,.$.E.N.;.;.:.N.R.S. XR.D.V.S.N.A.A.A.,.=.,.A.A.D.D.D.A.,.:.:.:.=.:.:.E.7.,.7.7.A.S.[.[.[.[.[.[.[.A.[..XXX&X|.[.F.D.A.S.A.S.A.,.A.N.=.=.A.N.,.S.[.|.[.|.[.D.E.E.[.D.G.,.A.&.+.,.=.N.*. .} =.N.D.D.D.D.G.D.H.H.D.G.D.-.m.m.m.*. .-.-.-.-.&. .$. .{ { { n n V } X.{ C { X.M.I.eX@X%.$. .} } } W W V V V V W V P.SXKXo.yXuX9 ~.LXMXW.l.j.g.g.p.p.p.a.r.",
"t.t.i.t.r.t.i.p.g.v.!.HXUXA /.KXyXuXAXsX  J r 0 0 q N r e r r N B B N r r B B N N M N N C 7.V V C O.C V C C N C C C v C Q Q -.m.m.S.S.-.-.=.=.-.-.O.O. . .} O.-.-.*.m.=.m.-.-.O. .} O.*.} } R N W } V W h.Q ! R Q } -.&.m.].D.D.D. XD.D.S.N.G.[.D.D.J.J.G.G.D.J.[.XXXX:X;X:X;X&X].D.D.N.%.*.M.B.].].].{.{.|.|.*X|.$X|. X X X].].].].].{.$X].{.$X#X<X2X{.#X<X2X|.|.{.$X$X]. X X{.R.R.].B.[.B.B. XS.B.A.A.,.+.;.N.[.D.].A.U.R.A.R.N.N.A.A.E.A.D.E.F.A.A.A.=.,.A.7.A.A.A.A.A.A.A.[.[.E.F.}.[.[.[.[..X&XXX}.*X[.R.[.[.R.A.R.A.,.S.A.N.,.,.,.:.S.&X-X>X*XD.F.F.F.=X;X:XD.A.-. .-.=.G.m.-.=.=.N.[.H.D.G.G.D.D.G.G.=.N.-.m.B.m.m.%.} &.*.-. . . . . .$. .C V V V { W W { $.B.M.Z.C.$.W &.....} W W } W Q C W z 9.SXKX#.uXiX9 ~.LXCXW.l.j.g.g.p.p.i.a.r.",
"i.i.t.t.t.t.i.p.g.j._.KXGXm !.KXyXuXAXsX  J B t q q r B r r q r 0 r B B r r N M N N C C C C C C -.G.[.-.} [ B C [ =.O.O.O.} O.=.m.m.=.m.=.O.O.=.-.O. .} }  .-.-.=.m.m.*.m.=.G.*.*.-.=.m.*.*.O.m.*.+.} &.A.} R } ..}  .N.D.D.B.S.S.m.N.N.,.,.G.[.D.D.D.F.D.G.A.[.F.F.[.XX;X;X&X&X}.[.].R.].*.>.>.N.S.].]. X|.{.|.|.$X|.|. X|.].].|.}.$X|.#X#X%X%X#X$X$X}.|.$X2X2X|.$X2X$X|.$X{.{.{.].H.]. XR.R.E.S.A.R.U.,.,.N.A.S.D.|.S.A.oX[.].S.A.R.A.A.A.D.A.F.F.D.D.A.A.A.A.F.F.F.F.A.F.[.[.}.A.F.}.[.[.[.[.XX&X*X*X&X|.[.[.[.XX}.D.E.[.[.F.D.A.7.A.E.[.*X1X8X-X}.F.E.[.XX0X0X:XJ.E.[.G.G.A.=.G.=.G.D.J.D.A.G.G.D.m.=.m.N.N.*.-.*.*. . .Q } } &.-. .&. .%.m. . . .} W } ....>.M.%.%.1.} %.{ } } } } } } } W } } Q z 9.SXKX9.iXiX9 ~.LXCX!.g.j.g.p.p.p.a.a.r.",
"i.i.i.i.i.i.i.i.g.g.+XKXGXm _.KXyXuXAXsX. H p r r q 4 t t r r r 0 r B B V ^ B Q V V V V C } [ [ } [ G.-.m.[ [ -.D.J.J.F.=.G.D.=.m.G.G.G.B.m.=.G.D.D.D.=.m. .m.*.=.m.m.-.m.m.m.*.m.m.G.G.m.m.m.G.G.A.N.O.} W | | } +.Q &. .R.S.&.&.&.&.+.+.&.N.N.N.G.A.A.A.A.G.D.H.J.}.}.XX:X:X:X&X}.[.].}.D.N.m. XR.R.].S.].].].].|.$X{.{.{.{.{.|.$X-X<X<X$X$X$X|.{.{.#X$X|.%X2X%X2X<X2X%X<X1XkX1X<X>X#X*X|.]. X].].R.].S.V.S.S.E.S.D.S.E.[.[.}.[.A.D.A.[.F.F.[.F.F.F.J.F.A.D.[.F.F.[.A.A.[.;XoXoXE.A.A.E.[.E.E.E.}.XX|.}.[.[.oXoX[.*X*X;X;X;X;XXXF.A.A.[.XX;X8X8X,X*XXXXXXX&X0X9X9X;XXX.XJ.G.-.7.A.G.F.}.J.D.A.G.m.-.*.%.A.A.O.-. .-.%.%. .} } }  . ...N.$.%.*. . .%. . . ...%.M. .}  . .{ X.$.{ W } ..} } } } } } | Z U.SXKXh.iXsXz ~.JXFX_.p.l.j.g.p.p.a.r.r.",
"i.i.i.p.p.i.i.i.g.g.+XKXGXm _.KXyXsXDXsX. u.J 0 r q q r M r r N B r B N Q E N C C C Q C O.G.G.-.C p B @.O.O.m.m.G.m.G.G.G.D.D.D.D.D.D.D.D.D.m.m.H.D.D.D.D.m.m.m.G.m.D.D.m.D.G.m.G.m.G.G.D.D.D.D.H.J.D.G.m.,.+.} } | Q ,.@.,.,.@.&.,.*.N.m.S.H.H.D.H.D.G.G.A.A.A.G.[.}.}.&X:X:X:X&X:X&X}.}.#XH.D.S.B.N.R.A.R.R.U.R.R.{.$X{.$X$X{.{.{.$X%X|.{.|. X X|.|.%X2X2X<X<X%X<X<X%X<X1X1X1X1X1X1X-X8X1X1X8X<X1X-X-X-X8X*X[.[.E.[.XX[.[.*X;X=X}.*X}.XX[.[.oX[.[.}.}.[.F.[.[.F.E.[.E.E..X=X*X[.E.E..XA.A.A.U.A.E.E.A.A.[.[.>X[.A.=X8X0XXXXX;X=X.X[.XX*X-X8XlX0X*XXX&XXX*X;X;X;X=X=X=X*X=XXX}.}.[.}.}.J.D.=.=.&.N.A.m.A.A.*.N.=.-.*.*.%. . .-. .-.*.&.$.*.M.%.%. .M.V.*. .*.*. ...} $... . .$.$... .} } } } { } } | m U.SXKXh.iXsXz ~.JXFX_.p.l.g.g.g.p.i.a.r.",
"i.i.i.p.p.i.i.i.g.g.OXLXGXm _.KXiXsXDXsX, J t q r r r M E B B N B B C B B C V N C @.O.8.G.F.J.D.-.C Q @.Q C N.O.C Q @.} C O.=.G.J.H.H.[.D.V.D.G.G.H.H.D.G.m.*.m.D.H.H.H.D.D.D.G.D.G.G.D.D.D.D.D.H.J.J.[.J.D.=.+.} Q Q | | Q ,.N.*.D.A.S.H.K.[.K.[.H.H.F.H.H.F.D.J.[.}.XXXX&X:X;X:X,X;X-X*X&X#X}.].R.A.R.E.A.R.A.S.R.].{.{.{.{.{.].].|.#X$X{.{. X X|.%X2X<X<X1X<X<X1X1X1XwXwX1X<X-X-X1X1X1X1X1X,X,X1X8X8X8X8X;X*X}.E.[..XoX=X;X0X0X;X=XoX}..XF.[.J.7X7X}..X[.XXXX.X.XE.[.XXXX=X=XXXXX[.oXA.E.E.U.,.U.U.A.R.A.A.G.E.*X8X8XoXE.XX=X.XF.*X=X;X9XlX9X8X&X&XXX}.XXoXF.R.A.oX*XXXXX*X&XXXF.[.J.D.G.=.N.m.*.m.B.E.S.*.m.O.-.-.*.*.-.*.*.&.*.*.*.%.*.M. . .%.N.N.M.*.%.$.} {  .%..... .%.*.&.*.$.;. .} } } ....[ W.DXKXh.iXsXZ ~.LXSX+Xp.l.g.g.p.p.i.a.r.",
"t.i.i.i.i.i.i.i.g.p.4XIXGXl OXIXiXsXDXsX8 P r r q r r r x o.B B B B B B Q C C } Q @.O.G.F.F.L.L.F.G.O.@.C Q @.C 7.=.O.-.} } &.O.m.m.D.H.[.}.H.K.[.dXK.H.D.D.m.G.m.G.m.D.D.D.D.G.G.m.D.D.G.G.D.D.J.}.H.J.J.[.J.A.,.,.N.@.} ..&.&.N.D.H.}.}.}.}.#X}.{.#X}.}.}.J.[.XX}.&X*XXX,X;X;X;X,X;X;X*X*X,X*X[.R.R.].].R.R.S.S.S.S.|.%X|.{. X]. X$X2X2X$X$X$X|.$X2X2X1X1X1XwX1XwX1XwXkXkXkX1X,X1XkXkXkX8X8X8X8X8X8X8X8X,X;X*X.X.XoX*X0X8X8X0X0X0XoXE..X.X.X}.&X;XkX*XXXXX=XoX.XE.E..X=X=X;X=XXX}.E.A.R.A.A.,.E.S.:.7.A.7.A.}.;X8X;X.X=X=XE.[.[.oX6X0X9XlXlX9X8X8X;X[.[.E.7.,.A.A.E.[.[.[.XXXXXX[.[.A.S.D.D.D.m.S.G.D.N.*.-.*.*.m.m.m.m.B.*.*.m.*.N.-.*.*. .} } $. .%.M.$. .W W X...%. .$.$.%.$.-.*.&. . . .{ } } ..[ W.DXKXk.sXnXZ ~.LXSXOXp.l.j.g.p.i.i.i.r.",
"t.i.t.i.i.i.i.p.l.u.uXPXZX8 yXIXiXsXAXsX, N r p r p p p B x x B B B N N C +.O.O.@.@.@.-.G.L.J.L.L.J.=.-.=.m.m.m.m.O.=.O.O.@.O.Q -.m.m.D.J.}.H.H.J.>XK.H.G.m.D.H.J.H.D.J.K.D.K.J.].D.m.A.A.G.N.D.H.].F.D.F.[.}.}.D.G.S.m.*.&.&.&.=.m.[.}.}.}.}.&X#X#X&X#X}.}.}.}.XX&X-X&X&X:X-X,X,X:X:X;X;X;X8X*X[.[.[.}.|.[.[.|.].S.S.].-X2X$X{.]. X$X2X<X2X<X<X<X<X<X<X1XwXwXwXkXkXkXkXkXkXzXkXkXkXkX1X-X-X1X8X8X8X8X8X8X8X;XXX.XE.oX0X9X8X6X=XXX.X*X=X=X=X;X8X8X1X8X,X;X;X=X;XoXE.E.E.oX=X6X=X.XU.A.A.F.A.A.A. XA.:.U.U.D.[.*X;X=X.XoX6X0X.XE..X.X=X9X9X8X9X9X=X8X0XD.7.7.A.,.A.,.:.A.F.}.[.XX*X*X&X}.[.H.F.S.N.R.A.N.m.N.B.N.N.B.B.B.B.B.N.*.B.M.*.*.&. .C W { } ..$.$. .} W X...$.*.%.*.*.*.*.&.%. .} }  . .} } | Z U.DXKXT.hXhX[ '.LXSXOXp.l.g.p.p.i.i.i.r.",
"r.t.t.t.t.i.i.p.l.u.sXPXZX8 uXPXaXuXAXsX# ` J r B B p p B B B B B N C N C -.O.=.@.@.O.@.G.J.J.J.L.L.D.D.D.D.D.D.D.G.G.=.@.O.F.,.O.=.m.D.H.H.D.D.D.H.#XD.m.*.G.D.D.J.K.K.*X}.}.K.*X>X}.G.A.N.N.A.S.D.S.S.S.D.}.}.H.H.}.}.D.&.&.&.=.@.-.N.[.}.J.}.}.-X-X#X#X&X&X-X#X&X,X,X-X;X*X-X8X8X,X1X8X,X8X,X*X&X&X&X#X#X[.&X#X#X}.{.{.-X1X<X$X$X<X2X2X<X<X1X1XwXwXwXwXwXzXzXzXzXzXzXzXkXkX8X8X1X1X1X1X1X1X,X&X;X;X&XXXXX[.F..XoX6X9X0X&XXX.XoX;X;X;X1X8X8X8X8X8X8XkX8X8X0X8X6X.XE.E..XoX0X6XoXoXE.[.*XXXE.A.U.7.7.U.E.A.E.[..X[..X*X0X0X0X=X=XXXXXoX=X8X8X;XJ.=X;X[.7.:.:.A.A.7.7.A.A.[.E.G.[.}.[.H.].D.R.D.D.D.S.D.S.*.V.m.*.N.V.B.m.m.M.N.*.*.*.*.}  . .} } $.$.{  .X.{ X.X.} &.M.M.B.*. .$. . .-.$.} }  . .} } C U.SXKXT.hXhX+.qXLXDXOXp.l.g.p.i.i.i.t.r.",
"r.r.t.r.t.i.p.p.l.u.sXPXZX8 yXIXaXuXAXsX# #.E q p p p p B V B ^ B B B V C C Q O.O.8.8.O.G.F.L.L.L.&XJ.J.H.D.D.J.H.H.D.D.m.O.m.=.=.=.O.D.D.m.=.m.D.D.D.D.D.D.[.J.D.G.D.H.}.}.[.}.#X}.}.D.].D.H.}.H.D.[.[.}.#X,X-XK.}.&X;XK.D.N.=.&.+.N.N.*.A.G.[.H.}.*X}.}.}.}.&X&X:X-X-X-X-X&X}.>X7X:X-X-X*X*XXXXX*X-X,X*X*X&X&X,X,X,X-X-X<X1X1X<X<X1X1X1X1X1X1XwXwXwXkXzXzXzXSXSXzXzXkXkXkX1X1X1X1X1X8X8X8X8X8X,X;X&X;X=X7X=X.XoXoX=X6X&XF.J.XX=X1X&X&X-X*X-X-X;X8X9XlX9X8X0X8X0X=XoXoXoX6X0X6XoXoXoX=X;X&X.XF.U.7.A.A.A.E.[.[.E.[..XXX=X6X0X6X=X=XoX.X=X7XoXF.[.XXF.A.,.:.:.A.7.7.7.7.A.,.,.A.N.S.A.N.N.,.R.R.S.S.A.N.M.*.B.B.B.N.m.N.*.M.*.m.M.m.M.-. .&.M.{  .$. .{  . .W  ...}  .$.>.%. . .} } } .. .W }  . .| ;.C U.SXKXT.nXgX+.qXLXDXuXp.l.j.p.i.i.i.i.r.",
"r.r.t.i.i.i.p.p.l.h.hXPXUXl OXIXiXuXDXsX, M p p r p B B B N B N B B C C V C N C O.G.G.8.F.J.L.&XL.L.J.D.J.G.G.D.H.H.K.K.K.H.H.D.G.=.&.=.N.G.=.G.D.G.G.D.K.H.J.J.J.K.&X:X:X,X-X,X,X-X;X&X:X:X:X,X,X:X,X,X:X:X1X,X#X}.D.V.D.H.{.D.B.R.].A.S.N.N.D.D.G.D.[.[.[.[.[.}.}.#X[.[.}.*X&X}.&X}.[.}.[.oX[.oX}.}.XX&X|.,X,X,X1X1X1X1XkX1X1X1X1X1X1X1X1X1X1X1X1XwXkXzXMXMXLXLXMXzXzXzXzXzXkXkXkXkXkXkXkX1X8X1X1X;X=X=X=X=X=X=X=XoX=XoXXX7X7XJ.[.[.*XoXXX*X=X=X0X8X9XlX9X8X0X=X6X0X6X6X0X0X6XoXXX8X8X;X&XXX[.F.E.E.E.E.E.E.E.E.[.XXoX;X6X6X0X8X6X=XoXoX.XoX.XE..XF.7.7.7.:.,.A.A.U.7.A.A.D.S.R.].S.].].S.S.S.S.N.A.M.>.M.V.V.B.M.*.M.V.M.B.M.M.B.B.B.>.%.*.%...{ { { W { X.{ {  .$...W { { { { { ..} X.} W W } ..@.[ U.SXKXh.hXgX{ qXLXDXuXu.l.l.p.i.i.i.a.r.",
"r.r.i.i.i.p.p.p.l.h.hXPXUXm OXIXiXuXDXsX8 P p p t p p B B V V B N N V V C Q Q @.=.-.-.D.F.G.J.J.D.D.J.J.D.J.J.K.J.J.K.K.}.}.}.H.A.A.A.&.N.A.G.G.D.H.J.K.:X&X}.J.}.:X:X:X:X,X,X,X0X1X8X8X8X,X0X1X8X8X8X,X,X&X,X:X}.#XN.N.B.D.].].D.].S.A.S.N.S.S.S.S.D.[.S.[.S.E.E.R.[.].S.].].].[.[.[.E.E.E.E.E.E.[.*X*X*X*X1X1X1X1X8XkXvXcXkXzXkXwXwXkXkXwX1XwX1XwXkXwXzXzXMXJXJXMXzXzXkXkXkXkXkXkXkXkXkXkX8X1X;X8X;XoXoX.X.XoXoX=X6X8X8X=X7X7XXXoXE.E.E.oX=XoX=X=X;X8X9X9X9X8X0X0X8X8X9X9X8X6X6X0X8X0X;X;X;X;X*XXX.X[.E.E.E.E.E.oXoXoX=X=X=X6X6X6X6X6X6XoXoXoX.XE.F.F.G.F.G.A.F.F.E.A.F.E.[.D.D.].].|.[.R.].D.R.S.R.S.S.V.].].V.M.M.M.B.B.V.V.V.P.V.*.1.X.X.%.X.{ { { W { X.{ { { X. .W W W <.{ W W W } } } } W W } [ U.SXKXh.gXBX] qXLXDXuXp.v.l.p.p.i.i.i.r.",
"r.r.t.i.i.i.p.p.l.h.gXPXUXm OXIXiXuXDXsX# J M t r r p B M N N B Q V V V @.@.-.-.-.8.8.G.G.G.D.D.D.D.D.D.G.D.D.J.}.#X:X#X&X-X-X#XD.D.H.D.G.D.H.}.}.}.#X#X:X#X:X:X-X,X8X8X,X,X,X,X8X8X1X8X8X8X8X,X,X1X,X&X}.H.}.H.H.[.S.D.].[.D.}.}.{.|.{.}.{.].D.S.S.D.R.S.[.].S.R.[.D.D.D.S.A.[.|.].[.[.E.E.R.E.[.oX*X&XXX-X1X1X,X8X1XkXvXcXvXMXcXzXwX1X<X<X<X1X1XwXwXwXwXwXzXzXzXMXzXzXwXwXwXwX1X1X1X1X1X<X,X-X*X=XXXXXoXoX*X>XoX.XoX=X;X*X;X0X;X*X=X=X=X6X6X6X6XoX6X6X8X9X9X9X9X9X9X9X9X9X9X9X8X8X8X8X8X6X0X8X0X;XXX.X.X.XE.E..X=X*XXX.XXX.X.X.X.XoX6X6XoX6X=XXXoX.XF.[.[.[.[.[.oXoX[.[.[.}.}.}.$X-X#X|.[.{.D.].].].].].].].].R.V.V.V.V.V.P.V.I.V.B.M.1.M.X.X.{ W W { { { X.{ W { { { { } W W W W W Q W R W W V W | n U.SXKXh.gXBX] `.LXDXuXu.v.l.j.p.i.i.i.r.",
"r.t.i.i.i.p.p.p.l.7.gXPXUXl 4XIXiXuXAXsX# J B B B p p p B B N N V } C C O.-.=.G.G.G.=.G.=.G.K.J.D.J.D.J.D.G.G.D.K.K.#X}.}.&X-X-X%X$X}.H.S.D.H.}.}.#X#X,X,X-X,X,X1X1XkXkX8X1X,X1X,X:X-X1X-X$X-X}.<X-X{.}.*X&X-X#X#X].N.].}.[.D.{.{.}.$X#X|.|.].A.A.A.R.D.S.D.S.S.R.R.[.[.[.}.}.*X*X}.R.R.}.[.R.[.[.XX,X-X-X1X,X1X1X1X1X1XkXwXkXvXzXzXkX<X2X<X<X<XwXwX1X<X<XwXwXzXzXzXzXzXzXkXwXwX<X2X-X$X>X-X|.}.|.XXXX}.}.oX*X;X;X0X8X;X=X=X=X0XlX;XXX*X6X8X8X0X6X6X8X9X9XlX9X9X8X9XlX9X9XmXmX9X8X9X9X9X=X.X6X9XlX8X;XoX.X.X.XE..XoXoX.X.X.X.X.XE.[..X.X.XoX=XoX.X.XXX.XXX.X.X.X.XXXXXXXXX}.[.|.-X$X<X1X<X%X%X$X%X#X|.{.#X{.{.{.].].V.P.P.].V.].{.V.V.M.%.M.B.X.X.X.{ X.W { { W W { { { W W R V W R W W R W W W V W Q n h.SXKXh.gXBXm `.LXHXiXu.v.l.j.p.i.i.r.r.",
"r.t.t.i.i.p.p.g.l.7.gXPXUX8 4XIXiXuXDXsX# P N x B p p B V B B B B V C } O.-.m.G.G.8.-.-.G.D.D.G.G.G.G.G.D.H.H.G.S.B.H.}.H.}.%X-X#X%X%X#X#X#XH.H.#X#X#X,X,X,X,X,X8XlXvXvX1X1X1X,X:X,X,X}.H.].].H.H.].|.].|.$X-X,X,X%X}.#X#XH.].}.|.#X$X|.{.}.R.].R.D.H.[.R.R.R.D.D.].*X|.[.[.|.$X#X#X#X}.|.}.}.-X-X,X,X-X-X1X1X1X,X,X<X1X1X<X1XwXwXwXwX1X1X1XwX1X<X2X2X2X<XwX1XwXwX1XwXwXwXwXkXzX1X<X*X|.|.R.].[.[.[. X[.[.*X*XoX=X0X8X9X9X8X=X;X8X0X0X=X*X;X0X8X9X9X9X9X9X9XmXmX9X9X9XmXmXmX9X9X9XlX9X;XoX=X6X9XmXmX0XoX.XF.E..XoX6XoX.X.X.XF.E.E.F.E.E.E.[.[.[.[..X.X.X.X.X[..XXXXXXX}.XX}.[.[.}.$X#XkXcX%X%X%X%X$X%X<X<X2X%X%X{.].{.].I.{.$X2X{.V.V.P.M.>.>.X.X.X.X.X.{ X.1.W W { { { n n V V W R W C V W V R V W | z h.SXKXU.gXBXm `.LXUXsXu.v.l.j.g.p.i.t.r.",
"r.r.t.i.i.p.p.g.l.<.gXPXUX8 4XIXiXuXDXsX, ^ J r B B B V C N Q V C C -.=.-.m.m.=.=.-.-.-.G.G.=.G.G.=.} O.=.D.}.H.].{.}.%X$X2X1X1X<X-X-X-X-X%X%X-X,X,X1X1X1X1X8X8X8XkXkXkX1X<X#X}.[.}.].].].].|.*X-X&X<X-X-X1X<X1X1X1X1X1X1X1X1X<X|.D.D.S.S.S.S.}.}.}.>X|.R.A.S.R.].].[.[.}.|.$X<X,X,X1X1X<X<X-X-X<X-X-X,X1X1X1X1X1X1X-X-X<X%X<X<X<XwXwXwX1XwXwX<X$X%X2X<XwX<X1XwX1X1XwXwX<X2X1XkX1X<X2X|. XR.E. XE.R.E.[.oX*X*X*X=X;X6X6X6X;X=X=X;X0X0X0X=X0X=X6X8X8X9X9XmXmXmXmXmXmXmXmXmXmXlXmX9X8X0X6X0X6XXX=X9XmX9X6X.X.X.X6X=X6X6XoX.XE..X.X[.E.E.E.E.E.[.F.F.F.[.[.[..X[..X.X[.XX[.[.[.}.|.{.#X%X<X>X2X%X#X].{.$X%X2X<X<X<X<X2X%X2X2X%X2X%X3XI.P.V.B.M.>.%.>.%.$.>.>.$.$.X...$.%.{ { { W W W W W W R R V v V R ! z U.DXKX9.gXBX] `.LXKXsXu.x.l.j.p.p.t.t.t.",
"r.r.t.p.i.p.g.g.l.<.gXPXGX8 4XIXiXuXDXsX8 P M B B M C Q Q C @.O.-.=.m.=.-.O.O.-.-.O.O.O.-.-.=.-.&.&.O.B.H.K.H.{.{.#X#X$X%X2X2X2X%X{.}.}.#X#X-X%X,X,X1X1X,X:X,X1X,X,X,X,X:X#XJ.J.}.[.}.[.].].}.}.$X-X-X-X<X1X1X8X1X1XkX1X1X<X<X-X-X|.&X&X}.[.[.|.-X-X$X].].{.{.#X$X].S.[.-X<X<X1X1X8X1X1X1X<X|.{.|.}.{.<X-X%X%X<X-X<X%X-X|.|.{.%X%X<X1XkXkX1X2X|. X$X%X2X<X2X<X1X<X2X2X1X<X2X2X<X<XwX1X2X|.|. X[.[.[.[. XoX*X*X=X=X;X;X=X0X;X;X=X=X6X0X6X=X8X0X;X;X=X6X8X9XmXmXDXIXmXmXmXmXlX8X8X0X;X0X=XoXoXXX=X6X0X9X6X6X6X6X6X6X6XoXoXoX.X.X[.[.E.[.[.[.E.E.E.F.F.E.E.A.F.E.F.E.E.E.[.[.[.|.|.#X$X|.{.{.{.{.{.$X%X%X|.{.%X2X2X2X1X1X1XwXzXwX2X%X{.I.P.P.P.V.V.V.V.M.M.M.M.>.M.M.*.*.$.X.X...X...{ W W V V V N N R ! z T.HXKX<.hXgXm `.IXKXsXu.c.l.l.p.i.i.i.t.",
"r.r.) K p.q.( g.l.7.gXPXGX8 yXIXiXsXDXnX8 P N M N N E C Q } O.-.=.=.=.-.} [ O.C C V V } O.=.O.Q  .O.*.V.{.#X{.{.{.$X%X$X<X%X<X<X#X{.{.{.H.{.K.}.#X:X:X:X-X#X-X,X:X:X,X:X#XK.J.}.[.[.D.H.[.D.D.}.-X-X-X%X<X,X1X8X1X<X1X2X<X%X$X-X*X-X-X&X&X*X-X-X-X%X-X$X{.{.{.].S.$X$X|.{.%X<X<X<X<X$X{.$X2X$X|.].{.].].].{.{.$X{.].].].{.].].|.%X%X<XwXwX2X{.|.{.|.2X<X%X$X<X<X%X%X2X2X<X%X2X%X%X<X2X%X$X$X$X|.|.|.oXXXoX|.*X*X*X*XXX.XoXoX=X=XoXoXoX6X6X8X8X8X;XoX0X0X8X9XlXlXmXmXlX9X8X;X7XXXoX.XE.E.F.E.A..X.X[.6X8X6X6X8X6X.X.X=XoXoXoXXX[.E.F.[.|.oX[.}.[.F.E.E.A.D.A.A.A.F.D.A.R.R.].{.{.|.].S.S.B.S.].].{.].{.$X|.].$X{.{.%X2X<XwXMXwX2X2X%X$X{.{.I.{.I.I.P.P.P.V.P.B.B.B.M.M.M.>.%.$.%.$.X.{ X.W R R N G R Q z W.HXKXh.gXgXm qXIXKXsXu.c.s.) a.i.i.i.t.",
"r.r._ Y p.i._ j.v.h.gXPXGX8 4XIXiXuXAXsX8 P #.b C V } } C ,.&.O.-.-.=.O. . . . .C } m.-. .-.*. .*.N.D.H.{.{.$X-X%X1X<X#X$X{.#X$X].].D.A.G.D.}.}.}.#X-X-X-X&X#X#X&X:X:X:XXX&X&XJ.}.}.}.}.}.[.].}.-X-X$X#X%X<X,X<X<X2X%X#X$X|.$X1X1X<X1X<X*X#X-X-X}.$X-X-X-X$X|.S.R.%X-X<X-X<X<X$X<X-X{.].R.B.V.].$X|.{.V.|.$X<X%X{.].R.R.].].R.].|.{.{.%X{.].{.2X%X{.2X2X{.{.2X2X%X|.$X$X<X2X{. X|.$X{.|.|.$X|.|.|.|.[.[.[.|.|.[.[.[.}.E.[.[..XoXoXoX.X6X0X0X8X8X0X8X0X=X;X0X8X;X0X8X;X*X.XoX.X.X.X.XF.A.F.F.A.A.F.E.E.E.[..X6XoXE.A.E.oX=X=X=X.X[.[.[.[.[.E.[.[.[.D.R.S.R.S.R.R.S.S.A.A.S.S.R.R.R.S.R.V.B.B.S.].].R.{.{.].P.].].{.$X$X2XwXwX2X%X3X{.I.I.I.I.I.{.P.P.P.P.P.P.V.V.B.C.C.M.M.$.$.$.....{ { W W W V N R R n U.HXKXU.gXBXm `.LXKXsXh.x.^.r.i.p.i.i.t.",
"r.r.a.i.p.g.j.j.x.h.gXPXGXl 4XIXiXuXAXsX8 E Q <.Q C C Q O.A.&. .O.} O.Q O.O.[ -. .*.m.*.*.N.B.B.D.H.H.H.#X#X{.#X#X#X{.{.H.D.H.D.B.S.A.G.A.=.A.D.D.K.:X1X#X#X&XK.&X;X&XL.K.K.XX}.}.}.}.&X&X&X&X&X&X}.{.}.}.#X&X-X1X$X{.V.V.D.S.].$X$X-X<X<X<X-X<X1X-X-X<X<X-X-X-X$X$X$X-X{.$X$X{.{.D.S.V.V.V.V.{.$X|.{.{.$X%X$X|.{.].R.B.B.V.R.R.].].].{.{.$X%X2X2X2X$X{.].].#X#X{.].{.{.{.2X|.R.|.|.S.[.-X-X}.|.|.[.E.R.R.[.[.E.E.E.E.U.F.E.E.oXoX.XoX7X8X0X6X=X8XlX0X*X;X0X0X;X6X0X7XoXoXoX.XE.E.E.F.A.F.A.E.A.A.F.F.E.E.F.E..XoXE.A.E.[.[.[.E.E.[.[.E.S.S.E.S.E.E.[.].}.].R.S.S.S.A.N.R.S.S.R.V.N.V.N.,.*.>.M.S.R.V.V.P.V.P.].{.].{.$X%X%X$X3XI.I.V.V.V.V.P.P.V.P.B.B.B.B.B.B.V.V.V.M.M.$.;.$.%.X.{ { W V V v G R E b <.SXKXW.gXBXm ~.LXHXsXh.z.Y.z.g.p.i.i.t.",
"r.r.r.3.t.p.p.g.x.h.gXPXUXl OXIXiXuXAXsX8 E Q _.o.Q Q Q C C } Q C V N C }  .O.C U.A.*.N.S.B.D.H.B.B.M.B.H.{.{.H.|.$XH.].R.S.N.N.N.S.=.=.=.-.=.=.G.J.}.}.}.&X#XK.:X:XL.XX&X-X}.}.}.}.&X:X&X:X:X:X:X#X[.}.}.#X}.#X$X].D.V.B.B.S.S.B.V.D.].}.-X$X#X<X#XD.}.$X{.[.$X%X-X>X$X].|.].R.].V.B.V.V.].].{.$X|.|.$X$X$X|.].].R.R.V.N.M. XR.V.R.R.].$X%X2X%X%X$X{.].V.].{.].].].{.].].$X$XR. X XR.E.|.$X]. X XR.R.R.R.R.A.A.A.A.7.7.A.A.F.oX.X.XoX=X=X;X6X0X0X9X9X8X8XcX8X0X;X0X8X0X6XoX.X.XE.E.E.E.F.7.7.A.A.A.A.A.U.U.E.E.[.E.F.E.E.[.F.A.A.[.E.S.R.R.A.A.S.S.].D.].S.S.S.N.S.S.N.N.A.R.N.B.N.&.&.&.>.&.M.V.R.V.M.B.].I.V.V.P.{.{.{.{.I.I.I.V.V.C.M.M.M.M.>.>.>.>.M.M.>.M.*.M.M.$.$.X.X...X.<.;.{ W V V N G N R V >.SXIXW.gXCXl ~.LXDXiXu.z.g.p.i.i.i.i.t.",
"r.r.r._ r.i.p.g.v.h.gXPXUXl OXIXiX4XDXsX8 ^ V z N N V B h.U.n R N Q Q V n W  .} &.&.%.*.*.O.*.m.%.C -.V.D.].].H.oX$XV.N.B.S.=.,.-.=.-.-.=.-.=.=.G.J.G.A.D.H.K.&X&X&X&X}.K.}.H.D.D.J.&X}.}.&X:X&X}.}.{.[.{.[.].}.].S.V.N.B.N.N.>.&.;.R.A.S.D.{.%X#X%X$XR.[.{.{.#X2X$X|.].R.].R.S.V.B.B.N.S.{.{.{.$X{.|.#X|.{.{.R.N.,.,.,.M.>.N.N.N.R. X{.{.{.%X%X{.].P.P.R.{.{.R.R.R.V.R.R.]. X|.R.].R.R. X X>XR.R.R.R.R.A.S.A.A.7.7.7.7.7.7.A.E.E.U.E..XE..X.X.X.X=X8X9X9XlXlXlX6X6X6X8XlX8XoX=X.XE.[..XF.A.A.F.F.F.A.A.A.A.A.A.E.E.A.F.A.[.A.A.A.A.F.A.D.D.A.A.].#X#X].B.,.N.S.N.N.N.,.,.,.>.>.>.>.+.+.>.>.>.N.>.B.V.B.B.V.V.B.B.B.P.I.I.I.V.V.V.C.C.C.M.B.M.$.$.$.%...1.$...$.X...;.{ X.| } X.{ ;...{ { V G N v N R z 9.HXIXh.nXgXl ~.LXHXiX6.v.l.p.i.i.i.t.t.",
"r.r.r.) r.i.p.g.l.7.hXPXUXl OXIXiXOXDXnX8 ^ N N M M M b h.U.n Q R ! b <.U.l W.;.n C W } } &.-.C } W  .m.H.D.V.H.V.H.S.&.*.N.-.&.O.O.O.&.O.@.O.O.O.=.G.E.A.m.D.}.}.J.[.G.G.D.A.=.A.F.[.J.J.}.XXJ.H.H.}.].].D.S.].D.N.N.,.N.*.>.;.+.@.;.&.B.&.].].N.S.|.H.Z.{.#X{.].R.].R.S.A.N.A.,.,.,.V.R.S.].].{.{.{.{.].R.V.N.,.;.;.;.>.+.;.,.N.,.S.R.{.{.{.{.{.].N.B.P.].].].R.B.V.S.S.R.].|.].R.R.R. X X@X|.R.R.S.U.A.A.7.:.:.:.:.:.7.7.7.A.U.A.E.U.U.!.E.U.E.E..X=X*XXX=XoXoX.XoX6X7X6XoXoXoXoXoX.X.X.XF.E.F.F.E.E.A.7.A.A.A.A.7.7.7.A.7.A.A.7.A.,.A.A.A.S.H.wXbX#XV.,.,.>.M.,.,.&.,.>.>.N.&.+.+...*.&.*.*.&.>.>.M.M.>.M.M.M.B.P.P.P.V.M.B.M.M.1.$.>.%.%.1.....X.X.1.| { | X.X.X.X.} } W { ;.{ W W R V G G G G E z U.KXIXh.iXhXl '.LXKXiX6.v.l.p.a.i.i.i.t.",
"r.r.r.3.t.i.p.p.l.:.nXPXUXl OXIXiXOXDXnX8 E N x M c N E b X.} C W Q W | +.C }  .{ v v } C Q } V .. .m.D.V.%.B.H.H.H.V.,.,.N.=.O.} } &.} Q E Q O.} @.:.O.=.D.D.D.D.D.N.F.A.G.=.=.A.D.G.D.D.J.J.D.H.D.H.D.S.D.S.S.S.N.*.&.*.M.+.} +.Q ;.,. .,.&.*.M.A.C.eXdXI.].V.B.N.B.S.S.A.N.N.,.N.M.B.R.].{.{.|.{.{.R.R.R.;.>.;.;.;...;.| ..;.>.;.M.V.].R.{.].{.].P.V.P.].P.P.V.N.,.V.S.S.].].].R.R.].S.R.N.R.[.E.R.A.U.A.U.<.+.:.:.:.:.7.:.7.7.A.A.A.A.A.U.A.A..XE.F.[.=X.XE..XoXoX.X.XoXoXoXoX.X.X.X.X.X.X.XF.F.E.E.A.7.A.A.A.A.A.7.7.7.A.:.:.7.:.+.:.=.A.R.V.2XkX{.N.:.&.,.+.+.@.&.;.&.&.,.*.&.....>.&...&.>.>.;.M.M.$.;.B.B.B.M.B.B.B.M.1.1.>.....$.X.>...{ X.{ X.W X.W W { W R W { W W W ! R W | R E v G v G E 8 U.KXIXh.iXnXl '.LXKXuX6.v.l.p.a.i.i.i.r.",
"r.r.t.i.i.i.i.p.l.;.nXPXUXl OXIXiXOXAXnX, P N N N N N V V W C } W V C V V V W ..V Q o.V Q N V Q  .-.B.B.V.B.V.H.|.H.*.&.+.&.&.&.O.@.@.V C Q @.@.O.@.@.m.J.H.D.J.H.A.O.G.N.O.O.=.G.D.G.G.D.F.D.H.].D.].].N.S.S.S.S.S.S.N.V.S.N.;.@.+.} ..&.U.&.;.,.>.C.>XeXV.B.N.B.N.N.,.,.,.;.,.>.,.N.R.].].].].{.].R.V.R.B...;.;.;...| +.| ! | ;.>.M.N.N.R.R.R.R.].].B.R.].R.V.V.M.V.V.S.S.R.].R.@XR.R.B.A.R.N.E. XB.R.B.:.:.:.+.:.:.:.+.:.:.7.:.7.7.7.7.A.A.E.E.E.E.[.E..XE.F.E.E.E.E..XoX.XoX.XE.E.F.F.oX.XF.F.F.F.F.F.7.7.A.A.=.A.7.7.:.7.:.:.o.,.A.A.U.,.M.N.P.I.N.,.+.o.+.@.} +.@.Q | | ,.,.;.&.$.&.&.&.$.,.&.<.>.>.;.;.B.M.B.B.M.M.M.>.$.$.>...X.{ X.$.X.W { { X.W R W R { W R W R W W R R R G R R +.R v v v G 8 h.HXKXh.iXnXl ~.LXHXuX6.l.j.i.a.i.i.t.r.",
"r.r.r.r.r.i.i.p.j.+.nXPXUXb `.IXiXuXDXnX, P E N V N N v v V W V W V N V C v } >.n V N V } {  . .*.m.S.S.V.V.H.D.B.m.-.&.:.@.&.N.,.&.+.C +.C o.C -.G.&.G.D.m.-.m.A.O.O.&.+.,.=.A.D.D.A.A.G.D.A.D.{.H.D.S.N.N.N.N.V.N.B.S.B.B.N.*.;.+.+.+.B.>...,.B.$.N.C.Z.R.M.,.>.,.N.,.>.....;.>.;.N.R.R.R.].].R.P.B.,.,...;.....;.! ! o.| Q Q | ..,.;.N.N.V.V.R.R.S.R.].R.R.R.S.V.V.S.V.B.S.].R.R.B.B.S.,.,.A.[ +XW.R.@XN.<.U.U.A.&.:.:.:.,.7.7.o.A.A.:.:.A.E.A.E.[.XX.XF.E.E.E.E.E.F..X.XE.E.E.E.E.F.A.E.E.F.E.E.G.A.A.7.7.7.A.+XA.7.7.:.7.7.o.+.A.D.R.R.} +.&.;.N.@.| | Q ! | | Q Q Q ! | } +.| ..&...>.>...+.+...>.M.M.>.>.B.$.1.M.>.M.1.X.$.>.....X.X.W W R W R R R n n v R A V n N R R V V R v V n ..W v N N G 8 9.DXKXh.iXsXz ~.JXHXuXu.l.g.g.p.i.t.t.r.",
"r.r.r.r.r.i.i.p.l.o.fXPXUXb _.IXiXuXDXnX, J E N V V v x Q | v v V V V V v v N v V N N W C %.%.*.-.*.m.m.B.B.H.D.D.N.*.+.@.&.,. .} Q C C o.Q W  .O.m.S.S.} | :. .&. .+.@.O.} N.S.D.A.m.m.G.A.A.S.H.D.D.V.D.].V.V.V.M.*.D.].S.D.B.&...>.&.M.>.&.| &.>.M.V.V.V.V.M.B.M.N.V.B.,.&.;.>.M.M.N.N.B.V.R.V.N.B.;.;.| ! ! | +.R R W | | Q | ..>.;.;.,.B.>.V.V.,.N.R.V.B.B.B.B.V.S.B.S.S.S.R.N.R.B.B.,.A.A.U.W.7.N. XS.A.,.:.&.:.:.U.+.:.:.U.+.:.:.:.A.A.A.A.A.E..X[.F.F.E.E.E.E.F.F.E.F.E.F.F.F.E.A.A.A.A.7.!.E.7.7.7.7.7.7.!.7.A.W.:.7.7.:.+.:.=.@.O.} Q +.o.:.o.Q Q ;.| Q Q } } W R R Q +.W } } $.W ;.U.} ;.W.;...$.%.1.1.$.1.M.M.1...$...{ X.X.X.{ W W R R R v v v n v v V R V v W R v v v v | v x x c c v G 8 u.SXKX9.iXsXz ~.JXDXuXr.l.g.p.p.i.t.t.r.",
"r.r.r.r.r.i.i.p.l.#.aXPXUXb _.KXyXuXDXnXl #.v N V R x c Q | e c x v v N V v R R V N W }  .M.*.-. .C %.m.M.m.m.m.H.m.*.&.+.&.7. .Q Q Q } Q Q  .m.m.B.H.V.[ R.R. .E. .&.+.O.+.=.N.N.=.=.=.=.m.N.B.D.D.D.D.D.].].S.D.D.D.].].S.].].V.M.*.W.&.&.;...&.>.B.V.V.].].].V.M.V.V.V.V.R.&.M.N.N.N.;.N.N.B.B.>.>...;...! ! R Q Q ! ;.} | | | | ..;...>.M.V.>.V.B.<.P.B.N.N.M.N.B.B.B.B.S.B.N.,.R.M.;.>.A.R.R.,.&.:.-.U.,.,.R.U.:.:.+.;.:.+.+.+.:.+.,.7.:.7.7.7.A.E.E.E.F.A.F.F.A.A.7.A.G.F.F.A.A.A.A.E.A.7.7.E.A.-.7.:.7.:.:.8.U.+.7.7.:.:.:.@.:.+.! +.} Q o.Q o.o.Q E +.| R ! C +.! R R R R R W } W n R | W | W.P.;.1.h.| $.1.M.1.M.%.{ ..{ W { { W { W R R W R b n v n v v v v R R R R W v n ..#.e v c x c c M 8 b.DXKXh.yXsXZ ~.LXDXyXr.l.p.p.i.i.i.i.r.",
"_ U r.r.r.r.i.p.l.o.aXPXUXm _.KXyXuXDXnXl ! N N c x v N v V c t r R N V V v v V N R  .M.N.*.*.} W R  .*.-.B.N.N.-.O.&.+.+.} C A.} @.o.@.}  .*.V.].H.$X].%.} C } } } } } &.&.-.*.=.,.O.&.=.&.-.N.V.S.S.B.B.V.V.V.S.D.D.V.D.D.D.D.].R.S.B.+...;.} ;.M.V.V.M.V.V.R.S.R.R.V.M.N.B.>.V.V.B.B.>.B.>.>.,.&.,...| W ! E R | ..! ! W Q } W ..| | +.+.;.,.;.N.V.].R.U.N.<.,.,.,.,.,.,.,.,.<.:.,.<.;.<.+.,.;.:.:.U.A.N.<.:.,.:.:.+.+.o.:.:.:.:.:.+.:.,.:.A.7.7.A.A.F.F.F.A.A.A.7.7.7.A.A.G.A.7.A.A.7.7.7.:.7.-.7.W.@.+.o.o.@.:.:.:.:.:.:.:.,.+.Q Q +.! E E ! E E Q Q Q ! W V R R Q ! R R G R G W W W R R R ! | z | W | k.X.$.$.$.....X.{ W R R W { W X.W W R V v v n R v c x W R W W W v v v n W v r x x N R v S , z.DXKX9.iXsXC '.LXDX4Xr.l.p.p.i.i.i.i.r.",
"r.r.r.r.r.t.i.p.l.o.aXPXUXm _.KXyXuXAXnXl ^ R c c x x r v W r e r N v v R R W W W  .%.B.V...&.Q R W C C } *.-.} S.=.} } O.} Q +.} } } &.&.C.V.D.H.D.{.V.V W &. .-. .,.+.+.O.-.N.*.&. .&...+.&.N.V.D.V.B.M.M.R.S.V.V.V.B.V.S.].].].].D.V.B.M.&...| &.V.R.B.V.V.N.V.V.V.P.N.B.U.M.].V.R.>.;.;.;.;.,.$.| ..| | ! Q E ! | ! ! Q W | W | X.;.;.;.+.B.R.] dXjXZ.A.>.;.;.&.;.;.,.A.,.:.:.,.U.A.+.;.,.:.A.U.;.<.:.@.o.+.+.<.;.+.:.o.o.+.@.:.:.o.+.:.:.:.7.:.A.A.A.7.7.7.A.A.7.A.:.7.7.G.8.8.A.7.7.7.:.7.7.@.:.7.@.:.o.o.o.+.:.A.&.:.:.o.:.! Q Q ! N E E ! E Q Q | ! W C N R R W V R ! N G R W R W R | Q ! W R A W W n { ;.X...X.W X...W | A W W W n n A R v v x v R c c x v A n 1.W c c n b A x r e e G G x M , b.DXKX#.yXuXZ qXLXDXOXt.l.p.p.i.i.i.t.r.",
"r.r.r.r.r.t.i.p.l.#.iXPXUXm _.KXiXOXAXsX, #.! x c e E c N e x c N x c v V v  .X.{ $.%.*.M.Q | ! N c W } C [ *.C +.} C } C Q Q C @.+.>.B.C. X*XV.D.D.V.*.} &.Q  .&.C @.} Q *.N.*.}  .$.Q W } Q  .N.S.*.*.M.*.B.B.N.M.N.>.*.>.B.V.V.R.>XR.M.M.M.>.&.N.N.B.M.>.V.P.B.V.M.E.R.$.M.*.R.R.R.W.>.+.+.&.....| +.! ! ! R E R Q | | W W W ! R W ..;.;.} U.R.%.@X>XB.;.,.&.+.+.+.;.,.,.:.<.;.:.:.:.+.;.:.&.,.<.+.:.,.;.;.+.;.o.:.o.o.+.o.o.@.o.:.@.o.:.:.7.7.:.A.7.7.:.:.:.7.E.7.7.:.+.7.A.:.8.7.:.7.7.:.7.:.@.+.O.@.o.@.:.@.:.@.@.,.C.C.;.Q ! o.E E R N R E R R Q W R N N N N G W W R R Q | } R R ! R | W v N W W R R v +.X.{ { X.W W W ..X.W R v R #.n v R v c x t t x x x c W v v x e x c e e e e e e 0 0 e c , h.SXUX#.4XyXZ qXLXDX_.i.l.g.p.i.i.t.r.r.",
"r.r.r.r.r.t.i.p.l.#.iXPXUXA _.KXiX+XAXsXn ^ b v v ^ R c R x r c v x x N V c n { M.B.*. ...V R R M M N N M N N c e c N V E b <.U.-.*.B.].H.|.>XV.D.].V.B.N.N.,.*.&. .Q } -.*.N.} C } } N R N Q | Q } } } .. .&.&.>.>.$.&...$.>.M.V.].].M.&.>.>.&.&.N.M.B.B.N.M.B.B.V.M.B.>.M.V.M. XR.N.<. X&...+.+.| ....| R | ! R ! R | ;.W | ! ! W ! | +.;.B.&.X.;.%.%.>.;.&.+.+.+.o.+.;.:.;.;.:.:.+.:.:.;.:.+.;.:.7.,.+.;.+.o.;.o.:.+.+.+.o.@.o.o.@.o.o.:.+.:.:.+.7.7.7.:.:.:.:.:.:.:.:.+.:.:.:.o.o.:.:.:.:.+.:.@.@.=.:.Q o.@.} } +.:.C.>XeXC.o.! ! V R R E R N N R R N N N N N N R R N R R R ..X.| [ [ V n A { W { { W R c #.| W W W W W v R W W W v A #.! x x c c x x t e e x v b e 0 e e e 0 q 0 0 e 0 q q e q c , 9.FXDXW `.OXz qXIXDX_.i.j.p.p.i.t.r.r.r.",
"r.r.r.r.t.i.i.i.j.#.uXPXUXA _.HXyXOXAXsXl ~ W R n W.G e r N c v R r x c V V V *.B.M.%.W R v c c M N V c e N #.x c N c M M N Q &.*.S.V.S.D.D.V.S.*.*.*.*.&.*.-.-.*.&. .&.N.*.} W W N N r G R Q Q | Q W W } } >.&.....{ +...} >.>.M.R.B.M.&.M.M.;.&.;.;.&.>.,.>.>.M.M.R.B.$.P.R.*.<.R.,.| ..U.B.} | W } ....! ! Q E Q | | | } ..Q ! | | +.;.| U.N...+.;.+.| >.;.+.| | ;.o.;.;.;.,.&.,.;.&.,.+.;.+.;.;.:.;.+.o.;.o.o.| @.:.o.@.o.! o.@.@.+.o.+.@.o.+.@.@XU.=.:.@.:.:.@.+.@.o.o.+.+.+.o.+.o.:.@.o.7.7.Q o.Q } } Q ;.Q | +.@.[ $X>XC.#.| R R N N N N N R N R N M N c c N G N v R N v W X.%.>X2XI.R.X.%.%.W v v c x v R b A A v v V V W W b v c v <.c c x G G e e e e c x e x e e e 0 q q 0 e v 0 0 0 0 0 c , u.DXZXn '.OX9 qXIXFXW.p.j.p.i.i.t.r.r.r.",
"r.r.r.r.r.i.i.i.j.` yXPXUX' !.DXyXuXAXnX8 ~ W V V z x x x c v ! e c x n V { B.>.*.{ V V N v v Q M N W e ! o.x c x N c x N V Q  .&.,.N.N.R.D.A.,.*.*.&.} -.=.,.*.*. .&.-... .} V V N c c c c N N ! R C W R | >.+.} } | R | } ..$.&.N.>.>.&.>.>.&...&.;.&.,.>.B.A.R.B.>XP. .B.U.$. .<.+.B.;.;.U...W U.;.Q | | Q | } Q +.;.W ;.} ! W ! Q @.B.:.} ;.+.;.:.Q | o.+.| | | } | ;.;.;.;.+.+.+.+.+.+.+.+.+.+.:.;.+.! ;.o.;.o.! @.! #.#.! @.o.o.+.+.:.+.o.:.:.:.o.:.+.+.o.o.o.o.o.@.o.! o.@.o.o.o.o.o.+.+.+.o.! ! ! E E @.E E E +.o.%.%.;.R E R R G N N N N N N N N N N V N N v v V R v R R E ] eX>X|.@X2.{ W n c v v c R o.! ! c c v v A n W v v x x b c x v G G e e y e t e e e e e e e 0 0 q q e 0 q q 0 0 y , u.DXZXn `.yX9 qXIXFXU.p.g.p.i.i.t.r.r.r.",
"r.r.r.t.t.i.i.i.g.#.OXPXUXA _.DXyXuXAXnXl o.R V v R G v x R R ! v v v W W %.%.{ ..| V N N R N N N R c e | ! 9 V N e N E N V Q @.&.} &.N.N.N.N.N.N.=.&.+.-.*.,.-.*.*.&.&. .} Q R W v N x t N R N R v W N V } Q R N R R R W | } ..>.>.&.&.&.&.>. .;.&.B.+.&.;.+.;.,.$.%.1.$.$. .;.X.} +.| <.} h.;.W <.<.| | | W ! } } ;.>.| ! | ..;.E +.+.;.o.;.+.;.| o.! Q | } +.<.} <.+.+.;.:.;.| ;.+.+.&.| +.+.o.o.:.+.o.o.o.! o.o.o.o.o.o.@.! ! ! ! Q :.+.o.o.:.+.Q o.o.+.o.o.:.+.o.+.o.! ! o.o.o.o.o.o.o.7.<.:.Q E o.| E E @.! E E ! ! o.! Q R N | R N N N N N N N N N N v N c v v c R v R R R ! 1.2.2.W 2.W A v R v v v c G | ! ..W n R c c R ! A y y c c y c x x v x e e e q e e e e x e 0 0 0 0 e 0 0 e e 0 q y # p.DXZXR OXyX9 qXPXCXU.s.g.p.p.i.a.a.r.r.",
"t.t.t.r.t.t.i.i.g.#.OXPXGXA !.DXyXqXAXsXl ! R R v R W R v v v b n W l n $.X.{ X.} R v R R R V e N N e t c e c x c r N ^ N V } Q O. .O.S.B.N.*.=.*.*.-.&.,.,.*.>.N.N.*.-.*. .} W W c R | v c V N N N V N N } c G R M N Q Q W V ..;.} ..} X.....} } | } ..$.;.| ..;.X.| X.$.X...&.X.>...| | | | ..| R %.[ | | | R ;.| +.| ! } ;.| +.R | | ;.o.U.+.| Q } ! R ! Q Q o.Q :.o.o.<.o.o.! +.;.+.+.| o.;.o.o.:.+.@.! ! @.o.T.! o.! @.@.! 7.+.o.h.7.E ! #.E ^ ! o.o.:.o.! o.:.E 6.6.C C o.o.o.Q } +.o.h.o.Q o.o.E ! ! N E R E ! R E R ! ! o.Q c N N R N N N V V N c c N c t c v c v c v R W | R R R R R W v c A v y M R c c v R R b v c c A v R v t A A x y v c c x e e e e t x e e x x 0 0 0 0 0 0 0 4 4 4 e t . b.DXHXo.OX4X9 qXPXCX<.s.g.p.p.i.i.r.r.r.",
"t.i.t.t.t.t.t.i.g.` `.PXZXm Q.FXyXOXAXsXm o.| | W W W W v c x c r 2.@X].C.W W W v b b ! R b o.o.x N c N t r q 0 e N N B N C +.} } C } *.m.N.m.&.&.O.@.} U.<.*.&.-.*.=.O.&. .&.} V c N Q N c v c M M R V N N N R v G G N R R B...W } $.....Q } Q W W R Q | } ;.;...} | } | | }  .} ..;.....| | W W l @X@X[ ;.| Q | } | ;.<.W Q | R ! ! ;.+.| W Q V R ! Q Q ! ! Q ! ! R ! o.o.+.;.o.Q o.o.| ! o.+.o.! o.! o.o.! h.7.Q ! ;.o.E ^ ! ! o.o.7.o.7.7.E o.! o.o.Q Q o.! @.o.+.#.C @X@XC E R ! ! ;.| Q ! R R E R G G G E N G E E N U.Q :.o.v N N N v N N v N N M c c c N c c c e v e x R R R A v x G A v R M c x t v G x x t t R M M M M t c W W c v v x x v b e e e e e e x c e e b x 0 0 0 4 y 0 0 4 1 4 1 S # l.DXHX#.OXOX2 qXPXBX;.j.p.p.i.i.i.r.r.r.",
"i.i.i.t.t.i.t.i.g._ '.IXZXm T.CXyXuXAXsXl o.W W 1.X.| | W W ..W G ] eX>X] | W v v v c c | n o.#.9 t V v e r q t t M M V o.V C } Q C  .*.O.&.} Q Q } } }  . ...}  . .Q V } &. .&.} Q Q ! N N c c M c N c c c c N N M R W R W ..} { C } } W R W W W W W W | ;...| } W W W W R W $...} &.&.$.| ....| n U.W. ...! | ;.| +.} } ..Q } ! | Q | } } Q Q W N R W } R Q Q E R E Q | C | Q :.| ! ! ! ! ! o.o.! o.! ! :.:.+.! ! :.o.o.o.:.o.Q o.#.7.Q 7.:.! ! E ! ! E ! Q o.o.E ! @.Q  X@XC #.o.! o.N E E Q R R +.R N R M N N E +.| N E V | #.x W N R v N c c N N M c t c R G c v t c r t r v v x c x x M c v 9 0 c v x v v A c v E G x c M c M v X.W ..2.W n x x e e 0 q e e e e 0 e e 0 4 4 0 0 0 0 4 0 4 1 0 t   v.DXDX<.`.OX9 qXPXBX..l.g.p.i.i.i.t.r.r.",
"t.i.t.i.i.t.t.i.p.3./.IXZXm T.CXOXuXAXnXl o.W W | | X...>.%.R.>.b >.Z.Z.Q c N c r e N c B N e V M e c x q r t N x p N C o.V V :.Q } &.} Q Q C R o.Q Q Q } } W { >.} &.+.} &.&.+.Q } Q N C c r N V c c c N R c R N c G Q V ;.;.{ W +.W W W R W C | | W ..&...Q R R | W } W R R W | W R | ....>.....X.<.B.} ;.;.| Q W W R R | Q ! Q ! Q Q R Q | Q | R R W } Q Q ! | ! ! ;.;.+X| o.Q ! o.o.! ! Q ! ! E ! o.+.#.! ! ! ! ! ;.+.;.Q ! ! o.V U.U.b @.,.@.! E @.E ! E E E ! @.o.o.V z ! E N R ! N Q | N R V ! Q o.N N N G R R c G v v N x R ! x N v N N v N G N c G R c c c t r c r v R x e t t t t e c 9 h.o.v v v M c v A v y v v A v A A A X.Z.Z.C.X.n b y y e t e 0 1 R R 0 4 q 0 c y 1 0 0 0 4 4 4 0 e t   c.DXDX#.'.`.9 qXPXBXX.l.g.p.p.i.i.r.r.r.",
"t.i.i.i.t.t.i.i.p.q.Q.LXFXm k.bXOXuXAXnXl ! | W ;.| { X.{ X.X.W ..{ W W M c M e t t e W N e M B x t x x t x x N x t E Q V C C V C C C N N N N N o.W W } } W ;.{ $.W  .} } } }  .| Q N M c c c N c c v c c M N V N N c N R Q } Q W ! W N v R ;.V ! +.;.+.| W Q W W R W W R R W W W | W Q W Q W ..;.;...;.} Q Q ;.Q W | R R ! Q } } W } W ! ! } Q R N N R V Q } ! o.! } | | U.| | ! Q ! Q E ! ! E E ! o.! ! Q E o.o.o.Q | o.! | E o.o.G ;.:.C :.:.+.o.E J E E ! E E ! ! E Q E E V ! E R ! V R R G M ! N V ! V N N R R N v ! E c R c R ! v E r c N R c N N v R R c t r G v x c v v t t t e t c x x x #.J x c v G x e t e t v v v V R R X.Z.$XzX3X%.W v y y t e q e q 0 0 0 0 0 # #.J 2 0 4 4 0 4 4 0 q y   n.DXDX#._.'.9 qXPXNX[ l.g.g.i.i.a.r.r.r.",
"t.t.t.t.t.t.t.t.p.r.T.KXFXb k.bXOXuXAXnXl o.| W W W V A W W { { { x R { c t t c e t e N x e x x x M c c x c t M M N N N C } V N V N V c N M x c v W Q W R Q } { &.} W } } Q C Q Q Q N r c x N V N c R v N N N N c N M R | | N N R v N c c x N v v | <.| W Q W } | } ..W R V W W W | Q R | } ....W W } W | } Q ! R W R R R W R Q Q W Q W W ! o.Q R N N R N R R ! o.R ! ! Q V Q | | Q | ! ! Q ! ! E E ! | ;.+.! E E | +.Q ! E ! ! ! E J :.:.;.o.! o.Q ! E J E E ! N E E N N G E V E R N E Q Q G N N ! R N R N M c N R v N N N R x c r c v c v v N N N N R v v v c Q v R v t v c t c t e t e r v R R 9 r v t e q t x q y q y c e y y b W Z.>XzX%XC.X.W A A v c x x q e e 0 0 0 4 , 1 4 y y 1 0 4 1 4 1 w   c.DXFX#./._.9 qXPXNX[ l.p.p.i.t.r.r.r.r.",
"t.t.t.t.t.t.t.i.i.r.T.KXDXA g.bXOXuXAXsXl ~ #.W n R A b R n { W c r v c c M e M S e r q c t t x t t c N e x x M N N N N c N N Q E v V V V x t t x ! Q N V Q W W } Q C Q Q N V C C ..Q r c x c N V V R V N N N R c M c N | ! v N c ! N N x o.! x ! Q W | V R G N V R } W V V V Q ! | ! | | } { C R R | V ....R R R R R R R Q W ..} W +.;.V R | R V N R V v V ! ! ! ! J ! E ! | W ;.o.Q ! ! E ! #.! ! E ! ! E E E G R Q E E E ! E E E E G E Q E E o.o.Q E E ! E E ! E E N Q E N E ! N E N N R N G N N R N c c t c M c c N c c c c c r ;.| v N r N N v c G G W v t G e x M r c e t t e q t e e x v e t x t q q 0 c R t y 0 q t y y y b n X.Z.Z.Z.n b c x x x x x e x x v e 0 q 1 q 4 1 0 0 1 4 4 4 1 1 5   v.DXDX#.Y./.2 qXIXNX[ l.p.i.i.t.r.r.r.r.",
"r.r.t.t.t.t.t.i.p.r.k.HXDXG 7.bXOXuXDXnX8 E ! v c x r x x R W e e t x e t M e M ^ 9 r q e q c x N t e r e e N x M N N c C Q C @.V v N N r r x M x N N N | } C W C N c N R C R Q W C V c R v x N N V R N N N N N t c R R v v N V c N N N N E R N c N N V R R N R v { } X.V v b R R ! ! | } V W V V R } W R ! Q Q R R N R R R V W R V V W V V W R V N N N N R R R E E E ! R E | R | | R ! ! o.R o.Q | G M E ! R E N N R R R N G N E E G ! +.E E E ! ! ! ! ! ! E E o.R ! | E M M N N N N M R R R c N Q N N N c t c c c c N x e v v v c N ! x W v r e N v R c R G t 9 ~ o.b e y c q 0 q q q 0 r e e r x q 0 0 q e v c x q t q q t c c v n b W X.2.n y e 0 q e e q 4 y q M t 1 0 0 . # 4 1 4 4 4 4 4 4 5 f   f.AXSX#.x.Q.9 qXLXNX[ l.p.p.i.i.r.r.r.r.",
"r.t.r.r.t.t.r.i.p.t.h.HXHX' 6.bXOXuXDXsX, J x x t t r c R V r 0 0 c N r e r 9 e 9 r r t x r r v V t q x e N N V c N N V Q C V v N N c N x e x N c V M N Q Q C V N c N t v Q V { { v N N V R x N c x c v ! N N R c N R v v c N v t c N v N R N N R V c N N N N W N V v V V R W.! E Q R | Q V R N R N V R R R R W R W v R W R V R V V v V W V W V N N N N v N ! R R E E E R E R N W } +.! ! E G E ! E G G E E V V N G N N N N N G E E G M M G J J E E | ! E ..E G ! | Q | E M N G N R N N N V R c N R N M N c c c c c v c r t c r t r G #.e N x t v c t c x v v c , T.'.l 1.c t t q 0 q q q t y q e x 0 q e 0 t q e e q t e y t c v b e 0 b v b v e 0 q q q q 0 4 0 q t q > 3 # W.` . 4 1 4 4 1 1 > 5 I   v.AXFX#.j.Y.2 qXLXgX[ l.i.p.i.i.r.r.r.r.",
"r.r.t.r.r.t.i.i.p.t.h.HXHX/ 6.bXOXyXAXsX, S c c r c c v v t e e e e e 0 q r ! e r e e t r e q e N e q r e N x V x x C C c c c N V V N M x t x c B N N Q Q V C N x x x c V V W W W V N R v x c c c N c c c R n n R V x v N N c r M c M M c c N N N N v V N N G V R c N N V W <.V R ! R R N R V N N R R N R N W | V V R V N N R V N N N R V N V V N N v v v N R E M G G N R G R ! V R ! E ! R R G E ! E N N N N N M N N N M R R E R R R M M M G G R G E | | ;.! ~ ! ! ! N R G N N G ! c N N t c c t N c c c r v t x c v c r x c c t c c e e x R N G t t c x M x r c b 8 U.W.l t e 4 q y q r e 0 q q r 0 0 q 0 q 0 4 5 4 M c 4 y v e 0 0 0 b x y x e 0 q 0 0 4 0 4 4 q x e y y , ` J $ 4 1 > 4 > > > > 1   c.DXAX' l.Y., '.LXhXZ j.p.i.t.i.i.r.r.r.",
"r.t.t.r.r.r.t.i.p.i.h.SXDX( 6.bXOXOXAXsX# S c r e t N v c 0 0 e 0 q q e c c #.9 e e N e e 0 t q e x e r q q r c x N C V N c x M M x t t e x x x t N N V E Q V r x N x v v V } v V v c N c x c r r N c N N n P.R.C c c x v c t c M c c M M c R G c N N N N G N N R R N N N v b V R R R G N N v N N N v N R M W $.v V V N c N N N N c N N N N R V N c c N N N G N #.E J E N E ! ! R N R ! R G E E E ! N E G N E N M N N M M N R V R G G ! G G G ! G G G | %.Z.;...! R R E N N R N G M M M c c t c t t c c c t t c e x c x r c c v c e G G e t c v R c v v c v c x e v A x b c e v G x A v M e e q 0 q 0 0 0 q q 0 4 q 0 y t y e e 0 4 0 e e e e 0 e e 4 4 e e 0 q 0 4 q 0 y t e . , 4 > > > 4 4 > > 4 w   c.DXAXG x.Y., ~.JXfXz l.p.i.i.i.i.r.r.r.",
"t.t.t.r.r.r.t.t.p.i.#.SXSXU 6.CXOXOXAXdX. D c c t e v q e q 0 q 4 0 0 9 q 4 , e 0 x N c e 0 0 0 x N r e q N x V n *.].*.V c t r t t e e x c t x x B V C V Q N x e N c v v v V c V N x E M r t c N x c c R m @X+X[ E R N N G E c M c t t c c c c c N N N N N N N R R c c c r R V R N R N N N N N c R v c c v E | v N R v N v N v v v c R N c N N c N N R N G G M #.J G E N N G ! N ! E E ! G ! E E ! c E N M G c x N N N M N R N Q R N R R R ! ! ! Q ..C.|.eXB.| R R N G G N E N M E N c c c c c c c c t c t t c r c r r x r c c c t e e r e t x R R x v A v c v v v v e e q t E J 0 e q 0 0 t q q 0 0 4 e t 0 e 0 x e 4 x x 4 4 4 4 1 0 0 4 0 0 0 y e 4 q y 4 0 4 1 4 1 > 1 4 4 0 4 > 1 > > 1 > > 1 w   l.AXAX~ /./.2 ~.JXfXz l.p.p.i.i.t.r.r.r.",
"t.t.t.r.t.t.t.i.p.i.o.SXSXF #.CXOXyXAXdX  d q e e q 4 4 q e e 0 M p 1 J q 4 4 9 0 q q N t t 0 r M r q t e N v V R Z.xX@X8 M e t x e q e t q e r t M N V N N V v e x x r r c V x N c r c c c c t c c c r v R 2.2.W v c c N N E c r N c c t N N c N N c N N c V V c c N c r x r c c c c N R c R N c N N c N v E T.b N ! N N v c c c c c N v N R G N N N R N c M M x M M c N N N G e #.o.R E M M M M M t t c G N ! E N N M M M M M N N N N M M G G G R | Z.$XjXI.;...W } R N N p E N E Q N N c M c t c M t t t t r t r t x r r c c t t q e t t c t c W R R W c c v R c 1 J G 9 R v 2 0 q 0 0 0 4 e 0 t 0 q 0 4 y q 4 e x y 0 4 4 4 0 0 0 0 1 1 1 0 0 e y 0 q q 1 4 4 3 1 > > > 1 1 1 4 > > > 4 4 > > > 5   p.AXAX#.`._.2 ~.JXfXz l.p.p.p.i.i.t.t.r.",
"t.y.y.r.t.i.a.i.i.i.o.MXMXD #.CXyXuXDXsX  S e y t t 0 q 0 M c q q 0 1 t 0 1 1 e e 0 0 e M 0 0 e 0 0 1 0 q 0 e v v C >.{ M c e r t G q q q r e N V x t N x t x e e e e 0 x c r r e c N c c c M t R x c c R c R v v N r c G N x <.^ e t e t r v N N N c N v c c N c N v c r c c v v r N W v c R R r M c c M z k.6.z N v c R G x c c c c c c c c t N N R E c N v M N E #.M c M M M M N R J i.G G M M G t y t N V ^ ~ N R N ~ r t M M M M N M t E E N M W $.C.Z.M.Q W R W V N N R E R N G N v c c c e r c e r q e t t e t t x c t v v x c r t r q t v V ..] n R W v x x e c c e t 0 y 0 e 0 0 0 1 0 y M q 4 0 4 0 0 4 4 e q y 4 4 4 0 0 0 0 4 4 1 4 4 0 e e e 4 0 y 4 > 1 1 > 1 > 1 1 1 1 1 1 4 4 > > > w   a.vXAX#.`._.2 ~.JXfX9 l.s.p.p.i.i.t.t.t.",
"r.i.r.r.r.r.i.i.i.t.o.MXSXH #.bXyXuXDXsX  H t 0 q q q e r q e e 0 0 0 1 0 1 5 0 t 9 1 1 e r > e 0 0 q e q e v v c c e x c M e x r R N c e e e t M r c t r e r c r M q q x c c N r N N x r t t t c c N N r c v c v c r c c v c J G r t t e ^ G c N M M M c c c x r c x r r c c r e r c c c c c r c c c M E z Y.l.n G N t c N N c c v c N c N N c c M M N N M M M N G N M R G e #.! G <.` S E G c M c c t c c R r t t c c c M t M c N N N M E M R R ! | R Q o.! ! N N R c c N c N R c t t c N M t t t N M G ~ E e c t e r r x e c r r v c c v v v V W %.>X@X%.W v e e t 0 q 0 q e 0 0 4 0 0 0 4 0 c 1 , 4 4 4 4 4 4 4 q q 4 0 4 5 4 4 0 0 4 0 4 4 0 0 4 1 0 0 0 1 > > 1 > > > 4 1 > 4 4 1 > > > > > > 5   a.vXMX! _._.9 '.JXfXz l.s.p.p.i.i.i.t.t.",
"r.r.r.r.r.t.t.i.p.t.#.SXSX/ 6.CXyXuXDXsX  p 0 4 0 4 q q q 0 4 0 q 0 0 5 4 4 4 1 1 1 0 1 q c { W 0 q q 0 q c v q e q c c q q c N e 9 r x e t t e t q M c e e r c e e 0 e t c t M e N N 9 e v M c r R N t c x c x r r c v t N c t r G M c t ~ N e t 9 x N c c c N c N N r e x c r r c 9 t x x N N R ! Q c E E , 8 G c t t v N c c v v c M t c M c c c x ! ~ M N R N N R N ! ! v E G x ! ~ E G c N G r r c c c N c M t N t c c t t c M N ! N G M M ! ! R M G R G E E M c N M N c t N c M M e M c t N c E R #.! G c M M t t t r q e q q r e c x x v R | Z.zXwXZ.1.{ v v v r e y e e 0 q q 0 0 0 1 M e 4 ' 4 1 4 0 4 4 4 4 0 4 4 5 3 4 4 4 4 4 4 4 4 4 0 0 M 1 1 > > > > > > > > > 4 3 1 1 4 1 > > > > 1 5   h.vXbXb Y.Q.9 qXJXfXz l.p.p.i.i.i.y.y.r.",
"r.r.t.r.t.t.y.p.p.t.#.MXSX/ 6.CXyXuXDXsX  p 0 4 0 5 4 5 4 t 1 4 0 q 0 q 4 1 4 0 r 0 0 0 7 , dXW.. q e c e 0 e e e q e e r c r e 0 c e e q t q c G q e e t q 0 e q 0 q e e q r e N e b M.| e r e t c r e M c N x G G r c r r e c M c e r e 9 N W.c U.U.c e c t N v c c r G c N M e M :.b k.! ! #.9 c c c c c G G c G c t c t N N x c t c c c r c e ! #.e M G G G M N ! R N v E G c G o.c N G c c c t M t c c r c M t M c r c t M N N c R c N M Q ! M G N G M M M E c M N M N N t c c t c t t r c c c #.N 9 e c v q t p t t e e q q q e q t c 0 r r v ..V.V...A v c x x y e c e e e e e 0 0 0 0 e q 4 9.0 1 1 c 0 4 4 4 4 4 q y 4 4 4 4 4 4 4 4 4 4 4 0 G 4 q 1 1 > > > 0 > 1 > 1 1 > 1 4 1 > > > > > 5   h.vXMXb Q.Y.2 qXJXfXZ l.p.p.i.i.i.i.y.i.",
"_ ) F r.r.t.) 3.p.q.' MXSXU #.CX5XOXAXdX  p 0 4 0 5 5 < 5 r 4 4 1 5 5 0 1 1 1 1 0 1 0 0 4 e ..v 0 5 4 e r 4 e q t 0 c e q t q c 0 x x 0 0 0 e e r c q e e q ^ ! r 0 q q N c q 0 x q n eXP., e e q q e q q e v c M c e r r e e q e e v c ^ G e v r #.R r r v r r x G c e E N r c E ! <.b v v r e c 0 e c t c e t t M M M M t ~ G x c t M v c c e ! R M E G M M N M c M c N N #.~ e e c N t c c c c t t c t G M t t t M c c t t c c v r M t R G R G M c G G t t t M M t e t N M c N S c t t e t c e e c q r c 0 e e e J e q q e e e q y t r x e r R R v W R R c e r e 4 0 t 0 0 0 q 4 q e 0 0 4 5 1 0 . > 4 1 1 1 4 3 4 4 4 0 e y 4 1 4 1 4 < 4 4 4 y 1 # 1 G 1 > > 1 > > > 1 3 > > > 1 > > > % > > % 5   h.vXMXn /.Y.# qXJXfXz s.p.g ) r.r.t.r.d ",
"r.y.r.t.i.p.i.i.j.r.G MXSXL o.CXrX_.vX4X  p q 1 4 1 1 < q q < 5 5 1 1 5 0 1 v 1 1 0 0 0 4 q + 1 4 4 0 e 0 4 5 5 4 q 0 0 0 0 0 c q 1 0 0 0 0 q 0 0 e 9 G #.2 M t M S q r E r c q v 9 v { x y v 0 4 q e q e e c r e x e e q e q q r e N N M c q e c 9 0 x c c c t e R v c N e G | Q x 9 e r x e r q q e r N x ! c r E M e r c T.E r r G M , U.~ c N N M M M M M G M t c M G M e e R N c t c c e c e M E R t M c c N t M c M c G R G t c M t c M c M M t t t c e c t M t t e t t t M M e t t q t q q 0 0 0 e t 0 q q q e t q q e e e e c t q e v v ~ x e v x x v r e q q 0 q 4 e y 0 0 0 q 4 y q 0 y # z.U # 4 1 1 4 4 4 4 4 1 > 1 > > 4 1 > > 4 4 0 > > M M # > > > > > 0 5 $ > > > % > > > > $ > > % 5   #.vXMXn /.Q.  ~.JXfXZ ^.^.s.r.p.i.p.p.p.",
"r.r._ 6._ _ _ ) q.y.G MXSXH Q CX`._.vXuX, i q 1 1 1 < 1 1 1 1 1 1 5 1 1 1 1 0 1 1 4 1 N c G e 4 1 0 t c 0 0 4 4 e r 0 e q e 0 v e e e e q 0 0 0 0 e 0 t G 9 9 q e q 0 0 9 e c q 0 v R | 0 t N c e c e 0 0 0 e q q r q q q e r q r c x e 0 0 q e e r r c v x c c t r e c ! N R x b v t e r c e 0 4 q e q r e o.N r #.E J G e e t x c c N | N M c M M c v N G c M c t v R N G E e c G x e e r r N t c N c c M c t t c c r N M G N M M N M t t t t N M t e e t e q q x N c t e t G M t ' r 9 q q 0 0 q 0 0 0 q 0 0 q q t c 0 0 q t e e t e t q t x 0 y e e t t e x e e 0 0 0 q 0 0 1 0 q q 4 4 0 > 4 M H 5 > 0 1 1 1 4 1 > 1 1 1 1 1 > 1 4 4 > > y 4 q q 1 4 > 1 > > > > 1 > > > > > > > > 1 > % % % % 5   #.vXvXb /.Q.  ~.JXfXz c.Y.p.q.r.r.t.r.r.",
"_ _ ( r.r.) I K ) ) N MXSXH Q bX`.4XDXdX  i 1 1 1 1 1 1 1 1 5 5 1 4 1 1 1 1 1 1 0 1 1 1 2 r E 1 4 0 0 q x e 0 0 e e c M 0 e e < e c q 1 0 0 0 1 e 0 e 0 9 e q 0 t 0 c c e e e q q U.! x e e e x c c e r 0 0 e t q q q e q q e e x x r e q t e 0 e 0 r r v c v t c G r v v N R c V v t e c c e q r t q y c 9 #.Q e e e G M e t e c v q G <.r t t c c c M M M G c c N N c c c M t N c x t x c e r t r e c R N G t t e e t N M c c r c N c M t t t t t M r e e t e e c v r c t r M t t S c ^ 0 e q t t 0 0 q 0 q q q e q e e q q 0 0 0 0 q e 0 M M e 0 q t e q q x x e 0 q t q 4 0 4 4 4 4 4 y 1 J y 4 , 1 1 4 q > 1 4 > > > > 1 1 1 4 1 4 1 3 1 4 > < 1 > 1 > > > > > 1 > > > > > > > > % > > % > % % 3   #.vXbXb ^.Y.  '.JXfXz p.r.K ( r.r.r.) K ",
"q.r.3._ _ _ ( 4.3.3.V MXSXF E bX'.yXDXsX  w 1 < 1 1 1 1 1 1 1 5 1 1 1 1 q 1 1 1 4 4 #.e 2 9 1 4 0 e c e 0 0 q 0 q x M M 1 0 q e 0 t e q 9 e 0 0 0 0 0 0 e q 0 q 0 q e t e 0 1 S , 8 e 0 G t 9 e e 0 e r e 0 r c r q 0 t c 0 e x 0 e r 0 q e e 0 e e r r c A v t v v t c ! v r v v c t t t q e e c e q q e t t e c M e q e t t r t t t M 9 c t t c M c G M N ~ N c c G ! M c r c c c e c c q q q r t c c c e t t c v G e ` G e M G N c r t t t t t t v V v v x v t e E E r r t q q M t t ! e r e q q e q 0 0 0 0 q q e e t q q 4 t t 0 4 q e t y e 0 q q q 0 4 0 e 0 4 0 c e 4 0 4 4 4 4 4 4 # 9.G % 5 4 1 1 0 1 1 1 > > > > 1 > 1 4 1 > > > > > > > > > > > > > > > > > > > % > > > > > % % % % % % 3   9.vXbXl Y.Y.  qXJXfXz s.r.4._ _ _ ) ) 4.",
"3.r.3.3.3.3.3._ _ 3.^ MXMXD Q bX'.yXAXsX  6 1 < 1 1 1 1 1 1 1 % > 1 1 4 J 5 1 1 1 1 E 1 0 0 e 0 1 1 0 1 1 1 0 q e 0 0 q ^ q 0 e 0 1 M r 0 0 0 1 0 r 0 0 q q q 0 S e q t 0 M ~ , /._ , e e e 0 q 0 0 r e N x x 0 t e e 0 e e e e 0 0 e e q 0 e e r 0 0 x c v A c W W c W v v e t t e M M e e 0 4 e c q q t t c r M M r t r t r e r r t t e c t t M c t t t c e c N c M N e c c c N e e q q q q c t e e q q 0 M M t M M c S r t ~ c c t t q q M t q e r r c x e q t c G ~ 0 q v v e e q t e e 0 0 x q t 0 0 q q 0 q c r 0 q e e 0 e q e y q 0 0 0 0 0 q 0 4 4 4 4 0 e 0 0 1 4 4 4 4 4 4 4 1 4 4 O G M 4 4 4 1 > 1 3 1 > > 1 > > 1 1 1 1 > 4 t > > > > > > > > % > > % > > % > > > > % > % % % % % % % 3   #.vXbXz /.Y.  qXJXfXz p.t.q.3.r.3.) _ ) ",
"r.r.3.r.r.6.6._ _ 6.o.MXMXD E bX'.OXAXdX  g 5 > 1 1 1 1 1 1 $ d y > 1 1 1 1 1 1 4 4 c 0 y > r 0 0 e 0 1 1 1 1 0 q 1 0 c J 1 0 0 4 1 1 0 0 4 0 4 0 r q 0 0 q t 0 S 0 q J t v ~ , l./ , q 1 t x e e 1 0 0 r x r 0 0 0 N r r 0 0 0 0 q 0 q q q 0 e e 0 q r t x R W 2.X.X.W t t t t e t t e v v 4 ^ v e q t y t r t e e t M t e q t e e t c E r c r r t e e r t e c M 0 e r e e e e M r q q q 0 0 e e 0 t c r e M t e 0 E G S ^ 1 r t t e t r t c e e r r c c c 0 q q S e 0 e 0 q e 4 t c G t e 0 e x 0 , q t 4 4 0 0 x r q e t q 0 c e t c q 0 4 y 0 4 0 4 4 4 4 4 0 q 0 4 4 4 4 1 3 3 4 4 4 4 4 4 q q 4 4 e 1 1 > 4 4 > 1 1 > > > > 4 1 > 1 q > > % % % 5 5 % 1 > % % % % > > % % $ $ > > > % % % @ % 3   #.cXbXb /.Y.  '.JXfXl p.r.r.r.r.r.3._ _ ",
"3.r.6.6.r.6.3.6.6.6.#.MXMXS E bX`.OXvXuX  i 1 1 < > < > < 1 $ S t > 1 < 5 4 1 1 4 1 y q 0 > q 1 1 1 1 1 1 1 1 1 e 1 4 q 1 1 0 0 4 1 1 e x 0 0 4 4 0 0 c t q G q e r t p 0 e , M b , q t c e c 0 0 t 0 0 1 r e e q 4 e 0 ~ q q q 0 q 0 0 q 0 e x e r r r c v V %.I.V.X.v x e c r q N t e r r e G t q r e e e q e c t e c r q e e q q t ! ! e t t t t e t e 0 t t e 0 e t q q q q e e q 0 0 0 q e e e q t N c e e t r e , ` #., N t t t t t t t q t r G r c c q q q q c e q 4 q 0 t q 0 q q e q 0 y c ! c q 0 4 4 q q 0 0 0 t q 0 e q 1 q e 0 4 0 0 4 5 4 4 4 4 4 0 4 e y 4 1 1 4 4 4 4 4 0 1 4 4 1 0 > 4 e 1 1 > > 4 1 1 > > > > > > > % % @ > > % 1 . t H # 4 5 > > 1 % % % > % > > % > % % % % % % 3   _ cXbXv /.Q.  '.JXsX8 p.t.r.r.r.q.3.3.3.",
"q.r.3.6.r.r.r.r.r.6.#.MXMXS E gX`.OXvXuX  w 1 < 1 3 > 1 1 1 1 < > 1 < 4 1 < 5 1 4 1 1 1 1 1 e 0 4 4 e 1 1 0 q 0 0 4 1 1 1 y t 1 0 5 1 0 e 1 0 0 0 e q r e 0 0 e W M 0 1 0 c q M #.0 q q 0 x e 0 0 q 0 e 0 e e e 0 4 q q y e e 0 0 q 0 0 4 0 e x e x x x v W X.Z.MX>XZ...W b v c x x x r e N r 0 e e c r r e e e t e q q e q e r q e t M 9 t r t c c e r e c t t t 0 e q q t e e e e e q q 4 0 e q q q r c c e e c t e t 9 , e E G q r 0 0 0 0 q q q v e e e x x q e G 0 M t q q q q 4 q q 0 r c   z !.c 0 q 4 q v e 0 4 q G 0 0 1 4 4 4 4 0 q 4 0 0 0 y 0 0 4 4 q 1 0 0 , q 1 4 1 1 4 1 1 1 1 1 1 4 1 1 x 4 > 1 > > > 1 1 > > > > 4 > > > > > > % > D F O y 4 4 > 1 4 > % % 1 > > 1 > % % < % > % % <   r.vXbXN Y.T.  '.JXfXl p.r.r.r.r.q.q.q.4.",
"3.3.3.6.r.r.r.r.r.r.#.MXMXS E hX'.OXvXdX  H t % 1 3 < 1 1 1 1 4 1 1 < 1 1 1 1 < 1 1 1 1 > 4 e 0 1 4 1 1 1 1 1 0 0 0 0 4 4 y v 1 0 4 1 1 0 4 e e e q q q q q t 0 q 4 0 q q 5 r 0 , e e q p 0 0 e 0 q 0 t 0 q 0 q 0 0 t e 0 q q 0 0 0 0 0 q 0 e e 0 0 e e e r n C.@X XX.W v c c c c c r t e r r e t e q q e q q q q t e q y e 0 e 0 q e r q t e 0 q e e t e t e q q 0 q 0 q e e e q e e q 0 q 0 q q q q 0 0 c c t G 0 e c e t 0 q M q ' q S ^ 1 S S 1 q q e e q t t q t 0 G v 1 0 0 0 4 4 e e q , h./.O y c t y e e 0 0 1 0 E r 0 4 5 5 4 4 q c 0 q 0 0 e e 0 4 4 > y q y ^ 4 4 1 4 0 1 1 1 1 1 1 < 4 4 1 e 1 > > > 1 > > > % 5 5 > > > > > > % > 5 $ y d $ < $ O % % % $ $ > > % % % % % $ O % % % * i   i.vXbXb Y.T.  '.JXfXl p.r.r.r.r.q.q.q.3.",
"3.q.r.r.r.r.r.r.r.6.6.MXMXS ^ hX_.4XvXuX  w 4 * < < < 1 1 1 1 1 1 > 1 1 < 1 1 < 1 < 0 0 1 M 1 4 0 1 4 0 0 4 1 0 4 4 0 0 0 1 0 0 1 4 0 4 4 e q 0 0 q q t q r M t 1 0 0 q e q r q t r c e J e 1 t t 1 0 0 q 0 0 q e c q 4 0 0 0 q 4 4 0 e q 0 2 9 q q e 0 e c W W ] 2.W c t e t q e x q q q e e q q 0 e q y e c t q 0 0 q t 0 q q e e t r q q t q e q q q 0 0 q e e q e e e e t e q 0 q q e t e t 0 e q q q q G z l M c 0 0 t y 4 4 e t q q t 0 0 0 q q 0 q 0 4 4 0 q e e 1 1 J M 4 q 4 0 4 1 E x #.h., y 0 e e e q 0 q t 1   #.t < 4 0 4 0 0 0 4 e 0 c t 0 0 4 4 $ ~ S O J , 4 4 4 1 4 4 1 4 1 1 1 1 > > > > > > > 1 > 1 > > 5 4 > > 3 1 > > > > 1 3 % O < $ w t > > > % $ $ % % % % %   ' 9.  3 % * w   p.vXbX8 Y.T.  '.JXsX8 p.r.r.r.r.r.r.q.q.",
"q.r.r.r.r.r.r.r.r.r.6.MXMXS E hX(.OXvX4X  6 5 < 1 * < < 1 4 1 < > < 4 < < < 1 < 1 < 4 1 0 q 1 0 4 4 1 x 1 1 1 0 4 5 4 1 1 1 q 0 4 4 q 4 1 4 1 e e 0 q q q M q 0 0 q 0 4 0 e 0 0 0 0 t q 1 0 0 0 0 t 0 4 0 0 4 4 0 t q 4 0 q 4 w 0 0 0 t c 1 ^ G 0 0 0 e c v c v G t A v x q q q t q q q q e q t c q q q q e r q 0 e q 4 0 q 0 $ 1 t 0 q q e c t e q 0 q e 0 0 q q q e x e c G e e 0 q q 0 e q 1 0 q 0 e e v 8 !.eXm t q 0 4 0 0 q t 0 0 c q 0 e 0 q e q r 0 q q e 0 v v 5   T.Y.  w 4 1 S c #.! # # y 4 5 5 q 0 4 0 0 4 y 9.9 4 1 4 4 1 4 1 4 4 0 0 q y 1 0 4 0 0 1 1 S 1 S 1 4 > 4 4 0 1 1 1 1 1 > > > > > > > 4 > > > 1 > % 1 1 > 1 < 1 % O 1 3   O > > @ 6 w $ > % $ $ % % % % > % @ 5 p @ % % % <   i.vXbXe T.T.  '.JXsX8 p.r.r.r.r.r.r.r.q.",
"r.r.r.r.r.r.r.r.i.r.7.MXMXH G hX(.OXvX+X  w 1 1 5 > % % < 1 1 1 % 1 < < < < < < 4 1 1 y e 1 1 1 1 4 1 4 1 1 1 0 0 4 1 4 4 1 1 4 4 5 5 4 r 4 5 4 e 0 q 0 e M 0 4 0 0 4 4 0 q 4 0 e e e 0 4 4 t 4 1 c q 0 4 q 4 q q 5 q q 0 4 4 M y e R e q , v G 1 0 q v r e e c t q q c e t q q e 0 0 0 q q q q M M t q 2 0 q 0 0 q 0 4 4 0 , ` G 1 M q c e 0 0 q e q q e 0 0 q 0 0 0 q q q q q q 0 0 q q 0 4 S q 0 0 0 0 e 8 W.+X] M x r e q 0 q 0 0 0 q q 0 0 q 0 0 0 0 0 q 0 4 0 0 0 4 4 2 9 e 0 y 0 ! o.$ 1 y y 1 y y 4 q 4 4 0 4 > S T.9 1 1 0 4 1 1 1 1 1 1 4 1 4 1 4 4 4 q 0 1 #.4 w 1 4 1 0 > 0 > > < % > > % > > > > > > % 4 1 > > > 1 > > 1 5 % 5 D >   9.'   > % & > > 4 $ $ > % % @ % % @ % @ O % % % % 3   a.vXbXG Y.T.  '.JXiX8 p.r.r.r.r.r.r.r.q.",
"r.r.r.r.r.r.r.r.i.r.:.MXMXH N hX/.OXvX4X  w 1 1 < < q 4 1 1 1 H 4 % % < < < < < M q e R t 1 1 4 4 1 1 1 1 4 1 1 4 4 1 4 1 y 4 1 5 1 5 1 1 5 1 1 0 r e r c 0 4 q 0 4 4 y y 0 q 4 1 4 4 4 e t 0 0 4 0 0 0 4 4 e q 0 0 e c e c t M 0 0 x e 0 M u.9 e y e q q q q t y e e t e 4 4 4 0 q q q 0 t 0 t q c ~ , ` D 0 t 0 q 4 4 4 q # #.! 9 t 4 t y e e t e r q q e 0 0 0 t 0 q q q e 4 5 4 q 4 S M 1 M q 1 0 0 4 v c 8 8 v e 0 0 0 0 0 0 4 0 0 0 0 0 q 0 4 0 0 0 0 0 e 0 0 e 0 0 q 0 c 0 1 y t > < y q 0 0 0 4 0 q q 0 4 q 0 0 4   , 1 1 4 1 1 4 1 1 1 1 1 4 4 1 1 > > > > e 9 > 1 > > > > > > > > 1 < > > > > % > > 1 > > > > > % % > > > 1 4 $ y #.$   ` F . < % $ > > $ > y > % $ % % % % 3 % % % % % % 3   a.bXbXE Y.T.  ~.HXiX8 p.r.r.r.r.r.r.r.r.",
"r.r.r.r.r.r.t.i.i.r.#.MXMXH E nXQ.uXAXuX  w 5 < 1 1 4 4 1 > < 4 1 % < w > < < < % % 4 1 % 4 1 4 4 1 1 1 4 1 1 1 1 4 4 1 e S q t 1 5 1 0 q 1 4 4 4 b X.X.e 4 4 4 0 0 0 0 4 1 1 4 0 4 0 q 4 1 1 0 4 1 0 e 0 5 p 4 q q 4 q N v e 1 q 0 e 0 9 M k.9 0 q t t M r q y e e 0 0 c e 0 q 0 r 0 0 4 0 0 e q 1 S G p ^ p 0 0 4 4 q 4 0 0 , 1 w q q t e q 0 q t t 0 4 4 q q 0 0 y q 4 0 y 4 0 4 4 5 4 0 0 1 0 t 0 0 N N 0 t p 1 t e 1 4 1 4 4 q 0 4 4 4 q 0 q 0 4 0 q 0 0 q 0 4 0 0 0 4 1 e 0 0 1 1 0 q 0 0 4 0 0 4 0 e q 4 4 4 0 e 1 ^ J # 4 4 4 1 4 q > 4 1 1 4 4 > > 1 > 4 > 4 0 , c q % < 1 > > > > 1 > % > > > > > > > > % > > > % > > > > 1 1 4 w O @ 5     % > % @ $ > % % > 3 4 > 4 % % % 3 % % % % % % 7   u.cXbXG T.T.  _.HXsX8 g.i.t.r.r.r.r.r.3.",
"r.r.r.r.r.r.r.t.i.r.#.vXvXH ^ nXQ.uXAXuX  p 5 * * < 4 1 % 1 1 1 < < < < < < < % 1 < < 1 1 < 1 1 1 4 1 1 1 1 1 1 4 1 q 4 r 0 1 q 1 5 1 q q 4 q e S l eX+X8 J r q e e e r 4 e q 1 0 5 0 q 4 4 1 0 4 4 1 0 y , , y 4 t t 4 q e 0 q q 4 0 G e 4   ' S 1 J G r e 0 q 0 q q q t c e e q e 0 0 4 0 0 4 4 4 t t , J J M 0 4 4 4 4 4 0 t 0 S y 4 0 0 S t 0 0 t q 4 4 q t q 0 q 5 5 4 4 4 q q 5 q q 1 #.w q t c c c 0 0 0 q 4 4 e x 0 0 1 4 4 4 1 4 4 q e 0 0 4 4 4 0 4 5 4 5 4 4 1 4 4 1 1 4 1 4 0 0 q 0 4 4 0 0 4 0 0 0 4 4 0 q 1 J S y S > 4 > 4 1 4 0 1 > 4 1 4 > > > 0 > 0 q $ y 4 < 4 1 1 > y 1 > 3 y > > % > > > % > $ > > 1 > > > > > 1 4 0 3 4 4 > 5 % 3 $ $ $ $ % % > > > 3 > > % < % % % % % % % % 3   u.cXbXe z.z.  '.HXsX8 l.p.i.r.r.r.q.) _ ",
"r.r.3.r.r.r.r.r.r.r.#.bXbXH ' nXQ.uXAXuX  p 1 < < < % < 5 1 1 < q 1 < < < * < % * % > < > < 5 1 1 1 1 1 1 1 1 1 1 1 4 4 1 e 1 1 1 4 4 < 0 y 4 0 e b >.>.b r q q q 4 4 y 4 0 0 4 1 4 4 q 0 4 0 1 4 4 q 0 8 9.+Xn t c t 1 4 t 0 y q q 0 M 0 0 0 J c 0 0 0 t q 0 0 0 e q 0 0 t e 4 4 0 0 4 4 4 0 q 4 0 4 0 q > 0 t 4 4 4 4 4 4 0 q q 0 q e 0 4 q 0 0 e c 0 4 4 0 e t 0 0 5 0 q 4 5 5 4 4 D y 4 w 5 q 1 #.G 1 r 4 0 0 0 4 4 e 0 t e 1 0 1 1 4 4 1 1 q q 1 0 4 0 4 4 5 5 4 0 4 5 4 4 4 4 1 4 1 4 0 4 4 4 4 4 1 t q 0 4 4 4 4 0 , 2 4 4 0 4 > 1 > 1 e 1 1 q 1 > 1 > > > > < > 1 > 1 4 4 > % 4 1 1 > 0 D $ > % > > > > > 0 4 > > > > > > > > % 3 % $ > & d 3 & % @ @ % % % % $ % % > > % > % % % % % < % % 3   6.cXxXe z.z.  _.DXiX8 g.i.t.i.t.r.q.F _ ",
"r.r.3.r.r.r.r.r.r.r.o.bXbXL ^ nXQ.uXAX4X  6 5 < * * * < q > < * < * % < < * * % * * 1 1 < < < 5 4 1 1 5 1 1 1 > t e > 4 < 1 1 1 1 0 4 q M 4 1 4 r e , 9 e q 5 4 4 4 4 4 4 4 q 1 4 4 1 2 1 > # 4 1 0 e e b 1.W.z y 0 5 4 0 4 4 4 4 0 0 1 1 1 5 1 1 4 q S 1 0 0 q q q q 4 0 0 q 0 q 0 4 0 4 5 0 4 4 4 5 q q 4 5 5 4 5 4 5 5 4 q c 0 4 0 4 4 4 y J 1 t q 4 4 0 e t y 1 0 q 4 q 4 4 4 0 q 4 5 5 4 4 t c 4 4 q q 0 0 1 q 0 0 4 q y ~ 2 1 4 4 4 , ' S 4 M 0 q 4 4 4 4 4 5 4 0 0 4 4 4 5 1 1 4 4 4 0 4 0 4 1 4 4 4 4 4 4 1 1 1 1 0 1 4 1 0 1 1 4 4 1 4 t 1 0 > 1 1 4 1 4 > > 1 3 > > > 4 4 > 1 1 . F H   < > % > < > > > y 5 > > > % > 1 > > % @ @ $ @ % $ $ % % @ % % % % 3 > > % % % % % @ % % % % % % @ <   _ xXxXM z.z.  _.MXuX, p.i.i.i.r.r.r.U 3.",
"r.r.r.r.r.r.r.r.r._ #.cXbXL ~ nXY.uXAX4X  5 < 3 < < < 1 1 > % % % * * * % % 1 % % % 4 1 < 1 1 4 4 1 1 1 1 1 < % 1 1 4 5 1 1 > M 0 1 1 1 4 1 1 e e 4 q 0 0 t 0 1 4 0 4 4 4 1 4 4 4 t 8 ~.' M #., 4 4 4 0 0 $   4 4 4 1 4 4 4 1 4 4 1 1 0 4 1 0 0 0 4 4 q 4 0 0 4 0 4 4 4 4 4 q 0 q 4 4 4 0 0 0 q 1 0 4 0 q 0 1 1 0 q 4 4 4 0 0 0 4 1 1 4 4 4 q G 0 v 0 0 4 0 q 4 y q 1 t q q 5 5 1 4 0 , 1 4 y q 0 4 1 4 4 4 4 q 4 4 4 0 t t e S d t > 1 1 < q ' q t t q 0 0 4 y q 0 4 4 4 4 5 1 4 4 0 1 4 1 1 4 q 0 1 4 1 1 4 1 > 4 4 > > 4 > 0 1 % 4 4 1 1 1 4 e < 3 > % 3 4 > > 1 > > % % 0 0 $ > % % 3 % 3 3 % % > % > % > % 0 > % > > % % % % % % @ % % % @ @ % $ @ @ @ % @ % % % > > % % % % % % % 3 > 3 % % % <   ` jXxX~ z.k.  !.vX4X, i.r.r.r.r.t.r.U _ ",
"r.r.r.r.r.r.r.r.r.r.#.cXcXH ~ nXY.uXAXuX  g q % < < < % < < % % * % < % % < 1 > < < > % < < 1 < 1 e 1 1 1 4 > v 0 < 1 1 1 1 1 4 1 < > 4 1 1 e 1 4 4 5 4 4 4 0 4 4 4 5 5 4 1 4 4 q q t ^ q t ~ 1 4 1 0 0 5 4 y 1 5 5 D 1 q q 1 4 1 x 0 1 1 0 0 4 4 0 0 4 1 0 0 1 4 e q 4 4 5 0 q q 4 0 q 4 0 4 4 4 0 0 1 1 5 t e e c e 0 4 q 4 4 4 1 1 1 4 4 2 ! M 4 0 0 0 q e 1 0 y 0 q 4 t p 1 5 4 1 u.0 1 4 q 0 4 0 4 4 q 0 q 0 4 4 0 5 q y q q t > 1 1 S 1 9.d 1 q 1 4 1 5 4 0 0 4 1 < 1 4 q q 0 5 5 1 1 5 1 1 0 1 1 5 1 4 4 < 1 1 > < 1 > y t % 4 4 1 1 1 1 4 l 8 4 q 1 > > 1 4 1 3 > 1 1 1 > > 5 % . # 3 % % % % % % > > % < > % % > > % > % % % @ @ % @ @ @ @ @ % @ @ % % $ % > 4 4 % > % @ @ % % > % % % % % <   / jXxX^ g.h.  T.vXOX, a.r.r.r.r.r.r.U _ ",
"r.r.r.r.r.r.r.r.r.a.6.cXcXH ' nXY.uXAXdX  S w % % < * % * * % % < 1 < 5 w < < > < 1 < 1 1 5 < < < 4 1 1 4 < 1 v 4 > 1 1 < 1 1 4 1 4 4 4 4 0 0 1 1 5 4 5 1 1 0 q 1 5 5 5 1 1 4 1 4 1 t t < 3 % 5 1 q 4 4 4 4 0 4 1 4 ` 1 4 t 4 0 1 0 1 1 1 1 1 4 5 1 0 0 1 4 4 1 4 0 1 0 5 4 4 q q 0 q 0 t e 1 4 1 1 > S #.> q 4 q e q 4 5 4 4 4 0 1 1 4 4 4 4 9 t 0 4 0 0 4 0 1 F q J t q t p < S y 1 p 4 1 5 4 4 0 4 4 4 4 q q 1 4 0 e 0 q 0 0 0 1 4 0 1 t 4 # 1 5 4 y q 4 4 0 4 y 1 q t < 0 q q 5 1 4 1 1 4 0 M 1 4 1 0 1 1 q > 1 1 1 1 1 > 1 4 1 1 4 4 1 0 y   @XeX# ' 4 > 4 1 < < > 1 > % % % > 5   h.b.  3 1 < > > > % % % % % % % % % % % % % % @ % % @ @ @ @ @ @ @ @ % % % $ 5 # # * % @ % % + % % % % % @ % *   ` xXbXJ u.u.  !.cXOX, i.r.r.r.r.r._ L _ ",
"r.r.r.r.r.r.r.r.r.r.6.zXjXD ' sXY.uXAXdX  5 < < < 5 % % < < % % < 1 . J u.  3 < < 1 < 1 1 5 % < 4 < < 0 e y 4 $ < < 4 1 < 1 < 1 1 5 5 1 4 4 0 1 1 1 1 5 4 5 1 1 1 1 5 1 1 1 0 1 4 0 0 q 3 5 w 5 4 4 q 0 5 1 1 1 0 1 2 J 1 H 4 1 1 1 1 1 1 1 1 4 5 0 0 0 1 5 0 0 1 1 4 4 5 q 5 5 4 0 0 0 q q 4 0 4 4 1 4 #.e 1 5 q 0 4 4 4 4 4 4 4 4 4 0 1 4 4 0 G 0 t 0 4 0 q . v.U # 4 y 5 1 4 1 1 4 1 1 4 1 1 5 4 4 4 4 q 0 q 4 1 4 0 4 4 4 4 4 0 1 4 1 < 0 q 4 4 1 0 4 4 4 4 4 1 1 y J 1 e y y 5 < 1 < 4 1 q #.> 4 4 4 4 1 1 > 1 > 1 1 > < 1 4 > 1 < < < 1 4 , ' h.8 1 4 < 4 > < < > 1 < % % > > > % t t @ < < < < > > % > > % % > % % > % % % % @ % % @ @ @ % % @ % $ % > % > 3 8 W.9., 3 % @ + + % % % @ 3 k + 3   ` xXxXy r.u.  _.vX+X2 i.r.r.r.q._ _ U ) ",
"q.r.r.r.r.r.r.r.a.i.6.zXjXS ^ nX/.uXvXdX  i 3 % * % % % 5 1 1 < < % < % , S 1 1 % 1 < % < 1 y 5 4 1 1 1 4 4 5 % < < 1 1 < 1 1 < 1 < 1 4 4 < 1 < 1 1 5 1 1 1 1 1 4 5 5 1 t 1 4 1 0 4 4 1 3 < 3 1 y y 1 p q 1 4 1 4 e 4 ^ > 1 4 < 1 1 1 1 1 1 0 4 5 4 4 e q < 0 0 0 t 4 4 1 5 5 5 4 4 4 4 1 0 4 5 4 > 5 $ #.S 0 1 5 0 4 M q 0 4 0 0 4 0 4 4 0 4 1 4 e y 1 4 4 4 S , > q 4 4 4 4 1 5 1 t t < 4 1 4 5 5 5 4 q q 4 4 0 1 4 4 4 4 1 0 0 1 0 1 q 1 t 4 1 4 4 0 0 q 1 5 4 0 4 1 4 5 > y 5 1 1 4 5 y 1 ~ #.O 5 4 > 4 1 > 1 > > > 1 1 < > > < 1 1 1 1 1 0 4 .   5 > 1 1 % 1 > > > t > % % > % < @ d t @ < % > < % % % % % % % % % @ > % % % % @ @ @ % % @ % % @ $ % % $ % > 6 8 fXeXl 6 $ @ @ + + + + @ @ 3 + *   ` xXxXq 6.#.  !.vX+Xq t.r.r.r.q._ _ ) ) ",
"3.3.q.r.r.r.r.r.i.i.6.zXjXd ` hX/.OXvX4X  6 3 % * * * * 5 < 1 1 * < < 4 q U 5 < > > > < < $ G y $ 4 1 0 1 4 q 1 < < < 1 < * 1 < < < 1 1 4 4 < < 1 1 1 < 1 1 4 1 3 O q 4 < 4 < 1 1 1 1 < < < < 3 < 1 % % 1 1 5 3 4 0 > S t < 4 < 4 1 4 5 0 1 0 0 0 1 5 q q w 4 < 4 q 1 4 4 4 0 1 0 t e 0 0 0 0 4 q H 1 4 # 1 1 4 4 4 4 4 4 1 4 4 4 4 1 4 1 4 4 q 0 1 G e 1 4 q q q 5 4 4 4 4 4 4 5 5 1 1 1 1 4 4 1 1 4 0 q 5 3 5 5 1 0 1 1 5 1 3 4 1 4 1 4 1 S 4 5 0 4 q 0 q 0 1 1 4 4 0 q # F D $ 4 < < 1 4 O ' 9.. 4 > > 1 5 > 1 > > > > > > < > < 3 > 1 4 4 4 $ 4 5 % % % > 1 1 5 > $ $ > % % @ < 3 O D S $ < < 1 1 4 % % % % % % % % % % % % % % % % % % % @ % @ @ @ @ @ @ @ @ % 0 2.2.# @ @ @ + @ @ @ + @ @ @ % <   / jXxXy _ _   T.cX+Xp i.r.r.r.3.3._ ) ) ",
"3.3.q.q.q.r.r.r.i.t.#.zXjXS ` hX_.OXvX4X  5 % < * * % * * < 1 5 < 3 3 1 < . < y < < % % % < + % % < 1 0 1 < % < < < < < < % * 1 4 1 4 1 1 1 < % 1 < < < < 1 1 1 4 ` S 1 q ! > < 1 > < < < * % 1 < 4 e % > 1 1 3 t q q 1 0 < 1 < 1 1 5 1 1 4 1 4 4 4 5 1 + H d + t t < 0 q 0 e 4 4 t M G 1 4 0 q 0 D 1 4 4 5 1 5 1 5 4 1 1 0 0 1 1 1 4 1 4 4 1 e t 1 0 t 1 t 0 4 4 4 q 0 1 4 4 5 t 0 1 1 1 1 1 1 q 0 1 4 0 5 5 1 0 1 1 1 1 < < 1 4 4 1 4 1 1 1 4 5 1 4 1 q q t 4 3 1 4 4 1 > y q > 1 > < 0 5 3 .   3 5 1 < 1 4 > > % > > > 1 > y < % % < 3 5 4 1 % 1 1 % % % > 1 > > > $ > > > % 3 1 > > O $ 5 < < 3 % % > % % % % % % % @ @ 3 3 % % % % % @ % % % @ $ @ % @ @ @ @ > > > % % @ @ + @ @ @ + + @ + @ @ < % H dXjXy / `   W.cXOXp r.r.r.3.4._ _ ) ) ",
"3._ 0.q.q.r.r.r.t.t.#.zXjXD ` sX/.OXvX+X  6 * * * % % % < < < 3 4 4 1 < < < * % % % % % % $ d w @ 1 1 1 % 1 < 1 1 < 1 4 < < * < 5 5 q > 1 < 1 4 < < < < 1 > < c 0 5 O 4 0 < < % > < 1 1 1 < 1 1 1 1 0 > < 1 1 < 1 5 c 1 4 < 1 < 1 1 < < 3 4 4 5 4 4 0 q < p 5 1 5 5 q 5 5 4 0 4 1 5 4 q 4 0 0 1 1 > 5 4 1 5 1 1 5 4 1 1 4 4 1 1 4 1 1 4 4 5 5 0 t 1 1 0 0 q 4 4 4 4 0 q 4 5 4 4 5 1 0 q 1 1 1 5 1 4 4 5 q 5 4 1 3 4 1 4 1 1 1 < 4 4 1 4 1 1 t 4 1 1 5 5 q q q y 1 4 0 q 1 0 q > 4 4 1 5 4 4 < 4 4 1 4 1 < 1 1 > > > > > > > > 1 > % % 1 4 1 % 3 4 % > > % > % % % > > % > > % $ 3 > % % < < % < < < * < > > 1 % % > @ > 5 @ < % % % @ @ % % % % % @ $ $ % @ + @ @ % @ > > % @ + @ + @ @ @ + @ + @ + *   H dXjXt _ 6.  T.cX+Xr i.r.r.3.4._ ) ) ) ",
"_ 3.3.3.6.6.r.r.t.t.#.zXxXH / iXY.OXvX+X  5 * % % % * * * < < 1 q 5 < < < % % * % * 3 $ 1 1 1 < % * < 1 < % % 1 1 < < < < 1 < < 4 4 > 1 < < 1 4 < < < < q ^ . 9.c O q 0 t % 1 < < 1 < < < < < < 1 0 1 < < < 3 5 4 5 5 4 0 < 4 0 < 1 p p < 5 5 3 5 5 5 5 1 1 1 1 1 1 4 4 4 1 1 5 1 q 4 4 4 4 4 4 1 1 1 1 5 4 4 1 5 4 5 4 0 1 5 1 1 1 4 4 5 5 4 1 4 5 5 0 y 0 1 q q 5 1 1 4 4 5 5 4 4 5 4 4 4 1 4 4 5 4 5 q 4 0 4 1 4 1 1 1 1 1 1 1 1 1 < 4 1 4 1 1 4 4 3 5 5 4 y 0 1 0 q 1 1 4 1 q q 5 < 1 < 1 1 1 < 1 4 > 4 4 > > > > > > > > < % > > < 1 < % < > % % 1 % > % % % % % > > % > > @ > > % 3   ) a.. t * 3 3 > 4 % > 1 @ > k @ > % % % % % % % % < @ % % @ @ @ @ @ @ @ @ % % % % @ @ + @ @ + % @ + + + %   H jXxXp g.g.  _.vXOXq i.r.r._ _ _ ) ) ) ",
"_ 3.3.q.6.r.r.r.r.r.#.jXjXF U uXx.OXvX+X  6 * % % % % % % % 3 5 1 < < < 1 % < * % % 5 y % % % < % % < 4 < % > 1 1 < 3 < < < < q < < 5 1 * < < < < < < 1 1 S 1 t > 0 ' @ 5 % > < % % > * < < 1 < 1 5 < < < < 3 5 1 4 5 1 1 1 1 4 y   b.x.  6 3 < 5 4 1 5 < 5 1 5 1 1 4 1 1 1 4 4 5 1 5 q 4 4 4 1 1 4 4 4 5 1 1 3 < 4 < 1 5 5 5 1 1 1 5 1 5 0 0 1 1 4 4 5 l l 5 4 1 4 1 4 1 5 5 5 q 1 1 4 4 q 1 1 4 5 q 4 0 1 5 1 1 1 1 < 1 < 1 1 < 1 1 1 1 1 1 4 1 1 1 3 5 5 5 0 e 1 t e 1 < 0 0 1 4 1 < 1 3 1 < > 3 > 3 > > > > > > > > > > % < > > 3 < < % < % % % % % % % % % % % % % > % > > % % > % > 1 y y % 3 3 3 4 > % % % 1 % % $ @ > % % % % 3 % O % % + @ @ @ @ @ + % @ % % % % % @ % @ + + + @ 1 3 + + + *   H jXxXt g.j.+ _.vXOX0 i.r.r._ _ _ ) ) ) ",
"q.q.3.3.r.r.r.r.r.r.` jXjXd H uXl.OXcX+X  5 * % % % % % % % * < % % % < * % % % < % % 4 > 1 3 3 % < % 1 1 < > 1 4 % 3 < < * 5 1 1 1 % * % < > 1 1 w 1 # t _.1 t 1 % % 4 1 % > > % % < % * < 1 1 4 > 1 1 < 1 < 1 > 1 4 < 1 5 % t H % , , 5 3 1 4 1 1 1 1 1 1 < 1 1 1 5 4 1 1 5 4 4 4 4 y 0 q 1 1 1 1 1 5 5 q 4 1 5 1 J 4 1 5 1 5 1 1 1 4 4 4 4 1 4 0 t   +X@X  w 4 4 1 1 1 5 1 1 1 5 4 1 1 0 1 3 1 < 1 5 5 1 5 3 < 5 1 4 4 1 1 1 1 1 1 1 < < 4 4 4 1 < < 1 1 3 5 y e S y 0 q 4 4 1 1 < < 4 4 1 < > 1 > > > 1 > 1 > > % % > > % % % % 5 < * < < % > % > % % % % % % % % % < % % % % < % < 5 % @ @ < < % 3 4 > 0 < > 3 1 % > $ $ % % @ @ % @ 3 < % % + % @ @ @ @ + % % @ % @ + @ @ + + @ + + @ @ @ % % %   H dXxXS g.k.  _.vX4Xq i.r.r._ _ _ ) ) ) ",
"q.q.q.q.6.r.r.r.r.r.` jXdX5 H uXl.+XcX+X  5 * % % @ % % * % % @ % % % % % % % @ y 3 @ @ % 3     3 % % < > 4 > > 1 < < < * < q 1 < * * 1 % 1 % % 1 H O H D # % @ % < < < % % < % * % < < < 1 1 < 1 < < < * < % < < < < < < < < < $ 4 3 - 5 3 1 % < < < < < < < < 1 5 1 5 5 1 1 1 1 1 4 1 1 0 0 4 < 1 1 3 4 w 5 1 4 5 t c q t t < 4 5 3 4 4 1 1 1 3 1 4 , 9.#., q 0 4 1 4 4 1 4 4 1 5 5 1 1 % 1 5 1 4 4 1 1 1 5 1 1 < 3 > < 1 1 1 < > > > > > > > 4 1 1 1 4 4 4 0 e W ] m x 4 1 1 1 1 1 < 1 > > 1 > > > > % > 5 5 % @ @ % > > % < < % % % % * < % % % % % % > % > % % % % % % % % % w 3 % + 3 3 < < % % % 4 1 1 % > 3 3 @ $ $ $ > @ + @ + @ <   . @ @ % @ $ @ @ O + + @ % % + + @ + @ @ + + O + + + @ %   p 7XjXH b.k.  !.cXdXD i.3.3.3.4._ ) ) ) ",
"q.q.q.q.q.q.r.r.r.6.^ jXdX5 H uXg.uXcX+X  6 5 % % % % @ @ @ % @ @ @ % % % % % % % % % % 3   g./   < 1 < * 1 4 < 1 < 1 * * 1 1 < % % % 1 < 3 1 1 < + O H d O < > % > % < % % % * < < < 1 < < 1 1 1 < < < < < < < < < < < 1 < 1 1 0 0 < * < 4 4 S < < < < < 1 1 < 1 4 3 1 5 1 1 5 5 5 4 1 1 1 1 4 1 3 5 3 0 1 < 5 q 5 1 t t 1 5 5 q 4 5 4 4 5 1 1 5 1 5 5   # 4 > 1 1 < 1 1 4 5 5 1 1 < 5 4 4 1 1 1 1 5 < 1 < 1 % 1 q < y 5 % < < > < > < < 1 1 < 1 > 1 1 4 0 e c R Z.jX Xl y 4 1 1 1 1 % > < > 4 > % % > > < 3 > $ 5 4 % % % % 5 5 @ > % 4 % % > % % % % % % < O @ % O > > % % % @ 4 4 > @ 5 w % % % < % > 4 % > 4 > > $ @ % > @ @ @ $ @ @   ~ 5 . @ @ @ @ @ & O @ @ @ % % + + @ @ @ + + + + + + + + %   S 7XxX^ g.g.  !.cXdXD r.6.3._ _ _ ) ) ) ",
"q.q.q.q.q.q.r.r.r.r.' jXjXi J 4X6.iXvX+X  5 * % % % % @ % % % % % % % % = % * % % * % % < . _ F   < < % % % 5 1 % 1 4 < * 1 y > < * % < % % 1 4 < < < # % * % % % % % > > > < < % < 1 < < 1 1 5 1 < 1 < < < < * < < < < 1 < 4 1 4 1 < 5 < 4 4 ^ 1 * % 1 < < < 1 3 1 3 5 < < 1 1 1 1 1 1 < 1 4 4 1 4 5 3 1 4 1 < 5 5 1 0 y 4 < 5 1 1 1 1 5 4 1 1 1 1 1 > 3 5 1 1 < 1 1 < % < 1 1 1 < 1 1 < 1 4 1 1 1 < 1 1 5 1 D 5 q 1 t q % < 1 < > 1 < > 1 > < 1 % % 1 1 < 4 5 t 2.>XR.z t q 0 4 4 1 1 1 1 > 1 1 < > < % % < 4 $ t y @ % < % % % % > > 3 % % > % % % % % % O k k > d 4 % % $ @ % % % > < @ p 5 @ % % > % 4 1 3 y 1 $ > > > % @ @ + $ @ + # #.0   + + + + @ @ O @ @ + @ % + + @ @ + @ @ + + + @ + + -   u.7XxX` p.g.  W.cXOXp r.6.3._ _ _ ) ) ) ",
"q.q.q.q.q.r.r.r.r.r.^ jXjXF D OX6.iXcX+X% 3 * % % % % % @ @ % % % * < 3 % * % % * * < 4 1 <   O 3 < % % % < < 4 > 3 q > 1 < > > 1 < 1 % % 1 1 q * < % 3 1 % % % > > 1 < > % < < < % < % < < 4 3 < < 1 < < < < 1 < 1 < < * < < * < < < 1 1 * < O < < < * < < 1 1 1 < 3 y 1 1 1 < < < * < < 1 1 4 < 1 1 1 q 0 1 < 4 q < 4 q 5 1 1 4 1 1 1 1 0 4 < 1 1 > 0 1 < 4 5 < < 5 1 < < 1 < < < < 1 1 5 1 < 1 5 1 5 % S q 5 1 * < $ % 1 < * * < < < < < < > < < % 5 5 < 5 4 e x m n y 1 1 1 1 > 1 4 > 4 4 > 4 1 > > 1 > 4 1 % $ $ % % % % % % > > % % % % % % % % % % > # H H 5 ' O % % % % % % % 1 % % $ % > 4 y 1 1 4 t e b 1 1 > > @ @ $ @ @ % @ % %   + + + + + + + + @ O O O @ + + + @ + + + @ @ @ + + + + -   h.7XxX` l.g.  T.cX+Xq r.3.3._ _ _ ) ) ) ",
"q.q.q.3.3.q.r.r.r.r.^ dXjXF D OXr.uXxX+X7 = * = @ % @ % @ % % % % * < * % * * = * % 5 t < % * < % % % 1 * % % > 5 # , 5 4 % < < < % 1 % % < % < 1 % % < < 1 > > < > < > % % < < < % < * < < 1 5 5 < < < < < < * < < < < < < < 5 1 * < 1 4 < < 3 * < < < 1 1 3 < 3 1 < < 3 1 1 1 < 1 < < < < < < < < < < 1 1 1 < 4 q 1 1 3 5 1 < 1 1 1 1 1 1 4 < < < > 1 < 1 1 1 4 < < 3 1 > 1 < < < 1 < 1 1 1 < 1 1 1 q * / 5 $ < 3 4 3 < < < < < < * < < 1 < 5 1 1 1 < 4 < 1 q 0 1 c t t 4 1 < 1 % 1 > % 1 > 3 5 > % > > > > > % > % % % @ % % % % % % > % % % % % % % % > 4   4 4 , 3 % @ % @ % @ < > % % > % % % > > 4 t n P.R.n 0 $ $ @ @ @ + + @ @ @ @ % % + @ + + + + O O O + O O + + + + O + + + + % + + % % 3   T.dXxXJ l.g.  T.cX+X5 r.3.3._ _ _ ) ) ) ",
"q.q.q.3.4.3.r.r.r.#.H dXdXF d `.4.OXjX>XH X * * % * = @ % * % % % @ % % % % = @ % + + $ 5 % % % % % % 3 % < < 3 8 T.k.8 3 < < < < 4 1 1 < 5 1 1 < < < < @ 5 % $ % % > > d 5 > > * * % < < % % 5 H % < % < < * * % < < < < < < 1 < % < y < 3 < * < < 5 4 1 1 1 1 < < < 3 < < < < > < > < < < < < < < < 1 * < 1 * < 1 w 3 1 1 1 1 < < < q 1 1 < < 3 % > 1 % < 1 > 1 > % 1 1 1 1 > % < 1 < 1 < < < 1 1 < < < $ > < < < < > % < < 3 < % < % < 1 1 5 3 1 % < 1 q 5 < 1 3 0 4 0 q 1 * % < 3 4 > < 1 % < < < % > % > 4 < % % % % % % @ % % > > % % % % % % % % % > t < t > 3 4 % @ % @ % % @ % @ % $ @ @ @ % % > w l +XbXZ.5 4 > % @ + + @ @ @ + + + + @ + + + + + O + O + + + @ + + + + O + + + + @ + + + 3   !.dXnXv i.u.  T.zX+X4 r.3.4._ _ ) ) ) ) ",
"3._ 0._ 3.3.r.r.r.#.H eXdXD d `.r.OXjXjXv.  7 * % 3 7 * 3 @ * % % * % % % % @ % X w w @ % % % % % % % % % < 1 6 8 eX+X, 6 5 1 < < 1 < 1 1 1 < * < 1 < 1 p < 5 w % > > 1 < % % $ 5 3 % * % % % % $ O < < < * * 1 * * * * * < < < < % * * % < * < 5 < 1 < * * < < * < < < < * 5 < * % % < < < < < < % 1 1 < < < < < 1 < 5 1 1 1 < * % * % % % 5 1 % % < 1 < < 1 < % % > < < > > < % % < 1 1 1 * 1 < < < % % < 3 < < < % 4 3 < < 5 > 1 1 > < < 3 $ + < % 5 5 5 < < 3 > 4 3 1 4 4 1 3 * < 3 1 < 3 < % % < % > % % % % < % @ % % % % % % % % % % % % % % % % % % 4 % 5 + @ $ @ % % + + @ @ % % % @ @ @ @ @ @ % > 9 M. X2.4 4 > > > % @ @ $ 4 + + % @ + @ @ O O O O + O + + + + + @ + O + + + + @ @ + + + @   +X+XdXe r.u.  T.zX+X6 r.3.3._ _ ) ) ) ) ",
"_ 3.3._ 3.3.r.6.6.r.L >XdXD F 5Xp._.dXdXuX  6 % * % % * * % * = = * % % % % @ *   J S o * % % % % % % * % % % > y l m q % % % > % % % % < < % % 1 1 1 < H 3 w H 2 1 < $ p w % * * * * < % % % $ 5 i .   3 < * * % % < % 1 1 3 < * % % < 4 y 3 1 < * 1 5 * < * < < < * < < * < < < < % % < < < < < < < % * < < < < < * 5 3 5 5 1 5 5 > > 1 < 1 > % 1 1 < < < < 1 1 1 > < < < < > % < < < 1 < * < < < 1 < * < < < * < < 3 1 < * < < * < > * . . w w < 1 < 1 1 * 3 3 3 4 5 3 < 4 4 3 3 1 3 < < < < % % * < > % @ > H 3 % % % % % % % % % % % % > % % < % > 3 % < % @ % @ % % + + + @ @ @ % @ $ @ % $ @ > > > e e 9 l e 4 % % % @ + + @ % 3 + % < O @ + %   _ a.  % @ + + + + + + @ + O + + + + @ + + %   _ +X+XdX, r.u.  T.jXOXi r.r.3._ _ ) ) ) ( ",
"_ _ 4._ 4.3.q.3.r.r.H >XdXH U `.p.k.dX+X4X  3 % * % % % @ = % % = = % % % % % % * X O * % % % % % 1 % < % * < 4 1 6 5 5 5 * 1 0 * < * * < 3 < 1 5 1 1 1 % < < $ 1 > < $ w q % % * * % 3 % % % O d ) < U * 7 % * % % * < < < < < * % * > t 1 3 3 * * < * * 3 < < < < * < * < < < < < < < > < < < < % < < 1 1 * < < < 5 < 5 1 < * 3 5 3 > < < > 1 1 1 < < * < < < 1 1 1 < < 5 1 > % < % < < * 3 5 < < % < % * < < < * < < * < < * < < < < O H # p.j.  3 < 1 < * 1 3 > 1 1 < * < 4 > < 1 < * * % < % % % < $ 4 O d J o 3 % % % > % % > % % % % % 1 > % % % % % % % % + % + @ @ % @ @ @ @ @ @ @ @ + > 1 % > 0 4 % 4 y 1 q > % % @ + + O @ X @ @ + @ + + + X % 1 X + + @ + @ @ + + O O O + + + + O + + *   r.+X+X+X# g.u.  k.jXOXd i.r.3._ _ ) ) ) ( ",
"_ _ _ _ _ 3.4.q.r.r.F >XdXD p l.r.U OX+X4XL   * % % = % * * * % % % % % % % % * % * * * * * 3 % % % % % % 1 5 < < 3 3 3 3 1 * 1 > < < * % < < < < < < < < 3 < < 1 % < < $ 4 < * < * * * % % < $ 5 t 5 H $ < * < < * < < * < * * $ < $ D 5 $ < * * < < % * < % * < * * % 4 4 % 1 < < % < < < < < < < 3 % 5 1 < 5 < < 5 5 4 5 1 1 < * 1 1 < < * < > 3 5 < < < 1 1 0 % % % % 1 % > < < < < < * < 5 % < < * < < < > % < * < < % % % < < % < . ' D $ % * < < 1 < < 1 1 < 1 < 1 < % 1 0 1 % % < 3 % % % % % % % 1 % % % % < % % % > % % % % % % * % % % % % % % % % % % % % % % @ % % @ @ @ % @ @ % % @ $ % 4 > $ % > 1 > 3 4 * % > @ @ < % + + + + + + + + + X % + + + % + @ @ + . 5 3 . + + + + + + O -   Y.+X_.T.. #.J   T.jX_.d i.r.r.3._ ) ( ) ( ",
"_ _ _ _ 4._ I 4.r.r.g >XeXd 4 l.l.  +X+XdX`.  6 % @ @ = * = % % % % % % = % % % % * % < * * < % % % % < * 1 * * 1 1 < < % 5 1 % % 5 5 % * * < 5 < * < < * < 1 1 1 < 4 1 % 5 * % * 3 % * % % < q 5 3 + O % * * * < < * < * * * < i 3 * 3 < * * * * < < % % * < * * * * * 1 < % 1 1 < < < < < < < < * < < 1 > < * * < < < 1 1 < 1 < % 3 5 < * % < % w w > 1 % < < 1 % % 3 1 1 % > % % < 5 % < % < < * < * * * % < < < < < * % % % < < % % <   @ * * < 5 < * < < < < < 1 * < < % % 1 > % < % % % % % % % % % @ % > > % < % 3 % % 3 % % % * % % 3 % > + % % + + % % % @ % % @ @ % % + % @ @ % % +   y S @ 4 + % @ > > % % < % @ + + @ % @ + + + + + @ + + + + + + + @ + @ + + + + + + + + + + + + + %   d OX@X+X` & H 0   T.jX_.d r.r.( / _ ) ) ( ( ",
"( ) _ 3.3.3.4.q.3._ 6 +XdXL O (.uXO OXdX+XbXT   3 5 7 % * % = = % * % % < * = * * * * % % % < 3 % % % < % * * % < < < % * * % < < % % < < % % * * % < * * < < < < * % * * % 3 * % < % % 1 < % < @ 1 5 % < % % % < 1 5 < < 5 % 5 y.7 % * * % = * * * % % * % < * * 1 < < < % * % > 1 < * < * < * * % < < 1 < > < % < < % * < < < < < * % < * < < * < % < < * < * % % 1 < < % % % % 1 > % % % % < 1 1 1 % * * * < % < < * < < < < < % % * * < < < * % < < * < 5 3 < < % < > % % % % % % % % % % % % % % % % % % 1 % % % % % % % % + + @ < % % % % % % % % % % % + % % @ % @ @ @ + + % @ + @ @ 5 3 < 3 + + % % + % % % + % % + @ + + % > X + + + + @ + % % + + + + + + + + + + + + O + + + @ + + + 7   `.+X+XdXd ( T.J   h.jX_.d r._ I U _ ) ( ( ( ",
"( _ U d _ 6.3.3._ _ * >XdX)   '.AXT.Y.bXdXcXsX  7 5 3 3 3 % % % % % * % 5 3 * * % % % % % % 7 % % % % % % % * * % * < % < * < 3 1 4 5 < * * % < * % % * % * % % % % % % * * 3 1 * < % % 1 < % % % 5 O H g.  w 5 % < < * % * * * . * * * % % * * < 5 % % * % % < < < < 1 > % % 5 q 5 3 1 < < < % * * % * 1 < % % * * % % * % * < < % < 1 < 1 < * * 1 5 % < * < % 5 1 % 5 3 % % % < % % % % % < < < % % % % < * % % < % % % % < < < % 3 * * < 3 < * * % % < < 1 < < % % > % % % * . > % > % % % % % % % % % % < 1 % % @ % @ % % % % + % % % % % % % % % + @ + % % @ @ + + + + + + + + @ @ % > ~ w X + % + + % + % % + + + % @ + @ + % @ + + + + + + + % % + + + + + + + O + + + + + + + + + @ & 5   (.xXdXdXsX  OX4Xb + ^ >XT.f 4.) ) ) ) ( ( ( / ",
"( ( L F _ 3.3.3.3.q.< +XxXz.> W.KXgXl nXAXlXcXOX  6 * * = % * % % % * * = * < 3 = % % % % 5   $ % % % < % % % * * % < % < * < 3 * 5 4 3 * % % % % * % * * % % % % % * * % * * < % < % * * % % % * % @ < < % 3 < % < = < 6 = * * * d 3 % % * * < < 1 % * % % < < * < * < < * $ w U + 3 < * < < % % % 1 1 1 > % % * * % % % < * * < < * 1 < % % % < * < * * < < @ q 5   U D . % % % % % % % % < < % * * % < < * * % % * < % % % % % * * = 3 < % % * * % < < * * % % % < % % % * @ d w O % % % % % % % % % % * % @ % * % @ % % % % % @ < < % % % % % % % + % % % % % @ + + @ % + + + + % % % % o + % % % % % + + % + + + @ + + @ + @ + + + + @ + + + + + 3 + + + + + + + X + + + + + + + + + . 7   p.jXjXjXxX/.l CXbXU.  _.dX<.f _ ( ( ( ( ( U / / ",
"( ( ( _ ) _ _ _ 3.r.< +XAXuX  ! OXKX(.l BXDXjXcXOX  6 < < * % % % % * 3 5 6 5 i < % % % * , z.k X % % % * % $ < % % % * % % % < % @ % 1 < * * * % % % % * < % % * % % * % 5 < % % < % % * % % % % % % * % * % % < * < @ 3 = * < * < < < * = % * % % % * * * < < < * * < < % $ i ) + * 5 3 % < > % * < < % % % % * * < < % % * < % > % 1 5 < % 1 < % * * < w 3 % w 1 < @ % 1 < % * * < % * % % % % * * % < % * % < * * 1 % % % % * 3 % 3 < % % % % % % * % * < < < % < % % % <   _ H $ < > % % % % % * < 3 @ % < % % @ % % + @ + + @ % % % % @ % % @ % @ % % @ % @ % + % @ % + + + % @ % + + % @ @ @ @ @ @ + + % + % + + + @ + @ + + + + X + + + + + + + @ + + + + + + + + + + + + @ + + + 5   4.dX7XdXcXyX, gXKXdX#.E xXAXu.g ) ( ( ( ( ( / / / ",
"Y ( ( U ( ) _ 3._ p.g !.DXbXl h m iXZXr.l ZXAXjXvXOX  j < * % % % * * 3 O 0./   3 % * * * # _.D   * * % @ 4 y % % % * % % % * < * * % % * * < * * % = % * = * % % % % % < % * % < % % * % * * % % < % % * < * * 3 % % t 3 * * * * < * < * % % * % * = < * * * * * % * < < % < $   < < 3 < % % < < * % < % * % * * < < 1 1 % % < % < < % < % % * * * 3 < * % * @ + % 5 3 % < < % * % % % % 4 % % % % % 3 * % % < < * % 5 % * * * * 3 * 3 % % % % * * < * * * % % * % % % % % 3 3 . O % % % > % % % %   6 w . 3 < @ 7 d @ % @ % + % % + % % @ @ % @ % % + % @ % % % % @ + @ @ + % + + @ + % + @ @ @ @ @ + @ + @ + + @ + @ + @ % @ + + + @ % + % + + + + + + + + + + % - X + + + + + + + O 6   w.nX>X>XcXnX, aXIXyX8   uXDXCXl 4.( ( ( ( Y / / / U ",
"Y Y Y Y ( ( ) _ ( f.f.n gXKXhXO T m gXUX_ 8 BXAXcXAXyX  j % % % @ % % < % + @ * < @ % % % <   @ % % % % @ 3 5 * * % % 5 % % * % * % % % % % = % * * = % % % * * % % * < < 4 % % % % % % % % % % % % % % % = % = = % @ w 3 < = * * < * * * * = % * < * < * * * < * < < % % % % < < * * * < % < < % % % % % % % * < * < < % 1 > % % % * 1 % % % * * % d < % * @ w w + * * % % % % % % * * % y > % % % % 5 < % % < * < < % < * % = * % * % * % % % % % * * % < < < % % % % * % 3 3 * % % % % % % % < * ' @ < * @ + %     * % % + + + @ @ % % % @ % @ @ @ @ @ % @ % % + % + % % @ % @ + > @ @ + @ + + + + * % + + + + + + % % * % + + %   0.)   @ + + + + + + + + + + + + + + + + @ + + O 6   y.xXxX>XxXnX8 iXPXfXl   z.SXKXyX8 w./ ( ( Y / Y U / U ",
"Y Y Y Y ( ( ) 4.4.) f./ g.DXIXgX  w. .BXUXc n ZXAXvXDXyX  j * * % * * 7 = @ @ @ % @ @ @ % % 7 $ % % % % % % X @ @ % % 5 * = 5 * % % * % % % % @ @ % % % * % * * * % * 3 < 5 * < @ % % % % % @ % % % % % % * % = % @ 3 * = * < = = = * * % * % * * * < * * * * * * < < * % % * % * * % 5 5 * < % % * * % % < % % < < * * * 1 < % % % % 3 % * % * 7 X d d . * X d f X * % % % % % % % % % % + % % % * % @ % 5 < % % 5 1 @ < % % % % < O * 7 * * % * % * * * < < * % % % % * % % % @ 3 3 % % + % % + 5 ' o 5 3 @ *   0.a.  * % + + + @ @ % % % % @ % % % @ @ + + 3 3 @ % @ + @ @ % % + @ % + + + + + % + 3 * X + + + + + + @ + + + + @ X 7 < X + O + + + + + + + + + + % + + + @ @ @ + 6   n.bXvXjXbXnX  `.IXgXm j ` bXJXhXl ) ) U Y Y Y Y Y U U U ",
"U Y Y Y ( ( ) 4.) ) 4.c.^ '.KXPXgX  w.] BXKX' z.UXDXAXDXrX  j $ * * = @ @ @ @ @ % @ + @ @ X t T.% @ @ % @ % @ % @ % < @ * * * * % @ @ % % % % @ % % 3 < 3 * = = % < 3 = * = 3 3 @ % @ % % * % % % % % % % = * * = = % * * * 3 = * * % % % * * * * 1 5 % % < < % * * * * * % * * * * * w 3 $ % * * * % < % % % * < * * * * % < % % % @ o % % % * * o D D . * * + X * % * < % * % % % % % % < % * % % * * * < < @ % % @ 3 < @ % * % @ w < @ * % % * % % * % % % % < < * % % % % % o w w > % % % % % > % % @ @ % @   d f @ 3 + + % @ + + % % % % % % @ % % @ * * + % + + + % @ % 3 % + @ @ @ + + + + + + + + + + + + + + + + + @ % + @ + $ % + + + + + + + % + + X + + + + + + + + + 6   c.MXvXcXvXhX. (.IXgX] h S bXHXbXQ q.q.U Y Y Y U U U U U I ",
"U U Y Y ( ( ( ) Y ) ) t.c.z yXIXPXpX  w.] ZXUX, c.UXDXAXDXqX  j * * = * = @ @ @ @ % 3 @ = @ < d % % @ @ % = @ @ @ * < * @ % % % @ % 3 % % % % * * % * * * * % % % = % = 3 5 * % @ * * % * % = @ % 3 % % = X t t X = = * * * = * * * % % % * * < < < % * % < < * o d i X * * * * * < * % @ w 3 % % % % * * % = * * * * * * * 5 % % @ 3 i O * * % % * X O * % * * * < = * * % * * * % * % % * < * % * * % % * < % * 5 % * * % % % = o D 7 @ < * * * % % % % * * % < < % % * < < % 5 % % % > > % % % % % % % % @ @ @ * 5 % % @ + % @ 3 3 % % % % * * % % * % 3 * @ * + @ @ + % % % @ @ @ + + + + + + % + + + + % + + @ + + @ @ + + + + + + + + + + + + X @ % + + + + + + + + + + O 6   T bXvXcXAXgXl `.IXBXm g , fXHXMX#.) r./ / U Y Y Y I I I U I ",
"U Y Y I Y ) ) ) ) 4.4.( y.c.l aXPXPXrX  w.[ BXVX# ^.UXHXSXDX(.  h * * * % @ @ @ @ % 3 * % @ @   @ @ @ @ % @ = @ % % * * % = * % 3 4 3 @ % @ % = * = @ = = * % % = * 3 % = * * @ 5 7 % % % = = % % < @ % * = = % @ = = = * = * * * * % * = % * * * * % % % % % * * 5 3 % = * * < * 3 * < $ D 5 % < % * < < % = * < * * * * % O % % + w U   L i X * = < 3 % = * * * * * < * % % % % % * * % * * % % % % * * % * * * * % % % * % % % %   + @ 5 5 @ * % % % * < % % < % * % % < % % 3 * % % < % % % % % % % % % @ % % 3 3 q w O + @ D % % % % * % * % % % * % @ + @ % @ % @ @ @ @ @ @ % @ * @ + @ + + % @ + @ + + @ + @ + % @ + + + + + + + + + + + + + + 3 @ + + + + + + + + + X 6   I xXvXcXDXVXm rXPXBX*.I . hXHXFXg.( i./ U s F U Y Y U I U U I ",
"Y ( ( I Y ) ) ) ) ) ) ) Y l.v.8 aXPXIXyX  r.] CXZXl Q.UXDXSXHXqX  h * * = @ @ @ @ @ @ * @ < * * % % @ @ @ % % < = = = * * % * * * = @ = @ = = = = % % * % = % = * * 3 % % * @ % * % @ @ % % 3 % @ @ @ @ = = @ @ @ % @ * * = = * * = = % = % * * * % = = = = % % * * * = % % * * * = * < * . @ = * * < * * * * * 3 * * < @ w / . * * + . % % % % = 7 * % % = % = * % * < < * % % * % < < % % = * % 3 % % * * 3 * * % * % % * * % = % * 3 @ @ % @ % % % % % * % % * % * * = < * * % % % % < % % % % % % % < % % % % + + % @ + % @ < @ % % @ * % @ 3 * @ * * % % @ @ @ @ @ @ + % @ + * + % + @ @ + + < @ + + + + + + + + % + + + + + + + + + + + X < 3 X - + + + + + + @ + + X 6   w.bXvXjXDXVX2.`.PXZX,.)   fXKXDXz.L p.( / I f Y / Y Y U U U I I ",
"( ( ( ( ( ) ) ) ) ) ) ) ) U l.f., aXPXIXiX  p.U.DXZXl u.UXHXDXKXrX  j * * @ = @ @ @ @ @ @ * @ @ % % @ @ @ % % * = = % @ % @ * - @ @ @ @ @ = = = = % % * % @ @ * % @ % = % % 3 * @ @ @ @ = = * = = @ % % @ = % % @ @ @ % % = % * * = = * < = * * < w * < = % = = @ * * % = * w % * < * * * * * % @ % % = % % % % % = * = % 3 i @ * % * * @ % % * * < * = = = * % * % * * * * * % * * % * % * % * * * * % * * % % % % < 3 % = % = * % < 6 + % * % @ @ % % @ % % % % * * % * % @ < 3 % < % < % % % @ % % @ % % @ % % + @ + + @ % @ . @ * @ @ @ @ % * % @ % % @ % % % @ @ @ @ + % % + + @ + .   @ + + % @ + + + + + + + + X + + + + + + + + + + + + X X + X + + + + + + + + O j   w.bXAXcXDXBX# (.PXZX<.U   sXKXKX/.N p.) ) ( / / Y Y Y U I I I I I ",
"( ( ( ( ( ) ) ) ) ) ) I U ) ) s.y., gXPXIXiX  z.!.DXZXl Y.KXHXDXKXiX  j * @ = @ @ @ @ @ @ + @ @ @ @ @ @ @ @ @ @ @ = % @ @ = @ @ % = * @ @ @ @ = % @ =   X @ @ @ = % % * = % 5 * = = @ * % = = = = % = = = @ = = @ @ % @ @ % = = = = * % 3 < * < * < * * % * * % % * = % * 3 3 = * < * * < = = % @ % * * % % % % % = % % % * 5 % = = % % % % % % % % % * * = % 3 < % * * * 3 = * O % * * % * % * < * * = = = * % % 3 3 % = = * * = = % + % @ % % 3 % @ % % % % % % * * % * % % * % % @ * % % % % @ @ @ @ @ @ % @ + + + 3 % @ @ @ 7 + % @ % % @ @ % @ % < % % % % @ @ @ @ @ @ + + @ + @   d F   + + + + + + + + + + X + % + @ + + + + @ % * + + + + + X + + + + + + + + X j   d.CXDXvXDXVX  l.IXZX} K   sXLXIX`.8 s.) ) ) U U Y Y Y Y U I I I I I ",
"( ( Y ( Y ( ) ) ) ) ) / I ) ) ) p.q.8 BXPXPXrX  g.W.DXZXl '.KXHXHXKXiX  j - = @ @ @ @ @ @ @ @ = * * @ @ % @ @ = = = @ @ @ @ % * % = * @ @ @ % * @ =   S t X % = = % @ % % = % = = * = = % @ = * = % % @ = = % = @ @ % % @ * * = = 3 * = * = * * 3 % = % % % % % = % % -     3 * * * * = = = = % % % % = % % % % = = < % = < 6 % = % % % % % % % % = = * * = * % 6 < * * * 3 * . / w @ * % % % * = = % = = * = * % = = * = = * = = = * % = % % @ % % @ % % % % % % % * = % % % % % @ @ @ % % % @ @ @ @ % % % % @ @ @ @ * % @ @ @ 5 < + @ @ @ @ @ % % % ; * < % @ % @ @ @ @ @ + 3 * + @ X - 7 . + + @ + + + + +     +     + @ + + + + + @ @ + + + + + + + + + + + + + . j   d.FXDXAXDXBX8 l.IXZX{ Y   uXLXIXyX8 l.6./ Y K K Y / Y Y / U I L I I I ",
"Y ( ( ( ( ( ( ( ) ) ) _ ) ) ) _ _ p.4.o.ZXPXKXv.  #.!.DXBXl yXLXHXHXKXiX  7 7 @ @ @ @ @ @ @ @ + 3 5 @ = @ @ @ = @ = @ @ @ @ = * = @ @ @ @ % % % % =   H p   % = @ = = = % = = = + * % = = % % = = % % @ @ = @ @ = % % @ = = = = = * = = = = * * * = = = = % % % % % *   Y q.  - * * = % = = = % % % = = = = = % % = 3 % = % @ % = = = = % * < % % = = = * = * = < * = * = = * % 6 3 % % % @ % * % = * = = = * % % = * * 3 * @ = = = < % * = % % * % 3 3 @ % @ % % = * * * % % % % % % % = = % @ @ @ % % % @ @ @ @ % @ @ @ @ % + 3 6 + @ % * @ @ % @ 5 l 9 * + @ @ + @ @ @ @ @ * @ @ @ @ + o @ % + + + + + @   H r.  F ~.  @ + + + + @ @ + + + + + + + + + + + + + O j   w.FXHXAXDXZXA j.KXZX} U   '.KXPXaX8 l.i.( _ / H ( / / Y Y U U U L I I L ",
"Y I Y ( ( ( ( ( ) ( ) ) ) ) ) _ _ ) v.6.p.ZXPXUXw.  ' _.KXBXl iXIXHXSXKXaX  @ 7 @ % % @ @ @ @ @ @   s g o * @ @ @ = @ @ @ @ @ @ % = @ @ @ @ @ @ % @ =   O % @ = % = = = = = = = w = % = % = % % = @ = = = = = = = % @ = = = = * % = = = * * = % % * = * * % % % % % -   p.Y.  3 * * % = * % % % % % = * = % = % % % @ % % % = = = @ % = @ 5 5 @ = = * * * = * * = * * * * * * = @ % % % % < * = = * * 3 * * * % % % % * * * = = = = % = % % % = % % * * % % @ % % % @ 5 d + % % * % = % = * = % @ % % @ % % @ % % @ @ @ @ % @ @ @ @ % % % % % % 5 = m sXT.  3 + % @ @ @ @ @ @ * @ + @ @ @ @ @ + + + + + + + o 7 k   3 I . + + + + + + @ + + + + + + + + + + + + O j   e.ZXHXAXDXKXv.a.IXGX+._   ^.HXPXpXl s.l.) ) ) ) ) / / / Y U U I I U g F K ",
"U ; j ( ( ( ) ( ( ) ) ) ) ) ) _ 4.) _ v.^ r.GXPXGXU $ V yXLXgXm iXKXFXDXLXgX  O 7 * * @ @ = @ @ @ @ @ = @ @ @ @ = @ = = @ = @ = @ @ @ = @ = = = = @ @ = = = @ = @ = = = * @ = = 3 = = = % * = = = @ % < = = = = = @ @ @ = @ @ @ % % = % = = = * = = * * % = % % @ * % -     - % = % = % = % % % % % % * = * % = % * % % % % % = @ @ % % * * % = = = = * = = * = * * * * = * * % * % % % % 6 * % * * < * = % = = * = = 3 * = % @ 3 3 @ = % = * % % = @ @ @ @ @ % % @ = * * * = @ @ @ % @ @ = @ @ @ % % % % @ @ % % @ @ @ @ % @ @ @ @ @ @ @ @ @ % % = 9 T.o.O * % % @ + @ @ = @ @ @ @ @ + @ @ + + + X + + X + +     + o   + + + + + + + + + + @ + + + + + + + @ O j   f.GXDXbXAXZXv.l UXUXh._   v.DXPXgXl p.l.) ) ) ) / / / ( ( Y U I I U I O s L ",
"( I I Y ( ( ) ) ) ) ) ) _ _ _ _ 4.4.) 3.s.x l.GXPXZX, - n uXKXnXl yXKXDXHXIXBX  = 7 @ = @ @ + @ @ @ @ @ @ @ @ @ @ @ = = = @ = = = = @ = = % = = 3 = @ = @ = = % @ = = * = < * = @ @ @ @ % = @ * * = % < * = = = = % < 3 @ = = @ @ % = = % % * < % * = % = * = @ @ * % @ 3 3 @ = = % % @ % = % = = = % = * * = = % < < = % @ % @ 3 5 @ = % = = = = * = = % = = * * * * * = = % % % % * % % @ @ * * = % % % @ % % % % = @ % % = @ * % @ = = = % * % @ @ = % % * % % % % % = = % = @ = = @ = @ @ @ @ @ % * % @ @ @ % @ @ @ @ @ @ @ % % @ @ @ @ @ @ @ @ @   . - % % @ + + @ @ @ @ @ @ + @ @ + + + @ @ * + + + + + + + X + @ + + + + + + + + + + + + + + + + + + O j   n.UXHXvXAXZXI , ZXUX6.'   v.DXPXBXn t.l._ ( ) ) / / / ( ( ( Y Y U U / I T K K ",
"/ _ _ ( ( ( ( ) ) ) ) ) ) _ _ _ Y ) 4.3.r.s.l v.GXPXBX# i V uXDXiXl yXKXSXHXIXBX  - 7 = @ @ * = @ @ @ @ @ @ @ @ @ @ = @ * @ @ @ @ @ @ @ @ @ = = = @ @ = = @ @ * = = = = = * * = = = @ @ = % = = * = * % = = * * = * * * @ = = @ * % = = % = = = * < = = % = = % % @ @ % = % = @ % % % @ % % = = = = % = = = = = = = % = % = = % < = = % % % = < * * * = = = = * * * * 7 = * = = % @ % % * % % % = = * = = = @ 3 * @ = % = % % % % % % = * * % = @ % % % = = % = = = @ = * = @ * * * = = @ - * @ % 3 % % @ @ @ @ % @ @ @ @ @ @ @ @ % @ @ @ @ @ @ @ @ @ 7 * % 3 @ @ + + @ @ + * % @ @ @ + % @ + @ @ % + + + + + X + X + + + + + + + + + + + + @ + + + + + + O j   n.KXKXvXAXFXq.O ZXUX#.S   a.FXIXgXn r.l._ ) ) ) ( ) / / ( / / Y Y U U U U Y K F ",
"( / / ( ( ( ) ) ) ) ) ) ) _ _ 4.L ) r.3.3.r.y.8 c.GXPXVX, h N uXDXiXl yXKXFXHXIXgX  j 7 @ @ * * @ @ @ @ @ @ @ @ @ = = @ @ @ @ @ = = = @ @ @ = = @ @ @ @ = @ @ = = = = = = 3 * = @ = @ = * @ = = % % = = = = = * = = = @ = = = = = = = = @ * * = * = = = = = = % % = = = = = = * = = = = = = = = % = * = * = = = = = = = = = = = % 5 * % = = * < = = * = = * = * = * * * % = = = = = % = = % = = * = * = = = @ 3 * % = % = @ 6 3 @ = @ = = = = = = = = % = = * = * * = = * = = = = * = = @ % % @ % % % % @ @ @ @ @ = @ @ @ @ @ @ @ @ @ @ @ @ @ @ @ @ @ % @ @ * 3 @ @ @ @ @ @ @ @ @ @ @ @ @ @ + @ @ @ @ + + + + + + + + + + + + + + + @ + + + + + + + + + + j   w.UXKXvXvXFXn.8 VXKXh.'   ` CXIXBX! q.g.#.) ) ) ) ) ( / ( ( / / Y U U I U U L F K ",
"g ( ( ( ) ( ( ( ( ( ) ) ) ) ) _ 3.3.4.4.3._ q.w.8 ^.UXPXBX  I C uXDXyX, iXKXFXHXIXpX  7 7 + @ @ @ @ @ @ @ @ @ = @ @ @ = @ @ @ @ = = = @ @ @ = = @ @ @ @ @ % = = * = = * = * = = = = = = = = @ = @ = = = = * = * = * = = = = * = = = 3 = @ = * = 6 3 = * % = = % = = % * < = = * * % * * = * = = % * * = * = = = = = = = = = = = = < * = = = = % % = = = = * = = * * = * = = = * * % % % % = = = * = * = = @ @ * = = % % = = 3 * = = = = = = = = = % = = = * * = * = * = = @ 7 3 @ = = = @ % % @ @ @ = = = = @ @ = @ @ @ @ @ @ @ * = @ @ @ @ @ @ @ @ @ @ @ + * 3 + @ @ @ @ @ @ @ @ @ @ @ + + + X @ % + + + + + + % * + + + + + + @ + @ + + + + + + + + X j   T CXDXvXvXFX)., VXHXz.^ j M CXIXBXu.t.l._ ) ) ) ) ) ( / / ( ( Y U U U I I L U L F s ",
"+ f ( ( ( ( ( ( ( ( ) ) ) ) _ ) _ _ 4.4.3.3._ _ y.z (.UXPXgX  Y Z sXKXyXl pXKXbXDXIXgX  . j + * = = @ @ @ @ = * @ @ @ @ @ @ @ @ = = * = = = = = @ @ @ @ @ * * = = = = * = = = = = = = * * = @ = @ @ % * = * = = * * = = = = * = = = * = = = * 3 * * = % = = = = % % = 3 * * 3 = = = = = * * * = = = * = * = = = = = = = = = = = = = * = = = * = % * = = = * = = * = = * = = = = = = % % % = = = * = * * = = = = = = % % = = @ = * = = * * = * = = = = * = * = = * * = * * = = % = = = = = % % % = @ = * = = = = = = @ % @ @ @ @ * % @ @ @ @ @ @ @ @ @ @ @ @ + @ @ + @ @ @ @ @ @ @ @ + + + + + * + @ + + + + + + + + + + + + + + + @ + + + + + + + + + j   n.CXAXjXcXFXrX8 VXKXT.#.g 8 BXPXBXu.r.c.r.) _ ) ) ) ) ( ( / / Y Y U U U U I H U L s + ",
"w . F _ ) ) ( ( ( ) ) ) _ _ _ _ 4.4.3.3.3.3.3.3.i.s.8 (.LXPXgX  I n sXDX`.l hXDXxXHXPXBX#   s = = * = @ @ @ @ @ = @ @ @ @ @ % @ = @ = @ % = @ @ = @ @ @ @ = = = = = * = = = = @ = @ = * - = % @ = @ % % = = = = * = = = = = = = = = = = = = % % = * = = = = = * = * * * = 3 3 = = * * = = = = = * * * = * = = = = * = = * * * * * * * * * = * % = * * = * * * = = = * * = = = * * = * % = = = = * * * * = = = = = = = = % = * * * * = * = = * = = % * 3 @ @ = = % % % * - = = @ @ = = @ * = = @ = @ = = = = = * % % % % @ @ @ @ @ @ @ @ @ @ @ @ % @ @ % @ @ + @ @ @ @ @ @ @ @ % @ @ @ X + + % 7 + + + + + + + + + @ + + + + @ @ + + @ @ @ @ @ + + * j   (.DXAXjXjXMX).  gXKXc.~ I # hXIXVX<.q.l.i.3.3._ _ ) ) ) ) ) ( ( Y Y U U U U I H U d d g ",
"s 3 + ( 3.) ( ( / ) ) ) ) _ _ 4.4.4.3.3.3.q.r.r.r.i.y., yXKXLXfX  I l uXDX'.8 hXAXxXDXPXZXT   5 6 * = = @ @ @ @ @ @ @ @ @ @ @ @ @ @ @ * % % % @ @ @ = @ @ @ @ = = = = * * = = @ = @ = = = = * = @ = % = = = = = * = * * % % @ @ = = = = = = % % = % = = = = = * = * = * * = = * * * * * * * = * * * * = * = * * * = * * * * * * * * * * * * * * * * * * * 3 * * = * * * = = = = * = = % = * * = * * * * = = = = * = = = = * * * * * * = * * * * = = * * % % % = = % @ 3 * % * @ @ @ = = % % % = * * @ = = = = % = % = * * % @ @ @ @ @ @ @ % @ = @ @ @ @ @ @ @ @ @ @ @ @ @ @ @ @ @ + @ @ + * % X + + + + + + + + + + + + + + + + + + + @ @ @ @ * 7     ).DXAXcXjXbX(.  aXZXg.8 g e nXKXVXu._ s.r._ q.q._ _ ) ) ) ) ( ( ( ( / / U U U I I g 6 F U ",
"d i 7 6 ) ) Y Y ( ) ) ) _ Y _ 4.3.3.3.3.q.( U r.r.r.p.p., yXKXLXaX  U n sXDX'.m hXvXjXDXIXFX(.    3 3 @ % % = @ @ @ = = = = = = = = = = = = = = = = = = = = @ % = = = * * * * * * = * * * - * = * * * * = * * * * * * * * * * * * * * * * * * * * * * * * * * - - - 3 3 3 7 3 - - - 3 - - - 3 3 - w 7 * * * - - * * - * - - - - 3 3 - - - * - - 3 - - 3 - 3 - - - * - - * * * * * * * * - - 3 - 3 - 3 3 - * * * * * * * * * * - 3 * - - - - * * * - - * * * * * * * * * * * * * * - * * * * * * * 3 * * * * * * * * * * * * * * * * * * * = = * * * * * = = @ % @ @ @ @ @ @ % @ @ @ @ @ % @ @ @ + @ @ + + + + + @ @ @ + + + + @ + + + @ % - -     T aXDXvXjXdXAXyX  aXFXY.9 g # sXKXCX#._ l.r._ _ _ ( _ _ ) ) ) ( ( ( ( ( / / U U I I g 7 f F F ",
"p f K 5 6 ( ( ( ( ) ) ) _ ) _ 3.4.3.3.3.3.3.3.r.r.r.r.p.p.8 yXKXLXaX  ) [ nXDXl.l hXcXcXvXvXvXxX_.    3 * * * < 3 3 3 3 - - 3 - * * * 3 3 3 < * * - - - - - 3 3 - - - - - @ * % * * * * * - - - - - 3 3 3 7 3 7 - 7 - - * * * * - - - - - - - - - - - 7 - 7 - - * = @ @ @ @ @ = * - - - * = = = % * * * * * * * - 7 3 3 - - - 3 7 7 7 - - - - - - - - - - - - * * * % * - - - - - * @ @ % % * - - - 3 - - - - - - - 7 7 7 7 7 7 7 - - - @ * - - * @ @ @ @ O O O O = * * * * * * * * - - - - - * * * * @ % % % = * * * * * * % @ @ % % - - < * - - * * * % * 3 3 3 3 - - * * * % - - - - * * * - * - - - 3 3 3 3 3 3 3 3 - - 3 3 3 3 - +       5.uXbXvXjXdX7XbXyX  rXFX_.Q I   sXHXFXz.) l.r._ _ _ _ ) _ _ _ ) ) ) ( ( ( ( ( / Y U U F w s D g r.",
"s.p K d 6 6 Y ( ( ( ) ) 4.4.3.3.4._ _ 3.3.3.r.r.r.r.r.r.p.p.l iXLXLXqX  ) [ nXFXr.n nXvXlX*XkXcXcXuXp.    o                                                                                                               . . O                               . O 2 2 q w a 1 , # O O # , , 2 5 6 2 , , # # $ #       . O O O           . O # # # O . .   O # # 2 $ $ # .       O $ 2 2 2 $ $ O   . . O O . . .                   . # # , # O O # 2 1 < 3 7 6 6 5 O     . o                   . +   O $ $ + O # O O       . # # # O                                                                                                   o s y.OXxXjXdXdX7XdXbXiX  rXDX`.! Y # uXDXDX/./ l.r._ _ _ _ _ _ _ ) _ ) ) ) ) / ) ( ( ( Y Y F 3 d L D ) c.",
"v.w.5 F F 6 s ( ( ( ) ) 4.4.4.3.3.q.3.3.3.3.3.r.r.r.r.r.r.l.l.l yXLXKX`.  _ [ bXDXg.8 sXvXlXjXlXjXjXdX_.OXdXdXsXnXnXnXnXnXxXhXbXhXhXhXhXhXhXhXhXhXhXhXhXhXhXbXCXbXbXbXbXbXbXbXbXCXCXCXCXCXCXCXCXCXCXBXCXBXCXVXVXCXVXZXZXZXZXZXZXZXZXZXZXZXZXZXZXZXZXZXZXZXZXZXGXGXUXUXUXUXGXGXGXGXGXGXGXUXUXUXGXGXGXGXGXUXUXGXUXGXZXZXGXZXZXZXZXZXZXZXGXGXGXUXUXGXGXGXGXGXGXUXGXGXUXGXGXZXZXZXGXUXGXUXUXGXUXGXZXGXZXZXZXZXZXZXZXZXZXZXZXZXZXZXZXZXZXZXZXGXGXGXGXGXGXGXGXGXGXGXZXZXZXZXZXZXZXZXZXZXVXVXZXZXZXZXZXZXZXZXZXZXZXZXZXZXZXZXZXZXZXZXZXZXZXVXVXCXCXCXCXVXZXZXFXZXCXBXBXBXBXBXBXCXCXCXCXCXCXCXbXbXhXhXhXbXbXhXbXhXhXhXnXnXhXhXnXnXnXnXnXnXsXdX+XOX+X+X>X+X+XdXnXbXqX  rXLXyXl ( . sXHXSX_.P v.l._ q.3._ _ _ _ _ _ _ ) _ _ _ ) ) ( ) ( ( F 3 i g K L c.q.",
"L s.L w L I 5 F ) ( ) 4.4.4.4.3.3.3.q.q.3.3.3.q.3.3.3.r.r.i.^.l.8 iXIXHXOX  U ..hXCXl.. Y.sXbXxXjXdXdX>XW._.+XdXdXdX7X7X+X>XdXdX+X+XdXdXdXdXdXdXdXdXdXdXdXdXjXjXxXxXjXjXcXcXjXjXjXlXlXlXcXcXcXcXcXcXcXcXcXvXvXvXvXvXvXvXvXvXAXAXAXAXvXAXAXAXAXAXAXAXAXAXDXDXDXDXDXHXDXDXHXDXDXHXKXKXKXKXKXKXKXLXIXKXKXKXKXLXIXPXIXIXPXPXPXPXPXPXPXPXPXPXPXPXPXPXPXPXPXPXPXPXPXPXPXPXIXIXIXIXIXLXLXLXLXLXIXLXLXIXLXLXIXIXIXIXLXLXLXKXKXKXKXKXKXKXKXKXKXDXDXDXDXDXDXDXDXDXDXDXDXDXDXDXDXDXDXDXDXAXAXAXAXAXAXAXAXAXAXAXAXMXAXAXAXvXvXvXvXvXvXvXvXvXvXvXvXcXcXcXcXcXcXcXcXcXcXcXcXcXlXlXlXlXlXlXxXjXxXcXlXlXjXjXjXjXjXdXdXjXjXdXjXdXdXdXdXdXdXdXdXdXjXdXdX+X_._.+X7XdXxXnXiXy.  ).ZXiX8 ( . uXHXHX/.M l.l.3.q.q.3._ _ _ _ _ 4._ _ _ _ _ _ _ ) ) ) / 3 i H f i p.t.K ",
"I U s.H f U F 6 K ) ) 4.4.4.3.3.3.q.q.3._ 3._ 3.3.3._ q.r.i.p.c.s.l iXKXDXOX  ( [ sXhXp.u , Y.uXnXdXdXdXdXdXnXxXxXxXxXxXxXxXxXxXnXxXxXbXvXbXbXbXbXbXbXbXbXvXAXAXAXSXFXSXAXAXAXAXAXDXDXDXDXDXHXKXDXDXDXDXHXKXHXDXDXDXDXDXDXDXKXKXKXKXKXKXKXKXKXKXKXKXKXKXKXKXLXLXLXLXKXKXLXLXIXLXIXIXIXIXIXIXIXPXPXPXPXIXPXPXPXPXPXPXPXPXPXPXPXPXPXPXPXPXPXPXPXPXPXPXPXPXPXPXPXPXPXPXPXPXIXIXIXIXIXIXIXIXIXPXPXPXIXPXPXPXPXPXPXPXPXPXIXIXIXIXIXIXIXLXLXKXKXLXLXKXKXKXKXHXDXKXKXKXLXLXLXLXIXIXIXKXKXKXLXLXKXKXKXKXIXIXKXKXKXKXKXKXKXKXKXKXKXKXHXDXDXDXDXDXDXDXDXDXAXAXAXAXDXDXDXDXDXAXAXAXAXAXvXvXAXAXAXAXAXAXAXvXcXxXxXcXxXxXxXxXxXxXxXxXxXxXxXxXxXxXxXnXnXnXjXdXdX_.'     rXUXyX. I y uXSXHX_.9 s.p._ 3.q.q.3._ _ _ _ _ _ _ _ _ _ _ _ ) ) ) ) s 6 d D 5 r.r.K Y ",
"Y I _ l.F d L F 3 K 4._ _ 4._ _ 3.q.3.q.3.3.3._ 3._ _ w _ i.r.r.Y.p.8 sXHXSXOX  U ! _.OXOXl.,   , ( z.T.T.!._._.'.'.(.'.'.'._._.(.(.'.`.OX`.`.`.`.'.`.'.`.`.).).).).).).).).).).qXtX).).tXrXrXrXrXrXrXrXrXrXrXrXrXtX5X).).tXrXrXtXtX).).).).).).).).5X).).).).tXrXtXtXtXrXrXrXtX5X).).).).).).).tX5X).).).).).).).5XrXrXrX).).).).).).).tXtX).tX).).).).).).).).).).).).).).n.n.n.(.(.n.).).).).).).).).).`.).).).).).).).).).).).tX).).).tXtXrXtXtX5X).).).5XrXrXtXtXtXtXrXtXtXtXrXrXrXtX5XtXrXrXrXrXrXrXrXrXrXtXtXtXtXrXrXrXrXrXrXrXtXtXtXrXrXrXtXtXrXrXrXrXtX5XtXrXrXrX).).).).rXrXrXrXrX`.`.`.'.'.'._.(./.(.'.`.OXOX`.OXOX`.OXOX_._./.z.#.8     o j.Q.`.(.8 h   uXAXDX`.N p.a.) _ _ 3.3._ _ _ _ _ _ _ _ _ _ _ ) ) ) ) ) d d F d 1 q.i.L U U ",
"Y Y U w.f.f F U g % Y 3._ _ 4.q._ 3.3.3.4.3.3._ _ _ 3.I _ r.r.r.r.c.s.Z nXDXAX_.  g S ~ T.T._.(.Y s < $ 3 6 i 5 # O O , 2 p r t H H L M x M P P U M t t 2 8 r N G N M H ' ~ E J J J c N N B B z l z n ^ ' ! ! ! ^ ^ ` _ _ ` ^ E b l l v J ^ ` ` ` ` 3._ ` _ 6.r.i.6.6.u.j.j.g.#.#.#.t.s.t.r.6.r.t.t.` ! ! _ t.p.p.p.j.j.j.u.` #.i.v.j.i.6.p.x.c.x.j.g.z.c.c.l.p.a.p.d.r.~ N ` d.d.y.w.3.s.f.f.t.6.r.v.n.v.i.#.6.r.r.r.` ` 6.t.t.` ! ` 6.t.6.` ^ #.i.p.r.#.` 6.6.#.` ^ ` _ r.r.r.r.6.#._ ` ` ^ ` ` ` ` ! #.6.r.` ^ ^ ` ` ^ V m n R ^ E v n V E ` #.u.#.#.#.o.W C n l l l l E ! ^ ` V m n n Q ! N x M M J J J J J J J N M x e q 9 , 8 , . + . s _ j.T._._.u.M S j   +XAXDXOXM p.r.) _ 3.3.3.3._ _ _ _ _ _ _ ) ) ) _ ) ) ) ) d w F I q w.s.L U U U ",
"I g ( K w.s.i F K d 3 ) 4.4.) L ) 3.3.3.q.3.3.3._ _ 3.r.3.r.r.r.r.r.Q.s.Z sXDXMX_.  ; w 1 S u.OXuXuX4XOXyXuXsXnXnXnXhXhXgXbXbXCXCXCXFXCXCXCXFXFXDXCXCXFXFXZXZXGXUXUXUXKXKXUXUXUXUXUXUXUXUXKXKXUXUXUXKXIXIXKXKXKXKXIXIXIXIXIXIXIXKXKXKXIXIXIXIXIXIXIXIXIXIXIXIXPXPXIXPXPXPXPXPXPXIXPXPXPXPXPXPXPXPXPXPXIXIXPXPXPXPXPXPXPXPXPXIXIXPXPXPXPXPXPXPXPXPXPXPXPXPXPXPXPXPXPXPXPXIXIXIXPXPXPXPXPXPXPXPXPXPXPXPXPXPXPXPXPXPXPXPXIXIXPXPXPXPXIXIXPXPXPXIXIXPXPXPXPXIXIXIXIXIXIXIXIXIXIXPXPXPXPXPXPXIXIXIXIXIXIXIXIXIXPXPXIXIXIXIXIXIXIXKXIXIXIXIXKXKXKXIXIXIXIXIXIXIXIXKXKXKXUXUXGXZXUXGXUXUXDXZXDXDXDXZXZXZXZXZXZXFXFXCXCXCXCXCXCXCXCXCXCXbXbXbXgXhXhXsX+X+XT.#.G q D ; s +XvXDXyXM s.a.` _ H _ 3._ _ _ _ _ _ _ _ _ _ ) ( ( ) ) ) F 6 F K w w.c.L K U L L ",
"U I Y Y F y.s.5 F U g 6 4.3.Y - g q.3.q.3.3.q.3.3.3._ _ 3.q.q.r.r.r.p.Y.j.z sXAXvX>X_   % 5 ,   r U U ` _ #.u.a.u.i.p.j.l.l.l.v.Y.Y.Y.c.c.Y././.^.c.c.^./.(.(.(.).`.`.).(.(.(.(.(.(.(.).).5X5X).).`.rXrXrXrXrXrXrXrXrXrXrXyXyXyXyXrXrXyXiXiXyXyXyXiXiXiXiXiXiXaXaXaXaXaXaXaXaXaXaXaXaXaXaXaXpXpXpXpXaXaXpXpXpXpXpXpXpXpXpXpXpXpXpXpXpXpXpXpXpXpXpXpXpXpXpXpXpXpXpXpXpXpXaXaXpXpXpXpXpXpXpXpXpXpXpXpXpXpXpXpXpXpXpXpXpXpXpXgXgXgXpXpXpXaXaXaXiXiXaXaXaXiXiXiXiXiXiXyXyXiXiXiXiXiXiXiXiXiXiXiXiXiXiXiXiXiXiXiXiXiXiXiXiXiXiXyXyXyXiXiXrXrXrXrXyXyXrXrXrXyXyXyXrX`.`.`.`.`.(.`.`.`.`.(.(.(.'.'.(.^.^.(.(.(.(././.(.(././././././.Y.c.Y.Y.Y.x.v.6.E v > - 6 7   G >XAXHXuXz f.j._ _ ) U _ _ _ _ _ _ _ _ _ _ _ _ g 7 7 ) _ F 6 F K d ( c.Y L I U U I ",
"I I I I I K p.w.5 K ) d d q.q.y.) r.q.q.q.q.q.q.q.q.3.3.q.q.r.r.i.i.p.p./.s.8 nXAXMXdXh.H *                                                                                                                                                                                                                                                                                                                                                                                                                                                                                                                                                             y U.jXAXKXiX8 s.p._ 6._ r.r._ _ _ _ _ _ _ _ _ 4.3.q.q.) U ) Y s F K i Y s.L K I I I I L ",
"I I I I I I K p.q.6 U / w g ) ) _ _ q.q.r.r.q.q.q.q.3.3.r.r.r._ _ i.i.i.p.x.w.C nXDXvXdX+X!.A.#.6.6.#.` ` u.h.7.u.` 9 ! o.o.! o.o.#.#.#.o.o.o.#.:.o.@.:.:.7.:.@.+.7.7.7.:.o.:.7.6.#.#.#.:.7.7.7.7.7.U.U.U.7.,.7.U.U.U.7.:.7.h.h.7.<.<.7.h.h.7.7.7.7.h.7.#.#.6.h.h.<.h.h.h.k.h.9.9.#.#.#.<.h.h.h.h.h.h.9.9.9.u.u.h.h.h.h.h.h.9.9.9.9.9.9.h.h.k.k.h.9.9.9.9.9.9.9.9.9.9.a.g.g.h.b.b.b.b.b.b.b.h.9.9.9.9.9.9.u.u.b.b.b.b.b.b.b.b.g.b.g.g.b.h.<.#.#.h.U.U.k.h.h.k.k.h.h.h.h.T.T.T.T.T.T.W.W.W.U.W.T.T.T.T.T.T.W.T.W.T.T.T.T.W.W.U.W.W.W.W.U.U.W.W.W.U.U.U.W.W.W.U.h.W.W.W.W.U.U.U.U.U.U.7.A.U.U.U.U.U.U.W.W.U.7.7.U.U.7.#.+.:.h.h.h.#.! #.h.h.6.o.o.h.W.W.U.@XjXDXDXOX8 s.i._ 3._ L ( _ _ _ _ _ _ _ _ _ _ _ 4.3._ _ ( F w L Y d K s.Y K I I I I I L ",
"U I L F I Y Y I l._ 6 H L 3 s _ _ _ 3.q.q.q.q.q.q.r.3.3.q.q.r._ U r.i.t.i.t.c.Q.o./.uXxXbXcXxXjXlXcXcXxXxXjXxXxXdX+X7XjXxXxXjXxXjXjXcXcXcXcXxXcXvXvXvXvXvXAXAXvXvXvXvXvXvXvXvXvXvXvXvXvXvXvXvXAXAXAXAXAXAXAXAXAXAXAXAXAXAXAXAXAXAXAXAXAXAXAXAXAXAXAXAXAXSXSXDXDXDXDXDXDXDXDXHXDXKXKXHXKXKXKXKXKXKXKXKXKXKXKXKXKXKXKXKXKXKXKXKXKXKXHXKXKXKXKXKXKXKXKXKXKXKXKXKXKXKXKXKXKXKXKXKXKXKXKXKXKXKXKXKXKXKXKXKXKXKXKXKXKXKXKXLXLXKXKXKXKXKXKXKXKXKXKXDXDXDXHXDXDXDXDXHXDXHXHXHXHXHXKXKXKXKXKXKXKXDXDXDXDXDXDXDXDXDXDXDXDXDXDXDXDXDXDXDXDXDXDXDXDXDXAXDXDXDXDXDXDXDXDXAXAXAXAXAXAXAXAXAXAXAXAXAXAXAXAXAXAXAXAXAXAXAXvXvXvXvXcXcXcXcXcXcXcXjXjXjXcXvXcXcXcXcXcXjX>XdXnXOX#.M l.p._ 3.3._ D ( _ _ _ _ _ _ _ _ _ _ _ _ _ ) _ Y 5 g L D F s.( L U I U g K I L ",
"I I L K I I Y Y Y s.( p U D 3 f q.3.3.q.q.q.q.3.r.q.3.3.q.q.q.r.r.r.r.r.t.t.r.v.^.f.Y w./.'.OXOX4XdXuXuXuXuXuXiXOX_.OXdXsXsXdXdXdXdXsXsXdXsXdXsXsXnXnXhXhXhXhXnXnXsXnXnXnXnXhXnXnXnXnXnXnXnXhXhXhXhXhXhXgXgXgXgXhXhXhXhXhXgXgXgXgXgXgXgXgXgXgXgXgXgXgXgXgXgXgXgXgXgXBXBXBXBXBXBXBXBXBXBXBXBXBXBXBXBXBXBXBXBXBXBXBXBXBXBXBXBXBXBXBXBXBXBXBXBXBXBXBXBXBXBXBXBXBXBXBXBXBXBXBXBXBXBXBXBXBXBXBXBXBXBXBXBXBXBXBXBXBXBXBXBXBXBXBXBXBXBXBXCXBXBXBXBXBXgXgXgXgXgXgXgXBXBXBXBXBXBXBXBXBXBXBXBXBXBXgXgXgXgXgXgXgXgXgXgXgXgXgXgXgXgXgXgXgXgXgXgXgXgXgXgXgXgXgXgXgXgXgXgXgXgXhXhXhXgXhXhXhXnXnXhXhXhXhXhXhXhXhXnXnXhXnXsXsXsXsXsXsXsXsXsXsXsXuXdXdXsXdXdXdXdXdXdXOXT.g.U ( y.l.i._ 3.3.3.6._ _ _ _ _ _ _ _ _ ) _ _ _ ) ) _ ) F I L g F s.) L I I U U g F I L ",
"I I I I U I Y Y Y / l.H i D g 7 F r.q.r.) 3.6.3.q.q.q.q.q.q.q._ _ q.r.r.r.r.r.3.r.l.l.l.t.4.( ) q.q.4.) ( ) ( ( ( y.p.l.l.g.p.t.r.r.r.i.i.i.p.i.p.g.g.z.k.g.k.g.g.g.g.g.g.g.g.j.j.j.j.g.u.u.u.u.u.h.h.h.h.h.k.k.k.h.k.k.k.k.k.k.k.h.h.h.k.k.k.k.k.k.k.k.k.T.T.T.T.T.h...<.9.9.;.#...o.#.<.h.h.h.h.h.h.h.9.9.h.h.h.9.9.<.<.9.9.9.<.9.h.h.h.h.h.h.h.h.9.9.h.h.h.h.h.9.h.h.h.h.h.h.h.h.h.9.9.9.h.h.9.9.h.h.h.h.h.h.h.h.h.h.h.h.h.h.9.h.h.k.T.T.T.T.T.T.T.T.T.U.U.U.T.T.T.W.T.T.T.T.T.T.T.T.T.U.U.k.U.U.U.T.T.T.T.k.k.k.h.h.h.k.k.k.h.h.h.h.h.h.h.h.h.h.k.h.h.h.h.u.u.#.<.#.#.#.#.<.#.#.#.#.#.#.#.#.#.#.#.#.#.#.r.u.p.i.p.p.p.p.t.i.( ) r.r.y.p.p.y.y.y.r.y.y.s.l.i.3._ 3._ 3._ _ _ ) _ _ _ _ _ _ _ _ _ ( ) _ _ ) d I ) I g l.r.L U I I I U U I L L ",
"I I I I I I I Y Y Y _ l.L d U I 6 ( r.4.F ) r.3.q.q.3.3.q.q.q.q.q.q.r.r.r.r.r.r.r.r.r.t.i.p.p.i.i.i.y.r.r.r.r.p.r.g.s.l.l.l.l.g.j.j.l.l.v.x.x.c.c.c.c.Q.Y.Y.Q.Q.Y.Q.Y.Y.Y.Y.Q.Q.Q.Q.Q.Y.Y.c.c.c.c.c.c.Y.Y.Y.Y.Y.Q.Q.Q.^.^.^.^.^./././.^.^.^.^./.^././././.(.(././.(.c.i.^.Y.c.c.c.c.c.c.c.c.c.n.n.n.n.c.^.^././.^.^.^.c.c.c.n.Y.^.^.^.^.^.^.^.^.^.c.c.c.^.^.n.c.c.c.c.n.c.c.Y.Y.^.n.c.c.c.c.c.c.c.c.c.c.c.c.c.c.c.c.c.c.Y.Y.^.n.p.^.c.c.c.n.^.Q.^.^.Q.^.^.^.^.^.^././.(.(.(.(.(./././.(.(./.(./.(.(.(.(.(.^.^.^.^.^.^.Q.Q.Q.Y.Y.c.Y.Y.Y.Y.Y.Y.Q.Q.^.^.^.Q.Q.c.c.c.c.c.c.v.l.v.v.v.x.c.x.c.x.x.x.v.v.l.l.l.l.l.l.l.l.j.p.s.p.p.p.r.r.i.p.g.g.g.p.p.p.p.i.r.r.q.q.q.4.3._ _ _ _ _ _ _ _ _ _ _ _ _ _ ) 6 g r.q.s F ( U g y.y.L Y I Y I I I I K K K ",
"L I K L L I I I U ( U r.v.F L ) D 6 q.r.q._ r.q.q.q.r.r.q.q.q.q.q.q.r.r.q.q.( ) r.r.r.t.r.r.r.r.q.q.q.r.q.3.3.r._ _ L q.r._ _ _ i.i.i.p.p.p.p.s.s.j.j.j.l.l.l.l.l.l.l.l.l.l.l.l.l.l.l.l.l.l.l.l.j.j.j.j.j.j.j.j.l.l.l.v.v.z.x.x.x.Y.Y.z.v.z.x.c.c.x.c.Y.Y.Y.c.z.z.g.J H ( ) ) / / / / / / / ) ) ) ) ) ) _ _ q.3._ _ _ ) ( ) ) ) ) _ _ _ _ _ ) ( ( ( ( ) ) ) / / / / Y Y / / ) _ _ ) / / ) _ _ _ 3.3._ _ _ r.r._ U I H U / U / ) ) c.c.x.x.c.i.a.c.c.c.x.v.x.x.x.x.Y.Y.Y.Y.c.c.Y.c.c.c.Y.Y.Y.Y.c.Y.Y.Y.Q.c.x.v.x.x.x.v.x.l.z.l.l.l.l.l.l.l.z.l.p.z.v.v.v.v.v.l.l.l.l.l.j.p.p.p.p.p.j.j.g.s.p.p.j.g.g.p.p.p.p.p.p.p._ ( r.) _ r.i.r.#.r.y.i.i.r.r.r.r.r.r.r.r.q.4.) ( _ _ _ _ _ _ _ ) _ ) ) ) ) _ _ _ ) Y 0.I d ) / F r.r.L Y Y Y U I I I I K K K ",
"K K K K L L I I U Y ( U w.l.U F D s _ r.a.r.q.q.q.q.r.q.q.q.q.q.q.q.q.q.q.q._ _ q.q.q.r.w.r.r.r.q.q._ U 4.q.3.r.3.3.) r.r.r.r.r.y.p.p.p.p.p.p.s.s.s.s.j.l.l.l.l.l.l.l.l.l.v.v.l.l.l.l.l.l.l.l.j.j.j.j.l.j.j.l.l.l.l.l.v.v.v.v.v.x.l.l.v.v.x.x.x.x.x.x.p.l.Y.c.c.c.H r.qXyXyXyXyXyXyXyXuXuXuXuXuXuXuXuXuXuXuXuXuXuXuXuXuXuXuXiXiXiXiXiXiXuXuXuXuXuXuXuXuXuXuXuXuXuXuXuXuXuXuXuXuXuXuXuXuXiXiXiXuXiXuXuXuXyXyXyXuXyXyXyXyXyXyXyXuX`.H c.c.c.c.l._ l.c.c.c.c.l.l.x.x.c.c.c.c.c.c.c.c.x.c.c.c.c.c.c.Y.c.c.c.c.c.x.x.x.x.x.v.l.l.l.l.l.l.l.l.l.l.l.s.v.l.l.c.x.x.v.l.l.v.l.l.g.p.p.i.p.p.p.p.s.s.p.j.g.p.p.p.p.p.p.p.p.r.r.i.3.r.r.i.3.( _ p.p.i.q.r.r.r.r.r.r.r.3.4.) ( _ _ _ _ _ _ ) _ _ ) ) ) ) _ _ _ r.r._ D s I L t.p.I Y Y Y U U U I I K K K K ",
"K K K L L L I I I Y Y ( U p.s.d I d ( r._ q.q.q.q.q.q.q.q.q.3.3.3.3._ _ 3.q.r.q.q.q.q.q.q.r.r.q.q.r.( 6 ( q._ r.3.r.r.t.i.i.i.i.y.i.i.p.p.p.p.p.p.p.p.p.p.p.p.j.j.l.l.s.p.l.l.l.l.j.l.l.l.l.l.j.s.p.s.j.s.j.j.j.j.l.l.l.v.l.l.l.l.( r.r.l.x.l.v.x.x.p._ l.c.x.c.r._ /.x.Y.Y.Y.Q././.Q././._._._././._._._././././././.Q././._._._._._._._._._._._._._._._._._._._._._._._._._._./._._._._._._._.'.'._._._._./././././._./././.Y.(.l._ Y.c.c.Y.x.i.c.c.c.c._ t.x.x.c.c.c.c.c.c.x.l.j.p.l.c.x.x.x.x.c.c.c.c.l.y.l.x.v.l.l.l.l.l.j.j.j.j.j.l.l.l.v.x.c.v.x.l.t.j.l.l.r.q.p.p.p.i.i.p.g.p.p.s.s.s.p.p.p.i.i.i.t.t.t.t.i.i.i.i.i.i.i.r.i.i.i.i.s.i.r.r.r.r.r.r.q.q.q.q.q._ _ _ _ _ _ _ _ _ _ _ ) ) _ ) _ ) ) ) g d d ) s.U Y Y Y Y U U U I L I K K K ",
"K K f s L L L I I I Y ( ( ) q.g F s Y q.q.q.q.q.q.q.3.3.3.3.3.4.3._ _ _ 3.3.3.3.3.3.q.q.q.q.q.q.q.3.t.3.) _ _ t._ r.r.r.t.r.r.t.t.i.i.i.p.p.p.p.p.p.p.p.p.p.j.l.j.j.l.l.p.j.j.l.l.p.p.j.j.j.j.p.i.p.s.p.p.p.p.j.s.j.j.l.z.v.l.l.l.l.c.l.l.v.l.v.v.v.z.c.l.z.c.l.( /.z.l.x.v.c.Y.Y.Y.Y.Y.Y.Q.Q.Q.Y.Q.Q.Q.Q.Q.Y.Y.Y.Y.Y.Y.Y.Y.Q.Q.Q.Q.Q.Q.Q./.Q.Q././././.Q.Q././././././././.Q.Q.Q./././././._.'.'.`.`.`.`.`.^.Y.Q.^./.Q./.Q.Q.Q.Y.'.y.i.Y.c.z.l.l.x.x.x.c.l.l.l.l.l.x.x.x.x.v.v.l.l.l.l.v.v.x.x.v.x.x.x.x.x./ i.l.l.l.l.l.l.j.j.j.j.j.g.s.j.l.l.v.x.c.l.l.y.p.p.j.r.r.p.i.p.p.p.p.p.p.p.p.s.p.p.p.p.i.i.i.r.r.r.r.r.r.r.r.r.r.a._ r.r.p.s.p.r.r.r.r.r.r.q.q.q.q.3.3._ _ _ _ _ _ ) _ _ ) _ ) ) ) ) ) ) ) _ g f d Y ) I Y Y ( Y Y U I I I g K K K ",
"K K g f K K L I I I U U U ) r.D K s I q.q.q.r.r.r.r.q.q.q.q.q.q.q.q.q.q.q._ 4.3.q.q.q.q.q.q.r.q.q._ _ _ _ 3.3.p.3.r.r.t.t.t.i.i.i.i.i.p.p.p.p.p.p.p.p.p.p.p.p.g.p.p.j.j.p.p.p.j.l.j.p.p.p.p.p.p.i.p.p.p.p.p.p.p.p.j.l.l.l.l.l.l.j.j.g.l.l.l.l.l.l.z.l.z.v.v.v./ c.^.v.c.v.v.l.Y.Y.Y.Y.c.Y.Y.Y.c.c.Y.Y.Y.Y.Y.c.c.c.c.c.x.c.Y.Y.Y.Y.c.Y.T.Y.Y.Y.Y.Y.Y.c.c.c.c.Y.Y.Y.Y.Y.Y.Y.Y.Y.Y.Y.Y.Y.Y.Y.c.c.Y.Y.Y.x.x.v.z.Y.Y.Y.Q.^./././.Q.Q.Y.Q.'._ l.c.l.l.l.l.l.v.x.x.l.l.l.l.l.l.l.z.l.z.z.l.l.l.l.l.l.l.l.l.l.l.v.v.l.l.l.l.l.l.l.l.j.j.j.j.j.j.j.l.l.l.x.c.c.c.Y.v.l.l.x.v.j.j.p.p.p.g.p.g.j.j.j.j.j.p.p.p.p.i.i.i.r.r.t.t.r.t.r.a.a.a._ r.t.i.p.i.r.r.y.i.t.r.r.r.w.r.q.q.q.q.q.q.3.4.4.3.4.q.q.4._ _ _ 4.4.4.) s D f / _ I Y Y ( ( Y I I I U g F K K ",
"L L L L K K K I I K I I I ( r.F K s . - 3 6 3 3 3 6 6 1 4 > 1 1 > > $ $ . % 6 5 s s s s s s s s i 6 6 6 w d F Y I 3.4.4._ _ 3.3.r.r.r.r.r.r.r.r.r.r.t.i.i.i.p.p.p.p.p.p.p.j.l.v.x.l.l.l.l.s.s.s.s.j.s.j.j.l.l.l.l.l.l.v.v.v.l.l.l.l.l.l.l.v.x.x.x.x.x.x.c.Y.3.y.Y.z.c.c.v.v.v.Y.Y.c.x.x.c.c.c.c.Y.Y.Y.Y.Y.Y.Y.c.x.x.x.x.x.x.Y.Y.Y.Y.Y.Y.Y.Y.c.c.c.c.c.x.x.x.c.Y.Y.Y.Y.Y.Y.Y.Y.Y.Y.Y.Y.Y.Y.Y.Y.Y.Y.Y.Y.Y.Y.Y.Y.Y.Y.Y.Q.Y.Y.Q.Q.Q.Q.Y.(.'./ l.x.l.l.l.x.x.c.x.x.v.x.x.x.x.x.x.x.x.x.v.z.l.x.x.x.x.v.v.v.v.v.l.l.l.l.l.p.p.i.a.r.r.r.r.r.6.6.r.r.r.r.r.a.r.r._ _ ) _ D F r._ 6.3._ _ _ _ 6._ _ _ _ _ _ _ _ ( ( ) _ _ _ _ _ _ _ _ _ I d D f d d g g g g d d h h h h h h s 6 $ % % % 3 3 3 - + % - O & . % .   @ L g ( _ K I I / ( Y Y I I U I L K F ",
"K L K K K L K I s - I L I / r.K I w s I U 6 w.w.w.( Y p.p.f.f.f.f.p.y.r.p.g   3 *   @ % % + + - % - % + O + O O > q.) I I F F F I I I I I I F g d d s d s w w i s i w w d F D L I F D F F D D F L U U / Y ( ) ) ) ( ) 3.r.3.3._ _ 3.3.3.3.6.r.r.r.r.r.r.j.i._ x.l.v.c.c.c.v.z.Y.x.x.x.x.x.x.c.c.x.c.c.Y.Y.c.c.c.c.x.x.c.c.c.c.Y.Y.Y.Y.Y.c.Y.x.z.x.z.z.x.x.x.x.c.c.Y.Y.Y.Y.Y.Y.Y.Y.Y.Y.c.Y.Y.Y.Y.Y.Y.Y.Y.Y.Y.Y.Y.Y.Y.Y.Y.Y.Y.Y.Q.Q./.Y.'.n.D r.w.q.3.q.r.r.q.3._ 3.r.3.3._ ) _ _ _ ) ( ) _ _ 3._ _ _ _ _ 3.) 3.r.r.r.y.y.y.y.y.y.s.s.s.p.p.l.l.v.v.l.c.n.c.f K I T y.w.q.) ) w.w.w.w.q.q.q.q.q.q.w.r.w.w.q.) 0.q.w.w.0.) w.w.y.w.g   3 w 3 3 % + 6 6 5 - 3 3 5 i +     s v.s.p.t.r.y.y.p.p.y.) y.y.f.q.f.y.F L D ( ) F I U g L Y U U I I L L L F ",
"K K K K K L L I L Y w.F L ( i.K F 6 U ) ( L 3.r.r._ r.p.j.l.j.l.l.p.i.i.p.r.D F F D D D F F F K F K K L L F D D _ ^.Q.c.Y.Y./././././._._././././._.'.'.(.(.(.(.(.(.(.(./.(.^.s.l.s.s.s.s.s.f.s.s.s.s.s.s.s.f.f.d.f.f.v.f.f.s.f.f.f.f.f.f.l.l.l.f.f.v.v.v.l.l.j.l.x.x.v.v.v.z.z.v.z.z.z.v.v.v.x.c.c.c.Y.x.v.v.x.c.x.x.v.z.z.z.x.x.c.x.z.z.z.z.z.v.z.v.v.v.x.v.x.z.c.c.Y.Y.Y.Y.Y.Y.c.c.x.x.c.c.c.Y.c.Y.Y.Y.Y.Y.Y.Y.Y.Y.Y.Y.Y.Y.Y.Q.c.Q.Y.(.c.p.s.s.s.f.l.v.l.l.v.v.v.v.v.f.f.f.s.f.f.s.s.s.f.f.f.f.f.s.s.f.y.t.p.r.'.'.`.`.`.`.`.`.`.`.`.`.`.`.`.`.OXOXOXqX'.`.OXOXyXyXOXOX`.`.OXOXOXOXOXOXOXOXOXOXOXOXOXOXOX`.`.OXOX`.`.`.'.`.'.'._ / / F D D D L L L F F L L I g 6 5 w.c.l.p.p.i.i.p.p.i.r.w.y.y.s.w.p.p.U D g ( ) L U U U / U U U I I I L L K ",
"K K K K K L L I U U U I f ( r.d I d D F D F D g I F Y / ) ) ) ) ( ( ( ( ( _ t.p.s.s.s.p.s.s.l.s.p.p.s.l.v.l.x.v.p._ _ _ ( _ 6.r.r.r.r.r.r.u.a.a.u.u.i.i.i.p.p.g.g.g.j.j.j.j.l.c.Y.Y.Y.Y.Q.Q.Q.Q.Y.Y.Y.Q.Q.Q.^.^./.(.^.^.^.^.^.^.^./././.(.(././././.(./.^./.l.l.l.x.z.v.v.v.v.z.b.l.g.g.b.l.l.v.v.v.z.v.v.x.x.x.v.v.v.z.z.v.v.v.v.z.v.v.z.z.v.v.v.z.z.v.v.z.v.z.l.v.c.c.Y.Y.c.c.c.c.c.x.v.z.c.x.x.x.x.Y.Y.Y.c.Y.Y.Y.Y.Y.Y.Y.c.c.Y.l.x.Y.c./././.(.(.(.(.(.(._._._._._.(.(.(./././.(.(.(.(.(.(.(.(.(.(.(./.^.Y./.l.g.p.p.p.p.p.p.i.i.p.p.i.r.r.6.S U ~ H ~ #.r.r.i.r.r.a.i.i.r.r.6.r.r.r.6.6.6.6.6.6.3.6.6.r.6._ _ 6.3.#.) / L / _ r.r.p.l.s.s.p.p.s.s.f.l.l.s.p.p.p.s.y.) ) ) ( ( Y I I L I g F F L ( ) _ D F d ) _ I g L U U U U U U I L L L K ",
"K K K K K K L I I I U I g / r.s g w F K g d U F I I ( ) ) 4.) 4.4.) 4.4.4.) ) _ w.w.q.q.w.w.t.w.4.q.q.r.r.r.r.r.3.q.q.q.U ) r.r.r.r.r.t.t.i.t.r.t.t.r.r.r.r.r.r.r.r.r.r.r.r.r.r.3.6.4.3.w.w.r.r.r.r.r.t.t.t.r.r.r.r._ / ` 6.t.i.i.i.i.i.i.a.u.p.p.p.p.p.p.p.l.l.v.z.c.c.c.v.v.l.b.b.l.l.l.l.l.p.#.r.j.v.v.v.x.v.v.v.v.v.z.v.v.v.z.v.v.v.z.z.l.l.l.l.l.z.z.z.z.v.z.z.v.v.Y.Y.c.c.x.v.x.v.v.v.c.v.v.v.v.z.x.Y.z.c.Y.Y.Y.Y.Y.Y.Y.c.Y.Y.c.c.c.l.j.j.p.p.p.p.p.p.p.p.i.i.t.t.y.p.t.t.t.t.t.t.r.r.r.t.i.r.r.r.r.r.i.i.p.j.l.l.l.l.l.p.p.l.l.l.l.j.j.j.r.a.p.Y I w.) r.l.s.s.s.l.l.p.p.p.p.p.p.p.p.p.p.p.p.p.p.p.p.p.y.t.y.i.p.q.r.r.q.3._ q.p.i.y.p.y.t.y.y.p.s.p.y.y.y.y.y.q.w.w.q.4.4.U K Y ( Y I I I ( ( F _ f 5 s ) _ L h I I U U U U U L L L L K ",
"K K K K K K K I I I U U U / a.Y L 5 D f g g / U K ) _ _ ) q.3.q.4.4.4.4.4.4._ F F K K I I I U I I I I L I I I _ q.q.3.3._ 3.r.r.r.r.r.r.r.r.r.t.4.r.r.r.r.r.r.r.r.r.r.t.t.r.t.t.t.t.t.i.p.i.p.p.p.p.p.p.p.p.p.j.p.p.j.t.( r.s.l.l.l.l.l.4.^.Y.l.p.l.j.l.l.l.l.l.l.z.v.v.v.v.l.l.l.l.v.z.l.l.i._ l.Y.v.v.x.v.v.x.c.x.c.x.x.c.c.c.c.z.c.c.z.z.v.l.z.z.v.v.z.z.z.c.z.Y.c.v.c.v.c.c.x.x.x.x.x.c.c.c.x.x.c.c.c.Y.c.c.v.x.c.x.c.c.x.c.c.c.c.c.x.v.l.l.l.l.l.l.l.l.l.v.l.l.l.l.l.l.l.l.l.l.j.s.s.p.s.s.j.s.s.j.s.s.j.j.j.j.s.s.j.j.l.j.p.j.j.j.j.g.p.p.g.g.g.i.p.l.l.j.p.p.p.p.j.p.p.p.i.p.p.i.p.i.i.i.i.i.i.i.i.i.i.i.i.r.r.i.y._ 3.3.q.q.q.4.D D I I I L I Y ( ( ( Y ( ( ) 4.q.q.4._ _ ) ) ( g I ( Y Y ( ( F ) F D D ( _ U U U U U U U I U L L L K K ",
"K K K K K K K I U L U U U / i.L I 5 D F I K U L U _ 3.q.) 3._ 3.q.q.3.q.3.3.q.q./ Y U I Y ( ( ) ( ) ( ( ( ( 4.r.3.3._ 3._ U _ r.r.r.r.r.r.r.r.w.h I r.r.r.r.r.r.r.r.r.r.r.r.r.r.t.i.i.i.i.i.i.p.p.p.p.p.p.p.j.j.s.j.l.l.l.l.s.s.s.p.l.j.j.v.l.p.i.l.l.v.v.l.l.j.g.l.g.g.v.v.l.l.l.z.z.v.z.p.t i.Y.Q.x.c.c.c.Y.z.c.c.c.c.c.c.Y.Y.Y.Y.l.( g.z.v.v.v.v.v.z.x.x.x.x.z.Y.Y.c.l._ r.x.c.x.c.x.c.c.x.c.x.x.c.x.Y.Y.Y.c._ 3.v.z.x.x.x.x.c.c.c.x.x.l.l.l.l.l.l.l.l.l.l.t.r.l.l.s.s.j.j.l.p.j.s.p.p.s.p.p.s.s.p.j.j.s.p.g.j.j.j.g.g.g.r.g.l.j.j.j.j.g.p.p.p.p.g.j.j.g.p.p.p.p.s.s.p.p.p.p.i.p.i.i.p.i.i.i.i.i.i.i.i.i.i.i.i.i.t.i._ U r.3.3.r.r.r.q.( U / U U Y Y Y ( ( ( ( ) q._ _ q._ _ _ _ _ ) K Y ) ( Y ( / _ v.) U g ( ) L U / U / U I I I L L K K K ",
"K K K K K K L I L U U U U / a.g 5 5 F I I K / ( _ _ 3.3.3.3.U ( q.3.3.q.3._ _ _ r.p.g.g.l.l.l.v.v.x.l.l.l.i.r.r.q.q.q.r.r._ 3.q.q.q.r.r.r.r.r.r.q.r.r.r.r.r.r.r.r.r.r.r.r.r.r.r.t.i.i.p.i.r.i.i.p.p.p.s.p.p.p.p.p.s.l.l.v.Y.c.Y.Y.Q.Q.Y./././././././.Y.v.l.l.p.p.l.v.v.v.v.l.l.l.z.v.v.z.l.r.g.Y.Y.Y.c.x.c.Y.c.c.c.c.c.c.Y.Y.Y.Y.Y.Y.i.a.z.z.z.v.v.v.z.z.x.z.z.x.Y.Y.Y.^.^.v.x.c.c.c.c.Y.c.c.Y.Y.Y.Y.Y.Y.Y.Y.Y.Y.z.z.c.v.x.x.x.c.c.c.x.x.v.z.z.l.l.l.l.l.v.l.i.p.l.l.l.l.l.l.l.l.l.l.j.j.j.j.j.p.p.p.g.g.j.g.g.j.j.g.g.j.j.g.g.l.j.j.j.j.p.p.p.p.j.g.g.g.p.g.p.p.p.p.p.p.p.p.p.i.i.i.i.p.i.i.i.i.i.i.i.i.i.i.i.i.t.t.i.i.a.i.r.r.t.r.r.l.p.p.l.g.g.g.g.l.l.l.l.l.r._ _ _ 4.4._ _ _ _ _ _ ) ) ) / ( / q.l.I D g ( ) L U / U U U I I I K K K K K ",
"K K K K K K L L I I I I I / 3.g F 6 F h h U ) ( _ _ _ _ _ _ q.3._ _ 3.4._ _ _ 3._ 3.r.r.r.r.r.r.r.r.r.r.r.q.q.q.q.q.q.q.q.q.q.3.3.3.3.r.q.r.r.r.r.6.r.r.r.r.r.r.r.r.r.r.r.r.r.r.r.r.t.i.i.i.i.i.p.p.p.p.p.p.p.p.p.s.j.j.l.v.v.v.x.v.v.v.z.z.x.z.z.z.z.v.l.z.l.l.l.z.v.z.l.j.j.j.l.l.l.l.l.z.v.x.z.v.v.v.v.v.v.x.x.x.v.x.v.x.v.x.x.v.c.Q.z.l.v.z.l.l.l.v.v.v.v.v.v.c.c.x.x.Y.x.x.x.x.x.x.x.x.x.x.v.x.x.x.x.x.c.c.Y.x.v.x.x.x.v.c.c.c.c.x.x.v.z.z.l.l.l.l.l.l.z.x.l.j.l.l.l.l.l.l.l.l.j.g.p.p.p.p.p.p.g.p.p.s.p.g.g.j.g.g.j.j.g.g.j.g.s.p.p.p.p.p.p.p.p.p.g.g.g.p.p.p.p.p.i.i.i.i.i.i.i.i.p.i.y.y.t.t.t.i.i.i.i.y.t.t.t.t.t.r.r.r.r.r.r.r.6.6.r.r.r.r.r.r.r.r.r.r.3.3._ _ _ 4.4._ _ _ _ ) ( ) ) ) / ( ) s f d g g / ) U / / Y U I U I L K K K K K ",
"K K K K L L L I I I U I L Y _ g F w D I I U _ / _ ) _ _ _ _ _ _ _ _ _ _ _ _ _ _ _ _ _ 3.q.q.q.q._ 4.q.3.q.q.q.q.q.q.q.q.q.q.q.3.3.3.3.3.q.q.3.3.3.3.r.r.r.r.r.r.r.r.r.r.r.r.r.r.r.r.t.t.i.i.y.i.p.p.p.p.p.p.p.p.s.p.s.l.j.j.j.s.s.j.j.j.j.j.j.j.j.j.j.j.j.j.j.j.j.l.l.l.l.j.l.l.l.l.l.z.l.z.l.l.l.l.l.l.l.v.x.v.x.v.l.x.v.x.x.x.x.x.v.l.l.v.v.v.v.v.l.v.x.x.x.x.x.x.x.c.x.v.v.x.x.c.c.x.x.x.x.x.x.x.x.x.c.x.x.x.v.v.v.v.v.x.v.v.v.x.v.v.x.v.z.z.l.l.l.l.l.l.l.l.l.l.l.l.j.j.l.j.l.j.p.j.p.p.g.p.g.p.p.s.p.p.p.g.j.s.p.p.j.g.p.l.j.j.s.p.p.p.p.p.p.p.p.p.p.p.p.p.p.p.i.p.p.i.y.y.i.i.i.i.i.t.t.t.i.i.t.t.t.i.t.t.t.r.r.t.r.r.r.r.r.r.r.r.r.r.3._ 3.q.q.q.q.w.q.q.3.3._ _ _ _ _ _ _ _ _ ) ( ) ) ( Y ) _ _ ) d D g / ) U / / U U I I L L K K K K K ",
"K K K K L L L L I U U L L U 3.g F w g I I U _ / ) ) ) ) ) _ ) _ _ _ _ _ _ _ _ _ _ _ _ 3.3.q.3.q._ _ 3.q.q.3.q.q.q.q.q.q.q.q.q.3.q.3._ _ 3.3.3.3.3.3.q.3.r.r.r.r.r.r.r.t.r.r.r.r.r.r.r.r.t.r.t.i.p.p.p.p.p.p.p.p.p.s.s.s.j.j.j.j.j.j.j.j.j.j.l.l.j.j.j.j.j.j.j.j.j.j.l.l.j.j.j.l.l.l.l.l.l.l.l.l.l.l.l.v.l.l.v.v.v.v.v.v.v.v.x.x.v.v.v.l.l.v.l.v.l.l.v.v.v.x.v.x.x.x.x.x.x.x.x.x.x.x.x.x.x.x.x.x.z.x.x.x.c.x.x.x.v.v.v.v.v.v.v.v.v.v.v.v.v.v.l.z.l.l.l.l.l.l.l.l.l.l.l.l.l.j.l.j.j.j.g.j.g.p.s.j.g.p.s.s.p.g.p.p.j.p.p.p.p.j.l.j.j.j.p.p.p.g.g.p.p.p.p.p.p.p.p.p.p.p.i.i.i.i.i.y.i.i.i.i.i.t.t.t.i.t.t.t.r.t.t.t.r.r.r.r.t.t.r.r.r.r.r.r.q.q.q.0.3.q.3.q.r.q.q.3.4.3._ _ _ _ _ _ _ _ _ _ ) ) ) ( Y ) _ _ ) d g g ( ) U Y U U U I I K K K F K K F ",
"K K K K L L I I I I I I L U _ K L s D U I U _ / ) ) ) _ ) ) ) ) ) _ 4._ _ _ _ _ _ _ _ _ _ 3.3.q._ _ _ q.q.3.3.3.q.q.q.q.q.q.q.q.q.q.3.3.3.3.3.3.3.3.3.3.3._ 3.q.r.r.r.r.t.r.r.r.r.r.r.r.r.r.t.i.i.p.p.p.p.p.p.p.p.p.p.p.s.s.s.j.j.j.j.j.j.j.j.g.g.j.j.g.j.g.j.j.j.j.j.g.j.j.j.l.l.l.l.l.l.l.l.l.l.l.l.v.l.l.v.v.v.v.v.v.l.x.x.x.v.v.l.l.z.z.l.z.l.v.l.l.v.v.v.v.v.x.x.x.x.x.x.x.x.c.x.x.x.x.x.v.x.v.v.v.v.c.x.x.x.x.x.v.v.v.z.z.v.v.v.l.v.l.l.v.l.l.l.l.l.l.l.l.l.l.l.l.l.l.l.l.j.j.j.j.j.g.g.j.j.l.j.j.g.j.j.s.g.g.p.p.p.j.j.j.j.p.p.j.s.s.p.p.p.p.p.p.p.p.p.p.p.p.i.i.i.i.i.i.i.i.i.i.y.t.t.i.t.t.t.t.r.r.t.t.r.r.r.r.r.r.r.r.r.r.r.q.q.q.q.q.3.q.q.q.r.q.3.3.3._ _ _ _ _ _ _ ) ) ) ) _ ) ) ( Y ) ) _ ) g F F ) ) I U U U U I I K K K K K F F ",
"K K K K K I I I I I I I L U _ K L i D U I I 0.) _ ) ) ) ) ) ) ) ) ) _ _ _ _ _ _ _ _ _ _ _ 3.3._ _ _ 3.3.q.q.3.3.3.q.q.q.q.q.q.q.q.q.3.3.3.3.4.4.4.3.3.3._ _ _ 3.r.r.r.r.r.r.r.r.r.r.r.r.r.t.t.i.i.i.i.p.p.p.p.p.p.s.p.p.p.p.p.g.p.g.g.g.j.j.j.j.p.g.g.g.g.g.j.j.j.j.g.j.j.j.j.l.l.l.l.j.l.l.l.l.l.l.z.v.z.z.z.l.z.v.l.v.l.x.x.x.x.v.l.l.z.z.l.l.l.l.l.v.l.v.v.v.v.v.v.x.x.x.x.x.c.c.x.x.v.v.v.v.v.v.v.v.v.c.z.z.v.v.x.v.v.z.z.z.l.l.l.l.l.z.l.z.v.v.l.l.l.l.l.l.l.l.l.l.l.l.l.l.l.j.j.s.j.j.j.j.j.j.l.l.l.j.j.j.j.j.p.p.p.g.j.g.p.p.p.g.s.s.p.p.p.p.p.p.p.p.p.p.i.i.i.i.i.i.i.i.i.i.i.i.t.t.t.i.t.t.t.r.r.t.r.r.r.r.r.r.r.r.r.r.r.r.r.q.q.q.q.q.q.3.q.q.3.q.3.3._ _ 4.4._ _ _ ) ) ) ) ) ) ) ( ( Y ) ( ) ) g K F ( ) I U U U U I I K K K K F F F ",
"K K K K I I I I I I L L L Y 3.K L s D U I U r.) ) ) ) ) ) ) L d ( ) _ _ _ _ _ _ _ _ _ _ _ _ _ _ _ _ 4.4.3.3.3.3.3.q.q.3.3.q.q.q.q.3.3.3.3.3.4.3.q.r.r.q.3._ 3.q.r.r.r.r.r.r.r.r.r.r.r.r.r.U 3.i.i.i.i.p.p.p.p.p.p.p.p.p.p.p.p.p.p.p.p.g.j.j.j.s.s.p.g.p.j.s.s.j.j.g.j.j.j.j.j.j.l.b.j.j.l.l.l.l.l.l.l.l.l.l.z.l.l.l.l.l.l.v.x.x.v.l.l.l.z.z.l.l.l.l.l.l.l.l.z.v.v.v.v.v.v.c.c.c.x.x.x.x.v.v.x.z.v.v.v.v.v.v.x.v.v.v.v.v.v.z.l.l.l.l.l.l.l.l.l.l.l.l.l.l.l.l.l.j.l.l.l.l.l.l.l.l.l.l.j.s.j.j.j.j.s.s.s.s.l.l.j.g.g.g.p.s.p.j.s.s.p.p.s.g.p.p.p.p.p.p.p.p.p.p.p.p.i.i.i.i.i.i.i.t.i.i.i.i.t.t.t.i.t.t.t.r.r.r.r.r.r.r.r.r.r.r.r.r.r.r.r.r.r.r.r.r.q.q.q.3.3.3.3._ _ _ Y D ) _ _ ) ) ) ) ( ) ( ( ( Y ) ) ) _ D F F ( ) I U I I U I I K K K K F F F ",
"K K K K L I I I I L I I I Y q.K L i g U L U _ ( ) ) ) ) ) ) Y K ( ) _ _ _ _ _ _ _ _ _ _ 4._ _ _ _ 4.4.4._ 3.3.3.3.3.q.q.3.q.q.q.q.3.3.3.3.3.4.I d g g d d d d h F q.r.r.r.r.r.r.r.r.r.r.r.) q.r.r.i.i.i.p.p.p.p.p.p.p.p.p.p.p.p.p.p.s.p.j.p.p.g.g.j.j.p.s.s.j.j.j.g.j.j.j.j.g.j.j.g.j.j.j.l.l.l.l.l.z.l.l.l.l.l.l.l.l.l.l.l.l.l.l.l.l.l.z.z.l.l.z.z.l.l.l.l.l.l.z.z.v.v.v.x.x.x.x.z.x.x.x.x.x.v.v.v.z.x.v.v.v.v.v.v.v.v.z.l.l.l.l.l.l.l.l.l.l.l.l.l.l.l.l.l.l.l.l.j.j.j.l.l.l.l.l.l.j.j.j.j.j.j.j.g.g.j.l.l.g.p.p.p.p.p.p.p.p.s.p.p.p.p.p.p.p.p.p.p.p.p.p.p.p.i.i.i.i.i.i.i.t.t.y.y.i.i.t.t.t.t.t.t.r.r.r.r.r.r.r.r.r.r.r.r.q.r.r.r.q.q.q.q.3.q.q.3.3.3.3.4.4._ _ _ ( I ) _ ) _ ) ) ) ) ) ( ( ( Y / ) ) ) g F F ( ) I U I U U I I K K K K K F F ",
"K K K L L I I I L L I I I ( r.K K s g I L U _ ( ) ) ) ) ) ( ) ) / ) ) ) ) _ ) _ _ _ _ _ _ _ _ _ _ 4._ 3.3.3.3.4.q.q.q.q.3.q.q.q.q.3.3.3.3.3.q.j o 7 - 3 7 7 7 = + _ r.r.r.r.r.r.r.r.r.r.t.i.r.r.t.i.i.i.i.p.p.p.p.p.p.p.p.p.p.p.p.s.s.p.p.p.p.p.p.s.s.s.s.p.g.j.j.j.p.g.g.g.j.j.j.g.j.j.j.j.l.l.l.l.l.l.l.l.l.l.l.j.l.z.l.l.l.l.l.l.l.l.l.l.l.j.l.l.l.l.l.l.l.l.l.z.l.v.v.v.x.x.x.x.z.v.v.z.z.v.z.z.z.v.v.z.z.v.v.v.v.v.v.l.l.l.l.l.l.l.l.l.l.l.l.l.l.l.l.l.l.l.l.l.j.j.j.j.j.j.j.l.l.j.p.s.p.p.p.p.l.l.l.l.l.p.p.p.p.p.p.p.p.p.p.p.p.p.p.p.p.p.p.p.p.p.p.i.i.i.i.i.i.i.t.i.t.t.t.t.t.y.t.t.t.t.t.r.r.r.r.r.r.r.r.r.r.r.r.r.r.r.q.q.q.q.q.q.q.q.3._ _ _ _ _ _ _ _ _ _ q._ _ _ ) ) ) ) ( ( ( ( ( U ) ) ) ) g F D Y ) U U U U L L K K L K K F F F ",
"F F K K L I I I L L L I L ( r.K K s g L L I q./ ) ) ) ) ( ( Y Y / ( ) ) ) ) ) ) _ _ _ _ _ _ _ _ _ _ _ _ 3.4.4.4.q.q.q.3.3.q.q.q.3.3.3.3.3._ r.r.a.g.g.g.g.j.j.g.t.r.r.r.r.r.r.r.r.r.r.r.r.r.r.r.t.r.y.i.i.i.i.p.p.p.p.p.p.p.p.p.s.p.s.p.p.p.p.p.p.p.p.p.p.s.p.g.j.s.s.g.g.g.g.j.j.g.g.j.j.l.j.l.l.l.l.z.l.l.l.l.l.j.l.l.l.z.l.l.l.l.l.l.l.l.l.l.l.l.l.l.l.l.l.l.l.l.l.v.v.v.v.v.z.x.v.z.z.z.z.z.z.z.z.v.z.z.l.z.v.z.l.l.l.l.l.l.l.l.l.l.l.l.l.l.l.l.l.l.l.l.l.l.j.l.l.j.j.j.l.j.j.j.j.j.s.p.p.p.p.s.l.l.l.s.j.j.g.p.p.p.p.p.p.p.p.p.p.p.p.p.p.i.i.p.p.i.i.i.i.i.i.i.i.i.i.i.i.t.t.t.t.y.r.r.r.t.t.r.r.r.r.r.r.r.r.r.r.r.q.q.q.q.q.q.q.q.q.q.q.3.3._ _ _ _ _ _ _ _ _ _ ) _ ) ) ) ) ) ( ( ( ( Y / U ( ( ( ) f F F / ) L U U U L L L K K K K F F g ",
"F F F K I I L L L I I I L Y q.K I s g L K U r.( ) ) ) ) ( ( Y Y ( ( ( ( ) ) ) ) ) ) ) ) ) ) ) ) ) ) ) ) _ 4.3.w.q.4.q.q.3.3.3.3.3.3.3._ 3._ _ _ _ r.r.6.6.6.r.a.r.r.r.w.r.r.r.r.r.r.r.r.r.r.r.r.r.r.r.y.i.i.i.i.p.i.p.p.p.p.p.p.p.s.s.s.s.p.p.i.i.p.p.s.p.p.p.p.p.p.j.g.g.s.p.j.g.j.j.j.j.l.l.l.j.l.l.l.l.l.l.l.l.l.l.l.l.l.l.l.l.l.l.l.l.l.l.l.l.l.l.l.l.l.l.l.l.l.l.l.v.v.v.v.v.v.v.x.x.z.z.z.z.z.l.l.l.l.l.l.l.l.l.l.l.l.l.l.l.l.l.l.l.l.l.l.l.l.l.l.l.l.l.l.l.l.l.j.j.j.l.l.l.l.s.s.s.p.p.p.s.s.j.l.j.s.p.p.p.p.p.p.p.p.p.p.s.p.p.p.p.i.i.i.i.p.i.p.i.i.i.i.i.i.i.i.i.i.i.t.t.t.t.r.r.t.t.r.r.r.r.r.r.r.r.r.r.3.r.r.r.r.q.q.q.q.q.q.q.3.3.3.3._ _ _ _ _ _ ) ) ) ) ) _ _ ) ) ) ) ( ( ( ( ( / U ( ( ( ( d F F / ) L Y U U I L L K I K F g g g ",
"F F F s i I K K K i i K L U _ D F 6 g F K U q.Y ( ) ) ) ( ( Y ( ( ( ) ) ( ( ) _ _ q.q.q.q.q.q.q.q.q._ q.4.q._ ) 4.q.( Y 3.3._ 3._ _ 3._ 3._ q.s                 = q.r.w.r.r.r.r.r.r.r.r.r.r.r.r.r.r.r.q.H q.q.F ( i.p.i.p.i.i.p.p.p.j.p.Y Y y.y.i.i.i.r.s.p.p.p.p.p.g.g.p.p.p.g.p.j.p.p.g.g.p.p.j.j.l.l.l.j.l.l.l.l.l.l.l.l.l.l.l.l.y._ j.l.l.j.l.i._ i.t.p.l.l.l.l.l.v.l.v.v.v.v.v.z.l.U 3.j.z.z.z.z.v.l.l.l.v.l.l.l.l.l.l.l.l.l.l.l.l.l.l.l.l.l.l.l.l.l.l.l.l.l.p.j.g.p.p.s._ r.j.p.p.p.p.p.p.p.s.j.l.s.p.p.p.p.p.p.p.p.p.p.p.r.I q.p.i.i.i.i.i.y.U ) y.i.t.i.p._ F t.i.i.y.r.r.t.t.r.r.Y g r.r.r.r.r.r.q.r.q.D g r.6.q.r.q.q.q.q.q.q.3.3.q.3._ _ _ _ _ _ ) ) ) ) _ _ _ _ ) ) ) ) ( ( ( Y / U U / ( I / d F D / ) L h - F I L L I d 3 g g g g ",
"F F F F K L K K I ( g I L U _ g g 6 s s f U q.U Y ) ) ( ( Y g f U F f K F g j j s K I I U Y U I L K I I U Y F 5 I ) I / 3._ _ _ _ _ _ _ _ _ 3.( I ) Y Y I U I F I q.r.r.r.r.r.r.r.r.r.r.r.Y 4.r.r.r.t.r.q.r.t.r.r.p.p.i.p.p.p.p.p.p.j.j.t.r.i.i.i.p.t.) i.p.i.) p.p.g.p.g.g.j.g.p.p.g.i.p.j.i.p.j.l.l.l.l.l.l.l.l.l.l.l.l.l.l.l.l.l.l.p.g.l.l.l.l.l.l.l.l.p.z.z.l.l.l.l.l.v.v.z.z.z.z.l.a.p.r.l.z.l.z.l.l.v.l.l.l.l.l.l.l.l.j.j.l.l.l.l.l.l.j.l.l.l.l.l.l.l.l.l.p.3.i.g.p.j.p._ _ l.l.l.l.j.p.r.i.g.p.p.p.p.p.p.p.p.p.p.p.p.p.j.p.t.p.p.p.p.p.p.p.p.s.i.t.i.i.i.i.i.y.p.p.p.i.i.i.i.i.i.r.q.y.r.r.r.r.r.r.q.r.3._ 3._ _ 3.3.3.q.3.) q.3.q.q._ _ _ _ _ _ _ _ _ _ ) _ Y F ) _ ) ) ) 6 f ( / Y / Y U U I X D d g g Y ( F s F U K L L L U F g g g g ",
"F K F K L F K K L / L I L Y ) g F 6 5 g I U 3./ ( ( ( g F U d K F F I g 3 h ) ) / 3.q.4.4.4.4.q.4.4.4.4.4.4.w.w.4.I f / _ _ _ _ _ _ _ _ _ _ _ _ r.i.r.q._ _ ) ( _ r.q.r.r.r.r.r.r.r.r.r.r.q.q.r.r.r.r.t.i.r.r.i.i.r.t.i.i.i.i.i.i.p.i.p.g.p.i.i.i.i.p.p.i.i.i.i.p.p.p.p.p.p.p.s.p.g.g.j.g.g.j.j.s.s.l.l.l.l.l.l.l.j.l.l.l.l.l.l.l.j.l.l.j.j.j.j.j.j.l.l.l.l.l.l.l.l.l.l.l.l.l.l.z.l.l.j.j.l.g.l.l.l.l.l.l.l.l.l.l.l.l.l.l.l.j.j.j.j.j.l.s.j.j.j.l.l.l.l.l.l.l.l.l.l.p.p.p.p.j.j.p.p.p.s.p.p.j.p.p.g.p.p.p.p.p.p.p.p.p.p.p.p.p.p.p.p.p.i.i.i.i.i.i.i.i.i.t.r.t.y.r.i.i.r.t.r.t.t.r.r.r.r.r.r.a.r.r.r.r.r.r.q.3._ _ _ _ _ _ 3.3.3._ ) ) 4.( ( _ ) ) _ _ _ _ _ ) ) _ _ ) ) ) ) ) ) ) g g Y / U U U I I I g / w g d U Y F K Y I F K K F F F f g g f ",
"K K F g g F K K K F K K K Y _ d F 5 s U ( U _ / ( ( ) I L / g s L H F f 5 s U / ) Y Y U I U U U U I I U U U U F U Y   6 _ _ _ _ _ _ _ _ _ _ 3.f - 6 6 5 7 7 7 : s 3.r.r.r.r.r.r.r.r.r.r.r.r.r.r.r.r.r.r.r.r.r.r.r.r.r.t.t.t.t.t.i.i.i.i.t.t.i.i.i.i.y.r.t.y.i.i.i.p.p.p.p.p.p.p.p.i.p.i.i.i.i.p.p.p.s.s.s.s.s.s.s.j.j.l.j.l.j.j.j.j.j.j.j.j.g.j.j.g.p.p.p.j.j.l.l.l.l.l.l.l.l.l.z.l.j.l.r.g.l.l.l.l.l.l.l.l.l.l.l.l.l.l.l.l.j.j.s.s.s.s.p.g.j.l.l.l.l.l.l.l.l.l.j.p.p.p.p.p.i.i.i.i.p.p.p.p.p.p.p.p.p.p.p.p.p.p.p.p.p.i.i.i.i.y.t.t.r.t.i.i.i.i.i.i.t.r.t.t.r.r.r.r.r.r.r.r.r.r.r.r.r.r.r.q.3.r.r.r.r.r.q.q._ _ _ _ _ _ _ _ _ _ 4._ L U ( _ _ ) _ _ _ _ _ ) ) ) ) ) _ _ ) ) ) ) ) ) F / / / Y I L I F _ ` w g d I Y F K F F F F F F g f g g g g ",
"K K F g F F K K K F K K K U _ g D 6 d H F L _ ( ) ( ( ( ( ( ( Y U / L Y _ / U ( ) ) ) Y Y Y Y Y Y Y Y ( ) ( ( / ) q._ ( _ _ _ _ _ _ _ _ _ _ q.g   7 3 7 6 7 - @   ) r.r.r.r.w.q.r.r.r.r.r.r.r.r.r.r.r.r.r.r.r.r.r.r.r.t.t.t.t.t.i.i.i.i.i.i.i.i.i.i.y.t.t.t.i.i.i.p.p.p.p.p.p.p.p.p.p.p.i.y.y.i.p.p.p.p.p.p.s.s.p.j.j.j.l.l.l.l.l.l.j.j.j.j.j.j.j.j.j.p.s.j.j.j.j.l.l.l.l.l.l.l.l.l.l.l.p.g.b.b.l.b.b.b.b.b.b.l.l.b.l.l.l.l.l.l.l.j.j.l.j.j.l.l.l.l.l.l.l.l.l.s.p.p.p.p.p.p.p.i.i.i.p.p.p.p.p.p.p.p.p.p.p.p.p.p.p.p.i.i.y.y.y.t.t.t.t.r.y.y.y.y.i.i.i.t.t.t.r.r.r.r.r.t.r.r.r.r.r.r.r.r.r.r.q.r.r.r.r.r.q.3._ _ _ _ _ _ _ _ _ _ U Y 4.) _ _ ) _ _ _ _ _ ) ) ) ) ) ) ) ) ) ) ) ) ( ( ( ( / U / I L I F / / w g d I Y F K K K K K F F g g g g g g ",
"F F F g F F F F F F K K L U ) g D w d L F F _ ( ) ( ( ( ( ( Y ( ( ( ( ) _ _ / r.y.r.r.q.q.3.3.3.q.q.q.w.q.3.q.q._ _ _ _ ) _ _ _ _ _ _ _ _ _ _ p.r.a.a.i.p.p.i.i.r.r.r.r.q.r.r.q.q.q.r.w.r.r.r.r.r.r.r.r.r.r.r.r.r.r.r.t.t.t.t.4.q.t.t.i.y.i.i.i.i.y.y.y.r.r.i.i.t.i.i.i.i.i.i.i.i.i.i.i.y.y.y.y.i.i.i.p.i.p.p.p.p.p.p.j.j.l.l.l.l.l.l.l.l.j.p.p.j.j.s.p.p.p.p.p.p.j.j.s.l.l.l.l.l.l.l.z.v.g.g.l.l.g.b.l.l.l.l.l.l.l.l.l.l.l.l.l.l.g.j.l.l.l.l.l.l.l.l.l.l.l.l.p.p.p.p.p.p.p.i.p.i.i.p.i.p.p.p.p.p.p.p.p.p.p.p.p.i.i.i.i.y.y.t.t.y.r.r.r.t.t.t.y.y.y.i.i.t.r.r.r.r.r.r.r.r.r.r.r.r.r.r.r.r.r.r.r.r.r.r.r.q.3.3._ _ _ _ _ _ _ _ _ / ) s.) / / ( ) ) ) ) ) ) ) ) ) ) ) ) ) ) ) ) ) ) ( / ( U U Y I F I U H / w g d I / F K K K K K K F F g g g g g ",
"F F g g F F F F F F K K L U _ d D w d F F L 3.( ( ( ( ( ( Y I ( ( ( ( / Y U / ( ) ) ( ( / ( K U ( Y ( ) ) ) ( ( ) _ _ ) ) ) _ _ _ _ _ _ _ _ _ _ r.r.r.r.r.r.r.a.r.r.r.r.q.r.r.r.r.q.r.r.r.r.r.r.r.r.r.r.r.r.r.r.r.r.r.t.t.i.r.3.r.r.y.i.i.i.y.y.t.t.t.t.r.r.r.r.r.t.i.i.i.i.i.i.i.i.i.i.y.y.t.t.t.i.i.t.i.i.p.i.i.p.p.p.s.j.l.l.l.s.s.s.j.s.p.p.p.s.p.p.p.p.p.p.p.p.s.s.s.l.l.l.l.l.l.l.l.l.l.l.l.l.l.l.l.l.l.l.l.l.l.l.j.j.j.s.s.s.j.s.l.l.l.l.l.l.l.l.s.t.p.i.p.p.p.p.p.p.p.p.p.p.p.i.i.i.p.p.p.p.p.i.p.p.r.r.i.i.i.t.t.y.i.t.t.r.r.r.r.t.y.y.t.t.i.i.i.t.r.r.r.r.r.t.r.r.r.r.r.r.r.r.r.r.q.q.r.r.r.r.q.q.q.3.3._ _ _ _ _ _ ) _ ) / ) U ) ) ) ) ) ) ) ) ) ) ) ) ) ) ) ) ) ) ) ( / / ( U I Y I I U ( / / s g d K Y F K K K K K K F F g g g g g ",
"g g g d F F F F F K K L L U _ d D 6 d F F L _ ( ( ( ( ( ( ( Y ( ( ( ( / / / Y ( ( ( ( ( ( _ K U ( ( ( ( ) ( ( ) ) ) ) ) ) ) _ ) _ _ _ _ ) _ _ _ ) ( ( ) ) ) _ _ _ q.r.r.r.r.r.r.r.r.q.q.q.r.r.r.r.r.r.r.r.r.r.r.r.r.r.r.t.t.i.i.p.i.t.r.t.t.t.t.t.t.t.t.r.r.r.r.r.t.y.y.y.t.y.i.i.y.t.y.t.t.t.y.t.t.t.y.y.y.y.y.p.p.p.p.p.p.p.p.p.p.p.p.p.p.p.p.p.p.p.p.p.p.p.p.p.p.p.p.p.p.s.s.s.l.l.l.l.l.l.l.l.l.l.l.l.l.j.g.s.g.j.s.j.p.p.p.p.p.p.p.p.p.s.j.l.l.l.l.l.p.p.t.p.p.p.p.p.p.p.p.i.i.p.i.i.p.p.p.i.p.p.i.i.i.r.r.i.i.y.y.t.t.t.t.t.r.r.r.r.t.r.r.t.y.t.r.r.r.r.r.r.r.r.r.r.r.r.r.r.r.r.r.r.q.q.r.q.q.q.q.q.q.q.3._ _ _ _ _ _ _ ( ) ) ) ( I ( ) ) ) ) ) _ ) ) ) ) ) ) ) ) ) ) ) ( ( / / ( Y U Y U U U / / / s g d K Y F K K K K K F F F D g g g g ",
"g g g f F F F F F K K L L Y _ g g 6 d F K L _ U ( ( ( ( ( Y F U U U / / / ( Y / ( / Y ( ( ( K Y ( ( ( ( ( ( ( ( ( ( ) ) ) _ _ _ _ ) ) _ ) ) ) _ ) ) ) ) ) _ _ _ 4.3.q.q.r.r.r.r.r.r.r.r.w.4.r.r.r.r.r.r.r.r.r.r.r.r.r.r.t.t.i.t.r.r.r.r.r.t.y.t.w.q.q.q.4.4._ ) _ _ 4.q.q.q.q.q.q.q.q.q.q.q.q.q.q.q.q.w.w.r.r.t.t.p.p.p.p.p.p.p.p.p.p.p.p.p.p.p.p.p.p.p.p.p.p.p.p.p.p.p.p.p.s.s.s.s.l.l.l.l.l.l.l.l.j.l.l.l.j.s.p.p.p.p.j.p.p.p.p.p.p.p.p.p.s.s.l.l.l.l.l.l.s.p.p.p.p.p.p.p.i.p.p.i.i.i.i.i.p.p.i.i.r.r.i.i.i.i.y.y.y.y.t.t.t.r.r.r.r.r.r.t.r.r.r.r.r.r.r.r.r.r.r.r.r.r.r.r.r.r.r.r.r.r.q.q.q.q.q.q.q.q.q.6.q.q.3._ _ _ _ ) ) / ) ( ) ( I ( ) ) ) ) ) ) ) ) ) ) ) ) ) ) ) ) ( ( / / / / U U U U I Y ( ( ( s g d F Y K K K K K K K F F g g g g g ",
"g g g g F F F F F F L I L Y 3.g g 6 d F F L _ F U U ( ( ( g s U U U / / / / Y / / / ( / / ( Y Y / ( ( ( Y Y U L L U ) ) ) ) _ _ _ ) ) g i ) ) ) ) ) _ _ ) _ ) _ _ 3.q.q.q.r.r.r.q.r.r.r.r.Y 3.r.r.r.r.r.r.r.r.r.r.r.r.r.t.r.r.r.r.r.r.r.r.q.T F 6 6 5 7 3 - % @ @ % 3 3 3 3 3 3 7 3 3 3 3 3 3 3 7 7 7 7 7 5 5 I Y ) t.t.t.t.r.r.y.y.y.y.y.y.r.r.r.t.t.t.y.y.t.r.r.r.t.t.t.t.t.y.y.y.y.y.y.y.y.i.i.i.i.i.y.y.p.p.y.y.y.y.y.y.y.y.y.y.t.r.r.r.r.t.r.r.r.p.s.p.p.i.p.p.p.p.p.p.p.p.p.i.i.i.i.i.i.i.i.i.i.i.i.i.i.t.i.y.y.y.y.r.r.r.t.t.r.r.t.r.r.r.r.t.r.r.r.r.r.r.r.r.r.r.r.r.r.r.r.r.r.r.r.q.r.r.r.6.3.3.6.3.3.3._ _ _ _ ) ) ) I ) / ) / I / ) ( ) ) ) ) ) ) ) ) ) ) ) ( ( ( ( ( / / / / U U ( U L Y ( ( / s g d F U K K K K K K F F F F g g g g ",
"g g g f F F F F K F K I I ( 3.g D 6 d F F L ) F I I K I ( D F U U U Y / / / Y Y / / / / / / I Y / ( Y Y U U H D L ( ) ) ) ) _ ) _ ) ( @ 6 / ) ) ) ) _ _ ) ) ) _ _ _ _ q.q.q.q.r.r.r.r.r.t.p.r.r.r.r.r.r.r.r.r.r.r.r.r.r.r.r.r.r.r.L w w w w 6 5 5 w h d d s s s i s s s i 6 i f s h s s d d g f d d d f f f f K F w g F F g g 3 7 5 6 % : s d f g g g g F F F F F F g f g f g g g g g g g g g F F F F g f d g F I I I U I I K F K F F K K g g g K I I f p.p.i.i.p.p.p.p.p.p.p.p.p.i.i.p.i.i.i.i.y.t.y.y.y.i.y.t.i.i.y.y.y.y.y.y.r.r.r.r.t.r.r.t.r.r.r.r.r.r.r.r.r.r.r.t.r.r.r.r.r.r.r.r.q.r.r.r.q.3.3.3.3.3.3._ _ _ _ _ ) ) ( U ( ( ( ( I ( ( / / ) ) ) ) ) ) ( ( ( ( ( ( ( ( ( / / Y U U Y I I K / ( / ( s g d K U F L K K K K F F F F F F g g ",
"g g g g F F F F F K K I I ( 3.D D 6 d K K L ) F L L F F / D F U I U Y ( / Y Y Y Y Y Y / / / I / / ( ( ( ( Y I F U ( / / ) ) ) ) ) ) ( s F / ( ) ) _ _ ) ) ) ) _ _ _ 3.q.q._ _ r.r.r.r.r.r.r.q.q.r.r.r.r.r.r.r.r.r.r.r.r.r.r.r.r.) f s.l.t.r.l.r.L U Y Y ( Y I I K L L L K K I Y Y Y Y Y Y ( ) ( ( ( ( ) ( ( Y U g L r.r.r.p.w.$ f Y ) O j (.c.c.^.c.c.c.^.Q.^.^.^.^.^.Q.^.c.Q.c.c.c.c.c.c.c.c.^.Y.^.^.c.c.x.x.c./.(.(.(.(.(.^.n.c.c.n.^./././.(.(.(.`.f.F p.i.i.i.p.p.p.p.p.p.p.p.p.i.i.y.y.i.y.y.t.t.y.t.t.t.i.i.y.r.r.r.t.i.r.t.t.r.r.r.r.t.t.r.r.r.r.r.r.r.r.r.r.r.r.t.t.r.r.r.r.w.w.q.q.r.q.q.q.q.q.3.3.4._ _ _ _ _ ) ( ( F ( / ( / U Y / / / ) ) ) ( ) ( ( ( ( / ( ( ( ( ( ( / / I / ( I I K / ( ( / s g d F Y F K K K K F F F F F F F F F ",
"g g g g F F F F F F K L L / _ d g 5 d K K L ) D K K F L I d F U I U Y Y Y / Y U / Y Y / U ) / / / ( ( ( ( Y ( / ( ( ( / ) ) ) _ ) ) ( f F / / ( ) ) ) ) ) ) ) _ _ _ 3.3.3.3._ q.r.r.r.r.r.q.q.q.q.q.r.r.r.r.r.3.q.r.r.r.r.r.r.q.d r.i.r.r.p.l.s.p.p.x.c.Y.c.c.v.v.x.c.c.v.c.c.c.c.x.v.x.x.c.c.x.v.c.c.c.c.l.l.l.l.l.l.l.l.p.l.l.l.v.c.Y.t._ q.r.a.a.i.i.i.i.i.i.i.i.i.i.i.r.r.r.r.r.r.r.r.r.r.r.r.i.i.i.t.t.t.t.i.i.p.i.i.t.r.w.r.q.q.r.r.r.r.q.F ) ( c.) 4.p.p.p.t.y.p.i.i.i.i.p.p.i.i.i.i.i.y.t.t.y.t.t.t.y.r.i.r.r.r.r.t.i.t.t.t.r.r.r.r.t.t.r.r.r.r.r.r.r.r.r.r.q.q.r.r.r.r.r.r.q.q.q.q.q.q.q.q.3.3._ _ _ _ _ _ _ ) ) ) I F / U / / Y Y / Y / ) ) ) ( ( ( ( ( / Y H ( ( ( ( ( / / U ( ( I I K U / U ( s g d F U F K F F K F F F F F F F F F ",
"g g g d F F F F F K K K K U ) d g 5 d K K I / D K F D H L d F U I U U Y U U U U / / Y Y U ) / / / / / / / Y / / ( ( ( ( ( ) ) _ ) ) ( d K U Y ( ( ( ( ( ( ( ) ) _ _ 3.3.3.q._ 3.q.q.3.q.q.3.q.q.q.q.q.q.q.q.q.4._ q.r.r.r.r.r.L / y./ ) / r.r.r.t.p.l.v.z.v.v.l.v.l.v.l.z.z.l.v.v.l.l.l.l.v.v.l.l.l.l.l.l.l.l.l.l.l.j.j.p.r.a.a.a.r.r.p.p._ ) r.r.t.y.y.y.y.y.y.y.y.t.t.y.y.t.t.r.r.r.t.t.t.t.t.t.y.y.t.t.i.i.p.y.y.p.p.i.p.w.I ) q.r.t.t.t.t.r.I ) 4.t.c.L p.p.p.( 3.i.t.i.y.y.y.i.p.i.y.t.t.y.t.t.y.t.r.y.Y 7 ) r.r.r.r.r.r.t.t.t.r.r.r.t.r.r.t.r.r.r.r.r.r.r.r.q.i.l.j.p.q.r.r.r.r.q.q.r.q.r.q.q.3._ _ _ _ _ _ _ ) ) ) ) g f / U / / / Y Y / ( ( ( ) ( ( ( ( ( ) F d / ( / / / / / U I L I I F I U U / d g d F U K K K F F F F F F F F F F F ",
"g g g f F F F F F F F F F I _ d f 5 d K K L Y F K K F F L d F I I U Y Y U U U / Y / Y Y Y ( / / / Y / / / / / / / ( ( ( ( ) ) ) ) ) Y s I Y ( _ _ _ 4.4.4.q.w.q.p.w._ 3.q.3._ _ q.q.3.3.q.r.q.q.q.q.q.q.q.q.4._ _ q.q.q.q.r._ D p._ ) _ / _ 3.q.q._ 4.3.3.3.3.3.3.3._ _ _ 3.3._ 3.3.3.3.q.w.r.r.r.r.r.r.r.r.r.r.r.r.r.r.r.r.r.r.r.r.r.r.r.i.r.r.t.t.y.y.y.y.y.y.y.t.t.y.y.t.t.r.r.r.r.r.r.t.t.t.y.t.y.t.y.y.y.y.y.y.i.i.y.p.q.U _ d ) y.t.t.t.t.I ) w.4.v.y.( g.p.p.i.i.t.t.t.y.y.i.i.y.y.y.y.t.r.r.r.r.r.t.) w.q._ r.r.r.r.r.t.t.t.r.r.r.r.t.r.q.r.t.r.r.r.r.r.r.q.l.l.p.r.r.r.r.q.q.q.q.q.r.r.q.q._ _ _ _ _ _ _ ) ) ) ) ( U I / / / / / Y Y / ( ( ( ( ( ( ( ( ( ( ( ) ( / / / / / Y I K K K I F U U I Y s g d F I F K K F F F F F F F F F F g ",
"F g g d F F F F F F F F F L _ d D 6 d F F L ( F I L F F K s F U U U U U U U U U Y Y Y U ( ) / / / ( ( ( / ( ( ( ( ( ( / ( ) ) _ ) ) K i K I ) r.r.r.t.t.t.t.t.r.p.q._ 4.q.3.3.3.) f _ 3._ g ) q.q.q.q.q.3.q.) ) q.q.w.q.q.r.D r.i.( _ _ ) r.) _ r.q.r.r.r.r.r.r.r.q.r.r.q.r.r.r.r.r.r.r.r.r.r.r.r.r.t.i.i.t.t.t.t.t.r.r.r.r.r.r.r.r.r.i.y.i.i.y.y.i.i.i.i.i.i.i.y.y.y.y.y.y.y.t.t.r.t.y.t.t.t.i.y.t.t.t.y.t.i.y.y.y.y.y.y.y.t.r.r.r.t.y.y.t.y.y.r.y.t.r.t.c.H r.p.i.i.t.t.t.t.t.y.y.y.y.y.y.y.r.r.r.r.r.r.r.r.l.r.6.r.r.r.r.r.r.r.r.r.r.r.r.r.r.r._ ) r.r.r.r.r.r.Y U ( / L _ r.r.r.r.r.r.r.q.q.q.q._ _ _ _ _ _ ) ) ) ) ) ) ( / / / / / Y ( ( ( ( Y ( ( / / / ( ( ( ( / / / / / ( Y Y K f F K I F U U U U d g d I Y F K K F F F F F F F F F g g ",
"g g g s g F F F F F F F F K ) D F j d K F K / F I L K L K s F U U U U / U U U U U U U U / / I / / ( ( ( ( / ( ( ( ( ( ( ( ( ) ) ) ) I i I f U ) ) ) ) ) ( ( ( ( ( ( _ 3.q.q.3.q.) d ) 3.) F ) q.q.q.q.q.q.q.F I ) r.w.3.r.U / j.) _ _ _ _ r._ _ r.q.q.q.r.r.r.r.r.r.r.r.r.r.r.r.r.r.q.r.r.r.r.r.r.r.t.t.i.t.t.r.t.t.r.r.r.r.t.r.r.t.i.i.i.i.i.i.i.i.i.i.i.i.i.i.i.y.t.i.i.y.i.i.t.i.i.y.y.t.i.i.i.i.i.i.i.y.i.i.y.y.i.p.y.t.t.t.r.r.t.y.y.y.y.i.i.y.t.t.r.l.y.L p.i.i.t.t.t.y.y.r.t.y.y.y.y.y.r.r.r.r.r.r.r.r.r.3.r.r.r.r.r.r.r.r.r.r.r.r.r.q.q.r.( K t.t.t.r.r.r.r.) r._ _ _ r.r.r.r.q.) q.q.r.q.3._ _ _ _ _ _ ) ) ) ) ) ) / / ( / / Y Y ( ( ( / Y Y / Y / / ( ( ( ( Y U U / / / Y ( g + s K F F U U L I s g d I / F K F F F F g g F F g g g g ",
"g g g s F F F F F F F F F K _ g F i d F F F / F I L K I K d K U U U U / U U U U U / U U / / Y / / / ( ( ( / / ( ( ( ( ( ( ( ) ) ) ) Y d Y U ) ) ) _ ) ) ) ) ) ) ) ( _ 3.q.q.r.q.q.r._ _ _ _ _ _ q.q.q.q.q.r.r.r.q.r.q.q.) d p.r._ 3.3.q._ r.r.r.r.q.q.r.q.w.r.r.r.r.r.r.r.r.r.r.r.r.r.r.r.r.r.r.r.r.r.y.t.r.r.r.t.t.t.t.r.r.r.a.i.t.i.i.i.i.i.i.i.i.i.i.i.i.i.i.i.i.i.i.i.i.i.i.i.i.i.i.i.t.t.i.i.i.i.i.i.i.i.i.y.t.t.t.r.w.w.w.w.w.w.r.y.y.i.y.y.y.y.t.y.r.c.K r.p.i.t.y.) _ t.r.r.r.r.t.t.r.r.r.r.r.r.r.r.r.r.r.r.r.r.r.r.r.r.r.r.r.r.q.q.q.q.q.r.r.r.t.r.r.r.r.r.i.g.i.a.r.r.r.r.3.3.) 3.q.q.q.3._ _ _ _ ) ) ) ) ) ) ) ) ( ( / / / / / ( ( ( ( Y U Y Y Y Y Y ( Y / / U U / / / ( ( I F L I I F U U I U s g d K Y F K F F F g g g g g g g g g ",
"g g f d F F F F F F F F F L ) g D 6 d F F F ) F I I L U L d K U U U U U U U U / U U I U U / Y Y / / / / / / / / / ( ( / ( ) ) ) ) ) I d ( U ) ) ) ) ) ) ( ( ( ( ) ( _ _ 3.q.3._ _ _ ) ) ) ) _ _ 4.3.3.3.q.r.r.r.r.r.q.q.d 4.i._ 3.3._ q.) r.r.r.r.q.r.r.q.r.q.r.r.w.r.r.r.r.r.r.r.r.r.r.r.r.r.r.r.r.r.t.r.t.r.r.t.t.t.r.r.t.t.t.i.i.t.i.i.i.i.i.i.i.i.i.y.y.y.i.i.i.i.i.i.i.i.i.i.t.i.i.i.y.t.y.i.i.i.i.t.t.t.t.p.s.p.p.p.s.y.p.p.p.p.s.t.y.y.t.y.t.y.y.y.r.l.p.F i.t.r.r.) _ r.q.q.q.r.r.r.r.r.r.w.r.r.r.r.q.r.r.r.r.r.r.q.r.r.r.q.q.q.q.q.q.q.q.r.r.r.r.r.r.q.q.q._ ) ) ) _ 3._ _ 3.q._ _ _ r.3._ _ _ ) _ ) ) ) ) ) ) ) ) ) / / / / / / / Y Y Y Y U Y Y Y Y U Y Y Y U U U ( / ( ( U F I I F L F I U I I s g d K Y F K F F F g g g g g g g g g ",
"g g g d D g g F F F F F K L ) d g 6 d F F K Y F I U U U I g K ( U U I I U U U U U U I U U / U / / / / / / / / / ( ( ( / / ( ) ) ) ) I d ( U ) ) ) ) ) ) ) ( ( ( ) ( ) _ _ _ _ _ _ ) ) _ ) _ ) _ _ _ _ _ _ 3.q.r.q.3.r.Y L p._ 3.q.r.q.q.) r.q.q.q.q.q.r.q.q.r.q.q.r.r.r.r.r.w.r.r.r.r.r.r.r.r.r.t.r.r.r.r.t.r.t.r.r.r.r.r.t.y.y.i.i.t.i.i.i.i.i.i.i.i.y.y.i.i.i.i.i.i.i.i.i.i.y.y.t.y.t.i.i.y.y.i.i.i.i.t.t.t.r.r.p.r.r.r.r.t.t.y.y.i.p.r.t.y.y.y.t.t.t.t.y.r.v.Y _ r.r.r.r.r.r.r.r.r.r.r.r.r.r.r.r.r.r.r.r.r.r.r.r.r.r.r.r.r.w.w.w.w.w.w.w.q.q.w.r.r.r.r.r.r.r.r.q.q._ _ _ _ 3.3._ _ _ _ _ ) ) _ _ _ ) ) ) ) ) ) ) ) ) ( ( ( ( ( Y / Y Y Y Y Y Y U I I ( ( Y / Y U U / Y Y / / / / I g L L F L F I U U U s f s F Y F K F F g g F g g g g g g g ",
"g g g d g g g g g F F F F I _ d g 6 s F F F Y F L U L U I F F F I I I I U U L U U U U U U / Y / Y Y / / / / / / / ( ( ( ( ( ( ) ) ) ( F ) F L Y I U I Y I I U Y K L _ _ _ _ _ _ _ _ ( F ( ) ) _ _ _ _ _ _ 3.3.r.r.q._ g r.r._ 3.3.q.q.q.) q.q.q.q.q.q.q.q.q.q.q.3.q.r.r.r.r.q.r.r.r.r.r.r.r.r.r.r.r.r.r.r.r.t.t.r.r.r.r.t.t.i.y.y.t.i.i.i.i.i.i.i.i.y.y.y.i.i.i.i.i.i.i.i.i.i.y.t.t.t.t.t.i.i.t.i.t.t.t.t.t.y.4.) t.q.3.4.3.w.q.r.w.r.r.( r.i.y.t.t.t.t.t.t.r.s.s.D _ / / U U Y Y ( ) ) ) ( ( ( ( ( ( ( ( ( ( ( ( ( ( Y Y U U U U I I I U U U U Y ( ( ( Y Y Y I F F g g f f g g F _ _ _ _ _ _ ) ( ) ) ) ) ) ) ) ) ) ) ( ( ( ( / ( / / U Y Y Y Y Y / U I ( / Y Y U U K D U Y Y / Y U I g F L L L F U U U U i f s F U F F F F g F F F g g g g g g ",
"g g f s g f f g f g g F F I _ g D 6 s F D F Y F L L L I I L F s I U I I I U U U U U L L H U Y U / U Y Y Y / / U / / / ( ( ( ( ) ) ) ( _ _ ) K K g F g g g f g I I ) _ _ _ _ _ _ _ _ ( i ) _ ) _ _ _ _ _ _ 3.q.r.r.r.L ( r.) _ _ 3.3.3.3./ _ q.q.q.q.q.q.q.q.q.q.3.q.q.r.r.r.r.r.w.r.q.r.r.r.r.r.r.r.r.r.r.r.t.t.r.r.r.t.r.t.y.y.y.t.i.i.i.i.i.i.i.i.i.i.i.i.i.i.i.i.i.i.i.i.i.i.i.i.i.i.i.i.t.i.i.t.t.t.t.t.y.q.w.i.r.r.q.q.q.w.r.w.w.r.) r.t.r.t.r.r.r.t.t.r.r.l.) I Y T Y ( ) ) T s @ % % @ O X O + X . . .                   .                             I ) ( T ( ) ( Y ) s F r._ _ _ ) ) ) ) ) ) ) ) ) ) ( ) ) ) ) ( / Y / / / Y ( Y Y Y ( ( ( Y ( ( Y U U Y K s I Y Y Y U U I K L F F L F Y ( U U w f d F I F F F F F F g g g g g g g f ",
"g g d i g f d d d f f F K I _ D F 6 s D g D U F L L L I I I U U L I I I I I I I I L L L H U F U / Y Y Y / Y Y Y Y / / / / / / / ) ( ( ) ) ) _ i.r.t.y.r.r.r.r.r._ _ ) _ _ _ _ _ _ _ _ _ 6.) H F F F F F F F H H U g D r._ _ _ _ _ _ _ _ ( _ q.q.q.q.3.q.q.q.q.q.q.q.q.q.q.q.q.r.r.r.q.r.r.r.r.r.r.r.r.r.r.r.r.t.r.t.r.t.r.r.t.t.t.t.t.i.i.i.y.y.y.y.y.i.i.i.i.i.i.i.i.i.i.t.i.i.i.t.i.i.t.t.t.t.t.t.r.r.r.t.p._ ( t.r.r.q.q._ q.q.q.q.q.K r.r.t.r.r.r.r.r.r.r.r.r.c.^.^.^.^./.(._./.w.g U I K D g g F F F g g d h f d f h f g K K g F F F F g g g f f d f h D i.c.v.l.x.c.x.l.c.s.5 ( ) ( ( / / ( ( ( ( Y Y U I ( ( ) ) ) ( ( / Y U / / ( Y U Y ( Y ( Y ( / Y Y Y Y / ) / U U U U I L L L H F L F ( ( Y U w f s K U g F F F F F g g g g g g f f ",
"g g d i f d s s d d s g F I 4.D F 6 s D g D Y F K K L I L L L K L L I I I I I I I L L L L U F I / Y / / / Y U U Y Y / / Y / F i / / / ( ) ) ) ) ) ) _ ) ) ) ) ) ) ) ) ) _ _ _ _ _ _ _ _ ) H F F D D D g D D F F D i ) _ ) _ _ _ _ _ _ _ / _ 3.3.3.3.q.3.q.q.q.q.q.q.q.r.q.q.q.r.r.r.r.r.r.r.r.r.q.3.r.r.r.r.r.r.r.r.r.r.r.r.r.y.i.i.t.t.y.y.y.t.y.y.y.t.y.y.y.i.i.i.t.t.t.t.t.t.i.t.i.t.t.t.t.t.r.r.r.r.t.r.i.r.6 3 h s w w 6 w s s s i K r.r.r.r.r.r.r.r.r.r.r.r.r.r.r.r.r.r.r.r.r.p.p.y.y.r.w.q.w.r.t.w.q.w.w.w.w.q.4.4.q.t.t.q.4.w.w.w.q.q.4.q.q.4.4.4.q.i.r./ ) ( ) ) ) ) / t.) O I I K K K F K K K D D D D I ( ) ) ( ( ( / / / / / Y Y Y Y ( ( Y Y Y Y Y Y / / U U U U U U I L L L I I L L F Y ( ( U w d s F I F g g F g g g g g g g f f d ",
"d g f d f f d d d s 5 g F I 3.g g 6 i g F K ( F L K L L L L K K L L L I I I I I I L L H H U F I U U U Y Y Y U U U Y Y Y / / F I / / ( / ) ) ) ) ) ) ) ) ) ) ) ) ) ) _ ) _ _ ) ) ) ) _ _ L F D F F F D D F F H H i U _ ) ) _ _ _ _ _ 3._ / _ _ _ 3._ 3.3.q.4.3.3.3.q.q.r.q.r.q.r.q.q.q.r.r.r.r.r.r.r.r.r.r.r.r.r.r.r.r.r.t.r.r.y.i.t.r.r.r.t.t.r.t.r.r.t.y.y.y.i.i.i.t.t.t.t.t.r.y.t.i.i.t.t.r.r.r.r.r.r.r.r.t.i.l.y.p.p.p.p.t.y.y.y.t.y.p.r.r.r.r.r.r.r.r.r.r._ q.t.r.y.t.t.y.y.t.r.t.l.c.c.v.v.v.v.c.c.l.l.l.l.v.v.l.l.v.l.l.l.l.s.s.l.l.l.l.l.l.l.l.l.s.s.s.q._ _ _ _ 4._ _ _ _ p.g f Y I U L K L F F F F F F F / ( ( ( ( / / / / / Y Y Y Y ( Y / Y Y Y Y U U U U U U U U U I I L L L I U I U F I ( ( / s g s F I F 5 3 F g g g g g g g g d d ",
"d 6 3 3 3 - - - 3 + 6 K F U 3.d f 7 w g f F ( F K K L L L K K K L L L L I L L L I L L F H U K U U U U U U U U U Y Y Y / / / / / / / ( ( ) ( ( ( ( ( ) ) ) ) ) ) ) ) ) _ _ _ _ ) ) ) _ U F F F F F F D F F D H d F _ ) ) ) ) _ _ _ 6.r.3.Y _ _ _ _ 3._ _ 4.4.3._ 3.3.3.3.3.3.3.q.q.q.q.q.r.r.r.r.r.r.r.r.r.r.r.r.r.r.r.r.r.r.r.r.t.t.r.r.r.r.r.r.r.r.r.r.t.t.i.y.t.y.y.t.t.t.y.t.r.t.y.i.t.r.r.r.r.r.r.r.r.r.t.r.p.j.p.p.p.p.p.p.i.p.p.p.r.r.r.r.r.r.r.r.r.r.r.( ) r.r.r.r.r.r.r.r.r.r.r.q.q.q.3.q.3.4.4._ _ _ _ _ _ _ _ _ _ _ _ _ _ _ _ ) ) ) _ _ _ _ _ ) ) ) ) _ _ ) ) _ _ _ ) ) w.s.5 K Y U L K K K K F F F F F F ( ( ( / ( / U U / Y Y ( Y Y Y Y Y Y U U I I U U U U U U U U I L L I U U U U F U Y I / s g s F I F d h 7 - 3 3 - - - % * s d ",
"g 6 5 5 5 5 5 7 7 7 3 F F U r.i d 5 i s 3 i Y g K K L K L L K K K K L L L L L L L L K F L Y I U / U U U U U U U U U U / U U U U / / / / / ( ( ( ( ( ( ( ( ) ( ) ) ) ) ) ) ) ) ) ) ) / L F F F F F F F F K F D g q._ ) ) ) ) ) _ _ 3.r._ U _ _ _ _ _ _ _ _ 3.3._ 4.4.4.4.4.4._ q.q.q.q.q.q.r.r.r.r.r.r.r.r.r.r.r.r.r.r.r.r.r.r.r.r.t.r.r.r.r.r.r.r.r.r.r.r.r.r.y.t.t.t.r.r.t.r.r.r.r.r.r.r.r.r.r.r.r.r.r.r.r.r.r.r.q.q.3.4.3.3.4.3.q.q.q.r.r.r.r.r.r.r.r.r.r.r.r.r.r.r.r.r.r.r.r.r.r.r.r.q.q.q.q.q.q.3.4.4._ _ _ _ 3._ _ _ _ _ _ _ _ _ _ ) ) ) _ ) _ _ _ _ _ _ ) ) ) ) ) _ _ ) ) ) / p.r.5 Y U U L L F F F F F D F F H U / / / Y U U Y Y Y Y Y Y Y Y Y Y U U I I U U U U U U U U U I I I U U U U F I K j F d g i I Y F F U g 3 5 6 6 6 5 5 h f d ",
"g F L I U I I I L F F g g D U i d 6 i g K g I F K K L L L K L L I K K K L L L L L L K K L U F U / / / U U U U U U U U U U U U / Y / / / / / ( ( ( ( ( ( ( ( ( ) ) ) ) ) ) ) ) ) ) U F F F D F F F F F K K F d _ r.( ) ) ) ) ) ) _ _ _ 3./ _ _ _ _ _ _ _ _ _ _ _ _ 4._ _ _ _ _ q.q.q.q.q.q.q.q.r.r.q.r.r.r.r.r.r.r.r.r.r.r.r.r.r.r.r.r.r.r.r.r.r.r.r.r.r.r.r.r.r.r.r.r.r.r.r.r.r.r.r.r.r.r.r.r.r.r.r.r.r.r.r.r.r.r.r.r.r.r.q.q.q.r.r.q.w.r.r.r.r.q.q.q.r.r.r.q.q.q.r.r.r.r.r.r.r.q.q.w.q.q.q.q.q.4.4.4.4._ _ _ _ _ _ _ _ ) _ _ ) ) _ ) ) ) ) ) ) ) ) _ _ ) ) ) ) ) ) ) ) ) _ ) ( ( ( ( l.F i ( U U L F F D F F F F F D F / U U U U U / / Y Y Y Y U U U U U U U U U U U U U U U I U L I I U U U L F H I ( U i d s d F g K U ( ( ( ) ) ) ) ( 4.Y g ",
"d f d g g d d d d d i i i s F i d 5 i g g g K F K K L L K L D w K L K K K K K L K K K K L U L U / / / U U U U I U U U I I I U / Y Y Y / / / L U Y / / / / / / ( ( ) ) ) ) ) ) ) Y F F D D D D F F F F F I s ) r.( ) ) ) ) ) ) ) _ _ _ _ U _ _ _ _ _ _ ) _ _ _ ) _ ) _ ) _ _ _ 3.q.q.q.q.q.q.q.q.q.q.q.r.r.r.r.r.r.r.r.r.r.r.r.r.r.r.r.r.r.r.r.r.r.r.r.r.r.r.r.r.r.r.r.r.r.r.r.r.r.r.r.r.r.r.r.r.r.r.r.r.r.r.r.r.r.r.r.q.r.r.q.q.r.r.r.q.r.r.q.r.r.q.q.q.r.q.q.q.r.r.r.r.r.r.r.r.q.q.q.q.q.q.q.q.4.4.4.4._ _ _ _ _ _ _ _ _ _ _ ) ) ) ) ) ) ) ) ) ) _ ) ) ) ) ) ) ) ) ) ) _ _ ) ( / ( ( 3.p.5 F Y U I L H F F F F F L F D L U I U Y Y / / Y Y Y Y Y U U U U U U U U U Y Y U U U U U I I I U U I I F H U U U s d i s s w g f w i i i s s s s F I g ",
"f d d d d d d s s s 6 6 6 s U i d 7 s g d g K g F F K K K L F f L L K K K K K K K K K K K U L Y ( ( ( U U I U U U I I I I I Y Y Y Y Y U ( U F I U ( Y Y Y Y Y / Y ( ) ) ) ( ) ( F F F D D D D F F K F K d F r.) / ( ( ( ( ( ( ) ) _ _ ) L ) _ _ _ _ _ ) ) _ ) _ _ ) ) ) ) ) ) _ 3.q.3.4.q.q.q.q.q.q.q.q.q.q.r.r.r.r.r.r.r.r.r.r.r.r.r.r.r.r.r.r.r.r.r.r.r.r.r.r.r.r.r.r.r.r.r.r.r.r.r.r.r.r.r.r.r.r.r.r.r.r.r.r.r.q.q.q.q.r.q.q.q.r.r.r.q.q.r.r.r.r.q.r.r.r.q.r.q.r.r.r.r.r.r.r.q.q.q.q.q.q.q.q.q._ _ _ _ _ _ _ _ _ _ _ _ _ _ ) ) ) ) ) ) ) ) ) ) ) ) ) ) ) ) ) ) ) ) ) ) ) ) I / ( ( / y.y.# I U I H L F F F F F K F F D I L U I I Y Y Y Y Y Y U U U U U U I I U U I 6 L U I I I L L L U U I L s F L D F w d w s s w i i d i d d d d d f D g g ",
"d d d d d s s s s i 6 5 5 s I i s 3 6 f d g K g F F K K K K L L F K K K K K K K F H H K K ( Y U Y / / / U F F F F g g g g F U Y Y Y Y Y ( Y U U Y Y ( Y Y U Y ( Y ( ) ) ) ( ( K F D D D D D D F F F K g i _ ) U / / / Y / ( ( ( ) ) ) ) F ) _ _ _ _ ) ) ) _ ) _ ) ) ) ) ) ( ( _ 4.4.4.4.q.q.q.q.q.q.q.q.q.q.q.q.r.r.q.r.q.r.r.r.r.r.r.r.r.r.r.w.r.r.r.r.r.r.r.r.r.r.r.r.r.r.r.r.r.r.r.r.r.r.r.r.w.w.r.r.r.r.r.r.q.q.q.q.q.q.q.q.q.q.q.q.q.q.q.r.r.q.q.r.r.r.r.r.3.q.r.r.q.r.r.r.q.q.q.q.3.3.q.q.3._ _ _ _ _ _ _ _ _ _ _ _ _ _ ) ) ) ) ) ) ) ) ) ) ) ) ) ) ) ) ) ) ) ) ) ( ) ( 7 K ( / ( / l.) % I L L K F F F F F F F F g g I I I Y Y Y Y Y Y U I I I I U U U U I U I F I U I I I L L L L L I F s F F D g 5 w 5 w i 6 w i 6 6 f f f d d d f g f ",
"d d d s s s s s s 6 6 6 6 s I i s 3 5 s s g K g F F F K K K K F F K K K K K K K F F F K L U U Y / U U / F d d d d d f d g F K Y Y Y Y F I U / ( ( ( ( Y U Y Y ) ) ) ( ( ( ( U F D F F F D D g F F F F 5 ) q.I U U U Y Y / / / ( ( ( ) ) H _ _ ) ) ) ) ) ) ) ) ) 4.) ) ( ( Y Y 4.4.4.4._ _ _ 3.3.0.q.3.3.3.3.q.q.q.q.q.q.q.r.r.r.r.r.r.r.r.r.r.r.r.r.r.r.r.r.q.q.r.r.r.r.r.r.r.w.w.w.w.w.r.r.r.w.w.w.r.q.q.q.q.q.q.q.3.q.3.3.3.q.q.q.q.r.q.r.r.r.r.q.q.r.r.r.r.q.q.q.r.q.r.q.q.q.q.q.3.3.3.3.3._ _ _ _ _ _ _ _ _ _ _ _ _ _ ) _ ) ) ) ) ) ( ) ( ) ) ) ) ) ) ) ) ) ) ) ) ) ( ( ( / Y / Y ( ( ) c.s 5 F d d d d d d s s s s s 6 d I I I Y Y Y Y U I I I I I I I I I I U U U U I I I I L L L L F F F K I D f g 5 6 5 s i 6 6 w 3 6 f f f d d d d d d ",
"d d s d s s s s s 5 6 6 6 s I i i 3 6 s i d F g F 6 7 F K K K F F K K K K K K K F F F K K I D I U g F ) Y d i d f f d f D F K U Y Y Y D I U 3.r.r.r.r.r.r.t.i.r.p.r./ ( ( U K F D F F F F g f D F F w Y t.U U U U U U U U Y Y U ( ) ( ( F ) ) ) ( ) ) ) ) ) ) _ _ ) ) ) ( Y ( 4.4.4.4._ _ _ _ _ 3._ _ _ _ _ 0.0.q.0.q.q.q.q.w.r.r.r.r.r.r.r.r.q.q.q.q.q.q.q.q.q.q.q.q.q.r.r.r.q.q.q.q.q.r.r.r.q.q.q.q.q.q.q.q.q.q.3.3.3._ 3.3.3.3.q.q.q.q.q.q.q.q.q.q.r.r.r.q.q.q.q.r.q.q.q.q.q.q.q.3.3._ 3._ _ _ _ _ _ _ _ _ _ _ _ _ _ ) ) ) ) ) ) ) ( ( ) ( ) ) ) ) ) ) ) ) ) ( ( ( ( ( ( ( / U Y / ( ) / l.c.  s d f g d s s i w i i i s w F L K Y I Y Y Y Y U I I I I I I I I I I I I I I I I L L L F @ 3 U U K g g D 6 w 5 s i 6 6 w 5 w g d d d d d d s s ",
"s s s s s s s s s 5 6 6 6 s F 6 w 3 6 s s i F g F s . i K F F K K K K K K K K K K K F K K U g F F 6 s ) ) I 6 g g d d g K I L Y Y Y ( I U L U / / / / / ) ) ) ( / ( ( ) Y F F F F K K K F F D g F 6 f y.( U U U I U U U U U U U U ( ( ( F ) ) ) ) ( ( ) ) ) ) ) _ _ ) ) ) ) 4.4.3._ 4.4._ _ _ _ _ _ _ _ _ _ _ _ 4._ 0.q.q.q.q.q.q.q.q.q.q.q.q.q.q.q.q.q._ 3.q.q.q.q.q.q.q.q.q.q.q.q.q.q.q.r.r.r.r.q.q.q.q.q.q.q.q.q.3.4._ _ 3.3.3.q.q.q.q.q.q.q.3.3.3.q.q.q.q.q.q.q.r.q.q.q.q.q.3._ _ _ _ _ _ _ _ ) ) _ ) _ ) ) ) ) _ ) ) ) ) ) ) ( ( ( ( ) ) ) ) ) ) ) ) ) ) ) ( ( ( ( ( ( ( Y g 6 6 6 s d s p.Y $ F g g d s s i w i i w i d d D F F I ( ( ( ( Y U U Y U Y I I I I I I I I I I I I L I s   d U U F g g D 6 w 5 s w 6 6 w 6 s g d d d d d s s s ",
"s s s s s s s d s 5 5 6 6 s F 6 6 3 6 s s s d d g g d D F F g d K K K K K K K K F F F F g F d d D d d U Y g w s s i s d F K K L I I I F F s F ( / Y Y / / / U U U I I I K F F F K K K K K K F g s 3 _ ) U U U I L L I I I U I I U Y ( ( F ( ( ( ) ( ( ) ) ) ) ) ) ) ) ( / ) _ _ _ _ _ _ _ _ _ _ _ _ _ _ _ _ _ 4.4._ _ _ _ q.q.q.q.q.q.q.q.3.q.q.q.q.q.q._ 4.3.q.q.q.q.q.q.q.q.q.q.q.q.q.q.q.q.q.r.q.q.q.q.q.q.q.q.3._ _ _ _ _ 4.3.3.q.3.3.3.4.3._ _ 3.q.q.q.q.4.3.q.q.q.0.3._ _ _ _ _ _ _ _ ) _ ) ) ) ) ) ) ) ) ) ) ) ) ) ( ( ( ( ( ) ) ) ) ) ) ) ) ) ( ( ( ) ) ( ( / / ( Y / Y g f d d F I I F r.i 5 D d d s s s s s s s i d d d d F I F F F D D F F K I L F K K K F F K L I I I L L F g g F L F g D D g 6 w 5 s w 6 6 6 6 i g d d d d s s s i ",
"s s s s s s s d i 5 5 6 6 s F 6 5 * 6 s s s i D K g D g g F 3 + F K g K K K K F F F F g d s 6 5 d D F U F d 6 i s w i s F K F F F F F F F g F ( ( Y Y / U U U U U K K I I I I U Y Y U Y U U U U 5 I ) I Y U I I L K I I I I I U I Y ( U g U / / / ( ( ( ( ) ) ( ) ) ( ( Y Y ) _ _ _ _ _ _ _ _ _ _ _ _ _ _ _ _ _ _ _ 4.4._ _ _ 3.q.q.q.q.q.3.3.3.3.q.4.4.4.4.3._ 3.4.3.3._ q.4.3.3.3.q.q.q.q.3.4.3.3.3.3.3.3.q.3.q.3._ _ _ _ _ _ 3._ 3._ _ 4.4.3._ _ _ 3.q.q._ _ _ q.q._ _ _ _ _ _ ) ) ) ) _ ) _ _ ) ) ) ) ) ) ) ) ) ) ) ) ) ) ) ( ( ( ) ( ) ( ( ( ( ( ( ( / / ( ( ( / / ( ( Y Y / / / ) ) ) ) ( ) r.$ s d s d s d s s s s s s s i i s i s i 6 6 w i s g F F F F F F F F F F K K K K K K K F I I d d g g f 6 6 5 s w 6 6 w 6 i d d d h s s s s i ",
"s s s s s s s s i 7 7 7 6 s K 6 5 * 6 s s s i f K g g g g g g I I K K F F F F F F F F F F s 5 w d g F H F F i w s w i s g F g g F F K F L F F ( ( ( Y Y I I I U I D F U Y U U U I I I I I I I s g 4.I I F 7 % @ + + + & & + + . . - K U D Y Y Y Y Y ( ( ( ( ( ( ( ( ( ) ( ( ) ) ) _ ) ) _ _ _ _ ) ) ) _ ) ) ) ) _ _ 4.4._ _ _ _ 3.3.q.q._ 4.3._ _ _ _ 0._ _ _ _ 4._ _ 3._ _ 4.3.3.0.q.q.3.3._ 4._ _ _ _ _ 3.3.3.q._ _ _ _ _ _ _ _ _ _ _ _ _ 4.3._ _ _ _ _ _ _ _ _ _ 4._ _ _ _ _ _ ) ) ) _ _ ) ) ) ) ) ) ) ) ) ) ) ) ) ( ( ( ( ( ( Y ( ( ( ( ( ( ( ( ( / / / / ( ( ( ( Y Y Y Y K D D g D g D D F d _ U   d s s s d d d s s s s s d d g f d s i i i i d F F F F F F F F K K K K I K K K K K K I g d d f g d 5 6 5 i w 6 6 w 5 w d d d d s s s s i ",
"s s s s d s s s s 5 5 6 6 s L 6 5 * 6 s s s s i s g g g g f f F F F F F F F F F F F F F F s 5 d d D F F K K D w s i s i i i s s g F K K I I g I Y I I I K K I U F F I I I I I I I I L K K L g 6 q./ L Y I g g g g g F I I Y U T T g I U D Y Y Y Y Y / ( ( ( ( ( Y ( ( ) ) ( ) ) ) ) ) ) _ _ ) ) ) ) ) ) ) ) ) ) _ _ _ _ _ _ _ _ _ _ _ _ _ _ _ _ _ _ _ _ _ _ _ _ _ _ _ _ _ _ _ _ _ _ _ 4._ _ _ _ _ _ _ _ _ 3._ _ _ 4.) ) _ ) ) _ _ ) _ _ _ _ _ _ _ _ _ _ _ _ _ _ _ _ _ _ _ _ _ _ _ ) ) ) ) ) ) ) ) ) ) ) ( ( ( ( ( ( ( ( ( ( ( / ( Y ( ( ( ( / / ( ( / / / ( ( Y Y Y Y Y Y Y Y d d h d f d f g g K K q.s 3 d s s s s s s s s s s s s d d s s i i i i d f g F F F g s s g g F L K K K K K K I F d d d f g d 7 5 7 i i 6 6 i 5 6 d d d d d d d s i ",
"s s s s s s s s s 7 7 6 6 s I 6 6 - 6 i i i s s s F g g f d i d g F F F F F F g g g g g g 7 3 i s g F F F F i 5 6 5 5 5 w s d s g L K I I I K j 6 3 3 3 3 - - - f I I L L I I I F F F F K F 5 ) _ K I I U ( ) ) ( ( ) _ _ 3.3.t.r._ U K g U Y Y Y U U Y ( Y Y Y Y Y ( ( ( ( ( ) ) ) ) ) / ) ) ) ) ) ) ) ) ) ) ) ) ) ) ) ) _ _ / _ _ _ _ _ _ _ _ _ _ _ ) ) ) _ ) _ ) _ _ _ _ _ _ _ _ _ _ _ _ ) _ _ _ _ _ ) ) _ _ _ _ ) _ _ _ ) _ _ ) ) ) ) _ _ _ _ _ _ _ _ ) ) ) K I ( _ ) ) ) _ _ ) ) ) ) ) ) ) ) ) ) ) ( ( ( ( ( ( ( ( Y ( ( Y ( ( ( Y ( Y ( Y Y / ( / ( ( ( ( Y U I I U U Y U / Y ( ( ( ( ) ) _ ( q.r.$ s s s s s s s s s s s s s s s d d s i w w s d d g K K K s 3 6 g F I K K K K K K I g g g d g f d 5 5 7 i 6 5 6 i 5 6 d d s s s s s s i ",
"s s s s s s s s i 3 7 7 5 s L 5 5 - 5 i i i s s s f F g f d s d f g g F g g g g g g g K K 6 3 w s f g d g g i 5 6 5 5 5 6 d i 6 g F F K K K K F F Y I I I I I g F K K K K F F K F F F g F 5 F q.L I L K F K K F D g g g F F F F F I L L f U U U U U U Y ( ( ( ( ( ( ( ( ( Y ( ( ) ) ) F 6 I ) / ( ( ) ) ) ) ) ) ) ) ) ) ) ) / g Y _ _ _ ) _ _ ) _ ) ) ) ) ( ) ) / d Y _ _ _ ) ) ) ) ) ) ) ) ) ) ) _ _ ( g f ) _ _ _ ) ) _ _ ) ) ) ) ) ) ) ) ) _ ) ) ) ) ) ) ) ) ) ) ) _ ) ) ) ) ) ) ) ) ( ) ) ) ) ) ( ( ( ( / / Y Y Y Y Y / / Y Y Y Y Y / / / U U U U Y Y Y ( Y Y U I U I U U U I I I U U U U Y ( / L 4.Y @ f f f f s s d d s s s s s f g d s s w 6 i w 6 d K K I I d F F g g F g g K K K g d g g f f g d 7 5 7 i 6 5 5 6 5 w d s s s s s s s i ",
"s i i s s s d s i 7 7 7 5 s I 5 5 * 5 i w w s s d d D g d d 5 6 f f g g g g g f d s d K I K d s s s f d f g s 6 6 6 5 5 6 i 6 6 g F F K K K K F L U Y Y U I Y K F K K K K K K K K F g g 6 w _ L H L K F F -                 . .   + F L f I U U U U U U Y Y Y / Y Y ( ( ( ( / / ( ( ( / t._ / ( ( ( ( ( ( ( ( ( ) ) ) ( ) ) ) y.r.) _ _ ) _ ) ) ) ) ) ) ) ) ) ) ) y.y.) _ ) ) ) ) ) ) ) ) ( ( ) ) ) ) ) r.i./ ) ) ) ) ) ) ) ) ) ) ) ( ( ) ) ) ) ) ) ) ) ) ) ) ( ) q.) / ( ( ( ( ( Y Y Y / / / / ( Y Y Y Y Y / Y Y Y Y Y Y / / ( / Y / Y Y U U U U 7   % .       3 I I I I I I I I I I I I I I U U U I K q.d 5 g f f d s s s s s s s s s d s i w w w i w 6 f F K K F g g g g g F g D F F F g f g f d d d h 7 5 3 i w 7 5 5 3 6 s s s s s s s s i ",
"i i i i s s s s i 3 - 6 i s U 5 5 % 7 w i s i s d d f F s d - - f f g g f f f h h s g D g K d i d s d d d s 5 5 6 5 5 6 6 6 6 6 g g g F F F g g F K K F F F D F F K K K F F K F F F F f 5 ( I F F F F g F h w w w w 6 6 6 6 6 6 6 6 F F f U U U I I I I U U U U U Y Y Y Y Y / / ( ( ( / / / / / ( ( ( ( ( ( ( ( ( ( ( ( ( ( ) ( ) ) ) ) ) ) ) ) ) ) ) ( ) ( ( ) ) ( ( ) ) ) ) ) ) ) ( ( ( ( ( ( ) ) ) ) / ( ) ) ( ( ( ( ) ) ) ) ) ) ) ( ( ( ) ) ) ( ( ( ) ( ( ( / U Y Y Y Y Y ( Y Y Y U U U U U Y U U U U U U Y Y Y U U U U / / / / / U U U U U F 7 I I I K I I   F U I I I L L K K K K I K I I I I I L Y w.5 h g f f d s w w w i i 6 6 i i i w 6 5 6 w s g F F F g s i 6 s F D F F g g g f g g f d f f s 3 7 - w 6 6 w w 6 6 s i s s s s s s i ",
"w i i i i i s s s 6 6 w 6 s Y 3     3 6 < 5 s d d d s d d g s s h f g g g g h h h g F K I K g h s s s s s 7 7 7 6 6 6 6 6 6 6 6 s s s s s h h g g g g g g f g g g g g g g g g g g f g g ( U D F F F F F L L U / / ( ( ( ) _ ) ) _ ( F F g U U I I I I U U I U U U I U U U U Y Y U U U U U / / / / / / / ( / / / / / / ( ( ( ( ) ) ) ) ) ) ) ) ) ) ) ) ( / / ( ( ( ( ( ( ( ( ( ( ( ( ( ( ( ( ( ( ( ( ( / ( ( ) ( ( ( ( ( ( ( ( ( ) ( ( ( ( ( ( ( ( ( ( ( ( ( ( Y / / Y U U U U / U U U U U U U U U U U U U I U U U U U U U U U U U U / U I I I L Y ) ) ) ) ) 4.y.w.U U U I L L L L L L L L L L L I I I I L ) w.h K g g f h 6 5 6 6 6 6 7 5 6 j j 6 5 6 s s h h h s s i s s h g g g g F F g g g d d s s f s -   X 6 6 3 6 i i i i i i i i i s i i ",
"w w w w i i i s i i i w s d Y @ g * 3 % g g w d d s s s I ( Y Y T ) q._ q.q.) ) _ ) _ q.w.w.4.4.) ) ) ) ) U Y Y ( ) ) ) T ) ) T T ( ( ( ( ) 4.w.q.q.q.r.q.r.r.r.q.w.q.q.q.q.q.w.w.y.y.y.) g F g D F F F F F F L I I I L I I I U L F K F f I I L I I I U U I I U I I I I U U U U U U I I I U / U U Y Y Y Y / / / / / / U Y / / ( ( ( ) ) ( ( ( ( ( ( ( ( / Y Y / ( ( ( ( / ( ( / / / / / / / Y / / / / ( Y ( / / ( Y / U Y / / / / / / / / / / ( / Y Y U U U U Y Y U U I I I I U U I U I I I U F s I U U I I I U U U U I U U U K F I U I I I K L L L K K K F F F 4.I I I L K K F F H H L L H F K H K L L L F ) q.w.r.y.y.y.q._ _ _ _ _ _ ) q.q.r.r.r.y.y.y.r.q.w.w.r.w.w.w.w.y.y.y.w.w.d f f d d s h h f g 3 s 3 5 6 6 6 i s s i i w i i i i i i ",
"6 6 6 w w w i w 6 w w i d d g h w.@ % 5 I I w s i i i s d d d s 6 7 f d d i i i i i i w w i i w w w w 5 6 w w w w i w w w w w w w g g d w w d d f g g g D g D D D D g f d d d d d d d p d F F s g F F F F F F F F F g F g g F F F F F F f I I I I I I I I I I I L I I I I U I U I I I I I I U U U U U U Y U U U U U U U U / / ( U Y ( ( ( ( Y Y ( ( ( Y U U U U U U Y Y ( Y Y U U U U U U Y Y / Y U U Y U U U / U U U U U U U Y Y U Y U U U U U U U U I U U U F K U U I L L I I I I I K K L L d f L F L L L L L I I I I I Y Y I g I I I I I F K K F K K K K K F D K L L K K F F F F H H F F F F F F K F K F F d i d d d d d s s d p p i i p d d d d d f D D f d d d w d d d d d D g d d d d d d 6 Y I i d 7 K s 5 6 w w s s s s s w i w w w i w ",
"6 6 6 6 6 w w w w 6 6 w 7 w w @     % 6 5 $ i i i i 6 6 s s s d j 6 g g g f f f d d d d s s d s s s i w w w i i s s s s s s i i w i d d d d f D D D F F F F D F F F g g f f g g g g f d d d F D F D g F F F g g F g g g g F d F L K F F f I L I I I I U I I I L K K L L U U I U U I I I I I L I I I U U U U I U I U U I U U U U U U U Y Y Y Y U Y Y Y Y I I U I I I I U ( U U I I I I I U U Y U U U U U U U U U U U U I U I I U U U U U U U U U U I I I I I U D K I I I I L L I K F I I K K K F L L K K K K L L I I I I I Y U U I I I I I I I K K K K K F K F F K K K K K F F F F F L F K F F F F F F F F F F g f d d d f d d s d d d d d d d d d d f g g D g d s i w s g g D D D g i s d d d s w i i w 6 * = + 5 5 6 6 s s s s s w w 6 6 6 6 6 ",
"3 7 7 7 5 5 5 5 5 5 7 7 3 3 6       + % % * 7 7 7 7 7 5 i 6 w i i s s s s s s s s s s i i i i w w i w 6 6 6 6 i i s s i i i w 6 i 6 i d d d d d d d f f f g f g g g f g 6 w d d d d d d d d f d g d d g g g g g g g g g g g w 5 D F D D i F F F K F K K F K F K K F F K K K K K K K F K F K K K K F F K K K K F F K K K K K K K K K K I I I I I I I I I I I K K K I I I I I K K K K K K I I I I I I I I I I I K K I K L K K K K K I I L I I I I I I I I I L L K K K K K K K K K g F K K F K K F F F F F F K K K L K K L I I I I I I K K K F F F F F F F F F F F F F F F F F F g F F F F F F g D D D g g g d g g s s s s s s s i s s s s s s s s s s d d d d d s s i i s s d d f d d 6 6 s i i 6 5 6 7 3 3 X     % - 3 3 5 6 6 6 6 5 5 7 3 3 3 - ",
"- - - - 3 7 3 3 3 - * * @ + + X X . + @ @ @ % * * * % - - 3 3 3 3 3 7 7 7 7 7 7 7 7 7 7 7 3 3 7 7 7 7 3 7 5 5 5 5 5 6 5 7 7 7 7 5 5 5 5 5 6 5 5 5 5 5 5 7 7 7 5 5 5 5 5 7 7 5 5 5 5 5 6 6 5 7 5 5 5 5 5 5 6 5 6 5 5 6 6 6 6 6 7 5 6 6 6 6 s s s d d s s s s s s h 6 s h s 5 6 6 5 6 6 6 6 7 6 d s s s w w 6 6 6 6 6 s s s s i w 6 i w i s s i 6 s s 6 6 6 5 6 i j j h s s s s s s s s s s s s d h h s s s h h d s s d d d s s s s d d d s s s h s s s 6 5 h d s s s i s s s s s s s s s s s 6 7 7 6 6 6 s 6 6 5 6 s s s s s s d s s s i s i j s s s s s i w 6 6 i 6 6 i 6 i j 6 6 6 6 6 6 6 6 6 5 5 5 5 7 7 5 5 5 5 5 5 5 7 7 5 5 5 5 5 5 5 5 5 5 5 5 5 5 5 5 5 5 5 5 5 5 5 5 5 5 5 5 7 7 3 3 3 3 3 3 3 3 * @ O X O + % 3 7 7 3 3 3 7 3 3 - * * ",
"s i w 6 6 w w i i 6 5 7 7 7 5 5 5 5 5 6 6 6 6 w 6 6 6 6 6 6 6 6 6 6 6 6 w i i w w w w i w w w i i i i w i s d h d d d s s s s s s d d d s d s s s s s s i i i s s s s s s d s s s s d d d s s s d f d d d f d f d s d g g g g g g g g F F F F F F F F F g g g s s w s s i 6 6 w 7 7 3 % 5 s g I L L F F F F F F F F F F F F F F F f d d s s s s s d d d f d g g g g g K I I I K K I I I K F K K F K F g g F g F g f g g F F F F F F F F F F F K F g d s s g f g g g f h s s h s d h s s s 6 6 3 - 3 5 6 w 5 5 5 5 6 6 5 i F I I L I K F F g g g F F F F g g F F g g g g F g g g f g g f d s s s d d d d d d d d d d d d d s s d f d d d d d d d d d d d d d s s s s s s s s d d d s s s s s s s s s i i i s w 6 5 5 3 3 5 i s s s d s s d d d d ",
"D g f d d d d s i i j j 6 w i s s i i i i s s s s s s i i i i i s s s s d d d d d f g g f f f g f g d d d g g g F F F F F F K K K K K K F K F F F F F D g g g g F F F F F F F F F F F F F F F F F K F F F F F K K K K K K K I I K I I I I I I I I I I I L I I I I I I I I I K K K I I I Y Y Y U Y U U Y Y ( ( Y Y Y Y ( Y Y ( ( Y Y Y I I I I I U Y U U Y Y Y Y ( Y ( ) ) ) ) ) ) ) ) ( ( ( Y ( ( ( ( I I I I Y ( Y Y ( Y Y Y I I U U Y Y Y Y Y Y Y Y Y I I I K I I I I I K K K I I I I I I I I L L I I I I I Y Y Y Y Y I I I K K K ( ( Y Y I I I I Y Y Y Y Y Y Y I I I I I I I K I I I I K K K K L I I I I I I I L K K K K K K K F F K K K F F F F F F F F F F F F F F g g D g g g g d g g g g f d s s s s s i i i i i 6 6 6 w s d g g g g g g ",
"F F g d s j 6 6 s s s i 6 6 d f f f h s d s s s s s s s s s d s s f f g g g g g F F K K K K K K F F F F F F K K L L L I K K I I I I I Y Y Y I I I I I K K K K K K I I I Y Y Y Y I I I I I I I I I Y I I I I I I Y Y Y Y Y Y ( Y Y Y Y Y ( Y Y Y ( ( ( ( Y Y Y Y ( Y Y ( ) ) ) ( ( ) ) ) _ ) ) ) ( ( ( ) ) ) ) ) ) ) ) 4.) 4.4.4.4.3.q.4.4.4.4.4.4.) ) ) 4.) ) 4.4.) ) ) 4.4.4.4.4.4.4.4.4.4.4.4.4.3.4.) ( ) _ 4.q.q.w.w.q.4.4.) ) ) ) ) ) 4.4.4.) ) ) ) ) ) ) ) ) ) ) ) ) ) ) ) ) ) ) ) ) ) ) Y ( ( ) ) ) ( ( ) ) ) 4.) ) ) ) ) ( ( ) ) ) ) ( ( Y Y ( ) ) ) ) ) ) ) ( ( ( ( Y Y Y ( ( ( Y Y Y I U U Y Y Y Y Y Y Y Y I I L I I I K L I I I I I I I I K L K K K K K K K F F F F K K F g g F F F F g g f f d d s s s s s s s i 6 6 6 7 6 s h g g g ",
"i 5 3 7 7 6 6 6 i i i j 6 6 d g g f d s s s i i i i i i i i i i i i s i s s s s s s d f d d d s d d s s i i d d d f f g g g g g g F F F F F F g g g g g g g f d d g g F F F K F F F F g g F F g F F g g f g g g F F F F F F F F F F F F K K F K F F K F F F F K K F K F F K F F F L U I I I L K F F K L I I U U U I U Y Y ( ( U / ( / ( ) ( Y I I I L I U I I I I I I U ( ( / ( ( Y ( Y Y U U U U U U U I U U U / ( ( ( ( Y Y Y Y U I U I U / I I U I I K F L L I I I L I I I I K L L K K K F F L L L I F K I Y Y Y U Y ( Y Y I I I F K K K F g F g F K K I I K K K F K F F F F F K F F F F F g g D F F F F F F F F D D g F F F D D F K K F F F F F F F D D F F F F F g g g g g g g f f g g g g g g f d g f d d s s d d s i 6 6 6 5 3 3 - % 7 6 ",
"h f g F g g g f f f g g g g g F g K F g g g g F f g f f F g g f f g g g g g g K F F F F F I I K K K K I F F K F K I K I I K I I K K I I I I I I I I I K K K I I I I I I I I I I I I U I I I I I I I K K I I I K I K I Y I I I I Y Y Y U I I I I I I I I Y I Y Y Y Y Y I Y Y I Y Y Y Y Y Y ( U U I I Y Y Y ( ( ( ) ( ( ) ) ) ) ) ) ( ( ) ) ( ( Y ( ( ( ) ) ) ) 4.) ) ) ) 4.4.) ) ) ) ) ) ) ( ( ) ) ( ) ( ( ) ) ) ) ( ) ) ) ) ) ) ) ) ( ( ( ( ) ( ( ( ( ) ) ( ( ( ( ) ( ( ( ( ( ( ( ( ( ( ( ( ( ( ( ( ( ( Y Y Y T ( Y Y ( ) ) ) ) ( ( ( ( Y Y Y Y Y Y I I I Y ) T Y U U Y Y I I I I Y Y I I I I I I I I I I Y I I I I I I K I K I Y I I K K I K F K F F K F K K K K K K F F F I I K F F F K F F F g K F F F F F F F F F F F K F g g g F I U U s - ",
"w f d d d f f f f f f g g g f g g g g f f f f f f s s d f f f s f f g g f f f g g g g g g F F F g F g F g f g g g F F F K K K K K K K K K K F K K g g g g F F K K K K I K K K K K K K I K K K K K K F F K K K K K K K L K K K K K I I K K K K K F K K K I I I I I I I I I I I I I I I I I I I K K K I L I Y Y Y Y Y Y Y Y ( ( ( Y U U I U I I I U Y Y ( Y Y ( ) ) ( ) ( ) ) ( Y Y Y Y U U I U Y Y U U I U ( / Y U U U Y Y Y Y Y Y Y Y I I U Y Y U U U Y Y Y U U U Y Y Y U Y Y Y U U U U Y Y Y Y Y Y I I I L I I I I I I U Y ( Y U U Y Y U I I I K I K K L K I I K K K K K K K K K K K K F K K K K K K K K K K K K K K K K K K K K K K g g g g g g g g g g g g g g g g g g g F F F g g g g F g g f g g g f g f f g g g g g F F g g g g K K K i . ",
"3 i i i i i s s s i s s s s s s s s s s i i i i i j i i i s i i i i s s s s s s s s s s s s d d s s s s s s s s s d h s f f f f f f f f f f f f f s s s s d f g F g g g g g g g g f g g g g g f f f f f f g g F g F g F F g g g g g g g g g g g g g g g F K K K K K K K K F F K K K K K K K K g F F F F L K I I I K K K K L I I K K K F L F F F K F K Y K L I I I I I I U U I K K K K K g d F L F F F F F K K F F F F K K K K K K K K K K K K L K K K K K K K K K K K K K K K K K K K K K K K K K K K K F F F K K K K K L I I K K K K K K K F F F F g F g g F F g g g g f f f f f g g g f f f g g g g g g g g g g f g g f f f g g F f s s s s s i i i s s s i i s s s s s s s s s s s s s s s s s s s s s s s s s s s s s d d s s s h f g g 6   "
};
