/* XPM */
static char *_cd84f7df8914e61d7b35807dc1b985eBkE6fnWsMJsb7YBR[] = {
/* columns rows colors chars-per-pixel */
"360 360 256 2 ",
"   c #010101",
".  c #05070C",
"X  c #060A15",
"o  c #0D131B",
"O  c #11151C",
"+  c #0D1726",
"@  c #141A24",
"#  c #141D2B",
"$  c #181D27",
"%  c #00033A",
"&  c #131E32",
"*  c #06112E",
"=  c #1B222D",
"-  c #16202E",
";  c #1C2533",
":  c #1D293B",
">  c #172438",
",  c #0C213D",
"<  c #232A35",
"1  c #222C3B",
"2  c #262B36",
"3  c #2B313D",
"4  c #252932",
"5  c #000847",
"6  c #001451",
"7  c #1C2B44",
"8  c #1C2E4B",
"9  c #132846",
"0  c #1D314D",
"q  c #152E54",
"w  c #1C3254",
"e  c #1B345A",
"r  c #0A264D",
"t  c #232E42",
"y  c #202F49",
"u  c #253144",
"i  c #2B3444",
"p  c #24334B",
"a  c #2A364B",
"s  c #2D394D",
"d  c #343C4C",
"f  c #353A48",
"g  c #233553",
"h  c #2C3B53",
"j  c #263A5A",
"k  c #323E53",
"l  c #373F52",
"z  c #193969",
"x  c #153D75",
"c  c #062D68",
"v  c #233C64",
"b  c #3B414E",
"n  c #3C4354",
"m  c #3D465A",
"M  c #364359",
"N  c #2D405D",
"B  c #19427A",
"V  c #1D406E",
"C  c #2A4368",
"Z  c #344867",
"A  c #274877",
"S  c #334D74",
"D  c #38537A",
"F  c #385173",
"G  c #434B5C",
"H  c #424958",
"J  c #4C515B",
"K  c #454E61",
"L  c #484F62",
"P  c #4A5265",
"I  c #4D5669",
"U  c #4E586C",
"Y  c #465266",
"T  c #525A6D",
"R  c #525969",
"E  c #485B77",
"W  c #555D72",
"Q  c #585F73",
"!  c #505D77",
"~  c #566075",
"^  c #5A6275",
"/  c #5D657A",
"(  c #5E687D",
")  c #55637B",
"_  c #566173",
"`  c #626A7E",
"'  c #636978",
"]  c #6D727D",
"[  c #6A6D76",
"{  c #184887",
"}  c #185096",
"|  c #244D84",
" . c #285289",
".. c #365887",
"X. c #255897",
"o. c #355D93",
"O. c #38639A",
"+. c #316199",
"@. c #255DA4",
"#. c #186EB6",
"$. c #2864AA",
"%. c #3869A4",
"&. c #2A6FB5",
"*. c #145CA4",
"=. c #445E83",
"-. c #4A6588",
";. c #5C6B83",
":. c #566B89",
">. c #5D718D",
",. c #5B7597",
"<. c #4B6C96",
"1. c #646D82",
"2. c #686F83",
"3. c #626E89",
"4. c #667086",
"5. c #6A7286",
"6. c #65728A",
"7. c #6C758A",
"8. c #6E788E",
"9. c #6A7989",
"0. c #70778B",
"q. c #727A8E",
"w. c #757A86",
"e. c #6E7A92",
"r. c #647B9C",
"t. c #677997",
"y. c #747D92",
"u. c #787F94",
"i. c #727E99",
"p. c #606F90",
"a. c #4B78AB",
"s. c #657EA2",
"d. c #187BC3",
"f. c #307EC2",
"g. c #437FC0",
"h. c #7B818D",
"j. c #6C819D",
"k. c #768096",
"l. c #7A8296",
"z. c #768299",
"x. c #7C859A",
"c. c #7E889D",
"v. c #7D8895",
"b. c #5183B5",
"n. c #6B83A4",
"m. c #6A86AA",
"M. c #6C89AD",
"N. c #6583A8",
"B. c #7D8AA2",
"V. c #738BAC",
"C. c #778AA7",
"Z. c #7C91AE",
"A. c #6C8CB3",
"S. c #678CB7",
"D. c #728EB2",
"F. c #6D92BA",
"G. c #7C93B3",
"H. c #7395BB",
"J. c #7796B9",
"K. c #359DD6",
"L. c #2E92CF",
"P. c #34A3DB",
"I. c #2DA4DD",
"U. c #37ADE3",
"Y. c #1689C9",
"T. c #478AC6",
"R. c #5798CB",
"E. c #4E98CE",
"W. c #769CC3",
"Q. c #6998C6",
"!. c #57A8D8",
"~. c #53AAD9",
"^. c #7BA4CA",
"/. c #6DACD5",
"(. c #47B7E7",
"). c #57B6E3",
"_. c #56ADE1",
"`. c #64B9E4",
"'. c #52C3EB",
"]. c #77CDEE",
"[. c #76CEEF",
"{. c #3A82BD",
"}. c #80879C",
"|. c #828A9E",
" X c #848A96",
".X c #8B909B",
"XX c #858DA2",
"oX c #888FA4",
"OX c #828FA9",
"+X c #8690A5",
"@X c #8A91A6",
"#X c #8493AC",
"$X c #8D95AA",
"%X c #8E98AD",
"&X c #8F98A7",
"*X c #9097AC",
"=X c #929AAE",
"-X c #9399A7",
";X c #8395B2",
":X c #8599B5",
">X c #8B9BB4",
",X c #849CBB",
"<X c #8A9DBA",
"1X c #959DB1",
"2X c #989FB2",
"3X c #919FB9",
"4X c #8CA1BC",
"5X c #96A0B4",
"6X c #9BA2B5",
"7X c #94A4BC",
"8X c #9EA5B9",
"9X c #9DA9BD",
"0X c #95A8BF",
"qX c #9AA1AE",
"wX c #A0A7BA",
"eX c #A3AABD",
"rX c #A5ABB9",
"tX c #ACB1BE",
"yX c #B0B4BF",
"uX c #88A6C7",
"iX c #9CACC3",
"pX c #95A9C4",
"aX c #9CB1CA",
"sX c #83ADD2",
"dX c #87B3D6",
"fX c #96B8D7",
"gX c #A5ADC1",
"hX c #A9AEC2",
"jX c #A0AFC8",
"kX c #A5B1C5",
"lX c #ACB2C5",
"zX c #A4B3C9",
"xX c #ADB6C9",
"cX c #AEB9CC",
"vX c #A5B9CE",
"bX c #B0B6C6",
"nX c #B1B6C9",
"mX c #B3BACC",
"MX c #B7BCCB",
"NX c #B6BED0",
"BX c #A8BCD4",
"VX c #87B1D6",
"CX c #B9C5D6",
"ZX c #B5C1D2",
"AX c #92C8E8",
"SX c #BAEDF8",
"DX c #B2ECF9",
"FX c #A0D3EC",
"GX c #C4C9D8",
"HX c #C9F4FB",
"JX c #D5F7FC",
"KX c #C1EFF9",
"LX c #E5FAFC",
"PX c #EBFCFC",
"IX c #F0FDFD",
"UX c #CDD5E2",
/* pixels */
"o o O o o o o o o o o o O O @ O O @ @ @ @ $ = = = $ $ $ = ; ; 4 4 4 2 < 1 1 1 < 1 ; ; ; = ; : < ; ; ; < = $ = $ $ 4 < < ; ; ; < < 1 < 1 1 1 : ; ; 1 1 < 1 1 1 1 1 1 < 1 3 i u u u 1 < f m m m m m K H M M n M n m m m H d d n 1 i a s d M M m m m m K K K M M m M n M M M m m m M G G m m m M d G I K K K m s s k k k k k n b m P G Y K m m m m m K K K K M M M m M M k M m K Y Y I ! U T T U P I P K m n m M M M M k M m m m M M M k i i k k d i n d f 3 i i i i 1 u m H m n m G G G m m m m M b d d s d G d i i d n n f n b k k d s i u u 1 i f f 3 < 1 1 1 1 1 1 1 1 t t 1 1 1 1 1 1 ; ; ; ; ; 1 1 1 < ; ; ; ; i i 1 1 1 1 : 1 : 1 : ; < 1 1 ; ; ; ; ; ; ; ; < < ; ; = = ; = = @ = = = $ @ = @ @ @ @ @ O O @ @ O O O O O o o o X . X X X X X ",
"o O @ O @ O @ O @ @ @ @ @ @ @ $ $ $ $ $ $ @ = 4 1 < 2 4 = ; ; ; ; ; ; 1 1 1 1 1 1 : : : 1 : 1 : : ; ; 1 ; - ; 1 1 i u 1 1 : 1 i 1 u 1 t t 1 t 1 1 1 1 u u t t u 1 t i i s i i u i 1 f k u u u u a a i u u a u u u s a s s i s i k k h a s h h s s s s s h s s a h h h h h a s h h a a a s h h s s h h h h k M N k N M k s s M s s k k h h h s s s k h h h M k N M N k h k h h h h h h h h h h h k p s h h N k h h s s s s a s s s s a a 1 1 a a u t u u < 1 i k k d s i u s a h h s s s s h s a a a a i u t s d n K m s i a a u u u u u t u 1 1 u a k s f a i i u t t u i u i t ; i d u : 1 1 : u u t u t t t : u 1 1 a t t t 1 t : : 1 1 1 1 1 1 1 1 1 1 ; : 1 ; ; ; ; ; = ; ; = = 1 < ; $ $ = @ $ $ @ @ @ @ @ @ @ O O O O O O o O O o X X X X ",
"O O @ @ O @ @ @ @ @ @ @ @ @ @ $ $ = $ = = $ = = ; < < = ; ; ; ; ; ; ; : : : : 1 : : : : 1 1 1 1 1 : 1 : ; ; t u u 1 1 u t 1 1 u u u t t t 1 t 1 1 1 t u u u u u t u a u a i i a s k s u i s s s s s s u u a a u a u u p a u s 1 < s s i h h k k k k M k k k M M k k M N k h h M M k k k M N M N h M M M M k h M M N M k k h M M M M M M M M M k k M M N M M M M M M N N M M M M M M Z M M M M M M M M N M M M M h k M k k k h k h h k h s u a s s u k a s s 1 t s i s n s k k k M h h h h k k h h s s s u s k f & f d i a a a a a a u u u u t 1 i u u s s a i u u u u u u u i u 1 1 1 1 u 1 t 1 u u u t t t u t u t t t u u u t t 1 1 1 1 t t u t 1 1 1 1 1 1 1 : : 1 : < ; ; < ; ; ; ; ; = ; = $ $ $ @ $ @ @ @ @ @ @ @ @ @ O O o $ $ O o o o X ",
"o o O O O O o o O o o O O O O O O @ @ @ @ @ $ @ @ $ = $ $ $ $ = = = = = = = = = = = = ; = = = = ; = = = = ; ; < ; ; ; 4 = 4 < ; < < < ; < ; ; = = < 1 < < < < 2 < 2 < < < 2 2 1 2 3 s a a s k h s s s s s a a a s a a a a a d s 1 a M s N h N N N N N M M N M M N N N M k N N M N M N M M M M M M M M M M M N M M M M M N M M M M M M M M M M Z M M M M M M M M M N N M M M M M Z Z Z Z M Z Z M M M M M M M M N k M N M M M k M M M k k k k k M k s M k k M k u s s k k M M M M k k M h h h h s h s k k s d M d i k s s a s a a s s a a a p u : 1 1 1 3 1 3 1 1 1 1 1 1 1 3 3 1 1 < < < 2 < < ; 1 1 1 : 1 1 1 < : 1 1 1 ; < ; ; ; ; ; ; ; ; ; ; ; ; ; ; ; ; ; = = = = = = = = = = = @ $ @ @ @ @ @ @ @ O O O O O O O O O O O O o o o X o X o X X ",
"@ < = = = = = = = = = = = 4 < < < < < 2 1 2 < 1 < 2 1 2 1 1 1 1 1 u t u u i u a i a a a a s s a d s s s s s d d s s s s s d i k k M M k k d k k d M k b b n n M b b b n b b b M b b k s s s k k k i ; ; ; ; - - - - ; = = = ; ; ; ; ; > - - ; ; ; ; - ; ; ; ; ; ; - # # - - - ; ; - ; ; - ; = ; ; - ; - - ; ; = # = # ; ; ; # @ - ; - $ $ # # & # - # # - # # # + # # # - - - - - - - - - ; - - - - - ; - - - # # # - ; - - = - - - # - ; - ; ; ; ; ; ; $ @ $ = : 1 ; # = ; ; = - = ; ; ; ; - $ $ # - ; = 1 1 1 s ; ; ; = $ $ # - = = 1 u y t u b u M m m m M n b b n n b m M n M k k k k k d i s a a s h h h h h k k k k M k h s s s s s s s s s d s s s a a i i a i u i i u 1 1 1 1 u 1 1 1 1 1 1 1 < < ; 4 4 < < 4 < 4 = = = = = = = O 4 = . ",
"= = @ @ $ $ = = $ = $ $ = = = ; ; ; ; ; ; ; ; ; ; : < < ; ; : : 1 1 t t t t t u p u u u p u u p u u p a a p u u u p p u : ; ; p p a p p p p u p u u p u u u u u u u a a a a a a a a s s s h s h 1 X       .         .   X @ X X X X X o O O O O O @ + O o O + @ + o o O O @ O o o o o O O O O o @ $ @ o O O + @ @ @ @ @ @ + @ = @ $ = = $ $ = = = $ $ $ @ $ = = = = = = $ $ $ $ $ $ $ $ $ - = $ @ @ @ @ @ @ @ @ @ @ @ @ @ @ O O @ + @ o o + o + + + + + @ @ @ @ + + + + @ @ O O + + O o O O O o o O O O O o X o . .   . . . . . . . . X : p p a u s a a a a a p u u u y y t t u u p p p p a p p y y a t : : : p h a a h h h h h a a a p p p p u u u t y y y u u u u u u t t 1 1 1 1 1 1 1 : : : ; ; ; ; ; ; ; ; = = = $ $ $ $ @ @ @ @ @ @ @ @ . ",
"@ @ @ $ $ $ $ = = $ $ $ $ = = = = ; ; ; < ; ; ; ; ; < 4 ; ; ; : : 1 t t u u u u p a a p a a p a a a a a h p p p p p : o o o . O a a u a a a p a a a a a a u u a a a a a a a a s s s a s s a s 1   . . . . X X X . . X . @ i ; $ $ # # # # - : ; : 1 : : ; ; ; ; ; ; - - ; ; : : > > : : : : : ; t a a a h h h h h h h h a a a Z Z M M M k k M M N k h h h h k M M M M M M k k h h h k h h h h k h h h h h h k k k k M k h h h h h h h h a u 7 > > > > : > ; : > : ; > > ; ; ; ; # - ; ; ; > ; : : 1 ; # ; - - # # ; $ . X . . . X X X . . : a u a s a s s s a a a a a u i a i u u a a a a a a u u h t X o X X X s M h h h h h h a a a a p a p p u u u u u u u p p p a u u u u u 1 1 1 1 1 1 < 1 ; < ; ; ; ; ; = = = = $ $ $ $ @ @ @ @ @ @ @ $ $ ",
"@ @ @ $ $ = $ = = = = = = = ; = = ; ; ; < < ; ; ; : : $ : : : : 1 t u u p p a p g p p p g h j g a h h h h p p p p y # # > - # X ; s p a a a a a s a a a s a a a a a a s h s s h s s h s a s 1 . . . . . X X X X X X . X X + # # # # # # # # # # # # # # & # & # # # + + @ @ ; ; - > ; : u 7 7 7 y 8 p p p p p p p p p p y p p 8 p y p y p p y y y y p y 8 8 p p p p p p g g g p p p p p g p p p p p p p p p p p p p p g p p p p g g g h p y 8 7 : > > > > > ; - ; - - - - ; ; > & # # # # & & - & - # # # # # # # @ + . . . . X X X X X . X 1 h h h h h h h h a a a a a p a p p p p p h s a p u p y > ; > - - + ; M h h h h h j h h a p p a a a p p p p p a p p p p p u u 1 1 t u u u 1 1 1 1 1 < < < ; ; ; ; ; ; = = = = $ $ @ $ @ @ $ @ @ @ $ ",
"@ @ @ $ $ = = = = = = = = = ; ; ; ; ; ; : : ; ; 1 1 1 : + + O + o + u p p g g h j j j j j h h h h h j j j g h j g p # > > > > @ # g p h h h h h h h j h h h h h h h h h h h h h h h h h h i X   . . . .         . X X . # - & & & - & & > - & & & & & # + + + o o + + o o + # # # # # 7 p p p p p p p p p p p p p g g p p g p p y p p p p p p p p p p p p p g g g g g g g g g g g g g g g g g p g g p p p p g g g p g g p g g g g g g p p p y 8 7 > > > > > > & + + o X X X X # > - & # # & - - & & & # # # # # # # + X . X     .   . X X . . u h h h h h h h h j h h j g g g g j h j j j h h g p p p > > > > # # M h N N h h h h h h j j h j j j j j g g p > > : p p t ; @ @ ; t ; ; u 1 1 1 1 1 1 1 ; < < ; ; ; ; = = = = = $ @ @ $ @ @ @ $ @ ",
"@ $ $ $ $ = = = = = ; ; ; ; ; ; ; : ; 1 1 : : ; : 1 t $ + O o X @ o 7 h j j h h j C j N h C C C C N h j C h C C j j > 8 8 8 7 & > g p g h j h t h N N N h h h a h N h h h N N N N h N h N u   X . X . + > 8 7 8 @ . X X & > > > > > > > > > > > > > > # & & > + + & > # + + + + + + + 7 8 8 7 7 7 7 8 8 8 8 8 7 7 7 8 8 7 8 8 7 7 8 7 8 8 7 8 7 7 7 7 7 8 7 8 8 8 8 8 8 0 8 8 8 8 8 8 8 8 8 8 8 8 8 8 8 7 8 0 0 0 8 0 0 8 8 8 8 8 8 8 8 8 7 7 7 7 7 7 7 7 7 7 > > > + X + X   & > > > # o > > > > > > & - > > > > & # o X   t g 7 u - X X X   : Z N j N N h j h j j j j h j j h t y j C C C 7 : h g g : 7 7 7 > # Z Z Z Z Z j C j j j j j C j h j j h j v g $ - ; g j a ; @ O ; u # = p u t t 1 1 1 1 1 1 1 < ; ; ; ; ; ; = = $ $ $ $ $ $ @ $ $ ",
"$ $ $ = = = = ; ; ; ; ; ; 1 : : : 1 1 1 1 t u t u u p h C C Z C Z Z C C C C C C C C C C C C S Z C Z Z Z S C C Z C v 7 g j g g > > h g g g N Z p N Z C C C C N u h Z C Z Z Z Z Z Z Z Z Z Z t   X X X X o & > & > + X o + > > : > 7 7 > : 7 : 7 7 7 > > , , , g 8 7 0 0 8 7 8 8 7 7 8 8 g w g g w 0 8 0 8 8 8 7 7 8 8 8 8 8 8 8 8 8 8 8 8 8 8 8 8 8 8 8 8 8 8 8 8 8 8 8 w 0 w 0 8 8 8 0 8 8 8 8 8 8 8 8 8 8 8 8 0 0 0 0 w w 0 8 8 8 8 8 0 8 8 8 8 8 8 8 0 p 0 p 8 7 > # 7 7 7 8 g 8 > : # # 7 7 7 7 7 7 > > > > : > > & + X X # > - > + X X o   t Z Z Z Z C N C C Z C C C C C C C g C C S S S 7 > C v C 8 7 7 8 > > Z Z Z Z Z Z C Z Z C C C C Z C C C C C C v Z F Z C C Z C C N N N N a p p u u t 1 1 t 1 1 1 1 1 1 ; ; ; ; ; = = = = $ = $ $ $ $ ",
"$ = = = = ; ; ; ; ; ; ; 1 1 1 1 1 t t u u u a p p a g p h C C C N C C C C C S S S S S S S S D D S D S D D S S S S C 9 > 9 > > + > g 7 8 Z Z F F F Z Z Z Z Z Z Z S Z Z Z Z Z Z Z Z Z Z Z Z h - . o X X o X X o o o o + # > 8 7 7 8 8 8 8 0 p 8 8 8 8 0 7 & 8 j j j j j j j v v C C v v v v v v v j g g g g g g w e w w w w w w w w w w w w w w 0 w w w w w w w w w g w w w e e g e g e e e e e e g g g g g g g g g g j j j g g g g g g g g g g g g g g g g g g g g 9 & 0 0 g g 0 7 0 p y g 0 8 p 0 g 0 7 8 8 8 8 8 > > > + o X . X X X X o o   p F S Z S Z Z Z Z Z Z Z Z S S S S D D S S S D S A D v v 9 , 9 9 & 9 Z C D S D S S S S S S S S S S S S S C C C Z F S Z Z Z Z C C j p g j h a p p u t u u 1 t 1 1 1 1 1 1 ; ; ; ; = = = = = $ $ $ $ ",
"= = = ; = ; ; ; ; : ; 1 1 1 1 1 u u u u a a a h g g j j g g j j j C C S S S S A A ............................D D ..S w w 8 0 w w 0 8 C S Z Z F D S S S S S S F S S F F F F F F Z Z F Z S F F t   + o O + + + + + + + > 7 8 0 0 g w 8 g g g g w g g j j 9 9 9 8 w e j j v v C C C C C C C v v v v v v v v v v v v e v j j v v j j j e e e e e e v v v v v v v v v v v v v v v v v v v v v v v v v v v v v v v v v v v v v v v v v v v v j j j v j j j g w w g 8 8 8 , & & & , & 9 j g j g w g g g g 8 0 g g g g 0 7 7 : - + + + + + + o o +   Z D S F F F D D S D S D D D D ..D ...... . . . ...o...A v j e e g v S ..............................S D S S S S A C C C j v v v C g h j g g a a a u a a u t u 1 1 1 1 1 < < ; ; ; = = = = $ $ $ $ ",
"= = = ; ; ; ; 1 ; 1 1 1 1 u u u u a a p a g h j h j C j Z C C C S S  . .........o.o.o.o.o.O.o.+.+.O.O.O.O.O.O.o.....o.o.o...o...........D ....D ..........D ........D D D D D F D S S D D F D D >   X X X X X o o o + 9 7 8 g g w g g 8 w g e j e w 8 g w r 9 9 9 9 9 9 9 9 8 q 8 w w w w q q q w w w w w q q q q q q q q q w q q q q q q q q q w e e q e e q e q q q q e q q e e e e e e e e e e w e e q q q 8 q q q q q q q q q q q 9 q 9 9 9 9 9 9 9 9 9 9 , 9 9 , , 9 9 9 9 9 9 9 9 9 w w w w w w w w w g w 0 8 > , # X X X X X X X X . # D ............................o.......o.o.+.o.o.o.o.O.O.O.O.O.O.O.O.O.O.O.O.O.o.o.o.o.o.o.o.o.o.o.o........... . . . . .A ..D C A S C j j j j h h p p a a u u u u t 1 1 1 < ; < ; ; = = ; = $ $ $ ",
"= ; = ; ; < < 1 1 1 1 1 u u u a a a a h j h h h C C Z F S D S D ....o.o.o.o.+.+.+.O.O.O.%.%.%.%.%.%.%.%.%.%.%.O.O.+.+.+.o.o.o.o.o.o.o.o.o.O.O.O.O.O.O.o.o.o.o.o.o.o...=...........D D ..D ..=.-.-.u : 1 : : > > & 7 8 w g g g j j j v j j v j z v e e e e j j e e e w w w w w e w w w w w w e w w w w w w w w e e e g w w e e e e e e e e e e e g j e j j j j j j g g g g j j j j j j e j e j j v j j j j j j j j g j j e w w e e e g g w g g w w w w w w w w w w 8 w w 8 w w w w w w w e e e e e e j j j j e g j g 0 8 0 8 8 7 7 7 > : > : Z D ..=.....o...o.o.o.o.o.O.O.O.O.O.O.O.O.O.O.O.O.O.O.O.O.%.%.%.O.O.O.O.O.a.%.%.%.%.O.O.O.%.O.%.%.%.O.O.+.+.+.+.+.o.o.o.o.o.o...A A S C C C C N h h h h h h a a a u u t 1 1 1 1 1 < 4 4 ; ; = = = $ ",
"@ @ @ @ @ $ $ $ $ = = = ; ; ; ; : : : 7 7 8 p p p g j j j C C C C A A A A A | | | | | |  . . . . . . . . . . .| | | | | | A A A A A A A A A A A A A A A A A A A A A C C C C C v v v j j j j j C Z Z Z Z Z Z h h j j C C C A A S A A A A A A A A A A A A A A  .A  .| A  .A  . ............................. ...............................................................o.o.o.O.................o.......o.o.o.o.o...............................A A A A A A A A A A A A A A A A A A A A A A A A A A A A A C A C C C C C C v j j j g g g g g 8 v C C C C C C A C A A A A A A | | | | |  . . . .| | | | | | | | | | | | | | | | | | | | |  . . . . . . .| | | | |  .| | A A A C C v j g g p p u y t 1 1 : 1 : ; ; ; = = = $ $ $ $ $ @ @ @ @ @ O ",
". . . . . . . . . . . . . . . . . X . X X o + + + * & , 9 r r r r q c z z z z x x x x x x x x B B B B B B B x x c c z z z z c z c c c c c c c z c c c z e q q r r r r r 9 9 9 , , & * * + + + + - - & > , , , 9 , 9 9 q q e z z z z z x x x x z z x x x x x B B B B x x x x x x B B B B B x x x B x x x x x x x B B x B B x B B x B x x x x x x x x x B B B B B B B B B B B B B B B B x B B B B B B B B B B B B B B x x x B B B B x x x x x c c z z z z z x z z z z z z z z z z z z z z z x x x x x z z z z z z z z e e q q q 9 9 9 , 9 , , & & * , , , r r r r q q q z z z z z z z x x B B B B x x x x x x x x x x x x x x x x x x x x x x x x x x x x x x x x x x x z z e q q r r 9 & & * + + o X X X X X X X X X . . . . . . . . . . . . . . ",
"X o o o O @ @ @ @ @ @ $ $ @ - ; - ; : : 8 p p w w j C A V A { { { X.X.} X.X.$.$.$.$.$.$.$.$.$.$.&.&.&.&.&.&.&.&.&.$.} { { { { { X.X.$.$.$.$.$.$.$.$.$.$.%.%.+.+.+.+.+.o. . . .D S S S S Z C j N Z E -.E E =.=.E ........o...o.+.O.+.%.%.%.%.%.%.%.%.%.%.%.%.%.%.%.%.%.%.%.%.%.%.%.%.%.%.%.%.%.%.%.%.%.%.%.a.%.a.a.a.a.a.a.a.a.a.a.a.a.a.%.a.a.a.a.a.%.%.%.%.a.a.a.a.a.b.a.a.a.a.a.a.a.a.a.%.a.a.a.a.a.a.a.a.a.a.a.a.a.a.%.%.%.a.a.a.a.a.%.a.%.%.O.%.O.%.O.+.+.O.O.%.%.+.+.O.O.+.+.+.+.+.+.+.+.o.+.+.%.%.O.+.+.+.o.o.........D D S D D D D D S D S S S ...... . .X.X.+.+.%.%.%.%.%.%.$.$.$.&.$.$.$.$.@.@.$.$.@.} { { X.@.$.$.$.$.$.$.$.$.$.$.$.$.$.$.$.$.$.$.$.$.$.@.X.X.X.X. .| A A C e e e w 8 0 0 7 7 : : ; ; ; ; @ $ @ @ @ @ O O O O @ o o X ",
"o O O O $ $ @ ; ; = ; u t u t u u h Z Z C j Z S S D o.o.+.%.%.&.a.b.L.L.T.T.T.T.T.T.T.L.E.E.E.E.E.E.E.E.E.E.R.T.T.L.$.@.&.$.@.$.a.T.T.T.E.E.E.E.E.R.E.R.T.T.T.T.T.T.T.T.b.a.a.a.a.a.<.-.<.<.D F =.-.,.-.-.:.,.<.<.<.a.a.b.a.a.a.b.T.T.R.T.T.T.T.E.T.T.E.R.T.E.R.T.T.T.R.E.T.T.R.R.R.R.R.R.R.R.R.R.R.R.R.R.R.R.R.R.R.R.R.R.R.R.R.R.R.R.R.R.R.R.R.R.R.R.R.R.R.R./.Q.Q.R.Q.R.Q.R.R.R.R.R.R.R.R.R.R.R.R.R.R.R.R.R.R.R.R.R.R.R.R.R.R.R.R.Q.R.T.R.R.R.R.T.b.R.b.b.b.b.T.T.T.T.T.b.T.b.T.b.a.b.T.T.T.T.b.T.b.b.b.a.a.b.a.a.a.a.a.<.<.<.<.-.<.-.-.,.s.<.<.<.<.a.<.a.a.a.a.b.b.T.T.T.T.T.E.E.E.E.E.E.T.T.T.E.T.&.&.L.&.@.$.$.&.f.E.T.L.T.E.T.E.T.L.T.L.T.T.L.L.T.T.T.T.L.T.L.&.T.a.a.a.%.O.a.o. .S D D j C F C N j h h u a s 1 ; 1 1 ; = = $ @ @ = @ o o ",
"O @ @ @ $ @ $ = = 1 : 1 t i u u h h j j C C S D ....+.%.&.&.b.T.T.T.E.E.E.E.E.~.~.~.~.~.~.~.~.~.~.~.~._.~.~.!.~.E.E.K.L.L.L.L.L.R.!.!.~.~.~.!.!.!.!.!.!.!.R.E.!.!.E.R.R.R.T.b.a.<.<.<.<.-...=.=.-.=.-.-.=.=.-.-.-.<.a.a.b.b.b.b.T.E.E.R.R.E.E.R.R.!.R.R.!.!.!.R.R.R.!.!.!.R.R.!.!.!.!.!.!.!.!.!.!.R.!.!.!.!.!.!.!.!.!./.!.!./.!.!.!././.!.!././.!.!.!.!.!./.!././././././././././././././././././././././.!./././././.!.!.!.!.!./././././.!.!.!.!.R.Q.!.R.R.R.R.R.R.!.R.R.R.R.R.R.R.R.R.E.E.E.E.E.E.E.E.T.T.T.b.T.b.a.a.a.a.<.<.-...-.-...-.<.-.<.<.<.<.%.a.a.b.T.E.R.E.E.E.E.E.E.!.!.!.E.E.E.E.E.E.E.K.L.K.L.L.E.E.E.E.~.E.E.~.~.~.~.~.~.~.~.E.E.E.E.~.~.~.E.E.E.E.E.T.T.T.{.{.%.%.O.o. . .S Z C C C h g p h p u u u 1 1 1 1 ; = = = = @ @ @ @ ",
"- - - = $ = = ; ; : : : t y u p p j j N C A D ..o.+.+.%.{.{.T.E.E.E.~.~.~.~.~.~.).)._._.).).).).).).).).).)._._._.).)._.~.~._._.!.!.~.~._._.~.~._._.)._.!.!.!._.~.!.!.E.E.E.T.b.%.%.<.<.o.......=.=.D D =.=...-.O.O.a.b.b.b.T.E.R.!.!.!.!.!.!.!.!.!.!.!._._.!.!.!.!._.!.!.!.!.!._._.!.!.!.`._.!.!.!.!.`._.!.!.!.!.!.!.!.!.!.`.`.`.!.!.`.!.`././.`.`._.!.!._.`.`.`.`.`.`./.`.`.!.!./.`.`.`./././.`.`._.!.`.`.`.`.`./.`.`.!.!.!.!.`.`.`././.!.!.!.!.!.!.!.!.!.!.!.!.!.!.!.!.!.!.!.~.!.!.!.!.~.~.!.~.!.~.~.E.E.E.E.E.T.b.a.a.a.<.O.o.o...-.<.o.o.O.<.<.a.a.a.b.T.T.E.E.E.!.!.!.!.!.!.!._.~.~.~.~.~.~.~.~.~.~.~.~.~.~.~.).)._.~.~._.).).).)._._.)._.~._.~.).).).~.~.~.~.~.~.E.K.K.L.{.%.+.+.o. .D A C C v j j g p p a u t 1 1 1 1 < < ; ; : ; ; ; ; ",
"o o o o o O @ @ @ $ # - - - > ; : 7 8 8 0 w v A A | X.@.#.&.Y.L.L.L.I.P.P.I.I.I.U.I.I.I.I.U.U.U.U.U.U.U.U.U.P.P.P.U.U.P.P.P.P.P.P.I.K.I.I.P.P.I.I.P.I.I.I.K.I.I.P.I.L.L.L.L.Y.$. .A V v j w 8 w g g p 0 0 g j C C A  .$.&.&.&.Y.L.L.L.L.L.K.P.P.P.K.K.P.P.P.P.K.K.P.P.I.I.K.K.K.P.P.K.K.K.P.K.K.L.L.K.P.K.K.K.K.K.K.K.K.K.K.K.K.K.K.K.K.K.K.K.K.P.P.K.K.P.K.P.P.K.K.K.K.P.P.K.K.K.P.P.P.P.K.K.P.P.P.K.K.K.P.P.K.K.K.K.P.P.K.K.L.K.K.K.K.K.K.K.K.K.L.L.K.K.K.K.K.K.K.K.K.K.L.K.P.I.I.L.L.I.I.I.I.K.K.I.I.L.L.Y.Y.L.&.%.+. .A A v e w e j j j j e C A  .X.$.&.f.L.L.L.L.I.P.P.P.P.P.I.P.U.I.I.I.I.I.I.I.I.I.I.P.I.I.I.U.U.I.I.I.I.U.U.U.U.I.I.P.I.I.P.I.I.U.I.I.I.I.I.I.I.L.Y.Y.Y.#.$.X.A A C z w 0 8 7 : > > ; ; ; ; $ @ $ $ @ @ @ @ @ @ @ @ @ @ ",
"- - - - = = - - ; - - - > : : 7 7 9 9 q e z V B { @.*.Y.~.~.).).).`.[.[.[.[.[.[.[.[.[.[.[.[.[.[.[.[.[.[.[.[.[.[.[.[.[.[.[.[.[.].[.[.[.[.[.[.[.[.[.[.[.[.].[.[.[.[.].[.].].].).K.&.a.a...S D D E =.=.E E -.-.-. .o.$.*.L.~.`.`.`.].].].].].].AXAXAX].].].].].].].].].].].].].].].].].].].].AX].].].].].].].].].[.[.].].].].].].].].].[.].AXAXAXAXAXAX].].[.[.AXAX].].].].AX].].].].].[.].].].].].].].].].].AXAXAX].].].].].].[.[.].].].].].].].].[.[.[.].].].].[.[.[.[.[.[.[.].].].].].].].].].].[.[.[.[.].].].].`.~.L.&.b.a. .-.-.=.=.-.-.-.-.,.O.{ $.#.Y.~.).`.].].].].].[.[.].[.[.[.[.[.[.[.[.[.[.[.[.[.[.[.[.[.[.[.[.[.[.[.[.[.[.[.[.[.[.[.[.[.[.[.[.[.[.[.[.[.[.[.[.[.].].`.~.L.*.%.+.A C z e w w g g p : > > : : : : : ; ; ; ; ; ; ; < 1 1 ",
"$ - ; ; ; ; ; ; - - ; 7 > > > 7 7 9 9 q z A B { &.#.K.AXDXDXSXSXSXSXKXHXKXKXHXHXHXHXHXHXHXHXHXHXHXHXHXHXHXHXHXHXHXHXHXHXHXHXJXHXHXHXHXHXHXHXHXHXHXJXHXJXJXJXHXHXHXHXHXHXHXSXDXFX).#.T.a.%.<.a.<.<.<.<.a.N.<.+.%.a.#.~.AXDXSXKXHXHXHXHXHXHXJXJXJXJXJXJXHXHXHXHXHXHXJXJXJXJXJXJXJXJXJXJXJXJXJXJXJXHXJXJXHXHXHXHXJXJXJXJXJXJXJXJXJXHXHXHXHXHXHXJXJXJXJXJXJXHXJXJXJXJXJXHXHXJXJXJXJXJXJXJXJXJXJXJXJXJXJXJXJXJXJXJXJXJXJXJXJXJXJXHXHXHXHXHXHXHXHXHXHXHXHXHXJXHXHXHXHXHXHXHXHXHXHXHXHXHXHXHXHXHXHXHXHXHXHXHXHXHXHXKXKXSXDXAXK.L.R.a.b.b.a.a.a.a.a.N.F.&.&.f.L.[.DXDXSXKXKXHXHXHXHXHXHXHXHXHXHXHXHXHXHXHXHXHXHXHXHXHXHXHXHXHXHXHXHXHXHXHXHXHXHXHXHXHXHXHXHXHXHXHXHXHXHXHXHXHXHXHXHXSXSXDXAXL.#.{.%. .A C C C v j g p 0 8 > : t u u t t t 1 1 ; ; ; : : ",
"1 1 1 i 1 - # $ - # - a 7 > > > 9 9 , C A ..X.%.T.L.AXSXHXJXJXJXJXJXLXLXLXLXLXLXPXPXPXLXLXPXPXPXLXPXPXPXPXPXPXPXPXPXPXPXPXPXPXPXPXPXPXPXPXPXPXPXPXPXPXPXPXPXPXPXPXPXLXLXLXJXJXHXDXP.E.Q.b.A.N.,.<.<.<.s.S.a.a.b.R.K.FXSXJXJXJXLXLXLXLXLXLXPXPXPXPXPXPXPXPXPXPXPXPXPXPXPXPXPXPXPXPXPXPXPXPXPXPXPXPXPXPXPXPXPXPXPXPXPXPXPXPXPXPXPXPXPXPXPXPXPXPXPXPXPXPXPXPXPXPXPXPXPXPXPXPXPXPXPXPXPXPXPXPXPXPXPXPXPXPXPXPXPXPXPXPXPXPXPXPXPXPXPXPXPXPXPXPXPXPXPXPXPXPXPXPXPXPXPXPXPXPXPXLXPXPXPXPXPXPXPXPXPXPXLXLXLXLXLXLXLXLXJXJXHXHXFXK.!.Q.Q.Q.S.N.s.a.a.S.^.T./.E.[.DXHXJXJXJXLXLXLXLXLXPXLXLXLXLXLXLXLXLXPXLXLXLXLXLXLXLXLXLXLXPXPXLXLXLXLXLXLXLXLXLXLXLXLXLXLXLXLXLXLXLXLXLXLXLXLXLXLXJXJXHXSXAXL.E.a.%...S C S v 0 0 p h g > > ; 1 1 u 1 1 1 : : u s m b ",
"i u a s M 1 - $ # # # - # # # > 9 8 8 v v  .X.%.E.(.DXHXJXJXJXLXLXLXPXPXPXPXPXPXPXPXPXPXPXPXPXPXPXPXPXPXIXPXIXIXPXPXPXPXPXPXPXPXPXIXIXPXPXPXIXIXIXIXIXPXPXIXPXPXPXPXPXPXPXLXJXJXDX).E.Q.a.s.<.<.-.-.-.-.<.<.a.b.!.(.DXHXJXLXLXLXPXPXPXPXPXPXPXPXPXPXPXPXPXPXPXPXPXIXIXPXPXIXPXIXPXPXIXIXIXIXPXPXIXIXPXPXPXIXIXIXIXIXPXPXIXIXIXIXIXIXIXIXIXIXIXIXIXIXPXPXIXIXIXPXIXIXIXIXIXPXIXPXIXIXIXIXIXIXIXIXIXIXIXIXIXIXIXIXIXIXIXIXIXIXPXPXIXIXPXPXPXPXPXPXPXPXPXPXIXPXPXPXPXPXPXPXPXPXPXPXPXPXPXPXPXPXPXPXPXPXPXPXPXLXLXLXJXJXHXDX_.T.b.b.a.<.<.<.<.<.<.b.T./._.FXKXJXJXLXLXPXLXPXPXPXPXPXPXPXPXPXPXPXPXPXPXPXPXPXPXPXPXPXPXPXPXPXPXPXPXPXPXPXPXPXPXPXPXPXPXPXPXPXPXPXPXPXLXLXLXLXLXLXLXJXJXHXDXP.K.b.O. .A C v w w j N 7 > > 7 1 u : u t u t t u k h k s ",
": : : : u : 7 ; # - > : > & + & & & , q z z B } &.Y.[.DXHXJXJXJXJXJXJXLXLXLXLXLXLXLXLXLXLXLXLXLXLXLXLXLXPXPXPXPXLXLXLXLXLXLXLXLXPXPXPXPXPXPXPXPXLXLXPXPXPXPXLXLXLXLXLXLXLXJXJXHXFXY.E.b.{ D A C C C C C C A V | T.L.].SXHXJXJXJXLXLXLXLXLXLXLXLXLXLXLXLXLXLXLXLXLXLXPXLXLXLXLXPXPXPXLXLXLXLXPXLXPXPXLXLXLXLXPXPXPXPXPXPXPXLXPXPXPXPXPXPXPXPXPXPXPXPXPXPXPXPXPXPXPXPXPXPXPXPXPXPXPXPXPXPXPXPXPXPXPXPXPXPXPXPXPXPXPXPXPXPXPXLXLXLXPXLXLXLXLXLXLXLXLXLXLXLXPXPXLXLXLXLXLXLXLXLXLXLXLXLXLXLXLXLXLXLXLXLXLXLXLXLXJXJXJXHXSX].Y.T.%. .| A A A A A S | } T.E.].DXHXJXJXJXJXJXLXLXLXLXLXLXLXLXLXLXLXLXLXLXLXLXLXLXLXLXLXLXLXLXLXLXLXLXLXLXLXLXLXLXLXLXLXLXLXLXLXLXLXLXLXJXJXJXJXJXJXJXJXHXSX].Y.L.+.B V C z e w 9 , > p 8 7 8 1 a a p : 1 t t t > ; > > ",
"; ; : ; ; : : 7 u : # - - 9 7 9 8 w w e z z z x } &.Y.[.AXFXDXDXDXDXDXSXSXSXSXSXSXKXKXKXSXSXSXSXKXKXKXKXKXKXHXKXKXKXSXKXKXSXSXSXKXHXKXKXKXKXKXKXKXKXKXHXHXHXKXKXKXKXKXKXSXDXFXAXP.T.R.o.A e e e w w w w e z v A +.L.L.].FXDXDXDXDXDXDXDXDXDXSXSXSXSXSXSXSXSXSXSXSXSXSXSXSXSXSXSXSXSXSXSXSXSXSXSXSXSXSXSXSXKXKXKXHXKXKXKXKXKXKXKXKXKXKXKXKXKXKXKXKXKXKXKXHXKXHXHXHXHXHXKXKXKXKXKXKXKXKXKXKXHXKXKXHXHXHXHXHXHXHXHXHXHXKXKXKXKXKXKXKXKXKXKXKXKXKXKXKXKXKXKXKXKXKXKXKXSXSXSXSXSXSXSXSXSXSXSXSXSXSXSXSXSXSXSXSXSXDXDXFXAX`.L.T.%.{ z v e e e e e e A B } L.K.[.FXDXDXDXDXDXSXSXSXSXSXSXSXSXSXSXSXSXSXSXSXSXSXSXSXSXSXSXSXSXSXSXSXSXSXSXSXSXSXSXSXSXSXSXSXSXSXSXSXSXSXSXSXSXDXDXDXDXFXAX].L.f.&.{ V A C v e e e w g g g g 7 s N p u u u 1 t t 1 t t t ",
"@ @ $ @ @ @ @ @ # ; - # - - > 9 0 w e e w e z x x } #.#.Y.I.I.U.(.(.(.(.'.'.'.'.'.'.'.'.'.'.'.'.'.'.'.'.'.'.'.'.'.'.'.'.'.'.'.'.'.'.'.'.'.'.'.'.'.'.'.'.'.).).).).).).(.(.P.L.d.#.%.{ z z e e w 8 8 8 8 w e z A | X.&.#.Y.P.P.U.U.U.U.U.(.(.(.(.(.(.(.(.(.(.(.(.(.(.(.(.(.(.(.(.(.U.(.U.U.U.U.(.(.(.(.(.(.(.(.(.(.(.(.(.(.(.(.(.(.(.(.(.(.(.(.(.(.(.(.(.(.(.(.(.(.(.(.(.(.(.(.(.(.(.(.(.(.(.(.(.(.(.(.(.(.(.(.(.(.(.(.(.(.(.(.(.(.(.(.(.(.(.(.(.(.(.(.(.(.(.(.(.(.(.(.(.(.(.(.(.(.(.(.(.(.(.(.(.(.(.(.(.(.(.(.P.K.Y.#.&.X.B B z z e w q q q q q c c } f.Y.L.I.U.U.(.(.(.(.(.(.(.(.(.(.'.'.'.'.'.'.'.'.'.'.'.'.'.'.'.(.(.(.(.(.(.(.U.U.(.(.(.(.(.(.(.(.(.(.U.(.U.(.(.U.U.U.U.I.Y.Y.#.&.+.B B z z e 0 9 7 8 7 > & & + : i t : ; 1 : < < ; ; < 1 1 ",
"- = = = = = ; ; ; 1 u u u u u a p g g j v C C A  .+.%.&.&.L.K.~.~.~.~.~.).).).)._.).).).).).).).).).).).).).).).)._.).).`.)._._.).).)._._._.).)._._._._._._._._._._.!.!.E.E.T.a.a.O.....D S Z C v j j N C C C S ..O.%.%.&.T.E.E.E.E.E.!.!.!.~.~.~.!.!.!.~.~.!._.!.!.~._._._._.~.~.!.!.!.!.~.!._._._._._._.).`._.!.!.!.!.!.~.~.!._.!.!.~.~.~.~.~.!.!.!.~._.!.~.~.~._._._.~.~._._._._.~.~._._._.~.~.~._._._._._._.~.~.~.E.~.~.!._.~.~.!.!.!.!.E.E.!.!.!.!.~.~.~.!.~.~.~._._.!.~.!.!.!.!.~.!.E.~.!.!.!.!.E.!.!.!.E.T.b.a.a.O.....D D D S C C Z Z S A  . .%.a.T.L.E.~.~.~.~.~.~.).).).).).).).).).)._.).).).).).).).).)._._.).).).).).).).)._._._._._._._._._._.).)._.~.~.~.~.E.E.L.&.&.%.o. .A A C C N h g h a i u 1 1 i 1 1 1 : 1 1 < < < ; < 1 1 ",
"@ @ @ @ @ $ $ $ - ; ; ; : : t u p p p g j v C A A  .o.%.%.&.{.T.T.E.E.E.!.!.!.!.!.!.!.!.!.!.!.!.!.!.!.!.!.!.!.!.!.!.!.!.!.!.!.!.!.!.!.!.R.R.!.!.!.R.R.R.R.R.R.R.R.R.R.T.b.a.a.%.O.o.....D S S C C C C C Z C C S  ...O.O.%.a.b.b.b.b.T.R.R.R.R.E.R.R.R.R.E.R.R.R.R.R.R.R.R.R.R.R.R.R.R.R.R.R.R.R.R.R.R.R.R.R.R.R.R.R.R.R.R.R.R.R.R.R.R.R.R.E.R.R.R.E.R.R.R.R.R.R.R.R.R.R.R.R.R.!.!.R.R.R.R.R.R.R.R.R.R.R.R.R.R.R.R.R.R.E.R.R.R.R.R.R.R.R.R.R.R.T.R.R.R.R.R.E.R.R.R.R.E.E.R.R.R.R.R.R.R.R.R.T.T.E.E.E.E.T.E.T.T.b.a.%.a.O.O...D S S F S C C S Z A A A  .+.%.%.&.b.T.E.E.E.E.E.E.!.!.!.!.!.!.!.!.~.!.~.!.!.!.!.!.!.!.!.!.!.!.!.!.~.!.~.~.!.!.!.~.!.!.!.!.~.E.E.E.E.E.E.E.E.T.T.b.%.%.%.+...A A C C j j g g p u u 1 : ; : : ; = = ; = = $ @ $ = = = ",
"X X X O O o O O @ o + @ o + + + & & > > 9 9 q q z z x { { } } *.*.#.#.#.#.#.d.d.d.d.d.d.d.d.d.d.d.d.d.d.d.d.d.d.d.d.d.d.d.d.d.d.d.#.d.d.d.#.&.#.&.#.#.#.#.#.#.#.#.*.*.*.} } { B B z z z e w w 0 8 9 8 8 8 8 w e z z x x { } } *.*.*.*.*.#.#.#.#.#.#.#.#.#.#.#.#.#.#.#.#.#.#.#.#.#.#.#.#.#.#.#.#.#.#.#.#.#.#.#.#.#.#.#.#.#.#.#.#.#.#.#.#.&.&.#.#.#.&.&.#.&.&.#.&.&.#.#.#.#.#.#.#.d.#.&.&.#.#.#.#.#.#.#.#.#.#.#.#.#.#.#.#.#.#.#.#.#.#.#.#.#.#.#.#.#.#.#.#.#.#.#.#.#.#.#.#.#.#.#.#.#.#.#.#.#.&.#.#.#.#.#.#.*.*.*.*.}  .| A V z z e e w w w 8 , 0 e e z z B { } } *.*.*.#.#.#.#.#.#.d.d.d.d.d.d.d.d.d.d.d.d.d.d.d.d.d.d.d.d.d.d.d.d.d.d.d.d.d.d.d.Y.d.d.d.d.d.#.#.#.#.#.#.#.*.*.} } { { B x z z w 0 7 9 9 > & # # # # - $ $ $ @ O @ @ O @ O X o o o ",
"o o O O O O @ @ @ + @ # O + + # & > > > 9 9 9 q e z z x B B { } X.X.@.$.$.$.$.$.&.&.&.$.&.&.&.&.&.&.&.&.&.$.$.&.&.$.$.$.$.$.$.$.$.$.$.$.$.$.$.$.$.$.$.$.@.@.X.X.X.X.X.| | | A A C v z v w g g p 8 8 8 0 0 0 w e z z z z V B | X.X.X.X.X.X.X.X.@.@.@.@.@.$.$.$.$.$.$.$.$.@.@.$.$.@.@.@.@.@.@.@.@.@.@.@.@.@.@.@.@.@.@.@.@.@.@.@.@.@.@.@.@.$.$.$.@.$.$.$.$.$.$.$.$.$.$.$.$.$.$.$.$.$.$.$.$.$.$.$.$.$.$.$.$.$.$.$.$.$.$.$.$.$.@.@.@.@.@.@.@.@.@.@.@.@.@.@.@.$.$.$.$.$.$.$.$.$.$.$.$.$.$.$.$.$.$.$.$.$.$.$.@.X.X.X.X.| | A A C v v j g w 0 8 8 9 0 e e e z z B { { } } X.@.@.@.$.$.$.$.$.$.$.&.&.&.&.&.&.&.&.&.&.#.&.&.&.$.$.&.$.&.&.&.&.&.&.&.&.&.&.&.&.&.&.$.$.$.@.@.@.@.X.X.X.| | B V z z z e w w 8 8 8 7 > ; - # ; 1 ; ; = = @ = ; - = @ @ @ @ @ ",
"X X X X X X X X X X X X o o o o + + + # & & , , 9 9 q q e z z x B B { { { } } } } } } } } } } } } } } } } } } } } } } } } } } } } } } } } { { { { { { { { { B B x x z z z e q q 9 9 9 9 > , > & * & & - & > , , 9 9 9 r q q z z z x x x x B { { { { { { { { { } { } } { { { { { { { { { { { { { { { { { { { { B { { { { { { { B { { { { { { { { { { { { { { { { { { { { { { { } { { { { { { { { { { { { { { { { { { { { { { { { { { { { { { { { { { { { { { { { { } } } } } } } { } } } { { { { { { { { B x z z z q q q 9 9 9 9 , , & & > , , , , 9 9 q q e z z x x B { { { { } } } } } } } } } } } } } } } } } } } } } } } } } } } } } } } } } } } } } } } { { { { x x x z z z q q r 9 9 , & & & & # + + + + o o X o X X X o O o o o o O O O O ",
"X X X X X X X X o o o O O O O O O o + + + # & > , 9 9 9 q q e z z z x B B B { { { { { { { { { { { { { { { { { { { { { { { { { B B B B B B B B B B B B B B x x x z z z e e q r 9 9 9 , , & # # + # + + + + # + & , , 9 9 r q q q q e z z x z z x x x x x x x B B B B B x x x x x x x z z z z z x z x x x x z z z x z x z x z z z x z z x x x x z z z z x x x x x x x x x x B x x x B B B B B B B x x x x x x x x x x x x x x x x x x x z z z z x x x x x x x x B { { { { { { { { { { { { { B B B B x x z z z e e q r 9 9 , , & & & & & # + + & & > , , 9 9 q q e z z z x x B B B B { { { { { { } { { { { { { { { { { { { { { { { { { { { { } { { { { { { { { B B x x z z z e e q r 9 9 9 , > & & # # + + @ + + @ + @ o O @ @ + o o O o o X o X X ",
"o o O @ @ @ @ $ : 1 1 u 1 1 : u u 7 > > > > 9 7 8 8 j C e z z z z V A | { { X.X.X.X.X.X.X.X.X.X.X.X.X.X.X.X.X.X.X.X.X.}  .} X.{ { | { | | { { { { { { | | | A | A V A A z z z e e w w 8 7 : 7 > > & > > > > > 9 8 8 w q e e e z z z x x B x z B B B { { { { { { { { { { { { | B x B B B B V z V V B B B B B B x x x x x V V V z z x x A A V V V x x B B B B B B B B B B { { { { { { { { { { B { B B B B B B B B B B B B B { | | | | | A V A B B B V B B B { { { { { | } | | } } } } | | | | { | | | | B A A A v z z e e w 8 8 7 7 7 9 9 > > > : > 8 8 8 w e z z z V A | | | | | { X.X.X.X.X.X.X.X.X.X.X.X.X.X.} X.X.X.X.X.X.X.} } } X.X.X.X.X.X.X.X.X.X.X.X. . .| | B V z z z z z e e w w 8 8 7 7 8 8 7 7 u a u u d f i i 1 1 ; ; ; ; # @ @ O O ",
"O O O O O O @ O < < @ = = ; = ; ; ; - ; > > : 7 7 7 p g 0 w e e z v z C A V V B A A | | | | | | | | | | | | | | | | | | A A A A A A A A A A A A A V A A C v V C v v v e e j g g 0 8 8 8 : : > ; ; ; : : : 7 7 7 8 8 8 w w w e e e z z z z z z z z x x x x x x B x x V z V z V z z z z z z z z z z z z z z z z z z z z z z z z z z z v v z z z z z z z z z z z z z z z z z z z z z z z z v z z z z z z z z z z z z z z z z z z z z v v C v v v v v z z z z z z z A A A A A A A A A A A A A A A A A A A C v C v v j g g w 0 8 8 8 8 7 7 7 : : 7 7 7 8 8 8 8 w e e z v z V A A A A A A | | | | | | | | | | | | | | | | A C A | | | { { { { | { { | | | | | | A A V z z z z e j j e w w w 8 0 8 7 7 : : : : ; ; ; = $ 2 i = = = $ = = $ $ @ @ @ @ @ ",
"                                            . X X X X X % % % % % 5 5 5 6 6 6 6 6 6 6 6 6 c c c c 6 c 6 6 6 c c c c c c 6 6 6 6 6 5 5 5 5 5 5 5 5 5 5 6 5 5 5 5 5 % % % % % % X X X X . .       .           . . . X X X % % % % % 5 5 5 5 6 6 5 5 6 6 6 6 6 6 6 6 6 6 6 6 6 6 r c r 9 r % % % % 5 5 5 5 5 % 5 5 % % % % % % % % % % % % % % % % 5 5 5 5 5 5 5 5 6 6 6 5 5 5 5 5 5 5 5 5 5 5 6 6 5 5 5 5 6 6 5 5 5 % % % % % % % % % % % % % % % % % % % 5 5 5 5 5 5 5 5 5 5 5 6 6 5 6 5 6 6 6 5 5 5 5 5 5 % % % % % % X X X X X X . . .         . X % % % % % % 5 5 6 6 6 6 6 6 c c c c c c c c c c c c c c c c 6 6 6 6 6 c c c c c c c c c c c c c c c 6 6 6 5 6 5 5 % % % % % % X X X X X X X X X X X X . . .   X . X X X X . . . . .         ",
"H H H n n H G G G G J P U R R ~ ~ ~ ~ ~ ) ) ) ;.;.;.;.;.6.e.t.t.,.,.r.r.r.j.j.N.N.N.N.N.N.m.M.M.M.m.m.M.M.M.M.M.M.A.A.M.M.M.m.m.m.m.m.m.m.m.m.n.n.n.n.n.j.j.j.j.j.j.t.t.t.t.t.t.t.9.9.6.6.4.4.4.5.9.8.8.8.k.k.e.e.9.e.k.j.j.t.,.,.,.,.,.,.,.,.s.s.s.,.a.,.,.,.<.<.<.,.,.,.<.<.<.<...z S ,.,.,.,.,.,.<.:.:.:.:.:.:.:.:.-.:.-.-.:.:.:.:.:.-.:.-.:.-.:.:.:.:.:.:.:.:.>.>.>.>.:.:.:.:.:.:.>.>.:.:.:.:.:.:.:.:.:.:.:.:.:.:.:.:.:.:.>.,.,.,.r.r.r.r.r.t.r.r.j.n.n.n.n.n.n.m.N.N.n.n.m.m.n.n.n.m.m.m.n.j.j.m.n.n.n.n.j.j.j.t.9.6.8.e.8.6.4.5.5.5.6.9.9.9.>.:.:.:.:.,.,.,.,.,.s.N.N.N.N.N.N.N.N.N.N.N.N.N.N.N.N.N.N.N.N.N.N.N.m.M.M.M.M.M.m.N.N.N.N.N.N.N.N.s.N.N.s.,.r.,.,.r.r.t.p.,.,.>.:.;.;.;.;.:.) ) ) ( ) ~ T U U P P G H H H G H H H H H H H H H ",
"( 1.( ( ` 1.4.4.4.5.8.e.z.z.z.C.Z.Z.G.;X:X,X4XuXuXuXpXfXfXfXfXfXfXfXfXfXfXAXfXAXAXAXAXAXAXAXAXAXAXAXAXAXAXAXAXAXAXAXAXAXAXAXAXAXfXfXAXAXAXAXAXFXAXAXAXfXfXfXfXfXfXfXfXfXfXfXaXaXaXpXpXuXuXpXpX4XpXaXaXaXaXaXfXaXaXaXaXfXfXfXfXfXfXfXdXdXfXdXdXdXdXdXdXdXdXdXdXdX/././././././././.^.^.^.fXdXdXdXdXdXsX^.sX^./.sX/.^.^.^.^.W.W.W.W.W.W.W.W.W.W.W.W.W.W.^.^.W.W.W.W.W.W.W.W.^.W.W.W.^.uX^.^.^.uXsXsXsXsXsXsXsX^.^.^.uXuXuXuX^.^.sXsXdXdXdXfXfXfXAXAXAXAXAXFXFXFXFXFXFXAXAXAXAXAXFXFXFXAXAXAXFXFXAXFXAXfXdXdXZXAXBXBXBXBXfXfXfXaXaXaXaXaXaXaXaXfXaXpXuXW.W.W.W.uXsXsXsXdXdXdXfXfXAXdXAXAXAXAXAXAXAXAXAXAXAXAXAXAXAXAXAXAXAXAXAXAXAXAXAXAXAXAXAXAXAXAXAXAXAXAXAXAXAXdXfXdXdXdXdXsXuXuXuXuXuXuXuX,X,X,XG.;XZ.C.C.C.C.z.z.e.e.e.e.e.e.7.9.4.7.4.4.4.4.",
"K Y I P I I I U U ! ! ! ) ) -.:.:.:.,.,.,.r.r.N.N.m.m.M.A.D.F.H.W.W.^.^.^.^.^.sX^.sXsXsXsXsXdXdXdXdXdXsXsXsXsXsXsXsXdXsXsXsXsXsXsXsXsXsXsXsXsX^.sX^.^.^.^.^.^.^.^.^.^.W.A.A.A.m.m.N.s.r.r.r.r.r.r.N.n.m.m.M.M.M.M.M.D.D.D.H.J.^.uXsXsXsXsX^.W.^.^.^.^.^.^.^.^.^.^.Q.Q.Q.Q.Q.Q.Q.^.^.dXdX^.^.^.^.^.^.^.^.^.Q.Q.W.Q.Q.S.S.F.F.Q.F.Q.Q.W.F.Q.F.F.F.S.F.Q.Q.W.Q.Q.W.S.F.S.F.F.W.H.F.F.H.W.H.F.F.W.W.^.^.W.W.W.W.W.F.F.H.H.H.H.S.S.S.S.S.H.H.W.W.^.uXuXdXdXdXdXfXfXfXfXfXfXdXfXfXfXdXdXdXdXdXdXdXdXdXdXdXsX^.uXuXuXuXuXuXuXuX,X,XJ.G.G.G.D.G.J.D.D.m.m.m.m.M.A.A.H.H.J.J.^.^.W.^.^.^.^.^.^.^.sXdXdXdXsXsXsXdX^././.^.^.^.^.^./.dXdXdXdXdXdXdXdXdX/./././.dXdX/./.^.^.^.W.W.F.A.A.N.N.N.M.M.M.m.N.n.s.r.,.t.t.>.>.:.:.;.;.;.) ( ( / ~ ~ W W W ! ! U P ",
"P I I U T W W W ! ! ) ) ) ;.;.>.6.>.p.r.r.j.j.n.M.M.V.D.H.H.H.J.W.W.^.^.^.sXsXsXsXsXsXsXsXdXdXdXdXdXdXsXsXsXdXdXsXsXsXsXdXsXsXsXsXsXsXdXsXsXsXsXsXsXsXsX^.uX^.^.^.uXuXW.A.J.J.D.D.m.N.s.n.n.n.m.m.V.V.V.V.V.D.D.D.J.J.J.J.J.J.J.J.uXsXsXsX^.W.^.sXsX^.^.^.^.^.^.W.F.S.Q.Q.Q.W.Q.W.Q.Q.Q.^.^.W.W.^.W.W.Q.W.F.F.F.F.S.S.S.S.N.A.A.F.F.H.S.S.F.S.S.S.A.A.F.F.F.F.F.F.S.A.A.A.F.D.A.D.A.A.H.A.D.H.H.H.J.H.J.H.H.H.F.F.H.A.A.S.N.N.S.A.A.D.H.J.W.W.uXuXsXfXfXdXdXfXfXfXfXfXfXfXfXfXfXdXfXdXdXdXfXfXfXdXdXfXfXfXuXuXuXuXuXuXuX4XuX,X,X,X,XG.:XG.G.G.D.V.V.M.M.D.M.D.D.H.H.H.W.W.W.W.^.^.^.^.^.sXsXsXdXsXsXsXsXsXsX^.^.sXsXsXsXsXdXdXdXdXdXdXsXsXdXsX^.sXsXsXsX^.sX^.^.^.^.W.H.D.A.N.M.A.J.D.V.M.m.m.n.r.r.r.r.t.p.>.>.>.>.;.;.;.;.( ) ) ~ ~ ~ Q W W U ",
"P I I I U W W ! ! ~ ) ) ) ;.;.:.>.>.>.r.r.r.r.r.n.n.m.m.M.D.J.J.J.J.W.^.^.^.^.^.^.^.^.^.^.sXsXsXsXsXsXsX^.sXsXsX^.^.uXsXsXsXsXuXuXuXsXsXsX^.^.^.^.^.^.^.^.W.^.W.^.^.W.D.m.D.D.V.M.s.r.s.s.n.n.n.n.n.V.V.V.V.V.V.D.D.D.J.J.J.J.J.W.W.J.uXuXW.W.^.^.^.^.W.W.W.W.W.W.Q.S.F.Q.Q.W.W.Q.Q.W.Q.Q.Q.W.W.W.F.F.F.F.S.S.S.S.S.A.A.N.N.N.S.S.A.A.A.N.S.N.S.N.N.M.S.N.N.N.A.A.N.N.N.N.N.N.N.N.M.m.m.m.A.A.A.A.D.J.H.A.A.A.A.m.A.A.m.N.M.N.N.m.D.J.J.H.H.H.J.W.uXsXdXuXdXdXdXfXdXdXdXfXfXdXdXdXdXdXdXVXsXsXsXuXsXsXuXuXuXuXuXuXuXuXuX,X,XG.G.G.G.G.:X:XG.V.V.m.m.m.V.m.m.m.A.A.A.H.H.H.H.W.H.W.W.W.^.sXsXsXsX^.^.^.^.^.^.^.^.^.sX^.^.^.^.^.sX^.^.^.^.^.^.^.^.^.^.^.^.^.^.^.^.^.W.H.A.A.M.m.A.D.D.M.m.m.s.r.r.j.n.r.r.p.>.>.6.>.;.;.;.;.( / ) ) ~ ! Q Q W W U ",
"Y P I U U W ! ~ ! ) ) ) ) ;.;.;.;.>.p.p.p.r.r.r.j.j.n.t.,.D.D.D.H.H.J.J.W.W.W.^.^.^.^.^.^.^.^.^.^.uXuX^.^.^.^.^.^.^.^.^.^.^.^.uXuX^.^.^.^.^.^.^.W.W.^.W.J.W.W.J.W.J.H.D.m.M.m.n.n.,.>.n.n.n.n.n.j.n.n.n.m.V.V.V.V.V.V.D.G.D.J.J.J.W.J.J.uXW.H.W.W.W.W.H.W.W.W.Q.W.W.H.F.F.F.F.F.F.F.Q.F.F.F.H.H.F.F.S.A.F.S.A.S.S.A.A.N.N.N.N.N.N.A.A.S.N.N.s.N.s.N.N.N.s.s.N.N.N.N.,.,.,.N.N.s.s.N.m.s.N.N.N.m.A.A.M.A.m.m.m.m.m.N.M.A.N.m.A.A.J.J.H.J.D.D.J.D.J.J.uXsXuXuXsXsXsXdXsXsXsXuXsXsXsXuXuXuXfXuXuXuXuXuXuXuXuXuXuXuX,X,X,X,XG.G.:X,XG.G.G.,XG.Z.V.V.m.m.m.m.N.m.m.M.A.D.D.D.A.F.F.A.S.F.W.W.^.uX^.^.^.^.^.^.^.^.^.^.^.^.^.^.^.^.^.^.^.^.^.^.^.^.^.^.W.^.^.^.^.^.^.W.H.H.A.D.D.D.D.D.M.m.n.n.r.r.r.n.j.r.r.t.:.:.>.6.>.;.;.;.;.( / ) ~ ) ! W Q W W U ",
"K Y I T T W W ~ ) ) ~ ! ) ;.;.;.;.:.p.p.t.r.r.r.r.r.r.4X,Xm.D.D.D.D.H.H.H.J.J.J.W.W.W.W.W.W.^.^.^.^.^.^.W.^.^.W.W.W.W.W.W.W.^.W.W.W.W.^.W.W.W.W.J.J.J.W.J.J.J.H.H.J.H.D.N.N.N.s.r.,.,.n.n.n.n.n.n.n.n.m.m.m.V.V.V.Z.V.V.D.D.D.J.J.J.J.J.W.H.A.J.W.J.H.H.H.H.H.H.S.F.F.F.F.A.A.S.S.S.S.S.S.F.A.F.A.A.A.A.A.A.N.N.M.A.A.A.N.N.N.s.N.N.N.N.N.N.N.N.N.s.s.r.s.s.s.r.s.r.r.s.,.,.r.,.,.s.r.s.s.s.s.s.N.m.m.m.N.N.N.N.N.m.m.A.m.M.D.J.J.J.J.J.J.A.A.D.H.J.J.uXuXuXuXuXsXuXuXuXuXuXuXuXsXsXuXuXuXsXfXpXaXaXpXpXpXpXuXuXuXuXuX4X4X<X,X,X:XG.G.G.G.D.V.m.m.m.m.m.M.V.V.M.D.D.D.H.W.J.J.H.uX^.F.W.W.W.W.W.^.^.^.^.^.^.^.^.^.^.W.W.^.^.W.^.W.W.W.W.^.^.^.^.W.W.W.W.W.W.W.H.F.A.M.A.M.M.m.M.m.m.r.r.r.r.n.n.r.r.t.>.>.6.6.;.>.3.;.;.;./ / ) ) ~ ~ ! Q T T U ",
"Y P I U U W ! ! ~ ~ ~ ~ ) ) ;.;.;.;.>.6.r.r.t.r.r.r.r.r.M.m.M.M.M.M.A.D.A.D.D.H.H.F.H.H.H.J.H.H.J.J.W.J.H.H.H.H.H.H.H.H.H.H.J.J.J.H.H.H.H.H.H.H.D.H.A.H.H.H.J.H.H.J.D.M.N.s.n.s.s.s.r.n.n.r.n.n.n.n.n.m.m.V.V.V.V.V.V.V.V.V.V.D.J.J.J.J.J.H.A.H.H.H.F.H.H.H.F.H.H.A.F.A.A.A.A.s.N.N.N.N.S.S.S.A.A.A.A.M.M.m.N.N.m.A.M.m.N.m.N.N.N.N.N.N.N.N.s.s.s.r.s.,.,.,.,.r.r.,.,.,.,.,.,.,.,.,.,.,.r.r.r.r.s.N.n.s.N.N.N.N.m.m.M.M.M.M.A.D.J.D.J.J.J.J.D.J.J.J.J.J.W.uXuXuXuXuXuXuXuXuXuXuXuXuXuXuXuXuXuXuXpXpXuXpXuXuXuXuXuXuXuXpXpXpX4X<X:X:XG.G.G.V.V.,X,X,X,X:X:X:X:XG.J.,X,XpXaXfXBXBXCXBXH.H.W.W.J.H.W.W.W.W.W.W.W.W.W.W.W.W.W.W.W.W.W.H.H.F.F.H.F.W.H.W.H.H.J.H.H.H.D.N.N.m.m.m.m.m.m.r.r.t.r.n.j.r.r.r.>.:.6.6.6.6.6.3.;.;.( ) ) ~ ~ ) Q ! Q W W T ",
"K P I I U W W ! ! ~ ) ~ ) ;.:.;.;.) :.;.>.>.,.t.r.r.r.:.,.N.N.N.N.N.m.M.M.M.A.D.A.A.A.A.A.A.A.A.D.A.D.D.A.A.A.H.A.A.A.A.A.A.H.D.A.A.A.D.A.A.D.D.J.J.H.D.D.J.H.H.D.D.D.M.n.n.n.n.n.n.s.n.n.n.n.n.n.n.m.m.m.V.V.V.V.M.V.V.V.V.V.V.D.D.J.J.D.D.A.H.H.D.D.H.D.A.A.A.D.A.A.A.A.M.N.r.,.<...D ..............D D D S D ..-.-.:.:.-.E E -.-.E E E E F F E E E E E E E E E E F F Y E Y F Z Y Y E E E E E E E E E E ) E E :.:.-.E E E E E F Z n.J.J.,X,XJ.J.J.J.J.J.uXuXuXuXuXuXuXuXuXuXuXuXuXuXuXuX,XJ.J.J.J.J.J.uXuXuXuX4X4XG.C.Z.Z.,X,XG.V.,X,XV.Z.G.4X,X,X,X:X:X,XG.,XfXaXaXuX,XuXuXuXuX,XJ.H.J.J.W.W.W.J.J.H.W.W.W.H.H.H.H.W.W.W.F.F.H.H.H.H.F.H.H.F.F.H.H.H.H.D.D.J.D.A.M.N.N.N.n.n.n.r.r.r.r.n.r.r.r.t.>.6.>.>.>.;.;.;.;.( ( ) ~ ~ ~ ~ ! W W W T T ",
"K P I I U W W W ! ~ ) ~ ) ) ) ( ) ) -.:.:.;.:.:.>.>.>.j.n.r.n.n.s.N.N.s.s.N.s.N.N.N.N.s.s.s.N.N.N.N.N.N.N.s.N.N.N.s.s.N.N.N.N.N.N.N.N.N.N.N.A.D.J.J.H.D.J.D.D.D.D.D.D.D.m.m.m.m.m.n.r.s.n.j.n.n.n.n.n.n.n.n.m.m.m.m.m.V.V.V.V.V.V.V.D.D.D.D.m.A.A.A.A.A.A.M.m.m.M.M.m.m.m.m.,.<...t.4X>X>X4X>X>X>X5X5X5X5X5X>X>X4X4XZ.E E -.G.,Xm.:.J.D.D.D.D.M.=.E E E J.J.J.J.J.H.J.J.J.J.J.J.,XD.E ) ) -.>.r.,.,.,.n.t.E V.:X) ! n.pXpXpXpXiXaXaX>.m.J.J.J.J.J.J.J.J.J.,X,X4XuXuX,X4XuX4XuXuXuXuXuX,XM.J.D.M.A.H.A.A.4X,X,X4X4X<X;Xm.G.n.J.:X;Xn.,X:XV.Z.V.G.G.G.G.Z.G.G.D.G.pXuXuXJ.A.A.A.N.M.A.J.J.H.H.J.J.J.J.H.H.H.H.H.H.F.F.F.F.H.H.F.F.F.D.H.H.H.F.H.H.D.D.A.D.A.A.A.A.A.m.m.N.N.s.s.n.n.n.r.r.r.r.t.t.r.t.p.6.>.>.;.;.;.;.( ( ( ) ~ ~ ~ W W W W T U T ",
"K Y P I I ! W W ! ! ~ ! ) ~ ) ) ) ) ) ;.:.:.:.>.:.>.:.n.n.,.r.,.s.s.s.,.r.m.N.D.A.D.A.A.A.D.D.D.H.H.J.J.J.D.H.J.J.J.J.H.J.J.J.J.J.D.D.D.J.D.D.J.D.J.D.D.D.D.V.D.D.V.D.D.V.m.m.m.V.n.r.n.n.n.n.n.n.i.s.n.s.n.n.n.n.n.m.n.m.n.n.m.n.V.V.M.V.M.s.m.N.m.m.N.m.N.N.s.N.N.N.N.N.,.-.M.M.aXfXfXfXfXfXfXfXfXBXBXBXBXBXBXBXBXpXE F E A.F.,.E A.A.N.N.m.N.-.N N h N.S.S.S.S.S.S.S.F.F.F.Q.F.<.j a y Z ,.N.s.N.s.M.M.E m.;XM * :.W.J.J.J.J.,XuX,X-.G.G.G.G.G.G.J.J.J.G.,X,X,X,X,X,X<X,X,X,X,X,X,X,X,XuXuXuXuXpXpXuX,X,X,X,X,X<XpXpXpX4X,X<X;XG.V.C.V.V.Z.G.:X,X,X,X,X4X,XV.m.V.M.J.4X,X,X,X4X4XD.A.J.J.D.D.D.D.A.A.A.A.A.A.D.D.A.F.F.F.A.A.A.A.A.D.D.A.A.D.A.D.M.M.A.m.m.M.m.N.N.s.s.r.s.s.r.r.r.r.r.r.t.t.t.>.>.>.>.>.;.;.;.;./ / / ~ ~ ~ ~ W W W ! U ! U ",
"G K P I I I ! W W ! ! ! ~ ~ ) ~ ) ) ! ) ) -.:.:.>.:.:.:.>.,.r.r.,.,.,.r.m.m.m.M.M.D.D.A.D.D.J.J.H.H.H.J.J.J.J.J.J.J.J.J.J.J.J.J.J.J.J.J.J.J.D.V.V.D.D.M.V.V.V.V.V.M.D.D.V.V.V.V.Z.n.n.n.n.j.n.n.n.i.n.n.n.s.s.s.s.n.n.n.n.m.n.r.n.V.m.m.V.N.s.n.N.n.N.N.s.s.s.s.s.s.s.s.,.:.V.m.vXpXA.H.J.J.H.J.H.H.H.J.H.H.J.H.H.J.,.<.r.-.s.N.s.:.<.,.,.,.,.:.-.E E F S ..-.-.-.-.-.<.<.<.<.a.<.D F Z Z Z -.:.:.:.:.-.E Z r.n.M u F s.s.N.N.N.N.s.,XZ.>.J.G.G.G.G.G.G.G.G.;X;X:X:X,X,X,X,X,X:XG.J.,XG.J.J.G.G.J.J.,X,X,X,X:X,X:X,X<X<X,X:X;X;XG.Z.Z.Z.Z.V.G.Z.V.Z.V.V.V.n.m.V.V.V.V.m.m.m.m.m.m.m.m.M.V.D.D.D.D.A.M.D.A.A.A.A.A.A.A.A.S.A.N.A.M.M.A.M.A.M.M.A.M.V.m.m.m.N.N.m.N.N.s.r.r.r.r.r.r.r.r.r.t.r.p.p.p.p.>.>.>.>.;.;.;.;./ / ) ) ~ ~ W W W W ! W ! W ",
"G K K P I U W U ! W ! ! ! ) ) ! ! E ! ! ! -.) ) ;.:.:.>.,.,.r.,.r.,.r.n.n.n.m.m.m.M.m.m.m.M.V.D.D.J.J.J.D.D.D.J.D.D.D.D.D.D.D.D.V.V.D.D.D.V.V.V.V.D.D.m.M.V.V.V.M.V.V.G.G.Z.V.C.V.C.m.n.n.n.n.j.j.r.i.n.n.r.s.r.r.r.r.n.j.n.n.r.n.m.,.:.n.s.,.n.r.s.s.s.s.s.s.s.r.,.s.,.<.ZXCXaXaXJ.,X,XuXuXJ.4X4X4XuXuX,X,XuXJ.uXuX,.,.r.:.N.N.,.F :.N.m.N.m.,.-.-.E -.D Z q r 9 r r r r r q q ..-.F Y Y Y :.>.-.:.,.:.E C s.m.E E E s.N.s.M.N.N.N.s.aXC.n.:XG.G.G.G.G.G.G.;X;X:X;X;X<X:X:X:X;XG.G.G.G.G.J.G.G.G.,XG.:X,X,X:X:X:X,X:X;X:X:X;X;X;XZ.Z.G.Z.Z.Z.Z.Z.Z.C.V.V.V.V.V.n.V.V.m.M.m.m.M.m.m.m.m.V.V.M.A.D.A.M.M.M.A.M.M.M.M.M.N.N.M.N.m.m.m.M.m.M.m.m.m.m.M.m.N.m.N.s.N.N.s.r.r.r.r.r.r.t.t.r.t.t.t.p.p.p.p.>.>.>.;.;.;.;./ / ) ) ) ) ~ W ~ W ! U T W T ",
"G K K Y P I U U U ! ! ! ! ! ! ! ! ! ! ) ) -.:.:.:.:.:.) :.,.,.,.r.r.r.n.r.s.s.N.n.m.n.n.s.n.N.m.M.D.D.D.D.D.D.D.M.m.M.M.M.M.M.M.M.M.m.m.M.M.m.M.V.V.V.V.V.V.V.V.M.V.V.Z.V.G.V.n.C.C.n.m.m.n.t.j.j.r.i.r.r.r.i.t.t.r.r.r.r.r.r.s.n.n.G.4XZ.s.:.s.r.r.r.r.r.r.r.r.r.,.:.-.vXZXvXBXuX,XuX,XJ.J.,X,X,XJ.,X,XuX4X,XJ.uXJ.N.:.-.-.N.A.r.) r.m.s.N.m.s.:.:.E >.D.M.:.E E E ) E E D E E -.-.-.) ;.:.>.r.,.,.r.m.,.-.n.V.C.Z.j.V.V.V.G.J.D.V.m.D.BXr.Z.Z.C.V.C.Z.Z.Z.C.C.Z.;X;X;X:X;X;X;XG.;X;XG.G.G.G.G.G.G.G.:X:X,X:X;X:X:X;X;X:X;X;XG.G.G.Z.Z.G.Z.Z.Z.Z.Z.C.C.C.V.V.V.V.V.V.V.V.m.V.M.m.m.m.m.V.M.M.M.M.V.M.M.M.M.m.m.M.M.m.m.N.m.m.m.m.m.m.m.m.m.n.m.n.m.N.N.n.n.N.n.s.s.r.r.r.r.r.r.t.t.t.t.t.p.p.p.t.6.6.6.>.;.;.;.;.;.) / ) ) ) ~ Q W ~ W W W U T ",
"G K K K P Y I I U U ! ! ! E E ! ! E E E ! ! ) ) ;.:.:.:.:.>.>.>.>.,.r.r.r.r.r.r.r.r.r.r.s.s.r.n.N.N.N.m.m.m.m.m.N.N.N.m.m.m.m.m.m.m.m.N.n.n.m.m.M.V.V.V.V.M.M.M.V.V.V.V.C.V.V.V.C.C.n.n.n.j.t.t.r.r.i.r.r.r.r.r.t.t.r.t.r.r.n.r.r.n.V.m.m.n.:.r.r.r.r.r.r.r.r.r.r.:.D aXCXpXaXuXuXuXuX,X,XJ.J.,XG.G.,X,XG.J.,XJ.J.,XpX<X:XG.uXaXpXpX<X,X,X,X,X<X:X:X:XG.,XuXpXpXaXaXaXaXpXpXpXuXuX,X,X:X,X,XG.G.G.G.G.,X,X,XG.G.:X;Xm.n.m.m.n.V.n.Z.V.m.pXaX-.r.n.i.j.j.t.r.r.r.t.C.;X;X:X;X;XG.G.:X;XG.G.G.G.;XG.Z.G.:X:X,X;X;X;X;X:X:X;XG.Z.Z.G.G.Z.Z.Z.Z.C.t.t.i.t.t.t.t.r.t.r.r.r.r.r.r.r.r.r.r.r.r.r.r.r.r.r.r.r.r.r.r.r.r.r.r.r.,.,.,.,.,.r.,.,.,.,.,.,.,.,.>.>.,.,.,.,.,.>.>.>.:.:.:.:.;.;.:.;.;.:.;.:.;.;.;.;.;.;.;.;.;.;./ ) ) ) ) ~ ~ Q ~ W Q W W I I ",
"G G K K K Y P I I I U U E U ! E U E Z 3 u i i i i s a k k k M k M s ) ,.,.r.r.r.r.r.r.r.s.r.r.r.s.r.r.n.s.n.s.n.m.N.s.N.N.m.n.m.N.N.n.N.s.r.n.m.m.V.V.m.M.m.m.m.m.V.m.n.V.V.n.n.n.n.n.n.n.j.t.i.t.t.i.r.t.t.r.t.t.r.p.t.r.r.r.r.r.r.r.r.s.n.:.t.>.t.t.r.r.r.r.r.>.D pXCXpXuXuXuXuXuXuXpXuX,X,XJ.G.,X,X,XG.:X,XJ.J.G.<XaXvXvXuX,X,X<X,X,X,X,X,X:X,X,XC.,XJ.:XG.G.J.G.G.G.J.J.J.G.G.G.G.Z.Z.Z.G.V.V.Z.Z.n.n.V.Z.G.-.=.-.:.:.:.-.:.:.t.V.V.m.aX#Xn.<X:X<X<X,X<X<X,X;Xt.C.;X;XG.;X;X;X;XG.G.;XZ.G.G.G.Z.;X;X;X;XG.;X;X;X;X;XZ.Z.G.Z.Z.Z.Z.Z.Z.C.>.6.t.6.6.6.6.6.6.>.6.>.>.>.>.>.>.:.>.:.:.:.:.:.:.:.:.:.:.:.:.:.:.-.:.-.:.-.-.-.-.:.:.-.:.:.:.:.:.:.:.:.:.:.-.-.-.-.) ) E E E E E E E E E E U U I U U U ! U ;.;.;.;.;./ ) ) ~ ) ) ~ Q W W W T U U I ",
"K K K K K Y Y P I I U ! U ! ! ! U m 1 1 < < < < < < < < 2 < 1 1 i 1 M ,.r.r.r.r.r.r.n.s.n.r.s.n.s.s.n.n.n.n.n.m.m.n.m.M.m.m.m.m.m.m.n.n.n.n.m.V.V.V.V.V.V.V.V.m.m.m.m.n.C.V.V.C.V.V.V.n.C.n.j.n.i.i.i.i.r.t.t.t.t.t.t.t.t.r.r.t.r.r.r.s.m.m.:.t.t.r.r.r.r.r.r.r.=.4XGXzXpXuXuXuXuXuXuXV.,X,X,X4X4X,X,X,XG.,X,XJ.:X,XG.V.D.G.4X<X,X,X<X4X,X<X,XG.,X,XC.:X,X,X,XG.G.G.G.G.,X,X;XG.G.G.:X;X;X;X;XG.,XZ.Z.Z.G.Z.Z.:X<Xs.p.:.:.:.:.>.p.>.n.G.G.G.vXz.Z.:X;X:X:X:X:X:X:X;Xj.;X;X;X;X;X;X;X:XG.;X;X;X;X;X;X;X;X;X:X:X:X:X:X:X:X;XG.;XG.;XZ.Z.C.C.p.n.;X;X;X;X;XZ.Z.V.V.V.Z.V.V.V.V.V.V.V.m.m.m.M.M.m.m.m.V.V.V.V.V.V.m.m.s.n.n.n.m.n.m.M.m.V.V.V.V.M.M.m.m.m.n.n.n.r.:.:.:.:.:.:.>.p.p.>.p.p.>.>.:.:.>.:.:.>.;.! ;.;.;.;.;.( / ) ) ) ~ ) ~ W W W T T T ",
"f f f i f d d f d d b n d f s s u + $ - & - - - - : : > , , r 9 8 g 8 F E -.-.-.-.-.-.-.-.-.-.-.:.:.E E -.:.:.<.<.<.<.<.<.<.<.<.:.-.-.:.:.:.:.:.-.:.:.:.:.:.:.>.:.:.:.:.:.:.:.:.:.>.:.:.:.:.-.-.) E ) ;.:.:.;.;.:.;.>.>.:.>.:.:.:.-.E E E E E E E E E =.-.-.-.E >XCXBXpX4XuX4XuXpXpXuXr.;XpX4X<X,X,X,X<XG.Z.G.G.G.;X;XG.,XZ.V.pXpXpX4X4XpX4X,X,X;X,XC.:X,X<X<X:X<X:Xr.C.pX<X:X;X;X;X:X:X;X:X>X:XG.V.G.Z.G.n.r.V.pX7Xn.:.:.>.p.p.p.t.r.Z.,XG.pXiXj.:X;X:X:X<X:X:X:X<XZ.i.n.z.n.z.z.j.j.i.j.z.z.j.z.z.j.j.j.j.j.z.z.z.z.j.i.e.t.t.t.t.t.t.6.C.:X;X;X;XG.G.C.) ;.p.>.-.E =.E E E E E E E E E E E E E E E E =.E =.E F D D D D E D D F E -.-.E E D D E E E E D =.E X X * * * : M Z Z F U U Y Y F Y Y U E U E m m K M m m m G m H m n M b d d d d d d ",
"3 f f f 2 $ 4 2 2 3 < 2 f H n n H H n G J P P R W R R _ 9.9.9.9.4.` ( 5.9.9.9.9.q.8.9.9.q.h.v.v.U 7 K k.k.h.h.q.q.q.k.k.k.q.q.k.q.k.k.;.v.c.c.c.c.c.c.c.c.v.v.v.v.l.l.k.v.v.v.k.k.q.h.h.h.q.q.h.h.l.q.d : i i i i i f f f f f i d s ^ 9.4.4.~ q.k.k.l.v.c.c.x.8XUXZXaXaXvXpXpXpXuXpXpXaXpXpX4XpX4X4X<X4X,X:X;XG.;X<X,X,X4X;XG.pXpXpXpXpXpXpXpX,X,X<XZ.7X7X<X7X4X4X4XpXaXiXpXiXpXpXpX7XpX7XpX<X3XpX0XpXiXiX7X7X0X<X7X4Xr.t.t.r.p.t.t.r.n.:X<X;XvX<Xz.>X:X>X<X>X:X:X:X>X#Xn.n.C.z.z.i.i.i.i.e.e.e.e.e.e.i.e.i.i.i.z.z.z.i.i.j.z.j.i.i.i.C.C.;X;XZ.;X;XG.Z.Z.6.K Y K v.|.|.v.v.v.l.h.w.' v.h.q.q.q.q.w.9.w.9.9.9.8.h.w.h.h.q.q.q.q.q.q.q.q.q.q.8.8.9.9.9.9.9.9.R Q ' ^ ^ / 7 ' h.q.9.4.4.;.( ( ) ;.~ I ) ( / U R R P n f b f f n f f H H n n b b n ",
"R T T ^ P = f b d b b P ( 9.q.k.k.k.#X#X$X%X5X9XiX9XkX9XiXvXzXzXkXzXvXvXBXBXBXBXZXZXBXZXZXZXZXZXpX;XC.ZXZXZXZXZXCXCXCXZXZXZXZXCXCXCXCX0XZXCXCXCXZXZXZXZXZXZXBXBXBXvXvXvXvXvXvXzXaXzXzXvXvXvXzXzXzXaXiXi.! ;.;.;.;.;.t.6.;.;.;.;.;.>.5XCXZXCXBXBXCXCXCXZXZXBXBXBXpXpXaXBXaXpXpXpXpXpXiXpXaXiXpXpXpXpX4XpX4X4X3X4X4X<X4XpXpXiXaXiXaXiXiXiXiXpXpXpX7XpX;X7XiX7X7X7X4X<XzXiXiXiXiXiXiXiXiXiXiXpXpXpXiXzXvXxXxXvXxX9X<X<XiX>Xn.r.j.n.t.t.j.n.n.:X:X>XBXz.C.<X:X>X>X:X>X>X:X>X3X<X4X3X4X4X4X<X<X<X<X<X<X<X3X4X<X<X4X4X4X<X<X<X<X<X<X,X:X:X:X;X;X;X;X;X;X;XG.Z.Z.C.( 8.8XCXCXCXCXCXCXCXCXcX9XUXCXCXCXCXCXCXCXCXCXCXCXCXCXCXCXCXCXCXCXCXCXCXCXCXCXCXCXCXCXCXZXZXBXvXxXZXcXkXvXvX7X0X0X4X:Xi.C.n.t.j.r.j.>.;.n.Z.t.6.z.z.B.4.n P ^ R P H T 8.4.) ) ^ ~ ^ ",
"f k n m K H m m m M K Y Y W ~ Z Y / e.6.;.;.6.j.j.z.z.z.j.C.C.C.C.C.C.Z.Z.G.G.:X:X,X,X,X<X,X4X<XzXaX,XuXuXuX4X4XuXuXuXuXuXuXuXpXpXpXpXZ.4XuXuXuX4X4X<X<X,X:X:XG.Z.Z.Z.V.V.m.s.s.s.s.n.n.Z.V.V.n.C.V.Z.C.n.C.C.C.C.C.Z.C.Z.Z.Z.Z.Z.<XCXGXZXBXvXpXpXuX4X4X4XpXpXpXaXzXBXiXpXiXiXiXiXiXiXiXiXiXpXpXpXpX7XpXpX7X7X0XpXpXpXiXiXiXiXzXaXiXiXjXaXzXaXiXiXiX0XiXiXiXiXiXjXzXiXiXjXzXzXiXiXiXjXiXiXiXiXiXpXpXpX7X7X7X3XgX5X5XiXzX>XC.C.C.C.n.n.n.i.C.4X:X7XvXt.:X<X>X<X>X>X>X;X:X>X:X<X:X>X>X>X:X:X:X:X;X;X;X;X:X:X>X>X>X>X:X;X;X;XZ.;XZ.#X;X#XZ.;X;X:X;X;X;X;X;X;X6.e.8XZX7X7X7X7X7X7X0X0X<X#XzXiXiXiXiXiXiXiXiXpXpXiXiXiXiXiXpXpXpXpXpX4X4XpX7X4X7X7X7X7X4X4X:X<X<X<X<X;X0XkXgXkX#Xr.r.:.! -.:.-.:.:.! U ) t.n.;.! ;.;.9.` R W y.~ P T W E ! Y m m m M ",
"m m G K ^ ( ) / ) ) ~ U ! ;.( W 1.6.e.e.3.t.e.z.C.B.C.z.t.#X#X#X#X>X:X;X:X:X<X<X4X4X4X4X7X7XpX7X7XaXvXpXpXpXpXpXiXiXaXiXpXaXaXaXaXaXaX#XpXaXaXaXaXaXpXpX7X<X4X,X<X;X;XG.;XZ.n.C.n.C.Z.Z.#XZ.#X:X<X4XkXgXiXkXkXkXkXiXvXvXvXvXzXzXvXvXaXpXpXiXzXiXiXiXpXiXiXpXiXiXvXNXvXiXiXiXiXiXiXiXiXiXkXiXiXiXiXiX0XpXpXpXpXpXpXpXiXiXaXzXzXzXaXzXjXzXzXzXzXaXiXiX9XiXiXiXiXjXjXkXjXzXkXzXzXjXjXzXzXiXjXzXjXzXiXiXiXiXiXiXiX8XgX9XiXiXiX#X#X#XZ.C.B.n.t.z.B.7X;XiX9Xt.<X>X>X>X>X>X:X>X:X:X:X>X>X>X:X>X>X:X>X;X;X;X;X;X>X>X:X>X:X;X;X;X#X#X#XZ.#X;X#X#X#X;X#X#X;X;X;X#Xj.#X7XvX9X9XiXiXiXiXkXiXiX7X>XvXzXzXzXzXvXvXzXaXaXaXkXkXiXkXaXaXzXzXiXpXiXpXiXiXpXiXpXiXiX0X7X7X7X7X7X:XZ.0X<X:X>X>X#XZ.n.:.t.p.p.>.>.;.! ) j.m.>.) 6.t.j.8.9.8.B.7.4.4.( ) ( ~ I I I P ",
"/ ' / ' 5.` ( 1.1.9.( U ~ ;.4.( ( 6.e.e.;.6.t.B.C.z.z.#X;XZ.Z.Z.Z.Z.C.Z.:X:X:X:X<X4X<X4X7X7X7X7X7XZ.4XpXpXpXpXpXiXiXaXaXaXaXaXaXaXaXaXG.pXaXaXaXaXpXpXpXpX4X4X4X<X:X;XZ.Z.Z.n.t.p.p.t.t.p.>.t.t.C.>X5XkXgXkXkXcXcXvXvXvXvXvXvXvXvXiX7XiXiXpXpXiXiXiXiXpXpXiXpX<X<X:XiXiXiXiXiXkXiXiXjXkXzXiXiXiXiXiXpX7X7X0XiXpXiXiXiXjXzXzXzXxXzXzXzXzXzXzXzXaXjXzX9X9XjXgXjXjXzXzXzXzXzXzXzXzXzXxXzXjXkXzXzXzXzXzXzXkXzXkXjXiXjXkXiXiXjXiX<X4X5X:XZ.j.8.6.6.B.pX;XvX%Xz.3X>X>X>X;X>X;X;X;X;X;X;X;X>X;X;X;X;X#XZ.#X;X;X;X>X;X;X>X#X#X#X#X#X;XZ.#X#X#XZ.Z.#X;X#X#X#X;XC.#XBXcX9X7X9X8X9XiXjXiXiXiX7X>XvXkXzXkXiXzXzXkXkXiXaXzXkXiXzXiXiXaXaXiXpXiXiX0X9X0X0XiXpX0X0X0X0X7X7X7X>X:X0X7XC.>X<X#X:X#Xp.t.t.6.t.>.;.! ;.j.C.6.) e.e.z.k.9.q.XX9.1.1.4.k.8.` ~ ~ W U ",
"~ ~ / ( ` 4.4.6.7.8.7.4.4.6.7.y.e.e.e.k.e.B.B.z.B.z.z.#X>X#XB.Z.#X#X#X;X>X<X<X<X>X4X4X7X4X7X0XpXiX7X7XpXpXpXaXaXiXiXpXiXaXaXaXaXzXaXvX;XiXvXaXzXaXiXaXpXpXpXiXpX3X<X<X;X:X;Xn.i.n.n.i.i.C.C.C.n.r.Z.:X;X<X7X7X0XiX0XiXiXpXiXiXiXiXpX:X7XjXiXiXiXiXkXiXzXvXBXNXNXvXaXzXiX#XjXkXvXzXkXzXzXkXkXiXiXiXiXiXiXiXiXiXiXiXiXkXkXzXxXvXvXxXzXkXzXvXzXvXzXzXzXiX5XxXkXjXzXzXxXvXzXxXzXzXzXxXcXxXkXzXxXzXxXvXzXzXzXkXzXzXzXjXzXjXkXkXvX9X<X7X:X#X#Xz.8.6.6.B.9X7XZXc.#X<X>X>X>X;X;X;X#X;X;X;X;X;X;X;X;X;XZ.#X#XZ.#X#X#X;X;X;X;X#X#X#X#X#X#X#X#X#XZ.OX#X#XOX#X#XC.B.BXCXvXgXgXkXx.%XvXkXiXiXkX7X#XxXkXzXzXkXzXkXkXkXkXiXzXkXiX0XiXiXkXzXiXiXiXiX9X9X0XiXiXiXiX0X0X0X0X7X<X7X9X7X7X>X4X<X3X5X>Xt.z.j.t.t.t.>.) ;.C.Z.j.;.e.z.B.v.9.y.+X9.4.9.8.4.7.4.` 1.` ( ",
"T W ~ ^ ) 1.8.7.9.9.7.8.6.6.6.6.e.8.e.e.z.c.z.z.c.B.B.B.B.#X#X#X#X;X;X:X>X<X<X<X<X4X4X7X7XpX7X4XpXaXiXaXaXaXaX4XiXaXaXaXzXzXzXvXvXvXBX:XiXvXaXzXaXiXaXiXpXiXiXpX7X0X7X>X<X:XZ.Z.Z.Z.C.Z.;X#X;XZ.C.;X4X<X>X<X>X;X:X;X>X<X<X<X<X<X>X>X<X7XiXiXiXiXiXiXpXzXzXzXxXBXvXvXvXzXvXvXzXxXzXvXvXzXxXxXxXzXkXkXOX8.y.i.k.k.y.z.e.1XxXxXxXvXxXvXzXxXxXxXxXzXxXzXcXxXkXkXkXzXxXxXvXxXxXvXcXxXxXcXcXxXxXxXxXxXxXzXxXzXkXkXzXkXzXzXcXxXxXkXxX7X>X<X>X0X#Xz.z.B.t.%XkXxXmXz.<X>X>X>X#X#X#XOX#X#XZ.Z.Z.Z.Z.B.B.C.C.B.B.B.B.B.B.OXB.OXB.B.B.B.B.B.B.C.C.C.C.B.B.B.Z.z.e.zXCXZXiXgXkXgXgXvXzXvXxXxXxX#X#XcXkXvXxXvXiXiXzXkXkXkXiXiXiXiXiXiXiXiXiXiXiXiXiXjXiXiXiXiXiXiX0X0X0X7X0X7X7X7X7X7X7X<X<X3X5X<X>X<X<X>X>X#XZ.#X#X>XOXB.B.$X$X+X@X@X$X|.|.XXx.;.1.7.7.q.7.9.",
"W ) ) / ( ( ( ;.3.4.3.3.3.6.6.6.6.9.e.e.e.z.z.z.B.B.B.B.OX#X#X#X#X;X#X;X<X<X4X>X>X7X7X7X7X0XpX7XpXaXiXaXaXiXaXiXaXzXaXaXzXvXvXvXvXvXBX:XiXvXaXaXaXzXaXiXiXiXiXiXpXiXpX<X3X<X;X;X;X;X#XZ.Z.Z.C.C.Z.7XiX7X<X<X<X<X>X>X>X:X>X>X<X<X4X0XiXiXiXiXiX0XpXiXiXiXiXiXiXiXaXzXzXzXzXzXzXzXzXxXcXxXxXxXvXvXzXxXy.K U U T W W W Z |.cXxXcXcXvXxXvXcXcXxXcXxXzXcXxXxXcXcXxXxXcXxXxXxXxXcXxXcXcXmXmXcXcXcXcXcXxXzXxXzXkXxXxXzXzXxXcXxXxXxXkXxX<X<X<X3X<X>X>X>X;Xz.kXkXZXkX7.y.8.9.e.e.6.6.6.6.9.6.4.4.3.1.3.3.;.;.3.;.;.3.3.3.3.3.;.( ;.3.6.;./ / ;.3.6.;./ / ! U %XCXZXkXgXgXgXgXgXkXkXzXkXxXcX#X#XcXkXxXzXkXiXiXzXkXjXkXjXiXjXjXjXiXiXiXiXiXiXiXiXiXiXiXiXiXiXiXiXiX9X0X0X5X7X7X0X7X7X7X7X3X>X>X>X>X>X#X#X#X#X#X+X#XOXXXc.z.z.z.c.x.z.k.k.y.7.7.8.k.y.q.q.9.",
"~ ) ( ( ` ;.1.1.3.6.4.6.6.6.6.9.9.6.e.e.e.z.z.B.B.B.B.B.B.#X#X#X#X>X>X<X>X<X7X>X;X7X0X0X0X0XpXiXiXiXiXiXaXaXaXiXiXaXiXaXzXzXvXvXvXvXBX>XiXvXzXvXkXzXzXiXiXiXkXkXiXiXiX0X7X0X>X;X;XZ.C.C.Z.#X<X<X7XpXiXiX0X0XiXiXpX0X0XiXiXiXiXiXjXiXiXzXaXpXpXpXiXiXiXjXiXjXzXzXjXjXzXvXzXzXiXzXzXxXcXxXxXxXvXxXxXxX8X9X9X9X9X8X8X9X8X8XcXcXcXmXcXcXcXcXcXcXvXxXcXcXxXcXcXcXxXcXcXcXcXcXcXcXcXmXcXmXmXcXxXcXxXcXcXcXcXzXxXxXxXzXzXxXcXcXcXcXzXcXxX9XgXjXkXkXkXxXjXxXkXiXjXZX6X+X|.+Xc.k.XXy.c.OX4.9.c.z.i.i.k.8.e.i.e.z.c.x.c.k.z.|.x.v.k.c.c.B.z.z.B.e.z.#XB.k.XX5X8XCXgXgXkXkXgXgXkXkXkXxXxXkXcX5X#XcXxXkXkXkXkXkXzXjXkXjXgXjXjXjXiXkXjXkXiXiXiXiXiXiX9XgXiXiXiXiXiX9X9X0X0X0X9X0X9X0X7X7X5X3X>X>X1X>X>X#X#X#X#X$X$X#XOXB.z.z.z.x.k.y.y.y.8.8.7.7.7.4.7.1.1.1.",
"^ ) ( ` ` ( 1.1.3.4.4.6.6.9.9.6.9.e.e.e.e.z.c.B.B.B.B.B.OX#X#X#X%X>X>X<X3X<X4X<X>X7X0X0X0X0X9XiXiXiXiXiXiXkXzXiXiXiXiXkXkXzXvXvXvXvXBX:XiXvXvXvXaXjXzXaXiXkXvXiXiXiXiXiXpXiXiX0X>X>X>X7X7XiXiXiXiXiXaXkXiXiXiXiXiXiXiXkXzXzXvXzXjXjXaXjXzXjXjXjXiXkXiXkXkXjXzXvXzXzXzXvXzXkXiXkXxXvXxXxXcXxXxXcXxXcXgX1X5X5X5X5X5X5X5XgXcXcXcXcXcXcXcXcXxXcXmXcXmXmXxXcXcXcXcXcXcXcXcXcXcXcXcXcXmXmXcXmXcXcXcXcXcXcXmXcXcXcXxXxXxXcXcXcXcXcXcXzXcXmXmXmXmXmXNXNXmXmXcXxXcXcX7X5XkXgX8X%X%X5X9XkX5X%X1X$X1X3X1X1X>X>X1X5X5X5X5X9X1X&X8X%X1X1X%X9X1XOX5X1X%X9X>X%X9X9XZXcXgXkXxXkXgXkXkXkXkXkXkXkXzXgX>XcXkXxXkXkXkXkXkXkXkXkXjXjXgXiXiXiXiXjXiXjXiXiXiXiX9XiXiXiXgXiXiXiX9X7X7X0X7X7X0X9X5X3X7X<X1X1X1X>X>X>X>X#X#X#X#X#XOXB.z.XXB.x.x.k.k.y.y.y.q.8.8.4.^ 5.5.5.",
"~ ( ( ` ` ;.1.1.1.6.4.6.7.9.9.9.8.e.e.i.z.z.z.c.B.B.B.B.#X#X+X#X$X>X>X<X3X3X7X7X7X0X0X9X0X9X9XiXiXiXiXaXiXjXkXkXiXiXiXkXvXvXvXvXvXBXBX>XiXvXxXkXvXzXkXkXiXzXvXkXiXkXiXiXiXiXiXiXiXpXjXiXiXkXkXzXzXzXkXkXiXiXjXkXjXkXvXzXvXzXzXzXzXzXzXxXvXzXvXvXxXzXzXkXkXxXxXzXvXxXxXxXvXkXxXxXxXxXxXxXcXcXxXxXcXNXXXY ) ~ ~ W E ! M XXNXcXmXmXcXcXmXcXcXmXcXmXmXmXcXcXnXcXcXmXmXmXcXcXcXNXmXmXmXmXmXmXcXcXmXmXnXcXmXcXcXmXcXcXxXcXcXcXmXcXcXcXkXkXkXgXgXjXiXiX9X8X5X5X9X8X8XcXkXkXxXcXxXkXkX9XkXmXeXgXgXkXgXiXeXgXgXeXkXkX8XgXkX8X7X8X5X8X9X>X3X9X8X8XiX7XkXgX5XcXmXjXkXkXeXkXkXkXkXkXkXkXxXcXcXiX1XcXxXkXkXkXxXxXkXkXkXkXjXgXgXkXkXjXjXiXiXiXiX9XgXgXiXgXgXgX9X9X9X9X9X9X9X8X9X9X8X9X7X5X<X3X>X1X1X1X1X>X%X%X#X#X@X+XOXXXz.B.B.l.y.y.k.y.y.y.q.q.q.4.2.0.5.5.",
") ( ` ` 1.1.` 1.1.6.4.4.4.7.7.9.e.e.i.i.z.z.z.c.B.B.B.e.U B.#X#X$X>X>X3X3X5X5X7X7X7X9X9X0X0X0XiX0X>Xe.e.9XvXkXkXkXkXkXiXOX#XvXvXvXvXBX>XiXvXxXxXxXvXzXkXkXvXkXiXiXkXiXjXiXiXiXkXiXiXjXiXjXjXjX7Xz.#XvXkXkXkXkXgX3Xz.XXkXxXvXvXvXvXvX9Xz.>XxXxXxXxXxXxXxX9X+X5XvXxXcXvXcXxXxX>X>XzXcXcXxXxXcXxXxXcXcX8X5X6X5X5X6X8X8X5X8XmXcXmXmXcXmXmXmXmXmXmXmXmXNXcXmXmXmXcXcXmXcXxXcXNXcXmXmXNXmXNXNXmXcXmXmXnXcXmXmXmXmXmXcXcXmXmXcXcXmXcXmXB.:.6.6.6.>.:.:.:.:.;.>.6.:.1XZXeX7X7XkXxXkX9X5X8XeXgXgX8X5X5X7X9X8X5X5X9XgXiX2X5X8X7X9X6X>X3X5X9XiX5X7X9XiXjXgXcXCXkXxXkXkX6XeXkXkXkXkXkXxX#Xy.$X9X>XcXxXkXkX8Xi.5XxXkXkXkXkXkXiX#X#X9XjXjXgXgXiXiX#XOX9XgXgXgXgXeX9X9X9X9X9X9X9X9X9X9X7X7X5X5X1X1X1X1X1X>X%X#X#X+X$X#XOXXXXXXXB.v.7.y.y.y.y.q.q.q.7.7.7.5.5.5.",
"^ ( ( 1.1.1.1.1.4.4.4.5.6.7.7.8.e.y.k.z.z.z.z.B.B.B.B.#X+Xc.#X#X%X%X>X>X3X5X7X7X0X0X0X0X0X0X9XiX<X#Xe.t.iXxXkXkXzXkXvX>X6.k.iXvXvXvXBX>XgXcXzXxXvXvXvXzXkXzXzXkXzXjX9XzXkXgXiXiXjXjXjXkXjXkXkX>XOX#XvXkXkXkXkX0X0Xz.>.5XxXvXvXxXxXcX>XB.B.zXcXxXcXcXxXcX%Xz.%XcXcXcXcXcXNXxX%X#X7XNXcXcXmXmXcXcXcXcXkXkXkXkXeXkXkXcXnXnXmXcXmXcXcXmXmXmXmXmXmXcXmXmXcXmXmXmXmXmXmXmXmXmXNXNXcXmXmXcXmXmXmXmXNXmXmXmXmXmXmXcXmXcXcXcXmXmXmXmXcXmXgX9XgXkXkXkXjXgXeX9X9X9X9X8XgXUXUXGXCXCXGXGXCXCXCXGXGXGXGXGXGXGXUXGXCXCXCXGXGXGXCXCXGXGXCXCXCXCXGXGXGXGXGXGXCXCXCXxXkXkXkXkXcXkXkXkXxXkXkXkXz.;.1.5X1XcXxXkXxX3Xz.B.xXkXkXzXkXkX9Xi.p.3XkXgXjXgXgX9Xe.6.%XgXiXgXgXgX9X9X9X9X9X9X9X9X9X9X7X8X5X5X3X1X1X1X=X%X%X$X$X+X@X+XoXXXXXXXc.XXXXx.l.l.k.y.y.4.7.7.7.7.4.5.",
") ( ;.1.1.1.1.4.4.4.4.4.5.7.7.7.e.y.k.z.z.z.z.B.B.B.B.#X1XB.+X$X$X%X>X>X3X5X8X7X5X9X9X0X0X0XiX9XiXcXkXkXkXzXkXzXvXzXkXvXkXkXzXzXzXvXcX>XgXvXvXvXxXvXzXzXzXxXzXkXjXjXjXkXkXkXkXjXiXkXkXjXkXkXkXxXzXxXxXvXkXkXkXcXmXmXkXkXxXxXxXxXvXcXxXvXxXxXxXxXvXxXcXcXxXkXcXcXcXcXmXmXmXmXcXxXxXcXcXcXmXcXmXmXcXmXc.W ( / ( ^ W W K @XZXmXmXNXmXnXmXmXmXmXmXmXmXmXcXcXmXmXmXmXmXmXmXmXmXNXNXmXNXNXNXmXmXmXmXNXmXmXmXmXmXcXmXmXcXmXmXmXmXmXmXcXNXZXZXCXCXCXCXCXCXCXCXZXZXZXNXmXNXNXmXNXZXNXmXmXmXmXmXZXZXZXZXZXZXmXmXmXmXNXmXmXmXmXmXmXmXmXmXmXmXmXmXmXnXnXcXxXkXkXxXcXkXkXxXcXkXkXxXkXkXkXxXcXkX8X=XcXkXkXkXgX9XkXkXkXkXkXkXkXgXiX7XiXgXgXgXgXgXgXiX9X9XgX9XgX9X9X9X9XiX9X9X9X9X9X9X9X8X7X7X5X5X1X1X1X=X%X%X%X$XoX@XoXoXXXXXXXXXc.x.x.l.k.y.y.y.7.8.q.7.7.7.4.",
"( ( 1.1.1.1.1.1.4.4.4.4.6.7.8.9.e.i.k.z.z.z.c.c.B.XXXXXXc.XX+X$X%X%X>X>X1X3X5X7X8X7X9X9X0X9XiX9XiX9XiXgXjXzXzXkXzXvXkXvXxXcXzXzXxXxXvX%XiXxXvXxXkXxXkXkXjXkXkXkXjXkXkXkXkXkXkXkXkXvXkXkXkXkXkXkXcXxXvXxXxXxXkXkXcXcXcXkXxXxXxXxXcXxXcXmXcXxXxXxXcXcXcXcXcXmXmXkXcXcXcXcXcXmXZXCXcXxXmXcXcXxXmXmXmXmX#X+X&X@X@X+X|.|.x.=XmXmXmXmXmXmXmXmXmXmXmXmXnXnXcXcXnXmXmXmXNXmXmXmXNXmXNXmXNXNXNXNXcXcXmXmXmXmXmXmXmXNXmXmXmXmXmXmXmXmXmXmX5XB.#X#X#X#X#X+X#XB.OX#X%X#X8XcXkXkXkXkXkXxXxXcXxXxXxXxXxXcXxXxXxXkXkXkXlXkXkXkXkXkXkXlXkXkXkXgXkXgXgXgXgXgXkXkXkXxXxXxXkXcXcXkXkXcXxXkXkXkXxXkXcX8X1XcXkXkXgXkXcXcXkXkXkXkXkXkXkXxXxXgXgXgX9XgX9XgXcXxXgX9XgXgXeX9X9X9X9X9X9XeX8X9X9X9X8X7X5X5X1X1X1X1X%X%X&X$X+XoX@XoXXXXXXX|.c.c.x.y.l.k.y.y.y.y.q.7.7.q.7.5.",
"( ( 1.1.( 1.1.4.1.4.4.4.5.7.8.7.y.y.z.z.z.z.z.c.B.B.XX+XXXXX+X$X#X#X>X>X1X3X5X7X6X9X9X9X5X9X9XiXiXiXiXiXjXkXzXzXjXkXkXjXkXkXkXzXzXxXvX%XgXxXxXxXkXkXkXkXiXkXzXkXkXkXkXkXxXkXkXkXzXzXxXxXkXkXkXkXxXxXxXcXcXcXxXkXkXkXkXkXxXxXcXcXcXcXxXxXkXxXxXcXcXmXcXcXcXcXxXcXcXcXcXcXmXmXcXcXcXcXcXcXmXcXmXmXmXmXcXZXZXZXmXmXmXmXmXnXcXmXmXmXmXmXmXmXmXmXnXnXnXcXcXcXnXnXnXmXNXNXmXNXNXNXNXmXmXmXNXNXmXxXmXNXmXmXmXmXmXmXmXmXmXmXmXmXmXmXmXmX8X%X1X1X=X1X>X>X%X%X#X%X>X%X9XxXxXcXcXkXcXcXcXcXnXnXnXcXcXnXcXnXcXkXcXcXcXcXxXxXcXcXkXkXkXcXkXkXxXkXkXcXkXkXxXlXcXxXmX6XgXnXcXkXkXxXxXkXxXkXkX9X9X5X1XxXkXkXkXkXgXgXkXkXkXkXkXkXkXgXgXgXgXgXgXgXiXiX9X9X9XiXgXgXgXgX9X9X9X8X9X9X9X9X9X9X9X8X5X5X1X1X1X1X%X=X=X%X@X@X@XXXXXXXc.l.|.x.x.y.l.l.y.y.y.q.q.q.q.q.7.0.",
"` ` ` 1.1.1.1.1.4.1.1.( ( 4.8.7.y.k.z.z.z.z.z.c.B.B.B.XXXXOX+X$X#X>X>X>X3X3X5X7X5X9X9X9X9X9XiXiXiXiXgXgXkXkXzXkXjXkXkXjXkXkXkXzXxXkXvX%X9XxXxXxXkXvXzXvXkXkXkXkXkXkXgXkXxXkXkXkXkXkXxXkXxXxXkXkXxXcXxXcXcXcXcXxXkXcXkXkXxXkXxXxXxXcXcXkXcXcXcXmXmXcXmXmXmXcXcXcXcXcXcXmXmXcXcXmXmXcXcXmXmXmXmXcXmXmXNXmXmXmXmXmXmXmXcXmXcXmXmXmXnXnXmXmXmXmXmXmXnXnXnXcXnXmXmXmXmXmXmXmXNXNXZXNXmXmXNXNXmXlXmXNXNXmXmXmXNXmXmXmXmXnXnXcXmXmXmXmXmXmXcXmXmXmXcXcXmXmXcXcXcXcXcXkXxXcXcXcXcXcXcXnXnXcXcXcXxXnXnXcXcXxXcXnXlXxXkXxXxXcXkXkXkXkXxXkXkXkXgXkXlXkXkXkXkXxXxXnXcXkXxXxXkXxXkXkXcXlXkXgXgX6X1XkXkXkXkXkXkXkXkXkXkXkXkXkXkXkXgXkXgXgXgXgXgXgXgXgXgXgXgXgXgXeXeXeX9X9X9X9X9X9XeX9X9X8X6X5X1X1X2X1X%X%X=X%X@X$X@XoX+XXX|.x.|.|.x.l.l.l.y.q.q.q.q.q.q.q.q.q.",
"` 1.` 1.1.1.1.1.1.1.4./ / 4.8.8.q.i.k.z.x.x.x.c.c.B.B.#X#X+X$X$X#X>X>X>X3X3X5X8X5X5X9X9X9X9XiXiXgXiXgXjXjXkXvXvXkXkXkXkXkXzXgXkXkXkXvX%XgXxXkXzXvXxXkXxXcXkXkXkXkXkXkXkXxXxXxXxXxXxXxXxXxXkXkXcXcXcXcXcXcXcXcXcXkXxXkXkXcXxXcXcXcXxXcXmXnXcXnXcXmXnXmXmXmXcXmXmXnXcXmXmXnXmXmXNXmXmXmXmXmXmXmXmXmXmXcXcXmXcXcXnXcXcXcXcXmXmXmXmXcXcXmXmXmXmXmXmXmXmXcXcXnXmXmXnXNXmXmXmXNXNXNXNXmXNXNXNXNXmXmXNXNXmXmXmXmXmXmXnXmXmXmXnXmXmXmXmXmXmXmXmXcXcXcXcXkXcXcXcXkXcXxXcXcXcXnXnXcXmXnXcXnXmXnXcXcXnXcXcXcXxXcXxXlXkXlXxXcXcXcXcXlXxXxXxXlXkXgXkXxXkXkXkXkXkXlXxXlXxXxXkXkXxXxXkXlXkXkXkXhX6X%XkXkXxXkXkXkXkXkXkXkXcXkXkXkXkXkXkXkXgXgXkXkXkXkXkXkXgXgXgXeXeXeXeX9X9X9X9X9X9X9X8X8X8X5X5X5X1X1X1X%X$X=X%X$X$X@X+X+XoXXXx.|.|.l.l.l.v.y.y.u.y.q.q.q.q.0.4.",
"` 1.( ` 1.1.1.1.4.4.4.) W 1.q.q.y.y.z.k.x.x.z.z.c.B.OXc.5.+X$X$X#X>X1X>X3X3X5X8X9X5X9X9XiXiXiXiXiXiXgXgXiXgXkXkXkXkXkXkXxX#X! c.kXkXcX>XgXxXxXkXkXkXxX9X$XgXkXkXkXkXkXkXkXcXcXcXcXcXcXcXxXcXgX#XkXcXcXcXmXcXcXcXkXcXkXkXcXkXcXcXcXcXxX$XeXmXcXcXmXmXnXcXcXcXmXmXnXnXmXmXmXmXgX$XcXmXmXmXmXmXmXmXmXmXmXmXmXmXnXmXcXmXcXcXmXmXmXmXmXmXmXmXmXmXmXmXmXmXmXmXnXmXmXnXmXmXmXmXmXmXNXNXNXNXNXNXNXmXNXNXmXmXmXmXmXmXmXmXmXnXmXnXmXmXmXmXmXmXmXmXcXmXmXmXnXmXmXcXnXlXkXkXcXcXmXnXmXmXmXmXnXnXnXnXnXnXnXnXxXxXlXcX8X|.gXcXcXcXnXcXcXcXcXnXxXlXkXcXxXlXlXnX9Xz.gXxXlXxXxXkXkXkXxXlXkXkXkXkXgXc.=XgX=XXXkXxXkXkXkXkXkXlXkXkXkXkXkXkXkXkXkX%X>XcXkXkXkXkXgXgXgXgXeXeXeX9X9X8X9X9X9X8X8X8X6X5X1X1X=X%X%X%X%X%X$X$X@X@X@X+XXXx.c.|.l.l.v.l.y.y.y.q.q.q.y.q.q.q.",
"` ` ` ` 1.` 1.1.4.4.4.^ ~ 1.8.8.y.y.k.k.k.k.x.z.z.c.B.XX@X+X#X$X%X%X%X1X1X2X5X6X8X8X9X9X9X9X9XiXiXiXgXgXiXiXkXkXgXkXkXkXxX1XOX+XkXkXcX%XgXkXkXxXkXkXkXgX6XgXkXkXkXkXkXkXkXxXcXnXcXcXxXcXcXmXkX9XcXmXcXcXmXcXcXcXkXkXxXcXcXcXcXcXcXcXcXkXbXnXmXnXnXnXcXnXmXmXmXmXmXnXmXmXmXmXkXeXmXmXmXmXmXmXNXmXmXmXmXNXmXmXcXmXmXmXcXcXmXmXmXmXmXmXmXmXmXmXmXmXnXmXmXmXmXmXmXmXmXmXmXnXnXmXNXmXmXNXNXNXNXmXNXNXNXmXmXmXmXmXnXnXmXmXnXcXmXmXmXmXmXmXmXmXmXmXmXnXnXmXmXnXnXnXnXcXnXnXcXnXnXnXnXmXnXcXnXmXnXmXnXcXxXcXxXxXxXxXxXcXcXcXnXcXnXnXnXnXcXcXkXcXcXxXxXcXkXnXxXkXlXxXlXkXlXxXlXkXkXkXkXkXgX+X=XkXxXeXkXkXxXkXkXkXkXxXkXkXkXkXkXkXkXkXgX3XkXzXkXkXkXgXgXgXgXgXeX9XeX9X9X8X9X9X9X9X8X8X6X1X1X1X1X=X=X=X$X%X@X$X$X@X@XXXXX|.|.|.x.l.l.v.l.y.y.y.q.q.q.q.q.7.",
"1.1./ ` 1.` 1.4.4.4.4.~ W 1.q.q.q.y.y.k.k.y.k.x.z.B.XX+X$X+X#X%X#X%X%X>X1X3X5X5X5X8X8X9X7X9X7X7XiX9X9XiXgXiXgXgXiXkXkXkXkXcXNXcXkXkXcX=XgXcXkXxXkXcXkXmXZXkXkXkXxXkXkXkXkXkXcXnXcXcXxXcXcXcXmXZXmXcXmXcXcXcXcXxXkXkXcXxXcXnXnXcXnXnXnXZXmXnXnXmXcXcXnXnXnXnXmXcXnXnXmXmXmXmXmXZXmXmXmXmXmXmXNXmXmXmXmXNXmXmXmXmXmXmXcXmXmXmXmXmXmXmXmXnXnXcXcXmXmXmXmXnXmXmXmXmXmXmXmXmXmXmXmXmXNXmXNXNXmXmXmXNXmXmXmXmXnXmXnXxXnXcXnXnXmXmXmXmXmXmXmXmXmXmXmXmXmXmXmXnXnXnXnXcXcXcXnXcXnXnXnXnXnXnXmXmXmXmXnXnXxXnXcXxXnXmXcXcXcXnXbXxXnXnXxXnXcXcXcXcXxXlXkXxXlXxXlXkXkXkXkXkXkXlXxXlXkXkXkXkXkXeX=XcXxXnXxXkXxXxXkXkXkXlXkXkXkXkXkXkXkXgXgXcXxXgXgXgXgXgXgXgXeX8X9X9X9X8X8X8X8X9X9X8X8X5X1X5X1X1X1X=X=X=X$X$X@X&X@X@X@X+XXX|.|.|.v.l.l.l.l.y.y.y.y.q.q.y.9.0.",
"` ` ( ` ` ` ` 1.4.4.5.^ ~ 1.9.7.q.y.l.k.k.k.k.z.c.B.XXOXOX#X#X$X%X$X%X1X1X3X2X5X5X5X8X8X7X9X8X9X9X8X9X9X9XiX9XgXkXkXkXkXkXkXgXgXkXkXcX1XkXcXkXcXxXkXkXkXkXkXkXkXkXkXkXkXkXxXcXcXcXcXcXcXcXxXcXcXmXmXcXcXcXnXcXcXcXnXkXcXcXcXcXxXmXnXnXcXcXmXmXmXnXnXmXmXnXnXmXmXmXmXmXmXmXnXmXcXmXmXmXmXmXNXNXmXmXmXmXNXmXNXmXmXmXkXcXNXmXmXnXmXmXnXnXmXnXmXmXcXmXmXmXmXmXmXmXmXnXmXmXNXmXmXmXmXNXNXNXNXmXmXNXNXmXmXmXmXmXmXnXnXmXnXcXlXcXmXnXmXmXmXmXmXmXmXmXmXmXmXmXnXmXnXcXcXnXnXnXcXnXmXmXnXnXmXmXmXmXmXnXnXxXcXnXxXxXcXcXcXnXxXnXxXnXbXcXnXcXlXcXcXxXcXcXxXkXkXkXkXkXkXhXkXkXcXkXkXkXkXkXhXgX9X=XnXxXkXkXkXkXcXcXlXxXxXkXkXkXkXkXkXkXkXkXgXgXgXgXgXgXgXgXgXgX1X9X9X8X8X8XeX8X8X9X8X8X6X1X1X1X1X1X=X=X=X$X@X%X$X@X@X@XXXXX|.|.|.x.l.k.l.l.y.y.y.y.y.y.y.q.q.",
"` ` ` ` ` ` ` 1.5.4.5.~ ~ ` 9.9.q.y.y.k.k.x.x.z.z.c.|.oX+X#X+X$X#X$X>X1X>X1X5X5X5X5X8X5X8X9X9XiX9X9X9XgXgXgXgXjXiXkXkXkXkXkXkXkXkXkXxX=XgXcXkXxXcXcXkXkXkXkXkXkXxXkXkXlXkXkXxXcXcXcXcXmXcXcXcXcXcXcXcXnXnXmXcXnXlXnXcXcXcXcXcXcXcXnXnXmXmXmXnXmXcXnXmXmXmXmXmXmXcXcXmXmXmXmXmXcXmXmXNXmXmXmXmXmXmXmXmXNXNXmXmXmXmXmXmXNXmXmXnXmXnXxXnXmXcXnXcXcXcXcXnXmXmXmXNXNXmXmXNXmXNXNXmXmXmXmXNXmXmXmXmXmXmXcXmXmXmXmXnXcXnXmXmXgXhXmXmXnXcXmXmXmXmXmXmXmXmXmXmXmXnXnXnXnXnXnXnXnXnXnXnXnXmXmXmXmXnXmXmXcXnXnXnXxXcXcXxXnXnXnXcXxXcXxXnXcXcXcXlXlXnXcXcXxXlXxXkXkXkXkXkXkXxXkXlXkXkXkXhXkXkXeX=XnXcXlXkXkXkXkXkXkXkXlXkXkXkXkXkXkXkXkXkXkXkXgXgXgXgXgXgXgXeX9X9X9X8XeX9X9X9X8X8X8X8X5X1X1X=X1X1X=X&X$X$X$X$X$X@X@X@XXXXX|.|.|.x.l.y.l.l.u.u.y.q.y.y.y.q.q.",
"` ` ` ` ` 1.1.1.5.5.5.7.q.q.7.q.q.y.l.k.y.k.k.z.z.c.x.XXXXoX+X+X%X$X>X1X1X1X3X5X3X5X5X5X8X9X9XiXiX9X9XgXgX9XiXgXgXjXkXgXgXkXkXkXkXkXcX1XgXxXkXcXxXcXxXkXkXkXkXxXlXkXkXcXkXkXkXcXcXxXcXcXcXcXcXcXnXnXnXmXnXnXcXcXcXnXmXcXnXcXcXcXnXmXnXmXmXmXmXmXnXnXmXmXmXmXmXmXmXmXmXmXmXmXmXmXmXNXNXmXmXmXmXmXmXmXmXmXmXmXmXmXmXmXmXmXmXmXnXmXnXmXmXmXnXnXnXcXnXNXnXmXmXmXNXmXmXmXmXmXmXNXmXmXmXmXNXmXmXmXmXNXmXnXmXmXnXmXmXcXmXnXnXnXnXmXmXmXmXnXmXmXmXnXmXmXmXmXmXmXmXnXnXnXnXmXnXnXnXnXnXnXnXnXnXnXmXmXmXnXcXnXnXxXnXlXxXbXnXbXnXcXcXxXxXbXlXbXbXlXlXcXlXcXlXxXlXxXlXkXkXkXkXlXkXkXlXkXkXcXxXeX=XcXkXkXkXkXlXlXkXkXlXkXkXkXkXkXkXkXkXkXkXkXkXgXgXgXgXeXgXeXeXeXeXeXeXeX9X9X9X8X8X6X6X5X1X1X=X1X=X=X$X$X$X@X$X=X@X@X@XXXXX|.}.|.x.v.l.v.l.u.l.y.q.y.u.u.q.q.",
"` ` ` ` ` ` ` ` 5.5.5.q.k.q.7.q.y.y.l.l.k.k.x.x.c.c.c.|.B.oXoX$X$X$X%X1X1X1X1X5X5X3X5X5X8X9X9X9X9X9X9XeXeXgXiXgXgXgXgXgXkXkXkXkXkXkXcX=XkXcXkXxXxXkXxXkXkXkXkXlXkXkXkXkXxXlXcXcXcXxXcXcXxXmXmXcXnXnXxXcXnXnXcXcXnXnXxXcXcXcXcXcXcXnXnXnXmXmXmXmXmXmXmXmXmXmXmXmXmXmXmXmXmXmXmXmXmXmXNXNXmXmXmXmXmXmXmXmXmXNXmXNXmXmXNXmXmXmXmXmXmXNXmXmXnXmXnXmXmXmXnXNXNXmXmXmXmXmXmXmXmXmXNXmXmXNXmXmXmXmXmXmXmXcXmXmXnXmXmXmXmXmXnXnXmXmXmXmXnXnXnXnXmXnXmXmXnXnXmXmXnXnXmXnXnXnXnXnXnXnXnXnXnXnXnXnXnXnXnXnXcXnXnXnXnXlXnXnXnXnXnXlXlXxXbXbXxXlXlXlXlXlXxXlXkXlXlXlXlXlXlXlXkXlXlXkXkXkXkXkXxXgX*XbXxXlXkXkXkXlXkXkXkXkXkXkXkXkXkXkXkXkXkXkXkXgXgXgXeXgXgXeXeXwXeXeX8XeX8XeX8X6X6X6X6X1X1X1X1X1X=X$X&X&X$X@X@X$X@X@X@XXXXX|.}.|.x.l.l.v.l.l.l.y.q.y.y.y.y.y.",
"' ` ` ` ` ` 1.5.2.5.4.4.4.4.7.q.y.y.y.l.l.x.x.x.c.x.x.|.oX+XXX+X+X$X%X%X1X1X1X5X5X1X5X5X5X8X8X9X9X9X9X9X9X9X9XeXeXgXgXgXeXgXgXkXkXkXxX=XkXcXxXxXlXbXxXkXkXkXkXxXkXkXkXxXlXlXxXnXcXcXcXxXxXnXnXnXnXxXcXcXnXnXxXxXxXcXcXcXnXnXnXnXnXnXnXnXcXmXmXmXnXmXmXmXmXmXmXNXmXmXmXmXmXmXmXmXmXmXmXmXmXmXmXmXnXmXmXmXmXmXmXmXmXNXmXmXmXmXnXnXmXmXnXnXnXnXmXmXmXmXcXNXmXmXmXmXmXmXNXmXmXmXNXNXmXmXmXmXmXmXmXmXmXmXmXnXmXmXmXmXmXnXnXnXnXmXnXnXnXnXnXmXnXmXnXnXnXnXnXmXnXnXmXnXnXnXbXcXnXnXnXnXnXnXnXnXnXnXnXnXcXnXnXcXnXnXnXnXcXxXnXxXbXlXbXbXlXlXxXlXlXlXxXlXkXkXlXkXkXlXlXkXhXlXgXhXlXlXkXkXkXeX=XbXlXlXkXkXkXlXkXlXkXkXkXkXkXkXkXkXkXkXkXkXkXkXeXeXeXeXgXeXeXeX8X8X8XeXeX8X5X6X6X5X5X5X1X%X1X1X=X$X$X$X@X@X@X@X@X@X@X@XXX|.x.|.x.v.l.x.l.l.l.u.y.y.y.l.y.y.",
"' ` 1.1.1.1.5.5.5.5.1.7.7.9.0.q.y.y.y.k.y.l.x.k.c.x.c.x.W k.+X+X@X$X%X%X%X%X1X5X1X1X1X1X6X6X5X8X8X8X9X9X9X9XeXeX9XgXgXeXgXeXgXgXkXgXkX=XkXnXxXxXxXxXxXlXkXkXkXkXlXgXgXxXlXkXlXnXlXkXcXcXnXnXcXcXcXcXcXnXcXxXxXcXlXxXnXcXnXmXcXcXnXnXnXmXcXnXmXnXmXmXmXmXmXmXmXNXNXmXnXmXmXmXmXmXmXmXmXmXnXmXnXnXmXmXmXmXmXmXmXNXmXNXNXmXmXmXmXmXmXnXnXnXnXnXmXnXmXmXnXmXmXmXmXmXmXmXmXmXmXmXmXNXmXmXmXmXmXmXmXmXmXmXmXmXmXmXmXnXmXmXnXnXnXmXnXnXnXnXmXnXnXnXnXnXnXnXnXmXnXnXnXnXnXmXnXbXnXxXnXnXnXnXnXnXnXmXnXnXnXnXmXnXnXxXxXnXnXcXcXlXxXxXxXxXlXlXnXlXlXlXxXlXlXlXlXlXlXlXlXkXgXkXeXeXhXhXgXhXcXwX=XnXxXbXkXkXkXlXkXkXlXkXkXkXkXkXgXkXkXhXkXlXkXgXeXeXeXeXgXeXeXeXwX8X8XwX8X6X1X1X5X5X6X6X1X1X%X=X$X$X$X$X@X@XoX$X@X@X@X@XXX|.}.}.}.}.x.x.l.l.l.l.y.y.y.l.y.q.",
"` ` 1.1.4.4.1.4.7.7.7.7.4.7.q.q.q.q.y.l.l.y.l.x.x.x.x.|.k.x.+X+X@X$X$X$X%X%X1X1X5X1X%X2X5X5X5X6X8X8X8X8X9XeX9X9X9XgXeXeXgXeXgXgXgXgXkX=XkXxXxXkXlXxXxXxXkXkXkXxXlXhXkXkXkXkXcXxXkXkXxXcXcXnXkXkXcXnXxXnXxXxXxXcXxXcXcXlXcXnXnXnXnXnXnXcXcXnXmXmXmXmXmXmXmXmXmXNXNXmXnXmXmXmXmXmXmXmXmXmXnXnXnXmXnXmXmXmXmXNXmXmXmXmXmXmXmXmXmXnXnXnXmXnXnXnXnXnXmXmXmXmXmXnXmXmXmXmXmXNXmXmXNXNXmXmXmXmXmXnXmXmXmXmXmXmXmXmXmXmXmXnXmXeXwXmXnXnXnXnXnXnXnXmXmXnXmXmXMXnXnXmXmXnXxXmXmXxXxXxXnXcXnXmXnXxXbXnXnXnXnXnXnXnXnXnXbXxXxXnXbXcXnXlXxXxXlXlXxXlXlXnXcXlXlXlXkXlXlXlXkXkXkXgXlXgXgXgXeXeXhX8X=XbXlXlXlXkXkXlXkXkXkXhXgXkXkXkXkXkXkXkXkXlXkXeXeXeXeXeXeXeXeXwXwX6X6X8X8X6X6X6X6X5X1X1X5X1X=X=X*X$X$X$X@X@XoX@X@X@XXX@XXX|.|.|.|.x.x.x.v.l.l.y.y.y.l.l.q.q.",
"` 1.5.` 1.5.4.7.7.7.q.q.7.7.5.5.q.y.y.y.l.y.q.x.x.l.x.x.1X>X|.+X@X$X$X$X$X=X=X=X1X>X%X1X5X5X3X5X8X8X8X8X8XwX9X9X8X9XeXeXeXeXgXgXgXgXgX=XeXlXxXlXkXkXlXlXkXkXgXkXlXlXkXlXkXkXlXlXkXlXcXcXcXcXkXcXcXnXxXbXnXcXxXnXxXxXnXcXxXxXcXnXnXnXnXcXnXnXnXmXmXnXmXmXmXmXNXNXmXmXmXmXmXmXmXnXmXmXmXmXnXnXmXnXnXmXmXNXNXNXmXmXmXmXmXmXmXmXmXnXmXnXmXnXxXnXnXnXnXmXmXmXmXmXmXmXmXnXmXmXmXmXmXNXmXmXmXmXnXnXmXNXmXmXmXmXmXmXmXmXmXmXnXkXkXmXnXnXmXmXmXmXmXmXmXmXnXnXnXmXmXnXmXnXbXnXnXnXxXcXnXnXnXnXxXlXnXnXnXnXnXmXmXnXnXbXnXbXbXlXbXxXlXxXnXbXxXcXnXnXxXlXlXlXlXlXkXlXkXkXlXkXkXkXkXhXhXgXkXhXhX8X=XcXkXlXlXkXkXlXkXkXkXhXkXkXkXkXkXkXlXkXgXkXkXgXeXeXeXeXeXeXwXwXeX6X8X8X8X6X%X#XOX1X6X1X1X1X=X=X=X$X$X@X@X@X@X@X@XXXXX+XXX|.|.|.|.c.v.x.v.l.l.l.y.y.y.l.l.q.",
"` 1.4.1.4.1.4.7.5.7.9.7.7.2.1.7.8.y.y.l.l.l.l.y.l.l.l.x.XX+XXX+X@X@X$X$X%X%X%X=X1X%X=X1X1X6X5X6X8X5X6X8X8X8X9XeX9XeX9XeXgXgXgXgXgXgXkX%XeXkXkXkXkXxXlXxXkXkXkXkXkXhXhXkXkXhXkXkXkXkXcXxXcXcXlXcXcXxXxXnXnXxXxXnXlXcXxXnXcXxXnXcXnXcXnXnXnXnXmXmXnXmXmXmXmXmXNXNXmXmXmXmXmXmXmXmXmXmXmXnXmXmXnXmXmXmXnXmXNXNXNXmXmXmXmXmXmXmXmXmXmXmXnXnXnXnXmXnXnXnXmXmXmXmXmXmXmXmXmXmXNXmXmXmXmXmXmXmXmXmXmXmXmXmXmXmXmXmXmXmXnXmXmXmXnXnXnXmXnXmXmXmXmXmXmXmXmXmXnXnXnXmXmXnXcXnXmXnXxXnXcXnXnXnXnXnXnXmXnXnXnXnXnXxXnXbXxXnXxXxXxXlXlXxXbXbXlXlXnXcXlXxXlXlXlXxXlXkXkXlXkXlXkXkXkXkXkXlXhXhXhX8X=XcXkXlXkXkXkXkXkXtXkXkXkXkXgXkXkXhXkXhXkXgXkXeXkXgXeXeXeXeXwXeX8X8X8X8X6X8X#XB.XX=X5X1X1X1X$X=X*X$X$X$X@X@X@X@XoXXXXX+X|.|.XX|.}.}.x.x.l.l.l.l.y.l.l.l.l.y.",
"` 5.4.4.4.2.4.5.4.4.7.7.7.4.4.4.q.y.y.l.k.k.l.l.l.l.x.x.|.XXXX@X+X+X@X$X@X$X%X1X1X%X=X=X1X6X1X6X5X5X5X6X8X8X8XeX9XeXeXeXgXeXeXgXgXgXkX=XwXkXkXhXkXxXxXlXkXkXkXkXkXgXgXkXkXhXhXkXkXgXlXlXlXcXlXkXxXxXlXlXxXxXxXxXlXxXxXxXnXnXxXnXcXcXnXnXnXnXnXmXnXmXmXmXmXmXNXmXmXmXmXmXmXmXmXnXmXmXnXmXmXmXmXmXmXmXmXNXNXNXNXmXmXmXmXmXmXmXmXmXmXnXnXnXnXnXmXnXnXmXmXnXmXmXmXmXmXmXmXNXmXmXmXmXmXmXmXmXmXmXmXNXmXMXmXmXmXmXmXmXmXmXmXnXnXnXnXmXmXnXmXmXmXmXmXmXnXnXmXnXnXmXmXnXnXnXnXnXxXnXnXnXnXnXnXmXnXnXmXnXlXnXmXmXnXxXxXnXlXlXxXlXlXxXbXbXlXxXnXxXlXlXlXlXlXxXlXlXkXkXlXlXkXkXkXhXhXgXgXgXkX8X=XcXkXlXkXkXkXkXkXtXkXhXhXkXhXkXgXkXkXhXhXkXkXgXkXeXeXeXeXwX8XwX8X8X8X8X6X6X#XB.XX=X=X=X=X%X$X=X$X$X&X$X@X@X@X@X@X+XXXXX|.|.|.|.|.|.x.x.v.l.v.l.u.u.l.l.l.y.",
"1.4.7.4.5.5.5.4.4.7.7.7.7.4.4.4.7.q.y.y.k.y.u.l.l.x.x.x.|.XXXXXX@X@X@X@X@X@X$X=X%X=X=X1X1X1X1X1X6X6X6X6X6X8X8X8X8X9XeXeXeXeXeX9X8X8XeX@XwXkXhXlXlXkXkXxXkXgXhXhXkXhXkXlXkXhXkXkXhXkXlXkXhXlXxXxXxXkXxXxXxXbXxXxXlXxXxXxXnXnXnXnXxXcXnXcXnXmXmXmXmXnXmXmXmXmXmXmXmXmXmXmXmXMXmXnXmXmXmXnXmXmXmXmXmXmXNXZXNXNXNXmXmXmXmXmXmXmXmXmXmXmXnXnXnXnXnXnXmXmXmXmXmXmXmXmXmXmXmXmXmXnXmXmXmXmXmXmXmXmXmXNXmXmXmXNXmXmXnXmXmXnXnXnXnXnXnXnXmXmXmXnXmXmXmXmXnXMXmXmXmXmXmXnXnXnXnXnXxXnXnXnXnXnXnXnXnXmXmXnXkXxXmXmXbXnXlXxXbXlXlXlXlXbXbXnXxXxXnXlXcXlXxXlXlXlXlXlXlXlXlXkXlXhXkXkXhXgXeXgXkX8X=XxXlXkXkXkXkXkXkXeXhXhXeXeXgXhXgXhXkXhXgXgXeXgXeXeXgXeXgXeXwXeX8X6X8X8X6X6X+Xz.c.=X=X=X=X=X$X=X=X=X=X$X@X@X@XXX@XXX|.XX|.|.|.|.|.}.x.v.l.l.l.l.l.l.l.l.l.l.",
"1.4.4.5.4.5.4.5.7.7.7.7.7.4.4.5.7.q.q.y.y.y.l.l.x.x.l.v.l.|.XX+X+X+X@X@X$X$X@X$X=X=X=X1X1X1X1X1X5X6X5X6X6X6X8X6X8X8X8XwXeX$Xz.z.z.k.k.k.c.c.z.c.hXkXlXkXkXkXgXhXkXgXgXkXhXgXeXgXhXhXkXhXkXlXbXxXlXlXlXbXxXxXxXxXlXxXxXlXxXnXxXxXxXnXnXnXnXnXmXnXnXnXmXmXnXmXmXmXmXmXmXnXmXnXnXnXmXMXmXmXmXmXnXmXmXZXmXNXNXNXNXmXmXNXmXmXNXmXmXmXmXmXnXnXmXmXnXmXmXmXmXmXmXmXNXNXNXmXnXmXmXmXmXmXmXmXmXmXmXMXNXmXmXmXmXmXnXnXnXnXnXnXnXnXnXnXnXnXnXmXmXmXnXmXmXmXmXMXmXmXmXmXmXmXnXnXbXnXxXnXnXnXnXbXmXmXnXmXmXnXnXnXnXbXbXbXlXbXbXlXxXxXlXbXxXbXlXnXxXlXlXkXlXlXlXlXlXlXlXlXlXlXlXhXhXkXhXkXhXeXgX8X=XxXkXlXkXhXkXkXhXhXeXgXeXeXeXgXgXgXgXeXeXeXeXeXgXgXgXeXeXeXwXeX8X8X8X6X6X6X+Xz.z.&X=X=X=X$X$X=X=X=X&X$X$X@X@XoXXX|.XXXX}.|.XX|.x.x.v.l.l.l.l.l.l.l.l.l.l.y.",
"` 1.5.5.4.5.5.5.5.7.7.7.7.5.7.5.9.7.q.y.y.q.l.l.l.x.x.x.9.x.+XXX+X+X+X@X@X$X@X$X=X=X=X1X1X1X1X1X6X1X5X6X6X8X8X8X=X6X8XeX6X6.kXxXvXkXkXkXkX9XkX$X=XxXkXkXlXkXeXgXkXhXeXkXkXgXeXhXhXgXhXkXkXkXlXcXxXxXlXbXnXnXlXlXkXxXxXxXxXxXlXxXcXxXnXxXnXnXnXnXnXmXmXmXnXmXmXnXMXmXnXnXnXMXnXnXnXnXMXnXmXmXmXmXmXmXmXNXmXNXmXmXmXmXNXNXmXNXmXmXmXnXcXnXmXmXmXmXmXmXmXNXmXmXmXmXNXmXnXmXmXmXnXmXmXmXnXmXmXmXMXmXMXMXmXmXnXnXnXnXbXnXnXnXnXnXnXnXnXnXmXmXmXmXmXmXmXmXnXmXNXmXmXmXnXxXbXnXnXnXnXnXnXnXnXmXnXnXmXnXnXbXnXxXlXnXnXbXxXlXlXxXxXxXbXnXnXnXxXlXlXlXlXlXlXlXlXlXkXlXkXkXlXhXkXkXgXgXhXhXkX8X*XxXhXkXlXtXtXkXhXhXgXgXeXeXeXgXeXeXgXeXeXeXeXeXeXeXeXeXeXeXeXwX8X8XwX8X6X6X+Xe.z.=X=X=X=X=X$X=X=X=X=X$X$X@X$XoXXXXXoX|.}.XXXX|.x.x.l.}.v.l.v.l.l.l.l.x.l.y.",
"` 1.4.7.7.7.5.7.7.q.7.7.7.7.7.7.4.8.q.q.q.q.y.l.k.y.y.x.XXc.|.|.|.XX@X@X@X@X@X=X=X=X=X1X1X1X1X1X1X5X5X6X6X8X8X8X5X8X8XeX1Xe.kXeXeXeXgXeXgXkXxXgX6XkXgXkXkXkXeXhXkXeXgXkXkXgXgXhXgXhXhXhXkXlXlXxXxXlXxXxXxXlXkXkXkXxXlXlXbXxXxXxXxXxXxXxXxXnXnXnXmXmXmXmXnXmXmXnXMXnXnXnXnXMXnXnXnXMXnXnXMXmXmXMXmXmXmXmXmXNXmXmXmXmXmXNXmXmXmXNXmXMXmXmXNXmXmXmXmXmXmXmXmXmXmXmXmXNXmXmXmXmXmXNXmXnXmXmXmXMXnXmXmXmXMXmXnXmXnXbXxXnXnXmXmXmXmXnXmXmXmXmXnXmXmXnXmXmXmXmXmXmXMXmXmXnXnXmXnXnXnXnXnXnXnXmXmXmXmXnXnXnXmXbXxXnXxXxXxXcXlXlXlXxXnXxXnXnXxXlXlXxXkXlXlXlXlXlXkXkXkXkXlXhXhXkXkXhXkXlXhX8X*XlXeXkXlXkXhXkXkXkXhXhXgXeXeXgXeXgXeXeXeXeXeXeXeXeXeXeXeXeXeXwX8XwX8XwX6X8X$Xt.e.=X2X=X=X=X&X&X=X=X$X$X@X@X@XoX@X@X|.|.|.XXXX}.}.x.v.x.x.v.l.v.l.l.v.l.l.l.",
"` 4.4.5.4.4.7.7.7.q.q.q.7.7.5.7.7.7.7.q.q.y.k.y.x.@X$X1X=X=X=X1X1X=X@X@X$X$X@X=X1X=X=X1X1X1X1X1X1X1X1X6X6X6X6X8X8XwX8XeXeX7.7.8.e.e.e.i.k.x.B.6.6XkXgXkXhXgXgXhXkXgXgXgXgXkXhXgXhXeXhXhXhXlXkXlXlXlXxXxXlXxXlXxXlXxXlXkXxXlXlXxXxXcXxXxXcXnXnXnXnXmXmXmXnXnXnXnXmXmXnXnXnXnXnXnXnXMXmXmXmXMXmXmXmXmXmXmXmXmXNXmXmXmXNXmXmXmXmXNXNXmXmX5XeXNXmXmXmXmXmXmXNXmXmXmXmXmXmXmXmXmXeX2XmXmXmXmXmXmXnXmXmXmXmXmXmXmXnXnXnXlX1XkXNXmXmXnXmXnXmXmXmXmXmXmXmXmXmXmXmXkX6XmXmXnXnXmXmXnXnXnXnXnXnXMXmXmXnXnXnXnXnXnXnXnXlXxXbXlXlXnXbXnXbXcXnXlXxXlXlXlXhXlXxXlXlXlXlXkXhXhXkXeXhXhXhXhXhXhXhX8X*XlXgXhXkXhXhXhXhXhXhXgXgXgXgXgXgXeXeXeXeXeXeXeXeXeXeXeXeXeXwXeXeXwXwX8X8X8X5X$X@X1X1X1X1X=X=X=X=X%X$X$X@X@X@X@X@X+XXXXXXXXX|.}.}.|.x.l.}.x.v.l.l.l.l.l.l.l.",
"` 1.4.7.7.5.7.7.7.q.q.q.0.7.5.7.q.7.q.q.q.k.l.y.l.=X+X@X$X&X$X&X=X6X@X@X@X$X@X%X1X=X=X1X1X1X1X1X2X1X1X1X6X6X6X8X8X8XwX8XeX6Xq.q.q.q.q.4.l.|.x.=XxXeXgXgXkXgXeXeXhXgXeXeXhXhXeXeXkXeXeXkXlXkXkXxXlXkXlXxXxXlXlXkXlXkXlXlXkXxXxXxXxXxXnXxXxXnXnXnXnXnXmXnXnXnXnXnXnXnXnXnXnXmXmXmXnXMXMXnXmXmXnXmXmXmXmXmXmXmXmXmXnXmXmXmXmXmXmXNXNXZXxXnXmXmXmXmXmXmXmXmXmXmXmXmXmXmXmXmXNXnXbXNXmXnXmXmXnXnXnXnXmXmXmXnXnXmXnXnXbXcXmXNXnXmXmXnXmXnXnXmXnXmXmXmXmXmXmXmXmXlXnXmXnXnXnXmXnXnXnXnXnXnXmXmXnXnXnXnXnXxXnXbXlXcXlXxXlXlXxXxXlXnXlXlXbXxXlXlXlXlXlXkXkXlXlXkXgXkXhXhXtXeXeXhXgXhXhXeXhX6X$XlXhXkXhXhXhXgXhXhXgXgXgXeXeXeXeXeXeXeXeXeXeXwX8XeXeXeXeXeXeXeXwXwXwX8X8X6X8X8X6X1X1X6X1X=X=X=X=X$X$X@X@XoX@X@X@X+X@XoXXXXX|.}.|.}.x.x.x.v.x.l.l.l.x.v.l.l.",
"` 4.5.7.5.7.0.0.7.q.0.0.0.4.5.4.5.7.7.q.y.q.l.k.4.oX|.XX|.|.XX|.@X&X@X@X@X$X$X=X1X1X=X1X=X1X1X1X1X1X1X1X1X6X6X8X8XwXeXwX8XgXkXhXkXgXkX=X8XxXkXkXeXgXgXkXkXeXwXeXeXeXeXhXhXgXeXgXkXeXeXkXkXhXlXlXlXkXlXkXlXlXlXkXkXlXlXkXlXlXxXxXxXxXxXcXxXxXnXnXnXnXmXmXnXnXnXnXnXnXnXnXnXnXmXnXnXnXMXmXmXmXnXnXmXMXmXmXmXmXmXmXmXmXmXmXnXmXmXNXmXNXZXCXGXmXmXmXmXmXmXNXmXnXmXmXmXmXmXmXmXNXZXZXMXmXmXmXmXnXnXnXmXmXmXnXbXmXnXnXcXmXNXmXmXNXmXcXmXnXnXmXnXmXNXmXmXmXmXnXnXMXNXnXnXnXnXnXnXmXmXnXnXnXnXnXnXnXnXnXbXkXbXxXlXlXxXxXlXlXlXlXbXlXlXlXlXlXlXlXlXlXhXlXlXkXhXkXgXgXhXtXeXtXeXeXeXeXgXeXgX6X$XlXgXkXhXgXeXeXhXhXgXgXgXeXeXeXeXeXeXeXeXwXeXeX8XeXwXwXeXeXeXwX8X8XwXwX8X6X6X5X1X1X2X=X1X=X=X=X=X=X$X$X@X@XoX@X@XXXXXoXXX|.|.|.|.}.x.}.}.v.l.v.l.l.l.l.l.l.",
"1.5.4.7.5.5.5.0.7.q.q.q.q.q.7.7.q.7.q.q.q.y.l.k.4.=X=X$X$X=X=X=X6X=Xy.@X@X@X@X%X=X=X=X=X1X1X1X=X1X1X1X1X1X1X6X8X8X8XeXeXwX8X8XeXeXeXeX=X6XeXeXeXeXgXhXhXhXeXwXeXeXhXtXhXgXhXeXeXtXhXkXhXkXkXlXkXlXkXlXlXkXkXlXlXtXtXlXlXlXlXxXxXxXxXnXcXxXnXnXnXnXnXmXnXnXnXnXnXbXnXnXnXnXnXnXnXnXnXmXMXmXnXnXnXmXmXmXmXmXmXmXmXmXmXmXmXmXmXmXmXmXmXmXmXmXmXmXmXmXmXmXmXmXmXmXmXNXZXmXmXmXmXmXmXmXmXmXmXmXnXnXxXkXnXbXnXmXNXnXnXnXnXnXnXmXmXNXxXmXnXnXmXnXmXmXNXNXnXmXnXbXbXnXnXnXnXnXnXnXnXnXnXnXnXnXnXnXnXnXnXxXnXnXlXlXlXxXlXbXlXlXxXxXlXlXhXlXlXhXhXlXlXhXlXhXkXkXkXgXeXgXeXhXeXeXgXeXeXeXeXhX6X$XlXeXhXhXgXeXeXgXhXgXgXgXeXeXeXeXeXeXeXeXeXeXeXwXwXwXwXeXeXwXwX6X8XwX8X8X6X6X6X1X1X6X$X=X=X=X=X=X=X*X$X@X@X@X@X@X@XXXXXXX|.|.|.|.|.x.x.x.x.l.v.u.u.x.l.l.l.",
"` 4.5.5.7.7.0.q.7.0.q.q.7.' 5.4.q.q.q.u.q.l.l.l./ @X6X=X1X1X6X8X8X$Xq.$X$X&X|.=X1X=X=X1X1X=X1X=X1X1X1X5X6X6X6X8X8X8X8X8X8XeXeXeXeXeXeX&X8XgXeXgXgXeXgXgXgXeXeX8XeXhXgXhXgXkXhXtXeXhXkXkXlXlXlXlXhXkXkXkXkXkXlXlXhXxXxXlXlXxXlXxXxXnXnXcXnXxXxXcXnXnXnXmXmXnXbXbXnXnXnXnXnXnXnXnXnXnXNXMXmXMXmXnXmXmXmXmXmXmXmXnXmXmXmXmXbXlXNXmXmXmXmXmXNXmXNXmXmXmXmXmXMXmXmXmXeX1XmXmXmXmXmXmXmXmXmXmXmXnXbXnXxXnXnXnXwX-XnXnXnXnXmXmXmXnXmXlXmXmXnXnXnXmXmX6X*XmXmXmXnXnXnXnXnXnXnXmXnXnXnXnXnXnXnXnXnXnXmXbXxXnXnXbXlXlXxXbXeXlXnXnXlXlXlXkXlXlXlXlXlXlXlXhXlXkXhXhXgXgXgXeXeXeXeXgXeXgXgXeXgX6X$XkXgXhXkXgXeXgXeXgXeXeXeXeXeXhXeX8XeXeXeXeXeXwXwXwXeXeXeXwXwX8X8X8X8X8X8X8X6X6X1X1X1X=X=X1X=X=X=X*X=X@X@X@X@X$X@XoXoXXXXX|.XX|.|.|.}.x.x.|.l.l.x.l.x.l.l.l.",
"1.4.4.7.7.7.0.7.7.7.q.q.P n ^ q.q.q.q.l.l.l.l.x.P T l.l.v.x.|.|.+X7.4.=X$X$X$X$X%X=X%X=X=X=X=X=X=X=X2X2X6X6X6X6X6X6X8X8X6X8XeXeXeXeXeX$X8XeXeXgXeXeXeXeXeXeXeXeXeXgXeXeXgXgXeXeXgXgXgXlXlXkXlXlXhXhXkXhXkXlXlXlXkXkXtXkXhXlXlXlXxXxXnXnXnXnXxXnXnXcXcXnXnXxXbXnXcXcXnXnXnXnXnXnXnXnXMXmXmXmXmXmXmXmXmXmXmXmXMXmXmXnXmXCX6X=XCXNXNXNXNXNXNXmXmXmXmXNXmXmXmXmXmXmXeXbXmXmXmXmXmXmXmXmXmXmXmXmXmXNXmXnXnXmX8XrXnXnXnXnXmXmXmXmXmXlXnXmXmXmXnXmXmXeXlXNXmXmXnXnXnXnXnXmXmXnXnXnXnXmXnXnXnXnXnXnXnXnXlXlXbXxXlXlXbXlX6XlXnXbXlXlXlXhXlXlXhXlXlXlXkXkXkXkXgXhXgXhXgXeXeXeXeXeXeXgXgXeXgX8X=XlXgXhXeXeXeXgXeXeXeXeXeXeXeXgXeXwXeXeXeXeXwXwXwXwXwXwX8XwX8X8X8X6X8X8X6X6X6X1X1X6X6X=X=X=X=X=X%X%X=X@X@X$X@X@X@XXXXXXXXX|.|.|.|.}.x.}.|.x.l.x.x.l.x.x.v.x.",
"2.4.7.7.7.7.q.7.7.7.q.q.v. X0.7.q.q.q.y.u.l.l.l.7.n n H K P P P P I |.$X$X$X$X%X$X=X=X=X=X=X1X1X1X1X2X1X1X6X6X6X6X6X6X6X8X8X8XeXeXeXgX$X8XgXeXeXwXeXeXeXeXeXeXeXeXgXgXeXeXeXeXeXgXgXgXkXkXkXlXkXgXkXhXhXhXkXhXkXhXhXeXeXhXxXlXlXkXxXnXcXnXnXxXcXcXnXxXnXbXxXnXbXnXlXbXnXnXnXmXnXnXmXmXmXMXmXmXmXmXmXmXmXMXnXnXmXmXmX}.' T / 7.` @XZXmXmXmXmXmXmXmXmXmXmXnXnXmXmXZXGXmXmXmXmXmXmXmXmXmXmXnXnXmXmXnXnXnXnXZXGXmXnXmXnXmXmXnXmXmXcXmXmXmXnXnXnXnXZXGXmXmXmXmXnXnXmXnXnXmXnXnXnXnXnXnXnXnXnXnXnXxXnXxXlXlXlXlXlXbXxXlXlXnXlXlXlXhXkXhXhXhXlXlXlXkXhXeXhXhXkXhXeXgXeXeXeXeXeXeXgXgXgXgX8X*XlXgXgXeXgXeXeXeXeXeXwXeXwXeXeXeXeXeXeXeX8XwXwX8X8X8X8X8XwXwX8X6X6X8X6X6X6X5X1X1X1X1X=X=X=X=X=X=X%X=X@XXX$X$X@XoXXXXXXXXXXX|.|.|.c.}.}.x.x.l.l.x.x.v.x.x.v.",
"5.5.7.q.7.0.q.q.4.4.q.0.q.l.q.7.q.q.7.u.y.y.y.l.x.l.l.x.v.x.v.x.c.+X+X@X=X$X$X=X=X=X$X$X=X=X=X1X1X1X1X1X1X2X6X6X6X5X6X6X8X8X6X8XeXwXeX@X8XeXeXeXeXeXeXeXeXeXwX8XeXeXeXeXeXeXeXeXeXwXeXgXeXgXhXhXhXhXhXhXkXhXhXhXhXkXkXhXhXlXlXlXkXxXnXxXnXbXnXxXxXnXbXbXnXnXnXmXbXlXxXnXnXnXmXmXnXmXmXmXmXmXmXnXmXmXmXmXnXmXmXnXmXwXU -XqXqX-X^ ` NXmXNXNXmXNXmXmXmXnXmXmXnXmXmXnXnXmXmXmXmXmXmXmXmXmXmXnXnXmXnXcXnXnXmXnXcXnXmXmXnXmXmXnXnXnXnXmXmXnXnXmXmXnXnXnXmXmXmXnXnXnXmXnXnXnXxXnXnXnXnXnXnXnXnXnXnXbXnXlXlXlXlXhXlXlXlXhXlXbXbXlXlXkXkXkXlXhXlXlXhXlXeXeXhXhXhXgXgXeXeXeXeXwXeXgXeXgXgXgX6X*XkXgXgXgXgXeXeXeXwXwXwXeXwXeXeXeXeXeXeXeXwXwX8XwX8XwXwX8X8XwX8X6X6X8X6X2X6X6X6X6X1X=X=X=X=X=X=X%X=X=X@X@X$X$X@X@X@XoX|.|.XX|.|.|.c.x.|.x.x.x.l.l.l.x.x.x.l.",
"] 5.7.0.7.0.q.7.7.5.7.q.7.4.7.7.q.y.q.y.l.l.l.l.l.x.v.x.x.|.c.c.|.XXXX@X$X@X@X$X$X$X$X*X=X=X%X=X=X=X1X1X6X1X6X6X6X1X6X6X6X6X6XwXeXwXeX@X6XeXwXeXwXeXeXeXwXeXwX8XeXeXeXwXeXeXwXeXeXeXeXgXeXgXkXgXeXeXeXeXeXeXhXkXeXhXkXeXeXhXlXlXlXbXbXnXnXbXlXxXxXxXxXbXnXnXnXnXbXxXnXnXnXnXmXMXnXmXmXnXmXnXnXmXnXmXnXnXnXnXnXnXNXtXbXUXUXUXUXUXeXNXNXmXNXNXNXmXmXmXmXmXnXmXmXmXNXNXmXmXmXmXmXmXmXmXmXnXmXmXnXmXnXmXmXmXmXmXmXnXmXnXnXmXmXnXmXnXnXmXmXnXmXmXnXmXmXnXnXmXmXmXnXnXnXnXmXxXnXnXnXnXnXnXnXnXcXnXxXnXlXhXlXbXlXlXlXlXhXxXbXlXlXlXhXhXhXhXlXkXlXlXlXgXeXhXgXgXgXeXeXeXeXeXeXeXeXeXgXeXeX6X*XkXeXgXgXgXeXeXeXeXeXwXeX8XeXeXeXwXwXeXeX8XwXwX8X8X8X8X8X8X8X8X6X6X6X6X6X6X6X6X6X1X=X=X*X=X=X=X*X*X*X$X@X$X$X@XoXXX|.|.|.|.|.|.c.c.x.x.x.x.x.l.l.l.x.l.x.l.",
"2.5.7.7.7.7.7.q.7.5.q.q.0.5.0.q.q.q.q.u.v.l.l.v.x.x.x.l.|.|.x.|.|.XXXX+X@X@X@X@X$X$X$X$X=X=X=X=X=X=X1X1X6X=X6X6X6X6X1X6X1X6X8XeXeXeXeX+X6XeXwXwX8XeXeXwX8XeXwX8XeXeXeXwXeXeXwXeXwXwXeXeXhXkXkXeXeXeX8XwXeXhXeXgXhXeXkXeXeXkXkXkXkXxXnXnXnXxXnXxXxXxXxXbXnXnXnXnXnXxXxXnXnXnXMXnXmXmXMXnXmXnXnXnXnXnXnXnXnXnXmXmXmXZXGXNXZXNXNXGXGXNXNXNXNXNXNXmXnXmXmXmXnXnXmXmXmXMXmXmXnXmXmXmXmXnXmXmXmXmXmXnXnXmXmXmXnXmXmXnXmXnXnXmXnXnXnXxXnXmXmXnXnXnXmXmXmXmXnXnXnXmXnXnXnXbXbXbXnXnXnXnXnXnXcXnXbXxXxXbXlXlXlXxXhXkXbXxXlXlXlXlXbXlXlXlXhXhXlXlXlXhXlXhXeXeXhXtXeXeXeXeXeXeX8X8XeXeXeXeXeX6X$XhXgXgXeXeXeXeXeXwXwX8X8XwXwXeXeXeXeXeXwXwX8X8X8X8X8X8X8X8X8X6X8X6X6X6X6X6X6X6X2X1X=X=X*X$X=X=X*X*X*X$X@X$X=X@XXXXXXX|.|.|.|.|.|.|.}.x.x.x.x.x.l.l.v.x.x.l.",
"2.5.7.7.7.0.q.0.7.7.7.7.7.4.0.q.q.y.q.y.l.l.l.x.|.x.x.x.4.v.XX|.XXXXXXXX@X@X@X$X$X$X$X$X$X=X=X=X=X1X=X=X1X1X6X6X6X6X5X6X6X6X6X8XeXeXgX@X6XeXwXwX8X6X8X8X8X8XwX8X8X8X8XwXeXeXeXeXeXeXeXeXeXeXeXeXeXeXeXeXeXgXeXeXeXeXhXhXeXhXkXlXlXlXlXxXnXcXnXnXnXbXxXnXmXnXnXnXcXxXnXnXnXxXnXmXmXMXMXnXnXnXnXnXnXmXnXmXmXmXmXmXmXmXnXmXmXmXmXnXbXmXMXMXmXmXNXMXmXMXnXmXmXmXnXnXnXmXmXmXnXmXMXmXmXmXmXmXmXmXmXmXnXnXmXmXbXbXnXnXmXmXmXMXmXnXnXnXnXmXnXnXnXmXmXnXnXnXnXmXmXnXnXnXxXbXbXbXnXcXnXnXnXnXnXcXcXcXbXxXlXlXlXxXlXlXlXlXkXlXlXlXlXlXhXhXkXkXlXlXlXhXhXeXhXhXhXhXeXeXgXeXeXwX6X8XeXeXeXeXgX6X$XhXeXgXgXeX8XeXeXwXeXwX8X=XwX6X8XeXeXwXeXeX8X8X6X8X8X8X6X8X8X6X6X6X6X6X2X6X2X2X1X1X1X=X=X$X=X*X=X*X$X$X@X@X@X@X@XXXXX|.|.|.|.|.}.}.}.x.x.x.x.x.x.x.x.l.x.l.",
"5.4.7.7.7.7.7.0.7.5.7.0.0.7.q.q.q.y.y.y.l.l.l.x.c.|.|.XXx.|.|.XXoX+X+X+X@X@X@X$X$X$X$X$X$X$X=X=X*X=X=X=X1X2X2X6X6X6X6X6X6X6X6X8XeXeXgX@X6XeXwX8X8X8X8X6X8X8X8X8X6X8XwX8XeXeXeXeXeXgXgXeXeXgXgX8X8XeXeXeXeXeXeXgXeXeXhXhXeXgXkXkXlXlXkXlXcXlXxXxXnXxXnXnXnXbXcXnXcXxXnXMXnXnXMXmXnXMXmXnXnXnXbXnXnXnXnXnXnXmXMXnXmXmXMXmXmXmXmXmXmXmXmXmXmXmXMXmXnXmXnXmXmXmXnXmXmXmXmXmXmXmXmXnXmXnXmXmXnXmXmXmXnXnXmXMXnXnXnXnXnXnXnXnXnXnXbXbXnXmXnXlXbXmXnXmXnXnXnXnXbXnXbXbXnXlXbXxXnXnXcXnXnXnXbXnXnXcXnXxXxXlXlXxXhXlXbXlXhXhXlXlXlXlXlXhXlXlXlXhXhXkXhXwXeXhXgXhXeXgXhXeXeXeXeX8XeXeXgXeXgX6X$XeXwXgXgXeXeXeXeXeXeXwXwX2XwX8X6XwXwXwXwX8XwX8X8X8X8X8X6X8X8X8X8X6X6X6X2X6X6X6X2X2X1X=X=X$X=X=X*X*X*X@X@X@X@X@X@XXXXX|.x.|.|.|.|.|.}.|.x.x.x.y.l.l.x.x.v.v.",
"` 5.7.7.5.7.7.7.5.7.0.7.q.7.0.q.y.y.q.y.l.l.l.x.}.}.|.@X6X@X|.oX+X+XoX+X+X@X@X@X$X$X$X$X$X=X=X=X$X$X=X=X1X=X1X6X6X6X5X6X6X6X6X8X8XeXeX+X6XeX8X8X8X8X8X6X8X6X6X6X8X8X8X1X8XeXeXeXeXeXeXeXgXgXeX9XeXeXwX8XeXeXeXeXeXgXhXgXgXgXgXgXlXkXkXkXlXlXxXnXnXcXnXnXnXxXnXnXcXxXxXnXnXnXmXnXmXmXmXnXnXnXbXbXnXnXnXnXnXnXmXMXmXmXmXmXmXmXmXnXnXmXmXmXmXmXmXmXmXMXmXmXmXmXnXnXmXmXnXnXmXmXnXnXnXnXmXmXmXnXmXmXnXmXmXmXxXnXnXlXnXmXnXnXmXnXnXbXnXnXnXnXnXnXnXnXnXnXnXnXnXbXbXnXxXxXxXnXnXxXxXnXnXnXbXnXnXcXcXnX=XeXxXlXkXlXbXlXhXlXlXkXlXhXhXhXkXhXhXhXhXgXhXhXeXhXgXhXeXtXhXeXwXeXeX8X8XeXeXeXgX6X@XkXeXeXeXeXeXeXeXeXeXeXwXwXeXeX8X8XwX8X8X8X8X8X8X8X8X8X6X6X6X8X8X6X8X6X6X6X6X6X1X1X6X=X%X=X=X=X$X$X$X@X@X@X$X@X@X@X@XXXXX|.|.|.|.|.x.|.x.l.v.l.l.l.l.x.l.l.",
"` 5.7.7.4.7.0.7.5.4.0.q.0.0.q.q.y.l.y.y.l.v.l.v.}.}.|.|.|.|.XX@X@X@X@X@X@X@X@X@X$X$X$X$X$X=X=X=X$X%X$X=X=X=X1X6X6X6X6X6X6X6X8X8XeXeXeXXX=X6X1X1X=X=X=X=X=X=X=X=X1X2X1X6X8XeX8XeX8X9X8XeXeX8X8X9X8XeX8X8X8XwXeXeXeXgXgXhXhXgXgXgXkXhXtXlXlXlXxXxXxXlXnXnXbXbXlXlXhXxXnXnXnXnXnXnXmXmXmXnXnXnXnXbXnXnXnXnXnXnXmXmXmXmXmXmXmXnXMXmXmXmXMXmXMXmXmXmXmXMXnXmXMXmXnXmXnXmXnXnXnXmXnXmXmXnXmXmXnXmXmXmXnXnXnXnXlXnXmXnXmXnXnXnXnXnXnXxXbXnXnXbXnXbXnXnXcXnXnXnXnXnXbXbXxXxXbXnXbXnXbXnXnXxXnXxXcXnXnXnXeXkXlXlXlXhXlXlXhXlXhXhXhXhXhXgXtXgXeXhXhXhXhXeXhXeXeXhXeXeXeXwXeXeXeX8XeXeXeXeXeX6X$XhXeXeXeXeXeXeXeXeXeXeXwXwXeX8X8XwX8XwX8X8XwX8X8X8X8XwX8X8X8X8X8X6X6X6X6X6X6X6X1X6X2X1X=X=X=X=X=X*X$X@XoX@X@X@X@X@XoXXXXX|.|.|.|.}.x.x.l.v.v.v.v.l.x.v.l.l.",
"' ` 5.7.7.7.7.7.4.5.7.q.q.0.q.u.y.y.y.y.l.l.l.x.}.|.|.|.+X+XXXoX@X@X@X@X@X@X@X$X$X$X$X$X=X=X=X=X=X$X=X*X=X=X=X1X1X6X6X6X6X6X6X8X8X8XeX+X+Xz.k.8.8.8.e.e.6.^ ^ ' 1.` / ` 6XwX8XeXeXeXeXwX8X8X2X2X6X8X8X8X8X8XwX8X6XwXgXgXgXgXhXkXkXtXrXlXlXhXkXlXcXnXnXnXbXlXxXxXhXkXbXbXxXnXnXmXmXNXmXnXnXnXnXnXnXnXnXnXnXnXmXmXmXmXmXmXmXnXmXmXmXmXmXMXmXNXmXmXnXmXmXmXmXnXnXnXmXmXnXnXnXmXnXnXmXnXnXnXmXnXmXmXnXnXxXnXcXnXnXxXnXnXbXnXmXnXbXbXnXbXbXbXbXnXnXnXnXnXnXnXxXxXnXbXbXxXxXbXbXbXxXxXbXbXnXnXnXnXnXcXnXlXkXlXlXlXlXlXhXhXhXhXhXhXeXeXlXhXkXhXhXeXtXeXhXhXeXeXeXwXeXeXeXeXeXeXwXeXeXeXeX6X$XhXeXeXeXeXeXgXeXwXeXwXeX8XwXwX8XwXeXeXwX8X8X8X8X8X8X8X6X8X8X8X6X6X6X6X6X6X6X2X2X2X2X1X=X=X1X=X$X$X@X@X@X@X@X@XoX@X+XXXXX|.XX|.|.}.c.x.x.v.l.l.l.l.l.x.v.l.",
"' ] 5.7.4.7.7.7.5.7.q.q.q.q.q.q.l.u.u.y.l.l.l.v.|.l.l.|.|.XXoXoX+X@X@X@X+X+X@X$X$X$X*X=X$X*X=X=X$X*X=X$X=X=X=X1X1X1X6X6X6X6X8X8X8XeXeX@X5X>XB.B.4X,X,X,X,Xk.1.8.y.5.1.1.k.8XwXeXeXeXeX8X8X8X1X%X1X8X8X6X6XwXeX8X6XwXwXeXgXeXgXhXkXkXgXkXkXkXlXcXxXnXnXxXxXxXxXxXxXkXxXbXxXnXnXnXmXMXmXnXnXnXbXbXnXnXnXcXbXnXmXmXMXmXmXmXnXmXmXmXmXmXnXmXnXmXnXnXmXmXnXnXmXnXnXnXnXmXmXnXnXnXnXnXmXmXnXnXnXnXmXmXnXxXxXxXlXnXnXnXnXnXbXnXmXxXxXnXbXxXbXnXxXbXnXnXnXnXbXbXxXxXbXxXbXbXnXbXbXbXxXxXbXbXnXxXxXnXcXcXcXxXlXlXlXlXlXlXhXlXhXhXlXhXhXkXkXeXhXhXhXeXeXeXtXeXhXeXeXeXeXeXeXeXeXwXeXeXeXeXeX6X$XhXeXeXeXgXeXeXeXwXeXeXeXwXwXwX8X8X8XeXwXwX8X8XwXwX8X8X6X8X8X8X8X6X6X6X6X6X6X6X2X6X6X1X=X=X=X=X$X*X@X@X@X@X@X@X+X+X@X+X|.XXXX|.}.}.}.x.x.x.x.l.l.l.l.x.x.l.",
"` 2.4.7.5.0.7.7.4.4.0.q.q.7.q.y.u.l.u.y.l.l.l.v.|.q.y.|.|.|.XXoX+X@X@XoX@X@X@X$X$X$X$X$X$X=X=X=X$X@X$X$X=X=X=X1X2X1X2X6X6X6X8X8X8X8XeX@X%X%XXX#XuX,X,X,X,Xz.4.5.y.7.4.7.4.XXgXeXeXwX9X9X9XeX8X2X8X9XeXeX8XeX8X8XwXeX8XeXeXgXeXhXkXkXkXgXkXhXlXnXcXlXnXnXxXbXcXkXxXbXbXbXxXxXnXnXnXmXmXnXnXnXnXbXnXnXnXxXbXnXnXmXmXmXnXnXmXMXmXmXnXmXmXmXmXmXnXnXnXmXnXnXnXnXnXnXnXnXnXmXmXnXnXmXmXnXnXnXnXnXmXmXxXnXnXcXcXxXnXbXxXcXnXnXnXxXnXnXnXnXnXxXxXbXnXnXnXnXnXbXbXxXlXlXlXbXbXbXcXlXxXbXbXxXcXcXcXxXnXxXcXxXlXlXlXlXlXlXhXlXhXlXlXlXkXhXhXgXgXhXhXhXeXeXhXeXhXeXeXeXeXeXeXeXeXeXeXeXeXeXgX6X*XhXeXeXeXeXeXeXeXeXeXeXeXeXeXwX8X8XeXwXwXwXwXwXwX8X8X8X6X8X8X8X8X6X8X6X6X1X6X6X=X6X2X=X=X=X=X=X$X=X=X@X@X@X@X@X+X+X+XXXXXoXXXXX|.}.x.|.x.x.v.l.l.l.l.x.l.l.",
"` 5.7.7.7.0.q.7.5.5.q.q.q.q.q.y.q.u.y.q.l.v.l.x.}.|.|.|.XXXX|.XX+X@X@X+X@X@X@X$X$X$X$X@X@X$X$X=X*X$X$X$X$X=X=X1X6X6X6X6X6X6X8X8X8X8XeX$X>X#Xx.B.,X,X,X:X:X8.1.5.7.7.4.4.7.4.@X9X8X9X9X9XeXeX9X9XeXeXeXeXeXeXeX8X8X8XeXeXgXkXgXkXxXkXlXkXkXkXlXxXxXxXnXnXcXxXxXxXxXlXtXlXbXbXbXnXnXmXnXnXnXbXbXnXnXbXnXbXnXnXnXnXmXnXnXmXnXmXmXmXnXmXmXmXnXmXnXnXmXmXbXnXnXnXnXnXnXnXnXnXmXmXnXnXmXmXnXnXnXnXnXnXnXnXbXnXxXxXbXxXxXnXnXxXmXnXbXbXxXnXcXnXnXbXnXnXnXnXcXlXbXlXlXlXbXxXlXnXcXlXxXlXbXnXcXcXcXnXlXlXbXlXlXlXkXlXlXlXhXlXkXhXhXlXhXhXkXhXhXhXhXeXeXeXhXkXgXeXeXeXeXeXgXeXeXgXeXeXgXeXeX6X=XkXeXeXeXgXeXeXeXeXeXeXwXeXeX8X8X8XwXwXwX8XeX8X8X8X8X8X6X8X6X6X8X8X6X6X6X6X6X1X=X2X1X1X=X=X=X=X=X$X$X@X@X@X@X@X@X+X+XXX|.|.|.|.|.}.}.}.v.x.l.l.l.l.v.x.l.l.",
"` 5.5.7.5.7.0.7.5.4.0.q.q.y.q.y.q.q.q.q.l.l.x.x.c.x.c.|.XXXX|.oX|.|.+X+X@X@X@X$X$X$X@X@X$X@X$X=X=X$X*X=X=X=X=X=X=X=X6X6X6X6X8X6X8X8X8X@X1XXXy.4.9.t.e.t.6.1.4.7.5.7.5.1.1.4.( +X5X9XeXeXeXeXeXgXeXeXeXeXeXeXeX8X8XeXeXtXgXhXkXkXlXkXxXlXlXkXkXlXlXcXlXnXnXxXlXxXxXlXwXbXbXbXbXbXbXnXnXxXbXbXnXbXlXbXbXnXbXbXnXnXmXnXnXnXnXmXmXmXmXmXmXmXnXnXbXnXnXnXnXnXcXnXnXnXnXnXnXnXnXmXmXmXnXnXnXnXnXmXMXmXnXnXbXbXbXxXxXbXbXnXnXcXnXbXnXlXxXcXbXnXbXbXnXnXbXnXlXbXbXlXlXlXxXlXxXbXbXbXbXbXbXxXnXxXnXnXlXlXlXlXlXlXkXlXlXlXhXlXlXhXhXtXhXlXhXhXhXtXhXlXbXxXnXnXbXlXlXlXeXeXgXgXeXgXhXeXeXeXeX6X*XkXeXeXwXeXeXeXeXwXeXeX8XwXeX8X8X8XwXwX8X8XwX8X6X8X6X6X6X6X6X6X6X6X6X1X6X6X6X1X=X1X1X=X=X=X=X=X@X$X=X@X@X$X@X+X+X+X+XoX|.|.|.|.}.x.}.}.l.v.v.l.l.v.v.v.x.v.",
"2.4.7.q.4.7.q.q.5.7.7.q.q.y.y.u.y.u.y.l.v.l.v.x.x.x.|.}.v.XX|.|.|.oX+X+X@X@X@X$X$X$X=X*X$X=X=X=X=X=X=X=X=X=X=X=X1X1X6X6X6X6X8X8X8XwXeX$X1XB.y.' H H L L P ^ ` 1.4.1.1.1.( ` 1./ XX6X8X8X6X6X6X=X6X6XoX=XeXeX8X=X$XeXkXkX6X=XeXkXtX6X8XbXxXwX8XxXxXlXcXnXnXnXlXxXxXlXbXkXbXbXbXbXbXbXbXbXxXbXnXnXnXnXnXcXnXlXnXnXmXnXxXnXbXnXmXnXnXmXmXmXnXnXnXnXmXnXnXxXnXnXbXnXbXnXnXnXmXnXnXnXnXnXmXnXnXnXmXmXnXnXbXbXlXlXbXxXbXnXnXnXnXxXlXlXxXlXnXlXxXbXnXnXbXnXxXlXlXlXbXxXxXxXxXbXlXlXlXxXbXbXbXxXxXcXbXlXlXlXlXlXlXlXlXlXlXlXhXhXhXeXhXhXhXeXhXtXNXGXGXGXGXGXGXGXGXGXeXgXeXeXeXgXgXeXeXeXeX6X$XkXeXeXeXgXeXeXeXeXeXeXwXwXwX8XwXwXeXwX8X8XwX8X8X8X8X6X6X6X6X6X6X6X8X6X6X6X6X6X6X6X=X=X=X=X=X=X@X$X=X$X*X$X@X@X@X@X+X+X|.|.XX|.|.}.}.}.}.x.}.l.l.x.v.v.v.v.",
"` ` 5.5.` ` 5.5.` ` ` 5.5.7.7.0.q.q.q.q.q.q.q.l.l.l.l.l.` x.x.v.v.}.}.}.}.}.|.|.|.|.|.|.|.|.|.XX.X|.|.|.|.|.|.XX@X@X@X@X@X&X=X=X=X=X1Xx.8.) / ` ` ` ` 1.1.1.7.7.7.8.7.7.5.5.7.7.XX1X$X$X%X%X$XXX+X=X1X=X%X1X=X1X1X@X1X1X6X=X=X6X6X@X=X6X=X8X$XwXxXlXlXlXnXlXlXbXlXlXlXeXlXbXbXbXbXbXbXbXlXxXxXnXnXnXnXnXnXxXnXnXnXnXnXnXnXnXmXbXnXmXnXnXnXmXnXnXmXxXbXnXnXmXnXnXnXnXnXnXnXnXbXnXmXnXnXnXnXnXmXnXnXnXbXlXlXxXbXxXxXnXnXnXnXbXhXlXlXlXnXcXxXxXnXnXbXlXnXbXlXxXxXlXlXlXlXlXbXbXlXxXnXnXxXlXxXbXlXlXlXbXlXlXhXlXlXlXhXkXhXhXhXhXhXgXhXhXhXwXZXZXNXZXZXZXZXmXNXZX1XeXgXgXeXgXgXeXeXeXwX6X@XwX6X8X8X8X6X6X6X6X6X6X1X1X6X1X1X1X6X2X6X1X1X1X1X1X=X=X=X=X=X=X=X1X=X=X=X=X=X=X=X=X$X@X@X@X@X@X+X+X@XoX+X+X+XXX|.|.}.|.}.x.}.v.v.v.l.l.l.l.y.y.y.y.u.u.q.q.",
"] 5.5.5.5.5.5.5.5.7.5.7.0.w.0.w.w.q.q.u.u.u.u.u.w.q.u.u.l.l.u.l.h.l.}.}.}.}.}.}.}.}. X}.}. X|.|..X.X|..X|.|. X XoX+X@X@X+X@X@X@X+X|.+Xk.9.l.x.x.c.oXXX+X@X+X$X+XXX@X+X+XXXXXXXXXXXXX@X@X@X$X=X=X$X@X$X$X@X@X$X=X=X$X$X=X=X=X=X@X*X=X=X@X$X=X8XhXkXlXlXlXnXxXxXlXlXlXxXkXlXlXbXbXlXbXbXxXlXlXnXnXnXnXnXnXnXnXlXnXnXxXbXbXnXbXnXnXnXnXnXnXnXnXnXnXnXnXnXnXnXnXnXnXmXmXnXmXmXnXnXnXnXnXnXnXnXnXnXbXbXbXbXxXlXbXnXxXnXnXbXnXnXnXnXxXxXlXbXxXxXbXxXlXxXxXbXlXlXxXlXlXlXlXbXbXxXlXxXxXxXnXnXcXxXnXbXbXxXlXlXlXlXlXkXlXkXlXlXlXkXkXkXhXhXhXkX6XbXMXMXNXNXNXNXmXZXnX=XgXgXhXeXeXhXeXeXeXeX8X|.2X=X=X=X=X=X=X=X*X=X=X*X=X=X=X=X&X&X&X*X=X=X*X*X@X@X@X+X+XoXoXoX+XXXoX+X|.|.XX|.oX|.|.|.}.}.x.l.}.v.l.l.v.l.}.v.v.v.v.l.l.l.u.l.u.u.u.q.u.q.q.u.q.q.q.l.l.",
"q.y.y.q.u.l.l.q.k.l.v.v.v.}.v.}.}.}.}.|.|.|.+X+X@X@X@X@X$X*X@X*X@X@X*X$X=X=X=X=X=X1X1X5X1X1X6X6X6X8X8X8X8X8X8X8X8X8XwXwXeXwXwXwXwX8XeX@X|.1X1XXXXXy.4.5.7.y.i.i.i.i.i.i.i.i.c.B.XXXXXXOXB.#X1X8XeXwXwXeXeXeXeXeXwXeXeXeXgXgXgXhXhXhXkXhXlXlXlXlXlXlXlXnXxXlXxXxXlXbXlXlXlXlXlXnXlXxXbXbXbXnXlXnXbXnXxXnXnXnXxXmXnXxXbXbXbXnXbXbXnXnXnXnXnXnXnXnXmXnXnXnXnXnXnXnXmXnXmXnXmXmXnXnXnXnXnXnXnXbXnXbXlXlXbXbXlXxXbXlXbXxXxXnXnXxXxXlXlXhXlXbXbXbXlXxXbXlXnXlXbXlXlXlXxXlXlXlXlXlXlXlXbXnXnXxXlXnXnXlXbXlXlXlXhXlXkXhXlXkXhXlXhXkXkXkXhXhXlX1XhXmXnXMXmXmXmXmXNXeX$XhXhXgXeXeXeXeXeXeXhX8X*XnXkXlXhXkXkXkXkXkXkXkXkXkXkXhXeXeXeXeXeXeXeXeXgXgXeXeXeXwXwXwX8X8X8X8X8X6X6X6X6X6X6X6X1X=X=X=X$X$X=X$X$X=X=X=X$X$X@X@X@X@X@X@X@X+X+XoX|.|.|.|.|.|.|.XX+XoX",
"4.4.7.7.5.7.7.4.4.7.q.q.0.q.q.q.y.q.q.l.u.l.l.l.x.v.x.}.|.|.|.|.|.|.|.|.XXXXXX@XXX@X@X@X@X@X@X=X$X=X=X=X=X=X=X=X=X=X=X1X1X=X1X=X1X=X=XXXx.$X$X@X8Xx.9.y.y.c.B.c.c.z.c.B.#XOXoX@X@X@X%X@X%X6X8XwXwXwXwXwXeXeXeXeXeXeXeXeXeXeXeXeXeXgXeXeXgXhXhXhXlXlXlXbXbXbXlXbXlXbXxXlXkXlXnXnXlXbXnXbXlXnXlXbXlXbXlXlXlXnXnXmXnXbXxXbXlXxXxXbXnXnXnXnXmXnXnXnXnXnXnXxXnXnXbXnXnXnXnXmXnXlXnXnXnXnXnXnXnXxXbXbXlXxXbXlXbXlXbXlXlXlXxXbXnXnXnXhXkXlXlXlXlXbXxXlXbXlXlXbXbXlXlXlXlXlXbXbXbXlXlXxXxXnXnXlXlXbXxXxXcXlXlXkXhXkXkXhXhXhXhXhXhXhXhXkXkXhXlX8Xl.=X=X=X=X=X$X%X=Xy.*XkXeXgXwXeXeXeXeXeXgX8X@XeXwXeX8X8XeXeXwXeXwX8X8X8XwXwX8X6X8X6X6X8X6X6X6X8X6X8X6X6X6X6X2X6X1X=X1X1X=X=X=X1X$X$X$X@X@X@XXX@X@XXXXX@X@X+X+X|.XX}.|.|.|.|.}.x.}.}.l.l.l.l.l.l.v.l.v.l.",
"7.7.q.0.7.0.q.0.7.q.q.q.q.u.u.u.l.l.y.v.l.l.v.x.}.x.|.|.|.XX|.oXoX+XoX+X@X@X@X@X@X*X$X@X$X$X=X=X=X=X=X=X=X=X=X=X=X=X1X6X=X=X6X2X6X5X6X@Xc.%X$X%X=Xc.B.XXXX$X1X$X*X%X=X1X2X1X6X=X=X1X6X6X8XwXwXwX8XeXeXeXeXeXeXhXgXgXgXgXgXgXgXhXhXgXhXgXhXlXkXkXlXlXlXlXxXlXbXnXbXnXcXlXlXlXxXnXwXlXnXxXbXbXnXbXbXlXlXlXlXbXnXbXnXbXbXbXxXlXxXbXbXxXbXnXnXnXnXnXmXmXnXbXnXnXmXnXbXnXcXnXlXxXbXnXnXnXnXnXnXnXbXbXlXlXlXlXlXxXxXbXxXlXnXnXnXmXxXkXlXlXhXlXlXlXlXxXbXbXbXbXbXnXxXlXlXlXlXlXbXnXlXlXlXbXnXlXlXlXlXhXlXlXlXgXhXkXeXgXgXhXlXhXhXhXhXhXlXkXhXlX|./ ` ' ' ` ` ` ' l.eXgXeXgXeXeXeXeXeXeXeX8X*XkXeXeXeXeXeXeXeXeXeXeXwXeXeXwXwX6XwXwX6X8X8X8X8X8X6X8X8X6XwX8X6X8X6X6X6X1X1X=X1X6X=X=X*X@X$X@X@X$X@XoX@X$X@X@X+XXXoX|.|.|.|.|.|.|.}.}.}.}.v.l.v.x.}.v.}.v.",
"5.7.7.7.4.7.q.7.7.q.q.q.u.l.u.u.l.l.l.l.l.l.v.v.}.x.x.|.XX|.XXXXXXXXXXoX@X@X+X@X@X$X$X@X@X@X=X=X=X=X=X=X=X=X=X=X=X1X=X1X=X=X6X1X5X1X6X@XXX1X=XXX$X6X6X6X1X=X8X6X2X6X8X8X8X8XwX8X8X6X8XwXwX8XwXeXwXwXeXgXeXgXhXgXgXgXkXgXgXgXeXhXhXeXgXgXhXlXkXhXlXlXlXlXlXbXlXbXbXxXbXlXlXbXbXbXbXnXlXxXbXlXbXnXbXlXlXlXlXlXlXbXbXlXlXbXlXlXbXbXbXbXnXbXnXnXnXnXbXnXbXlXnXbXxXnXnXnXnXnXnXmXnXbXnXnXnXnXnXbXlXlXlXlXbXlXlXlXlXxXlXxXnXnXbXbXbXlXlXlXlXlXkXhXlXlXlXxXxXnXnXnXcXbXnXlXlXbXbXbXlXlXxXlXbXlXlXlXlXhXlXkXhXhXhXkXgXhXhXgX@X@XhXhXhXkXhXhXhXlXhX8XwXwXwX6X8XeXeXhX6XwXeXeXeXeXeXwXeXeXeX6X$XhXeXeXwXeXwXeXeXeXwXeXeXeXeX8X8X8XwX6X6X8X8X8X6X6X6X6X6X8X8X8X6X6X6X6X1X1X1X=X=X=X=X$X$X@X@X@X@X+X@XoXXX@X@X+X+X+XXX}.|.}.|.|.|.}.}.}.}.}.v.l.l.l.x.x.v.l.",
"5.5.5.7.5.7.0.9.7.0.q.q.q.u.q.q.y.l.v.l.v.l.l.x.|.|.x.l.` }.|.|.|.XX@X@X+X@X@X@X@X$X$X@X@X@X=X=X=X*X$X=X=X=X=X=X=X1X=X=X=X=X=X1X1X6X8X$Xc.XX$X1.+X6X1X1X5X$X1X2X2X6X8X8X8X8XwX8X8X8X8X8X8X8X8X8XwXeXeXeXgXgXgXgXgXgXgXhXgXeXgXgXeXgXhXhXhXhXhXhXlXkXlXlXlXlXlXlXxXnXxXlXlXlXnXnXkXnXbXlXbXbXlXnXbXlXlXlXlXlXlXlXlXlXlXlXlXlXxXxXbXbXbXbXnXnXnXnXxXcXnXlXxXbXxXnXnXnXnXnXnXxXbXnXnXnXnXnXnXnXlXlXlXkXlXlXlXlXlXbXlXlXlXcXbXbXlXlXlXlXlXlXhXhXlXlXbXbXlXnXnXxXnXlXlXlXlXbXbXbXbXbXlXlXlXlXhXhXkXgXhXlXgXhXhXlXhXhXkXeX@X6XtXhXhXhXeXhXlXhXxXCXNXmXmXmXmXNXMXNX|.2XeXgXeXeXeXeXeXeXwX8X@XeXwXeXwXeXeX8Xl.2XeXeXwXeXeXwXwX6X6X6X6X8X8X8X6X6X6X|.}.8X8X6X6X6X6X1X1X=X=X=X=X1X=X@X$X@X@X@X@X@X@XoX@X@X@XXXoXXXXX|.|.}.|.|.}.}.}.}.v.x.v.x.l.x.}.v.v.l.",
"5.5.4.7.7.7.0.7.7.q.q.q.q.u.q.l.l.l.l.l.v.v.l.x.|.}.|.x.v.v.|.|.|.XX@X@X@X@X@X@X@X$X$X@X$X@X=X=X$X$X$X=X=X=X=X1X=X=X1X=X=X$X1X1X=X1X6X@XXX1.' v.6X1X1X=X2X2X1X6X8X8X8X8XwXwXwXwX8XeX8X8XwX8XeXwXwXeXeXgXgXhXgXgXhXgXeXeXeXeXgXgXhXgXkXhXhXhXhXhXhXlXlXlXlXlXlXlXbXnXnXlXlXlXlXnXlXxXlXxXlXlXlXlXnXlXlXlXlXlXlXbXbXlXlXlXlXlXbXnXxXxXbXbXbXbXbXbXnXnXnXlXxXkXlXnXxXnXnXcXnXnXnXbXnXbXbXxXxXlXkXkXxXlXlXlXxXxXlXlXlXlXlXxXnXlXbXlXlXlXlXlXkXkXlXlXlXlXxXxXlXxXnXxXlXlXlXlXbXlXbXbXlXlXlXlXhXkXlXhXgXkXhXhXhXkXgXkXkXkXnXmXhXhXgXeXkXkXkXeXNXZXcXnXnXnXmXNXZXGX2X6XeXeXeXeXeXwXeXwXeX6X@XeXwXeXeXeXeXeXeXeXeXeXeXeXeXwX6X8X8X6X6X8X8X6X2X6X6XeXkX6X6X6X6X6X1X1X1X1Xl.@X1X=X=X=X=X*X*X*X$X$X@X@X@X+XXXXXoXXX|.|.}.}.}.|.x.|.|.|.v.l.l.x.l.x.x.l.v.l.",
"1.1.4.4.4.7.7.7.7.0.q.q.q.l.l.y.k.x.x.x.x.x.x.x.x.x.x.|.*X|.c.|.XXoXXXoX@X@X@X@X$X$X%X@X$X$X$X%X$X$X$X=X=X%X=X1X%X1X1X1X=X=X1X1X1X1X5X@X+X$X&Xx.=X6X1X=X6X6X1X6XwX8X8XwX8X1X8XeXwXwX8X8XwXwX8XeXeXeXeXeXgXgXgXgXeXeXeXeXeXgXgXeXgXgXhXgXgXkXhXhXlXlXlXlXlXlXlXlXlXnXnXcXlXlXxXlXbXxXlXkXlXlXlXlXbXnXlXlXlXlXlXlXbXlXkXlXlXlXbXbXxXbXbXbXlXlXbXlXxXxXnXlXlXlXlXbXlXcXnXnXnXnXnXnXbXbXbXxXxXxXhXlXxXkXlXlXlXlXlXlXlXlXxXlXnXbXnXlXlXbXlXxXkX=XlXlXxXbXlXbXnXxXxXlXkXlXlXlXlXlXlXlXlXkXkXlXhXlXkXtXhXkXhXhXhXhXhXkXkXkXkXhXhXhXeXhXhXhXhXeXxXlXkXlXkXkXkXlXlXmXgXeXgXeXeXeXeXeXeXeXwX2X@XeXwXeXeXeXeXeXlXeXeXeXeXeXwXwXwX8X8X8X8X8X8X6X6X6X8X6X6X6X6X6X1X6X1X1X1X1X=X1X=X1X=X=X=XoX|.|.|.|.v.}.@X+XoXXXXXXXXX|.|.|.|.|.|.}.|.|.x.x.x.l.l.x.x.x.v.l.",
"1.4.4.4.5.7.q.7.7.0.q.q.q.y.u.y.l.l.l.x.x.x.x.x.x.x.x.x.x.|.XX|.+X+X@X@X@X@X@X@X$X@X@X+X@X@X$X%X=X$X$X*X$X=X=X=X=X=X1X=X=X=X1X1X1X1X6X@Xc.q.q.l.1X6X6X8X6X6X8X8X6X6X8X8Xx.+XXXwXwX8XwXwXwXwXwXeXeXeXeXeXeXgXgXeXgXeXeX8Xl.k.wXhXeXeXhXeXgXhXhXhXlXhXkXlXlXlXlXlXlXxXnXxXlXxXlXlXlXlXxXlXlXnXkXlXbXbXlXlXnXlXkXlXlXhXhXlXlXlXlXxXbXxXbXbXxXlXbXlXlXlXlXkXlXlXbXbXxXnXnXnXxXkXlXxXlXxXxXlXhXhXeXhXbXlXlXlXlXbXlXlXlXlXkXlXbXxXbXlXbXxXlXlXlXeXlXlXeX-XlXxXlXlXnXlXkXlXlXlXlXlXlXlXlXlXlXbXlXhXhXhXhXkXkXhXhXhXhXlXhXkXhXhXlXhXeXeXgXgXgXeXnXnXxXxXxXlXxXxXnXmXeXeXhXgXeXeXeXwXwXwXeX6X@XhXeXeXeXeXeXeX8XeXeXeXwXeXeXwX8X8XwX6X8X8X6X6X6X6X6X6X6X6X6X6X1X1X6X1X1X1X1X1X=X1X=X=X@XP t d d d & Q @X@XXX@X@XXXXX|.XX|.XX|.|.|.|.|.x.x.x.x.x.c.|.x.v.v.",
"1.5.5.5.4.7.7.7.5.7.q.q.y.y.y.y.l.l.l.v.x.x.x.v.}.x.x.}.|.|.|.XX@X+XXX@XoX@X@X@X@X@X@XoX@X@X@X$X=X$X$X=X*X$X$X=X=X=X1X=X=X1X1X1X1X1X6X+X@Xc.7.y.6X6X6X6X6X6X8X6X8X8X6XwX6X9X9X8XwXwXwX8XeXeX8XwXwXeXeXeXeXeXeXeXgXeXeX1X}.}.2XhXeXhXgXhXgXhXgXgXhXhXhXhXkXlXlXlXlXlXnXlXkXlXlXlXkXlXbXxXlXlXkXlXlXkXlXlXlXbXlXlXlXlXkXlXlXhXbXbXhXbXbXbXxXlXbXlXlXlXlXlXlXlXhXlXxXnXxXlXlXlXnXlXlXbXlXxXtXtXlXlXxXlXkXlXlXlXlXlXlXlXlXbXbXlXnXlXlXbXxXlXlXnXlXlXwX&XhXlXlXlXlXlXhXlXlXhXkXhXhXlXlXkXhXlXkXkXhXhXhXhXkXlXlXhXhXkXlXkXhXhXhXtXhXtXeXeXeXeXmXnXnXbXbXxXxXxXnXnX1XeXeXeXwXeXeXwXwXwXwX2X@XhXeXeXeXwXwXeXwXwXeX8X8XwXwXwX8XwXwX8X8X6X8X6X6X6X6X1X6X6X6X6X=X6X2X1X6X1X1X1X=X=X1X1Xl./ -XwXwXwX XJ |.+X+XXXXX@XXX|.|.|.XX|.}.}.|.|.x.x.x.x.x.c.}.}.v.l.",
"` 1.4.4.4.7.7.7.7.q.7.7.q.y.y.q.y.l.y.l.x.l.v.x.x.x.x.}.|.|.XXXX+X|.XX@X+XoX@X@X@X%X@XoX@X@X@X%X$X$X$X$X%X$X$X=X$X=X=X1X=X1X1X1X1X1X6X@XXX&X5Xl.+X6X6X6X8X8X6X5X8X8X6XwXxXgXgXwXwXwXwXwXwXwX8XwXwXeXeXeXeXeXeXeXeXeXeXhXmXNXxXeXgXgXhXgXeXgXhXgXhXkXhXkXkXlXlXkXkXlXxXbXlXkXbXlXhXlXbXhXgXhXlXlXnXlXlXnXbXlXlXlXlXlXkXlXhXlXlXbXbXhXlXbXlXlXlXlXbXlXlXlXhXlXlXlXlXlXlXlXlXlXlXlXlXlXlXlXbXbXlXlXbXlXlXlXlXlXlXlXlXlXbXlXbXbXbXlXlXxXlXbXlXlXlXlXmXGXbXkXlXhXlXlXhXlXlXlXhXhXlXhXhXhXgXhXlXlXlXkXhXlXhXlXlXlXhXhXkXkXlXtXeXeXhXeXhXhXeX8XbXnXnXnXbXbXnXnXnXgX}.eXeXeXeXeXwXeXeXwXwX2X+XgXeXeXeXwXwXwX8X8X8XwX8XwXwXwX8XwX8X8X6X6X6X6X6X6X6X=X2X6X6X6X1X2X1X1X2X1X1X1X1X1X1X=X1XeXCXMXMXNXMX6X=X@X@XXXoXXXXXx.|.|.XX|.|.x.|.|.x.x.x.x.x.}.}.x.x.l.",
"` 4.4.4.4.4.7.5.4.9.7.q.q.q.q.y.l.k.y.k.l.l.l.x.x.x.x.x.|.|.|.XXoXoXoX@X+X@X@X@X@X@X@XoX@X@X@X@X$X%X=X$X$X=X&X%X=X=X=X=X1X1X1X6X1X6X6XXXx.` ^ 4.=X6X8X6X=XwX6X6X8X8X8X8X8X8X8XeXeXwXwXwXwXwXwXwX8XeXeXwXeXeXeX8XeXgXeXgXgXhXgXgXgXgXhXeXeXeXgXgXhXkXhXkXkXkXlXlXlXlXxXxXlXlXlXlXlXhXlXlXkXlXnXlXlXhXlXlXnXlXkXlXlXhXgXlXhXhXlXlXlXlXbXbXlXlXkXkXlXlXlXlXhXlXbXhXlXlXhXlXlXlXlXlXlXbXlXlXlXlXlXlXlXlXlXlXlXlXlXlXlXlXlXlXlXbXbXlXlXbXlXbXlXkXlXlXlXhXkXlXlXhXkXkXhXlXlXlXkXlXlXhXlXlXkXgXhXhXlXhXhXlXlXhXhXkXlXlXlXkX6XtXhXhXhXgXhXeXgX$X=XxXlXlXxXlXkXnXlX@Xq.eXeXeXwXeXwX8XwXwXwX2X@XeX8XeXwXeXeXeXwXwX6X8X8X8X8XeX8X8X8XwX8X6X8X6X6X6X6X1X1X6X1X6X1X6X6X1X1X1X6X1X1X1X1X=X6XwX=X=X=X*X=X1X$X@X@XXX@XoXXX|.+X|.XX|.|.|.|.|.x.x.x.x.x.c.|.x.x.l.",
"` 1.4.4.4.4.7.7.4.7.7.7.7.q.q.q.l.l.y.y.l.l.l.x.v.x.x.}.|.|.|.oXXX+XXX+XXX@X@X+X@X@X@XoX$X@XoX@X$X$X$X*X*X$X=X=X=X=X=X=X=X1X1X1X1X=X5XXX|.eX5XXX8X8X8XeX8X6X6X8X8X8X8X8XeXeXeXeXeX8XeXwX8XwXwX8X8XeXwXeXeXeXeXeXgXeXeXgXeXeXeXgXgXgXhXeXeXhXeXeXhXhXkXkXkXkXlXkXkXlXxXlXlXkXlXlXkXlXlXhXlXxXlXlXlXlXxXkXnXlXlXlXxXlXhXlXhXkXkXkXlXbXlXbXxXlXlXbXmXhXlXlXhXhXlXlXlXlXlXbXxXlXlXlXlXbXlXlXbXlXlXlXlXlXlXlXlXbXkXlXlXlXlXlXlXlXkXhXkXlXlXlXlXlXlXlXlXlXkXlXlXhXlXlXhXlXlXlXlXkXlXkXlXlXhXlXlXgXlXhXhXlXhXhXhXkXhXlXhXkXhXkXhXkXhXgXhXgXgX%X;.XX@XXXoX|.c.@X@X` |.eXeXeXeXeXeXwXeX8XeX2X@XeXwXeXeXeXeXwX8XwXwX8X8X8XeX8XwXwX8X8X8X6X8X6X6X8X8X6X6X6X5X1X=X6X1X=X1X1X6X1X1X1X1X1X=X*X=X=X=X=X*X$X$X$X@X@XXX+XXXXXXX|.XX|.|.}.|.|.x.x.x.x.x.x.c.x.v.l.",
"` 1.4.4.4.9.7.7.4.7.7.7.7.q.q.q.y.k.y.y.u.l.y.l.l.x.x.v.4.|.XX|.|.|.XX+X+XXXXXoX@X@X@X@X@X@X@X@X$X$X$X=X$X$X=X=X=X=X=X=X=X1X1X1X1X2X6XoXx.q.7.k.1X6X8X6X8X6X6X6X8X8X8X9X9XeXeXwX8X8XeXwX8XwXeXeXwXeXwX8XwXeXeXwXeXeXeXeXeXeXgXgXgXgXgXgXgXhXgXgXhXhXhXhXhXkXkXhXhXkXlXlXlXkXlXlXlXkXlXhXlXkXlXlXnXxXlXlXlXlXkXlXlXlXgXlXkXhXlXlXlXlXlXlXlXlXlXhXhXhXlXlXlXkXlXlXlXlXxXlXlXxXlXlXlXlXlXlXlXlXlXlXlXbXlXlXlXxXlXlXlXlXlXlXlXlXlXkXlXlXlXlXlXkXlXlXkXlXlXlXlXlXlXlXlXlXbXlXlXlXbXbXlXlXhXlXkXhXhXhXhXhXkXhXhXlXhXhXhXhXlXhXgXgXgXeXgXgXgX9X7.I T T W ^ ^ ^ ^ 7.wXeXeXgXeXeXwXwXeXwXwX1XoXeXeXeXwXwXeXwXwXwX8XeXeXeXwXwXeX8X8X8X8X6X6X6X8X8X8X6X6X6X6X1X1X1X1X1X1X1X1X1X=X1X=X1X1X=X=X=X=X=X=X=X$X$X$X@XXXXXXXXXXX|.|.|.|.|.|.|.x.x.x.x.x.c.x.x.x.v.",
"' 1.2.4.1.5.7.4.4.7.7.7.7.q.q.q.y.l.y.y.l.l.y.x.l.l.x.x.XX|.|.XX|.oX|.oX+X@X@X@X$X@X@XoX@X@X@X@X@X@X$X=X$X$X=X$X=X=X=X=X=X=X1X1X1X1X6XXX$X@XXXl.=X6X6X6X2X6X6X6X6X8X8XeX8XeXeX8X8X8X8X8X8XwXwXwXwXeXwX8XwXwXeXwXeXeXeXeXeXgXgXgXeXgXhXeXeXgXeXgXeXhXhXhXhXeXhXhXhXtXkXlXlXlXkXlXhXkXlXhXkXlXlXlXlXlXlXlXlXlXlXlXlXhXlXlXhXhXlXlXhXhXlXbXlXlXlXlXlXhXlXlXhXlXlXlXlXlXlXlXbXlXlXlXbXlXbXlXbXlXlXlXlXlXlXlXlXlXlXlXlXlXlXlXhXlXlXhXhXlXlXkXhXlXlXlXkXeXlXlXlXlXlXlXhXlXbXlXlXbXbXbXbXkXhXlXlXhXhXgXgXhXhXeXhXkXgXeXeXeXtXhXeXgXhXeXeXeXwXeXwX+XoX@XoX|.}.|.+X6XeXeXeXeXwXeXeXwXwX8XeX2X@XeXwXeXeXeXeXwX8XwX8X8XwXwX8X8X8X8X8X8X6X6X8X6X6X6X6X6X6X6X6X6X1X1X1X1X2X1X1X1X=X1X1X1X1X=X=X=X=X=X&X=X=X$X@X@X@X@X|.c.}.|.|.|.|.|.|.|.}.x.x.x.x.x.x.v.x.l.",
"` 1.1.1.5.4.4.4.4.7.7.4.7.7.7.q.q.y.y.q.l.q.y.x.x.l.v.x.|.|.|.XXXX|.|.+XXXXX@XoX@X@X@XoX@X@XoXoX@X@X$X*X*X$X=X=X=X=X=X=X*X1X1X1X1X1X5XXXc.+X|.l.=X6X6X-X2X6X=X6X8X8X8X8X8XeXeXwX8X8XwX8X8XwXwXwXwXeXwX8XwXwXwX8XwXeXeXeXgXgXgXeXeXeXgXeXeXhXeXeXeXeXeXeXeXeXeXhXeXeXhXhXhXhXhXlXhXkXlXhXhXhXkXlXlXlXlXhXhXlXlXlXlXlXlXhXhXlXlXlXlXlXhXlXlXlXhXhXlXwXlXlXlXlXbXlXkXlXbXlXlXlXlXlXlXlXlXlXbXlXlXlXlXlXlXlXkXlXlXlXlXlXkXhXeXeXhXhXhXlXhXlXhXhXhXlX=X}.wXlXxXtXlXlXhXhXlXlXlXlXbXlXlXhXeXhXhXeXhXeXhXhXhXeXgXhXgXgXeXhXhXtXeXeXeXeXeXeXwXeXwXlXmXbXbXbXbXbXbXeXwXeXeXeXeXeXeXwXeX8XwX2X@XgXwXeXeXeXeX8XwX8X8X8X8XwX8X8X8X8X8X8X8X8X8X8X8X8X6X6X6X2X6X6X1X6X1X1X2X1X1X1X=X1X1X=X=X=X$X=X=X$X=X$X$X$X@X@XoXXXXX|.|.x.|.|.}.}.|.|.}.x.|.x.x.x.l.x.l.l.",
"` 1.1.` 1.4.4.5.4.0.7.7.7.7.q.q.q.q.y.q.y.q.q.l.l.l.v.x.c.|.XXXXXXXXXXXXoX@X@X@X@X@XXXoX@X@X@X@XoX$X$X*X$X$X=X=X=X=X=X=X*X=X=X=X1X1X5XXXXXq.w.q.$X6X6X6X8X6X1X2X8X8X8X8X8X8XwX8XwXwXwX8X8X8XwXwX8XwXwX8X8X8XwXwXeXeXeXeXeXgXgXgXeXgXgXeXgXeXeXeXeXtXeXeXeXgXgXgXeXeXhXlXhXeXhXkXhXhXhXhXkXhXlXlXbXlXlXlXlXlXhXlXhXhXhXlXlXkXlXlXlXlXhXlXlXlXlXbXlXhXlXlXlXlXlXlXlXlXlXkXlXlXxXlXlXlXlXlXlXbXbXlXlXbXlXlXlXlXlXlXhXlXlXlXhXlXhXhXlXhXlXlXhXkXhXhXnXZXbXlXlXhXbXlXhXlXlXlXkXlXlXkXlXhXkXlXhXhXhXgXeXgXhXeXeXhXhXhXeXhXtXeXeXeXeXeXeXeXwXeXMXZXmXbXmXMXmXNXMXGXxXwXeXeXeXwXwXwXeXwXwX2X@XeXwXeXeXwXwXwX8X8X8X8X8X8X8X8X8X6X8X=XoX+X.X.X+X@X@X+X$X6X6X1X=X2X1X1X1X=X=X=X=X1X=X=X=X=X=X=X$X$X$X$X$X$X@X+XXXXXXX|.XX}.|.|.x.}.|.|.|.x.|.x.x.x.l.x.l.l.",
"1.1.` ` 5.7.7.7.5.7.7.7.7.0.q.q.q.q.y.q.y.l.y.l.l.l.l.}.|.XXXX@XXXXXXXXXoX@X@X@X@X@X@XoX@XoXoX@X@X$X$X$X$X$X$X*X=X=X=X*X$X=X=X=X=X1X5XXX+Xq.q.q.*X6X6X6XwX8X8X2X8X6X8X8X8X8X8X8X8XwXwXwXwXwXwXwX8X8XwX8XwX8XeXeXwXwXeXwXeXeXeXgXeXeXeXeXgXeXeXeXeXeXeXeXeXgXgXeXeXeXeXkXkX6XeXhXhXgXhXkXhXhXhXhXkXkXkXkXkXhXhXkXlXhXgXlXlXlXlXlXlXlXlXlXlXlXlXlXlXkXlXlXlXbXlXlXhXlXlXlXlXlXlXlXlXlXlXlXxXlXlXlXlXlXlXlXlXlXlXlXkXlXlXlXlXlXhXtXhXlXhXhXhXhXkXgXbXnXkXlXkXlXbXlXhXlXlXlXhXlXlXlXlXlXhXlXhXtXhXgXeXgXhXhXeXeXhXeXgXhXeXeXeXwXeXeXeXeXeXeXNXlXhXkXhXhXhXhXeXbXlXwXwXeXwXwXwX8XwX8XwX2XoXeX8X8XeX8X8XwXwX8X8X8X8X8X8X8X8X6XwXu.1 H n b d d b - |.8X6X6X=X1X1X=X1X=X*X=X=X1X1X=X=X=X*X=X=X$X$X$X@X$X@X+XXXXX|.XX|.|.|.|.}.|.|.|.}.x.x.|.x.x.l.l.x.l.",
"` 1.1.` 1.4.7.7.4.0.7.4.7.7.q.q.q.q.q.q.q.l.u.l.l.l.l.x.x.|.XXXXXX@XXXXXXXXXXX@X@X@X@XoXoX@XoX@X@X@X$X*X$X$X*X*X$X$X*X*X$X*X=X=X=X=X1X|.=X8X8X6XeX5X6X8X6X8X8X6X8X8X8X8X8X8X8X8X8X8X8X8X8X8X8X8XwXwXwX8XwXeXwXwXwXeXeXwXeXeXeXeXeXeXgXgXgXgXeXeXeXeXeXeXeXeXgXeXgXgXhXkXhXkXhXhXgXhXhXhXhXhXlXgXhXkXhXhXkXkXhXhXlXhXhXlXkXlXkXlXlXlXkXkXlXlXlXlXxXlXlXlXlXlXlXlXlXlXlXkXlXlXlXlXlXlXxXbXlXlXlXlXlXlXlXlXlXlXlXlXkXkXlXlXkXlXlXhXhXhXlXhXhXkXhXhXlXlXkXkXhXlXhXhXhXlXhXkXhXlXlXkXkXhXhXkXhXhXkXgXhXhXhXeXgXhXhXhXhXhXgXeXeXwXeXeXeXeXeXeXlXlXlXlXkXlXkXlXlXxX2XwXeXwXeXwXwXwXwX8X8X1XXXeX8XeXeXwX8X8X8X8X8X8X8XwX6X8X8X6X8X Xl.}.h.q.u.u.u.5.*X6X1X6X1X1X1X=X1X1X%X=X=X1X=X=X=X=X*X=X$X$X@X@X@X$X@X@XXX|.c.|.|.}.|.|.x.|.|.|.}.x.x.x.x.l.y.y.x.v.",
"` ` ` ' ` 5.5.5.4.5.4.4.7.7.q.q.q.q.q.q.q.y.y.u.l.u.l.x.|.|.XXXXXXoXXXXX|.c.XXoX@X@XXXXXXXXXXX@X@X@X@X@X$X@X$X=X$X$X*X=X=X=X=X1X1X=X1Xc.+XXX|.}.1X6X6X8X8X8XXX6X8X8X8X8X8X8X8X8X8X8X8X8X8X8X8XwX8X8X8X8X8X8X8XwX8XeXeXwXeXwXeXeXeXeXgXgXgXeXeXeXwXeXeXeXeXeXgXgXhXeXeXhXgXgXhXhXhXhXgXeXgXhXhXhXhXhXgXgXlXkXhXlXhXhXhXkXhXkXlXlXlXlXlXkXlXlXkXxXxXlXlXlXlXlXbXlXlXlXlXlXlXlXlXhXlXbXlXlXlXlXlXlXlXlXlXlXlXlXlXlXkXkXhXtXhXkXlXhXhXlXlXlXlXhXhXtXlXlXlXkXkXhXhXwXhXhXhXhXhXhXkXkXkXkXhXhXhXhXhXgXhXhXhXgXeXeXhXeXeXgXgXeXeXeXeXeXeXeXeX8XbXxXxXxXxXlXxXxXbXnX=XwXeXeXwXwXwX8X8X8X8X1XXXeX8XeX8XwX8X8X8X8X8X8X8X8X6X8X6X6X6XeXnXxXtXrXeXrXeXrX6X1X1X1X1X1X=X=X=X*X*X=X=X=X=X=X$X=X$X%X*X$X@X$X@X@X@XXXXX|.|.|.|.|.|.|.|.|.|.|.x.l.x.x.x.l.y.y.l.v.",
"` 1.1.` 2.7.7.7.5.2.5.5.4.5.7.7.7.y.y.q.y.l.y.7.y.y.k.q.' x.XX|.|.XXXXXXXXXXXX@X@X@XXXXXXXXXXXXXoX@X$XoX@X@XoX$X@X$X=X=X=X=X%X$X@X=X=Xc.v.l.v.q.=X6X6X6X8X8XwX8X8X6X6X6X6X8X8XwX8X8XwX8X8X8X8X8X8X6X8X8X8X8X8XeX8XeXwX8X8XeXeXeXeXeXeXeXeXeXeXeXeXeXeXeXeXgXeXgXeXeXeXhXgXeXeXhXgXgXgXgXgXhXgXhXkXgXhXhXlXkXhXhXkXgXeXhXkXlXlXxXbXbXlXlXlXlXlXxXlXlXlXlXlXlXbXlXlXlXlXlXlXlXlXlXlXlXlXlXlXlXlXlXkXkXkXkXlXlXhXlXkXlXwX|.6XlXkXhXhXlXlXkXkXhXhXlX@Xu.hXkXkXkXhXkXkXhXgXhXhXhXhXhXhXhXkXhXhXhXeXhXeXeXhXgXeXeXhXhXhXgXgXeXeXeXwXwXeXwXeX6XnXmXnXnXnXbXnXbXmXkXoXeXeXwX8X8XwX8X8X8XwX1XoXeX6X8X8X8X6X8X8X8X8X8X8X8X6X8X8X6XeXq.3 H H G H H H f oX6X1X1X=X1X1X=X=X%X$X=X$X=X&X$X$X=X$X$X$X$X@X@X@X@X@XXXXX|.|.|.|.|.|.c.x.c.|.|.x.x.l.l.l.l.y.y.y.l.",
"` 5.4.2.4.4.4.4.1.1.4.5.7.5.q.q.q.q.q.q.y.y.y.q.k.l.y.l.+Xl.|.}.|.|.|.XXoXXXXX@X@XoXoXXXXXXXXXXX@X|.oX$X=X=X$X$X@X$X*X%X$X$X$X@X@X=X1X|.8XeX8X8X6X1X6X6X6X6X8X8X8X8X6X6X8X8X8X8X8X6X8X8X8X8X8X8XwX8X8X8X6X8X8XwXwXwX8XwXwXwXwXeXwXwXeXeXeXeXeXeXeXeXeXeXgXgXeXeXeXeXeXeXeXeXeXgXgXgXgXeXhXhXhXkXhXhXgXhXkXkXeXhXhXeXgXhXhXlXlXlXxXlXlXlXxXlXlXbXxXlXlXbXlXlXlXkXlXlXlXlXlXlXlXlXlXlXlXlXlXlXlXlXkXkXkXkXlXlXkXkXhXkXeX%X1XkXhXhXkXhXlXlXhXhXhXhXlXbXeXkXlXlXlXhXkXhXhXkXhXhXhXgXgXgXhXhXhXhXgXhXeXkXhXtXeXeXhXeXgXgXgXeXeXeXwXeXeXeXgXoX8XmXbXnXbXbXxXmXxX$Xu.eXeXwXwXwXwXwX6X6X8X=XoXeX8XeX8X8X6X8X8X8X8X6X8X8X8X8X8X6XwXq.R ` ` ] ` ] ` ' @X1X1X1X=X=X1X=X=X=X*X$X$X=X$X=X*X$X@X$X$X$X$XoX@X@XXXXX|.c.|.|.c.|.|.|.|.x.|.|.x.l.l.l.l.u.y.y.l.l.",
"` ` 2.1.2.4.2.4.5.4.4.4.7.7.7.q.q.q.q.q.y.u.u.x.l.l.y.y.x.l.v.}.|.|.|.XXXXXXXXXX@X@XXXXXXXXXXXoX+XXX|.$X$X$X@X@X$X=X=X%X@X$X$X=X=X1X1Xc.=X1X=X=X=X6X6X6X6X6X2X6X8X8X6X6X6X8X8X8X8X8X8X8X8X8X8X8X6X6X8X8X6X8XwXwX8X8XwX8XwX8X8XwXwXwXeXeXeXeXeXeXeXwXeXeXgXeXeXeXeXeXeXhXhXeXeXgXgXhXeXhXhXhXhXhXhXhXhXkXlXhXhXlXgXeXhXtXhXlXkXxXlXhXkXlXxXlXlXlXlXlXlXbXbXkXlXlXlXlXbXbXlXbXlXlXlXlXlXkXlXlXlXlXlXlXkXkXlXlXhXlXkXkXkXnXxXkXkXtXhXlXhXkXkXhXhXhXlXlXhXkXlXhXtXtXlXhXhXlXhXhXhXgXeXhXgXhXgXgXeXeXeXhXhXeXeXeXhXgXgXeXgXgXeXeXeXeXeXwXeXXX7.6X6X2X=X=X=X6X=X` l.hXwXeX8X8X8X8X8X8X8X1XXXeXwXeX8X8X8X8X6X6X8X8X8X8X6X6X8X6X6XeXbXxXlXlXtXeXrXtX8X=X1X1X%X1X1X=X=X*X=X=X%X$X=X*X=X=X@X$X$X$X@XoX@X@XXX|.|.|.|.|.x.|.|.|.|.x.v.x.l.7.l.l.l.y.y.y.y.y.",
"' ` ` 1.2.2.5.4.5.2.4.7.7.4.7.q.q.q.q.q.q.l.l.l.x.x.x.7./ l.x.x.|.|.|.|.|.XX|.|.XXXX|.XX|.|.XXXXXX@X$X$X$X$X@X$X$X=X=X=X=X*X*X1X=X=X1X|.=X2X1X=X1X6X6X6X6X6X6X6X6X8X6X6X6X8X8X8X6X8XwX8X8X8X8X8X8X6X8X8X8X8X8X8X8XwX8X8X8XwX8X8XeXeXeXeXeXeXeXeXeXeXeXeXgXeXeXeXeXeXeXgXgXgXgXhXgXhXgXhXhXhXhXgXhXhXhXhXkXhXhXhXeXeXhXhXhXhXlXlXlXxXlXkXlXlXlXlXlXlXlXlXlXlXxXkXhXhXlXlXlXbXlXlXlXlXxXkXhXhXlXlXkXkXlXkXlXlXhXlXlXlXkXnXkXkXlXhXkXkXhXkXkXkXkXhXhXhXhXkXkXlXhXhXhXlXgXkXhXgXgXhXeXgXhXkXeXeXhXeXeXeXeXhXeXeXeXhXgXeXeXgXeXeXeXeXeXeXeX1X^ 5.;.( ( ) / 1.1.T =XeXwXeX8X8XwX8X8XwXeX2XXXeX8X8X8X8X6X6X6X6X8X8X8X6X1X6X6X6X8Xl.J R P J J J J J @X1X1X1X%X1X1X=X=X=X*X=X%X%X$X$X*X*X$X$X@X@XXXXX@XXXXXXXXX|.|.c.c.|.c.x.}.v.u.l.l.y.y.y.y.y.y.y.y.u.",
"/ ` ` 1.5.1.2.5.4.5.5.7.0.7.7.q.q.q.y.y.u.l.l.l.l.l.l.|.@Xx.l.x.|.XX|.|.XXXX|.|.XX|.c.|.|.XXXXoXXXoX@X$X@X$X%X$X$X%X=X=X%X%X=X=X1X=X5Xc.=X6X1X2X2X6X6X6X1X1X6X6X6X6X6X6X8X8X6X6X6X8X8X8X8X8X8X8X8X6X8XwXwX8X6XwX8XwXwX8X8X8X8XwX8XwXeXwXeXeXeXeXeXeXeXeXgXeXgXeXeXeXeXgXgXgXeXgXgXhXgXkXhXgXhXgXhXeXhXhXhXgXeXgXeXeXhXgXhXkXhXkXlXlXhXkXlXlXlXlXlXlXlXlXlXhXkXlXhXhXlXlXlXlXkXlXlXlXlXkXlXlXkXlXhXlXkXkXlXlXlXlXlXlXkXgXhXlXkXkXlXkXkXhXlXhXhXhXhXlXhXkXlXlXhXhXhXlXhXlXhXgXgXgXwXeXhXkXhXeXhXgXeXgXeXeXgXeXeXgXgXgXeXeXgXeXeXeXeXwXeXeX$X4.y.l.y.q.q.q.q.$XeXwXwXeXwX8X8X8XwX8XeX6XoXeX6X8X8X6X6X6X6X6X6X6X6X8X6X6X6X6X8Xu.` 7.2.1.1.' ` ` $X1X1X=X%X=X=X%X=X=X*X*X*X$X$X%X$X$X@X@X$X+X+XoXXX@XXXXXXXXXXXXXXXXXc.x.x.x.x.x.l.y.l.y.y.y.y.y.y.y.",
"' ` 1.2.` 1.5.4.4.4.7.0.0.7.7.0.q.y.y.y.y.l.u.l.x.l.x.}.x.x.}.|.|.XXXXXXXXXX|.|.XXXXc.|.|.XXoXoXoXoX@X@X@X$X$X@X*X%X$X*X*X%X%X=X1X=X1Xc.1X2X2X1X1X2X2X1X2X6X6X6X6X6X6X6X6X6X6X8X8X6X8X8X8X8X8X8X6X6X8XwX6X8X8XwX8X8XwX8X8XwXwXeXwXwXwXeXeXwXeXeXeXeXeXeXeXeXeXeXeXeXeXgXgXeXeXtXhXhXeXgXgXgXgXeXeXgXgXgXhXeXgXgXeXeXhXeXgXhXhXhXhXhXhXhXkXkXkXlXlXlXkXlXlXhXhXkXhXhXlXhXkXlXlXlXlXlXlXlXlXlXkXkXkXkXhXlXlXlXlXkXlXlXlXkXkXlXkXhXtXkXlXhXhXhXhXkXhXhXhXkXlXlXgXhXlXlXhXkXhXgXgXgXeXhXkXhXeXeXgXeXhXeXeXeXeXeXeXtXeXeXeXeXeXeXgXeXgXwXwX8XwX6XeXgXgXgXeXeXgXeX8XwXeX8X6X8XeX8X8X8X8X2XXXeX8X6X8X6X1X2X6X6X1X6X6X8X6X6X6X6X6XeXtXeXwXwX8X8X8X8X6X=X=X1X%X1X=X$X=X*X*X*X*X$X$X$X$X$X@X$X@X@X@XoXXXXXXXXXXXXXXXXX|.c.|.x.l.c.x.x.y.q.y.y.y.y.y.y.y.q.",
"` ` 1.2.] ` 2.2.4.5.5.5.0.7.7.q.q.q.q.q.y.y.y.y.x.x.x.x.}.}.}.|.XXXXXXXX|.|.|.|.XXXXc.|.|.XXXXXXoX@X@X@X@X@X@X$X$X$X$X*X%X$X%X=X=X=X1Xx.=X6X1X1X1X1X1X6X6X6X6X6X1X6X1X8X8X8X8X6X6X6X8X8X8X8X8X8X6X=X=X8X8XwXwX8XwX8X8X8XwXwXwXwXwXwXwXwXeXeXwXeXeXeXeXeXgXeXeXeXgXeXeXeXeXeXeXgXgXgXgXeXeXeXgXgXgXgXeXeXeXeXgXgXeXeXhXeXeXhXgXgXgXhXgXhXkXhXhXhXlXhXhXlXlXeXhXhXlXhXhXhXhXlXhXhXkXlXlXlXkXkXkXkXhXkXhXkXkXkXlXkXhXkXhXkXkXlXhXtXgXkXhXhXhXhXgXhXkXlXeXkXlXkXlXhXkXhXgXhXgXgXgXeXeXhXhXgXeXeXeXeXeXeXeXgXtXeXeXeXeXeXeXeXeXgXeXeXeX8XwXwX8X1XwXwXeXwXeXeXwXwXwXwXwX6X6X8X6X8X8X6X8X1XXXwX8X8X6X6X=X1X6X6X6X1X8X6X6X6X6X6X6X8X6X6X6X2X2X=X1X6X5X1X1X1X%X=X=X$X=X*X*X$X=X=X$X$X$X@X$X$X$X@XoXoXoX|.XXXX|.x.c.|.x.|.c.l.l.x.x.l.l.y.y.y.y.q.y.y.y.q.",
"` 1.` ` ` ` 1.2.7.4.7.0.0.q.7.0.q.q.q.y.q.l.y.l.l.x.x.}.}.}.}.}.XXXXXX|.|.|.|.|.|.XXXX}.|.XXXX@XXXoXoX@X$X@X$X$X$X@X$X$X$X$X$X*X=X=X1Xx.=X6X6X=X=X=X1X5X1X6X2X1X2X6X6X6X5X6X6X6X6X6X8X8X8X6X6X8X8X8X6XwXwX8XwX8XwXwX8X8XwXwXwXwXwXwXwXwXeXeXeXeXeXeXeXeXgXeXeXgXgXeXeXgXgXeXeXeXgXgXgXeXeXeXeXgXgXeXeXeXeXeXhXgXeXeXgXhXgXhXhXhXhXhXhXhXhXkXhXhXhXhXhXlXlXhXhXhXhXhXhXhXhXkXhXhXlXlXlXkXkXhXkXkXkXhXhXhXhXhXlXlXhXeXkXkXkXkXhXkXhXkXhXeXhXhXgXkX2X*XkXhXhXlXlXkXkXkXhXkXgXgXgXwX=XhXhXhXeXeXeXeXeXgXeXhXeXeXeXeXeXwXeX8XeXhXgXtXtXwXwXeX8X=XeXeXeXeXwXeXeX8X8X8X8XwX8X6X6X6X8X6X8X1X|.8X6X6X8X6X2X1X6X6X6X6X6X6X6X6X6X6X6X1X1X1X1X=X=X$X=X1X1X1X=X=X%X%X=X*X*X%X*X$X=X%X$X@X$XoX$X@X@X@XXXXXXX|.XX|.XX|.x.x.c.|.}.x.l.x.l.y.y.q.y.u.q.q.y.y.0.7.",
"` 1.1.1.1.2.1.5.4.4.7.0.q.0.q.q.q.q.y.y.q.y.l.l.l.x.l.x.x.x.x.x.|.|.|.|.|.XX|.}.|.XX|.|.XXXXXXoXoXoX@X@X@X@X$X$X$X$X$X$X$X@X$X$X*X=X1Xc.%X1X2X1X=X=X1X1X1X2X6X2X1X6X1X2X1X1X1X1X1X6X6X8X8X6XwX8X8X6XwXwXwXwXwXwX8XwX8X8XeXwXwXwXwXwXwXwXwXeXeXeXeXeXeXeXeXeXeXgXgXeXeXgXeXeXeXeXgXeXgXgXeXeXwXeXeXgXeXeXgXeXeXgXeXeXeXgXeXhXhXgXhXkXhXhXkXkXhXhXhXkXhXhXhXhXkXhXhXhXgXhXgXhXhXkXlXlXkXkXlXlXkXhXhXhXhXtXkXhXhXhXhXhXlXeXhXhXeXtXeXhXhXeXhXhXhXhX6X=XhXkXhXhXhXkXhXkXhXhXhXgXgXgXhXgXgXhXeXeXeXeXeXeXeXhXtXeXeXeXeXwXeX8XwXeXeXtXeX8X6XwXwXeXeXeXeXwXwXeXeX8X8X8XeXeX6X6X8X8X8X8X8X=XXX8X6X6X8X6X6X6X1X6X6X6X6X6X6X6X6X6X6X1X1X1X1X1X1X*X1X1X1X=X%X1X%X%X=X*X$X%X$X$X=X$X@X$X$XoX@X@X@X@XoXXXXX|.XXXXc.|.x.l.x.x.x.x.l.x.l.l.y.l.y.u.y.y.q.y.7.0.",
"` ` ` 1.4.4.2.4.5.7.7.7.0.0.0.q.q.q.q.y.y.y.y.l.l.x.l.l.v.l.l.x.|.XX|.c.x.x.c.|.}.XX|.|.XXXXXX@X@X@X@X@X@X@X$X@X$X$X$X@X@X$X$X=X$X=X1Xc.$X1X=X1X1X=X=X1X1X1X1X1X1X1X1X6X6X1X6X1X1X1X6X6X6X6X8X8X8X8XwXwXwXwXwX8X8X8X8X8X8XwX8X8XwXwXwXwXwXwXwXeXeXeXeXeXeXeXeXgXeXeXeXeXeXeXeXeXeXeXgXeXeXeXeXeXeXeXeXeXeXeXeXeXeXeXeXeXeXgXgXgXgXhXhXhXkXhXhXgXlXhXhXlXlXkXlXhXhXhXkXhXgXhXhXhXhXkXkXhXhXtXtXkXhXhXgXhXgXeXgXhXgXeXhXgXeXeXeXeXeXhXeXeXeXeXhXhXnXmXhXgXgXhXhXhXhXhXhXhXhXgXhXgXeXgXgXgXgXgXeXeXgXeXeXtXtXeXeXeXeXeXeXeXkX=X8XeXeXeX8XwXwX8XeXwXeXeXeXeXeX8X8XwX8X8X8X8X8X6X8X6X8X1XoX8X1X8X8X8X6X1X2X6X6X2X6X6X6X6X6X6X8X6X1X1X2X1X1X1X=X1X1X1X1X1X=X=X=X*X=X*X=X$X$X@X@X$X$X@X@X@X@XoXXXXXXX|.|.|.|.x.x.x.l.x.x.y.u.x.l.y.y.y.y.y.y.y.y.q.l.q.",
"( ` 1.1.4.1.4.5.4.4.7.7.q.q.0.q.q.q.q.q.q.y.y.y.u.l.l.q.4.l.x.x.c.c.x.c.x.x.|.|.c.XXXX|.XXXXXX@X@XoX+X+X@X@X@X@X$X$X@X$X@X@X$X$X%X=X1Xx.$X1X1X1X1X%X%X1X=X1X1X1X1X2X1X1X1X1X6X6X1X1X5X6X6X6X6X8XwX8XwXeXwXwXeX8X8X8X6X8X8X8X8X8X8XwXwX8XwXeXwXeXeXwXwXeXeXeXeXeXeXeXeXgXeXeXeXeXeXeXgXeXgXeXeXeXeXeXeXeXgXeXeXgXeX8X8XeXeXeXgXgXgXeXgXgXgXhXhXgXhXNXNXNXNXNXZXNXZXGXlXwXgXeXeXgXeXwXeXgXhXeXhX6XwXgXeXgXeXgX8X6XeXeXwX=XwXeXeXeX8X=XeXeXeXeX=XeXtXeXhXhXgXhXhXgXeXkXhXgXgXeXgXgXeXeXgXgXeXeXeXgXgXeXeXeXeXeXeXeXgXeXeXeXeXgXeXeXeXeXwXwXwXwXwXeXeXwXwX8X8X8X8XwX8X8X8X8X6X6X8X6X8X1XXX8X6X8X8X6X6X1X2X6X6X2X6X6X6X6X2X6X6X6X6X1X6X1X1X1X1X=X=X=X=X=X=X=X=X*X=X*X$X@X@X@X@X@X@X@X@XXXoXoXXXXX|.|.|.c.x.x.x.x.l.y.l.y.u.l.y.y.y.y.y.y.q.q.y.q.y.q.",
"` ` 1.1.4.2.1.4.5.1.4.7.q.7.7.q.q.7.q.q.y.y.y.l.y.l.l.y.x.l.l.x.x.x.x.x.x.l.x.}.|.XXXXc.|.XX+XoX@X@X@X@X@X@X@X@X@X@X@X@X@X@X@X$X*X%X1Xx.$X6X1X1X1X1X2X1X=X1X1X1X1X1X=X1X=X1X1X1X1X6X6X6X6X8X6X6X8X8XwXwX8X8X8X8X8X6X6X6X6X6X8X8X8XeXwXwXwXeXwXwXwXwXeXeXeXeXeXeXeXeXeXeXeXeXeXeXeXeXeXeXgXeXwXeXwXeXeXwXeXeXeXeXeX8X8XeXeXeXeXeXgXeXeXeXgXgXhXkX2XmXZXNXNXmXmXmXZXGXeX6XhXeXeXhXwX8X6XeXeXeXeX6X8XeXeXeXeXgXeX8XeXhX8X1XeXeXeXeX8X1XeXeXeXeX=XeXhXtXeXeXeXhXeXhXhXeXgXhXgXeXeXgXeXeXgXeXeXeXeXhXgXwXeXeXeXeXeXeXeXeXwXeXeXeXeXeXwXwXwXwXwX8XwXeXeXwXwXwXeXeXeX8X8X8X6X6X8X8X8X6X6X=X|.wX8X8X6X6X6X6X6X6X6X6X6X2X2X6X6X6X6X6X1X2X6X1X2X1X1X=X=X=X=X=X=X=X=X$X=X*X$X@X$X$X@X$X@XoXXXXXXXXXXXXX|.x.x.x.x.x.x.x.l.y.y.y.y.y.y.y.y.y.y.q.q.y.y.q.q.q.",
"' ` ` 1.5.1.2.4.4.4.5.5.7.0.0.0.7.7.q.q.q.q.y.l.l.u.l.u.l.l.l.c.x.x.x.x.x.x.l.c.x.|.|.|.XXXXXXXXXXoX@X@XoXoX@X@X@X@X@X@X@X$XoX$X*X=X=Xx.$X2X1X1X=X$X1X2X=X*X=X=X=X1X=X=X=X=X1X=X1X1X2X1X1X6X8X8X8X8X8X8X6X6X8X6X6X6X6X6X6X8X6X8X8XwX8XwXwXwX8XeXeXwXeXeXwXwXeXeXeXeXeXeXeXeXeXeXeXwXeXeXeXeX8XwXwXeXwXwXeX8XeXeXwX8X8XwXwXwXeXwXwXwXeXeXeXgXeXgX$X1XmXmXmXnXnXnXmXmX|.6XeXwXwXeXeXgXgXwXeXeXeXeXeXwXeXeXeXeXgXgXeX8XeXeXwXwXeXwXeXeXwXeXeXeXkXtXeXeXeXlXtXgXeXhXeXeXgXhXgXgXgXgXeXeXeXeXeXeXeXeXeXeXeXeXeXeXeXeXeXeXeXeXeXeXwXeXeXwXwXeXwXwXwXwXwXwXwXwXeX8X6X8XwXwX8X8X8X8X6X6X6X=XXX8X6X8X6X6X6X6X6X6X6X2X6X2X6X6X6X6X6X2X1X2X6X2X1X=X1X1X=X=X=X=X=X=X=X$X*X*X$X$X$X@X@X@XoXXXXXoXoXXXXXXX|.x.x.x.x.l.l.y.l.l.y.y.y.y.y.y.y.y.y.q.q.y.q.q.q.7.",
"/ ( ` 2.5.5.5.4.4.4.7.7.7.0.q.q.q.q.q.q.q.q.y.y.l.l.l.y.y.l.l.x.x.l.x.x.x.x.x.x.x.|.|.c.XXXXXXoXXXoXoXoXoX@X@X@X@X@XoX@X@X$X@X$X=X1X1Xx.@X=X6X1X=X$X=X=X=X$X$X=X=X2X=X=X=X=X1X1X1X1X6X6X1X1X6X6X8X6X8X8X8X6X8X6X6X6X1X6X6X8X8X8X8X8XwX8X8XwXeXeXwXeXeXwXwXwXeXwXeXeXwXeXeXeXeXeXeXwXwXeXwXwX8XwXwX8XeX8XeXeXwXwXeX8X6X8XwXwXwXwX8X6XwXeXeXeXgXgX5Xc.8X8X6X6X8X8XwX=Xu.eXwXwXwXeXwXwXwXwXeXeXeXwX8XeXeXeXeXeXeXeXeXeXwXwXeXeXeXeXeXwXeXeXeXeXeXeXtXeXeXeXeXhXhXhXgXgXgXgXgXgXgXgXeXeXeXeXwXeXwXeXeXeXeXeXeXeXeXeXeXeXeXeXwXeXeXeXeXwXwXwXeXwXwXwXwXwXwX8XeXwX8X8X8X8X8X8X8X6X6X8X8X=X|.8X6X8X6X6X2X2X2X2X6X2X2X2X6X2X2X6X6X6X1X1X1X1X1X=X*X=X=X=X=X=X*X=X=X=X=X*X$X$X$X$X@X@XoXXXXXXXoXoXXX|.XX|.c.c.x.x.x.l.u.y.y.u.l.y.y.y.u.y.q.q.q.0.7.q.y.q.",
"/ ` ` ` 5.5.5.5.5.5.7.7.7.7.q.q.q.y.q.0.q.q.y.y.q.q.y.u.q.l.l.l.v.x.x.x.x.l.l.x.c.XX|.x.|.XX|.XXXXXXoXoXXX@X@X@X@X$X@X@X@X$X$X%X=X1X2X|.$X=X=X=X=X=X=X=X=X=X=X=X=X1X1X=X1X1X1X1X1X1X1X6X1X6X6X6X8X6X6X6X8X6X6X6X6X6X6X6X6X8X8X8X8XwXwX8X8X8X8XwX8XeXeXeXwXeXeXwXeXeXwXeXeXwXeXwXwXwXwXeXeXeXwXeXeXeXeXeXeXeXwXeXeXeXwXwXeXeXeXwXwX8XeXeXeXeXeXeXeXx.7.7.7.7.7.5.6.5.6XeXwXwXeXeXeXeXeXwXhXhXeXeXeXeXeXgXgXgXgXeXeXeXeXeXeXeXeXeXeXeXeXeXeXeXeXeXeXeXeXgXgXhXhXgXeXeXgXgXgXgXeXgXgXeXeXeXeXeXeXhXeXwX8XeXeXeXeXeXeXwXwXwXeXeXeXeXwXwXwXwXwX8XwX8XwXwXwXwX8XwXwX8X6X8X6X8X8X8X6X6X8X=X|.6X1X6X6X6X1X1X6X1X1X1X1X1X6X2X6X2X2X6X1X1X1X1X1X=X=X=X%X=X=X=X=X=X=X=X=X%X$X$X$X$X@X@XoXXXXXXXoXoXXXXXXX}.c.c.c.x.x.l.l.u.y.y.l.y.y.y.u.y.q.q.q.8.q.y.y.q.",
"( ` ` 1.1.2.4.4.4.4.7.7.7.q.0.q.q.q.q.q.q.q.q.q.q.q.y.u.l.l.l.l.l.l.l.l.l.l.l.x.x.|.x.x.}.XXXXXXXXXXoX@XoX@X@XoX@XoX@X@X@X$X$X%X%X=X1XXX$X=X$X=X=X$X$X=X=X=X=X=X1X1X=X=X1X6X1X1X1X1X1X2X6X6X2X6X6X6X6X6X5X6X6X6X6X6X1X2X6X6X6X6X6X8X8X8XeX8X8XwXwXwXwXwXeXeXwXeXwX8XwXeXeXwXwXwXwXeX6X=X1X1X1X=X=X=X=X=X=X=X2X6X6X=X@X+X@X1X6X6X6X=X2X2X2X=X=X=X=X*Xv.c.v.l.x.}.v.$X6X1X2X2X=X=X1X6X6X6X*X*X6X1X=X1X=X=X1X1X6X1X=X=X=X1X=X=X$X*X=X1XeXeXeXeXeXeXtXrXeXeXeXgXgXgXeXeXeXgXgXgXgXeXeXeXeXeXeXeXeXeXeXeXeXeXeXeXeXwXeXeXwXwXwXwXeXeXwXwX8XwXwX8X8XwX8X8XwXwX8X8XwX8X6X8X8X8X6X8X6X8X8X1X}.6X1X1X6X6X2X6X6X1X1X1X1X1X2X1X6X6X1X2X1X1X1X=X=X*X*X1X1X=X=X=X=X*X*X*X*X$X$X$X$X@X@X@XoXoXXXXXXXXXXXXXXX|.}.|.c.c.x.u.l.y.u.l.u.y.l.u.y.y.y.q.y.y.y.y.q.q.",
"( ` ` ` 1.2.4.1.5.4.5.9.7.7.7.0.7.q.q.q.7.q.q.y.y.y.q.q.y.l.y.k.y.y.l.l.l.l.l.c.x.c.x.x.x.XXXX|.XXoX@XoXoXoX@XXX@X@X+X@X@X$X@X$X%X%X=X|.$X=X=X=X=X=X%X=X$X$X$X=X=X1X1X=X1X1X1X1X1X1X1X6X1X1X1X1X6X6X6X6X1X6X6X6X6X2X2X1X6X6X6X6X8X8X8XwXeX8X8XwXwX8X8XwXeXeXwXwXwX6XwXwXeXwXwX8XwX=X}..X.X@X.X|. X X.X.X.X.X` U 5.-X.X&Xh.T ^ ^ ^ T ^ ^ ^ ^ ^ R T ^ ' ' ^ ^ ^ ^ ^ W ^ ^ ' ' ' ^ ^ ( ^ ^ ^ T T  X&X&X&X.X.X.X@X.X|..X.X.X.X.X X.X+X+Xv.eXeXeXeXhX@X}.eXeXeXhXgXgXeXgXgXeXgXeXeXeXgXeXeXgXgXeXtXeXeXeXeXeXeXwXeXeXeXeXeXwXwXwXeXeXeXwX8X8XwX8X8XwXwX8XwXwXwXwXwX6X8X8X6X6X8X8X6X6X6X1X}.6X1X1X6X6X1X1X1X1X1X6X1X1X2X1X1X6X6X1X1X1X=X=X=X=X$X=X=X=X=X=X=X=X=X=X%X$X$X@X@XoXoX@XXXXXXXXXXXXXXX|.XX|.|.c.x.x.x.u.l.l.l.l.y.y.u.y.y.y.q.y.q.q.7.8.q.0.",
"/ ' ` ` ` 2.1.1.4.5.5.7.7.7.q.q.0.q.q.q.q.q.y.y.y.y.q.l.u.l.l.l.l.u.v.l.v.v.l.|.x.|.|.x.|.XXXXXXXXXX|.|.|.XXXX|.@X$X@X@X@X@X@X$X*X%X=X}.@X=X%X=X=X=X=X$X$X=X*X*X=X1X1X1X1X1X1X1X1X1X1X1X1X%X1X1X6X6X6X6X2X6X6X1X2X6X1X6X6X6X6X8X8X8X8XwXwX8XwX8X8X8X8XwXwX8XwX8X6X8XwXwXwX8X8XwX8Xv.mXMXNXZXNXNXMXNXZXCXGXZX-X=X=XGXCXGX6X/ ` ` ' ' ' ` ` 1.` ` 1.5.1.` ' ^ / ) ) ) / / / / ' / ' ' ' ( ` ` ^ -XCXZXZXZXZXNXZXZXZXZXZXZXZXZXZXZXZXZX=XXXkXeXeXeXwXtXwXeXeXeXeXeXeXeXeXeXgXeXeXeXeXeXgXgXeXtXwXwXgXeXeXeXeXeXwXwXwXwXwXwXeXeXeXwXeXeXwX8X8X8X8X6XwXeX8XwX8X8X8X8X8X6X6X6X6X8X6X6X6X1X|.2X1X6X6X1X1X1X1X1X1X1X1X=X1X1X1X2X1X1X1X1X1X1X1X=X*X=X=X=X=X=X*X$X=X*X$X$X*X$X$X@XoXoX@XXX|.XXXXXX|.XX|.c.c.c.x.x.x.x.x.l.u.u.u.y.y.y.y.y.y.q.0.q.7.q.q.7.",
"` ` ` ` ` ` 1.^ Q ^ ^ ^ ' ' ^ ^ ^ ^ / / ^ ' ' ' ` ` ` ` ] 5.] 2.5.5.5.5.5.5.7.7.7.7.7.5.7.q.q.|.XX}.|.|.XXXX@X|.|.@X@X@X@X@X@X$X$X*X=X|.@X*X$X=X1X*X*X$X*X*X%X$X=X1X1X1X1X1X1X2X1X1X1X1X1X1X6X6X6X6X1X6X1X1X6X2X6X6X1X1X1X6X6X8X8X6X8X8X8X8X8X8X8X8X8X8XwX8X8X8X6X8XwX8X8X8X6XwX|.kXbXwXeXeXeXeXwXwXeXeXeXeXhXNXNX8X8X6Xl.y.l.y.y.u.l.y.l.y.k.y.l.y.y.7.7.7.8.7.q.7.5.5.5.4.1.4.4.7.8.q.7.9.7.4.8XeX8XwXwX6XwXwXwXeXeXeXeXeXeXeXeXeXnX+X6XkXeXeXkXkX8XwXeXeXwXeXgXeXgXgXeXeXeXeXeXeXgXeXeXtX6XwXeXeXeXgX=X}.eXeXeXeXwXwXwXwXeXeXeXwX8XwX8X8X6X8XXX@XwXwX8XwX8X6X6X6X6X6X2X6X6X6X=Xl.|.6X=Xy.$X6X1X1X1X1X1X1X1X=X1X1X1X2X1X=X=X=Xx.|.1X=X*X=X=X%X=X=X%X=X$X*X$X$X$X@X@XoXoXoXXXXX}.|.XX|.c.|.c.c.c.c.x.x.x.x.l.l.l.u.y.y.y.y.y.y.y.y.7.7.q.y.q.7.",
"` ` ` ` ` ` T ` 7.5.5.5.5.5.1.1.5.4.7.9.q.7.7.0.q.q.q.q.q.q.q.q.9.7.7.q.q.y.y.y.y.y.q.q.q.y.y.2.c.|.XX|.XXXXXXXXXX@XXX@XXX@X@X$X$X$X*Xx.oX%X$X$X=X=X$X*X=X=X$X$X=X=X$X=X1X6X1X5X6X2X1X2X1X=X2X6X1X1X6X6X1X6X6X1X6X6X6X6X6X8X6X6X6X8X8X8X8X8X8X8X8X8X8XwXwX8X8X8X6X6X8X8X8X6X8X@X-XmXeXhXgXgXeXeXeXeXkXlXlXhXlXlXkXgXhXkXtXkXbXlXbXmXnXbXbXbXmXmXnXnXnXnXmXbXnXbXlXbXlXkXtXtXtXtXtXtXtXkXkXlXlXeXgXgXhXhXtX8XgXhXhXhXhXhXhXgXhXhXhXhXhXbX.XtXhXeXwX8XwXwXeXeXwXwXeXeXeXeXeXeXeXeXeXeXeXeXeXeXkXkXeXeXgXgX=XqXwXeXeXeXeXeXwX8XeXeXeXeX6X8X8X8X8X8X&X=XwXwX8X8X8X6X6X6X6X1X1X2X2X1X2X=X}.1X$X@X*X1X1X=X1X=X1X1X1X=X1X=X=X1X=X1X1X%XXX=X1X=X=X=X1X*X=X$X$X=X$X*X@X@X$X@XoXoXoXXX|.XX|.c.c.c.c.|.x.c.c.c.x.x.x.l.l.x.l.y.y.y.y.y.y.y.q.q.q.q.q.q.8.7.",
"` ` ' ` ` ^ Q l.l.y.q.q.8.8.7.7.8.y.k.k.k.k.x.x.c.x.x.c.c.x.c.c.c.c.c.B.XXB.XXXXXXXXXXXXoXoXoXx.1.|.|.|.|.XXXXXXXXoXXX@XXXoX@XoX@X@X$Xl.XX$X@X*X$X$X$X$X$X@X$X$X$X$X$X=X=X1X1X1X1X1X2X=X1X=X1X1X1X1X1X1X1X1X1X1X1X1X1X1X6X6X6X6X6X6X6X8X8X6X6X6X8XwX6X6X8X8X6X6X6X8X8X6X6X8X1X}.mXhXhXhXgXgXeXwXtXlXlXlXkXlXhXhXkXhXhXlXNXZXGXGXGXGXGXGXGXGXGXGXGXGXGXGXGXGXGXGXGXGXGXGXGXGXGXGXGXGXGXGXGXGXGXZXeXeXhXhXkX2XgXhXhXhXhXhXgXhXhXgXhXlXkXnXeX@XkXeXeXwXeXeXeXeXwXwXwXeXeXeXeXeXeXeXeXeXeXeXeXeXeXeXeXeXeXeXgXnXeXeXeXeXeXeXeXeXeXeXeXeXwXeXeX8XwX8XeXkX6X8X8X6X6X6X6X8X6X6X6X6X1X1X6X=Xx.1X6X8X6X1X1X=X=X=X1X=X=X=X=X=X1X1X=X=X1X=X8X8X1X1X1X1X1X=X=X%X%X*X$X$X@X$X$X@XoXXXXX|.|.XX|.x.x.x.x.x.x.x.|.|.c.x.x.l.l.l.l.l.y.y.y.y.y.q.q.q.y.q.y.q.q.7.",
"' ` ` ` ` T 5.1.5.2.` ` ` ` ` 1.1.1.4.4.7.1./ ^ ^ ^ ^ ^ / 7.q.8.y.k.k.k.x.x.x.c.x.x.c.x.c.c.x.B.y.4.|.|.|.|.XXXXXXXXXX@X@XXX@X+X@X@X$Xy.XX@X@X$X$X$X$X@XoX@X@X@X@X$X=X=X=X1X1X1X1X=X1X1X=X1X=X1X1X1X1X1X1X1X1X1X1X=X=X1X1X6X6X8X8X6X8XwX6X1X8X6X8X8X6X8X8X8X8X2X@X=X8X8X8X6Xq.xXcXgXhXhXeXgXeXwXlXlXlXlXkXhXhXkXhXhXhXhXgXgXhXhXhXkXkXxXlXlXlXlXkXkXkXhXhXhXgXeXeXeXgXgXeXgXgXhXhXgXgXgXeXeXwX9XgXeXhXhXhXeXgXhXhXhXeXhXhXgXhXhXhXlXlXhXmX6X=XkXeXgXeXeXeXeXeXeXeXeXeXwXeXeXeXeXeXeXeXeXwXeXeXeXeXgXeXeXeXeXgXeXeXeXeXwXwXwXeXwXeXeXwXwXwXwXwXwX8X2X6X8X8X8X8X6X6X8X6X6X6X6X1X1X2X=Xx.1X1X6X=X=X1X=X%X1X=X=X=X=X=X1X1X%X=X=X=X%X%X%X1X1X1X=X1X1X=X=X$X$X@X$X@X@X@XXXXXXX|.|.|.|.c.x.x.x.x.l.l.x.c.x.x.c.x.l.l.y.l.y.y.y.y.y.q.q.q.q.q.q.y.q.7.7.",
"/ ' ' ` Q ' ^ H H G H n n n d P 1.1.1.4.1.T H 3 i 3 3 f 3 W ^ / ` 4.7.7.7.8.` 1.7.q.y.y.z.x.x.z.x.7.4.8.4.4.7.7.7.9.7.7.q.q.q.q.q.y.y.4.q.q.y.l.l.l.k.k.y.y.y.y.l.l.x.|.c.XXc.oX+Xx.+XXX|.@X+XXX+XoXoX@X@X@X+X@X@XXXXX+X@X@X@X$X$X$X@X@X@XXX$X$X=X$X@X$X$X=X@Xx.|.c.|.@X6Xl.1XmXeXhXgXeXeXeXeXeXhXlXhXkXkXhXgXgXhXhXhXkXkXkXkXlXlXlXlXxXcXxXlXlXlXkXlXlXlXkXkXhXhXkXgXhXhXhXlXkXhXhXgXgXgXhXeXeXeXeXeXtXhXhXgXhXeXgXgXhXgXgXgXhXhXkXlXlXkXmX|.=XeX6XeXeXeXeXeXeXeXwXeXeXeXeXeXeXeXeXeXeXeXeXeXeXeXeXeXeXeXgXeXeXeXeXeXeXwXwXeXeXeXwXwX8X8XwXeXwX8X8X8X8X8X8X6X6X6X6X6X6X1X1X1X1X6X=Xc.2X6X6X1X=X=X=X%X=X=X*X=X@X$X=X1X=X1X=X$X=X=X=X=X1X=X=X=X=X=X%X@X@X@X@X@XoXXXXXXX|.|.x.x.x.x.x.x.x.x.l.l.l.l.x.l.x.l.l.y.y.y.y.y.q.q.0.0.7.7.7.q.q.q.7.7.7.",
"` ` ` ' R ^ G G J G J G J H G P T W W Q I P P T ^ T P 5.^ K G L T T T W ^ P f P / Q ^ ^ ^ / ` / T ( y.y.y.l.l.l.x.|.x.|.x.l.l.l.l.c.XXq.l.x.x.4.` XXx.k.x.x.x.x.l.l.y.1.` y.c.x.x.l.l.x.l.l.l.x.x.l.l.v.l.l.q.q.y.l.l.l.x.x.x.v.q.c.XXXXXXXXXXXXXXc.c.c.XXXX|.XXXXXXc.|.y.|.mXeXhXgXgXeXeXeXgXgXhXhXkXkXlXkXgXkXhXhXtXhXhXkXhXkXlXkXlXlXlXlXlXhXkXkXlXlXlXhXeXhXeXhXhXhXeXtXkXhXeXkXgXgXgXgXeXeXeXeXeXtXtXhXhXhXgXhXkXgXgXhXhXkXhXkXlXhXhXhXkXq.|..X8XeXeXeXeXeXeXwXeXeXeXeXwXwXwXeXeXeXeXeXeXeXeXeXeXgXeXeX8XeXeXeXeXwX8XwXwXeXwX8XwXwXwXwX8XwX8X1Xy.XX8X8X6X6X6X6X=X@X$X$X=X=X1X=Xx.1X=X=X1X1X=X=X=X=X=X*X*X$X=X=X=X1X=X=X=X$X=X1X1X1X=X1X=X%X$X@X$X$X$X$XXXXXXXXXXXXXXX|.XXXX|.}.x.x.x.x.l.x.l.l.x.x.x.l.l.l.l.l.y.y.q.q.q.q.q.q.y.y.q.q.7.0.",
"P I I n l d m T W T T W ^ ~ ) ^ I T W W W ^ W ( 1.( ^ ` ' P P P Q Q ^ ^ ^ Y P m ( 3.1.1.1.5.m m m k T ( ( ` ` / 1.1.;.7./ ^ ( / ( 7.8.) 9.9.6.! ^ k.7.6.9.7.9.6.3.4.4.n & ^ k.e.7.7.e.z.W n G 7.i.7.8.y.y.7.m l ^ x.k.i.i.y.c.` X 1.y.8.y.q.y.y.y.U I Q c.oXOXoXXXoXXXXXl.nXhXgXgXgXgXgXeXtXeXtXhXhXhXhXkXkXkXhXhXtXkXlXhXhXkXlXkXlXlXlXlXkXlXhXhXkXlXlXlXhXlXkXhXgXeXhXhXkXkXhXeXgXeXeXeXeXgXeXeXeXeXtXhX=XeXkXhXgXhXgXeXeXhXhXkXkXkXhXhXgXlX6X-XtX8XeXeXeXeXeXgXeXeXeXeXeXeXwXeXeXeXwXwXeXeXeXeXeXgXeXeXeXeXeXeXwXeXwXeXwXwXwXwXwXwXwXwXwXwX8XeX@X&X+X8X8X8X6X6X1XR k U W / 1.1.` ^ ^ P P m ` 9.9.6.5.4.P G K q.7.7.4.1.1.1.1.1.0.y.y.y.y.8.8.y.y.y.y.y.8.7.7.7.q.7.7.5.7.7.8.7.4.1.1.1.1.( ( ( ` ` ` ` ' / ^ ^ ^ Q ^ W W W W W Q ^ W W W T T ",
"Q Q R [ [ [ ] ] ] ] ] 5.w.w.w.w.w.w.w.w.u.w.w.] ] ] w.w.[ w.h.h.h.h. X X X X Xh. X X X X|. Xu.l.l.h.h.u.u.w.w.w.w.w.u.w.w.u.h. X Xh.u.w.w.h.h. X Xv. X X Xv. X X X X.X Xh. X X X X X X X X X X.X X X X X|..X X X X.X.X X X X.X.X X-X-X.X X X X X X] [ w.u.l.u.u.u.h.l..XmXkXgXhXgXgXgXeXeXhXeXtXkXhXgXkXkXhXhXhXhXtXkXlXhXhXhXlXkXkXlXhXlXkXhXkXhXhXhXlXkXlXlXkXhXeXtXtXkXlXkXhXhXgXhXgXeXgXeXhXhXeXhXeXhX=XeXtXeXhXeXeXeXhXtXhXhXkXlXhXhXgXeXkX6XwXhXgXgXgXeXeXeXeXeXeXeXwXwXwXwXwXwXeXeXeXwXeXeXwXeXgXeXeXgXeXeXeXeXwXwXwXeX8X8XwXeXwXwX8XwX8X8X8X2XeX8X6X6X6X9Xq.h.@X|..X@X&X@X.X-X-X.X.X.X.X.X|. X X Xh. Xh..X-X.X@X-X-X.X Xh. X.X.X.X.X.X X X X Xv.h.h.h.u.h.h. X Xh.h.h.h.h.w.w.w.h.h.u.w.w.w.w.w.w.w.w.w.w.w.w.] ] ] ] ] ] ] ] ] ] ] ] ] ",
"}.|.}.|.|.+X&X&X@X@X@X@X-X=X=X&X&X-X-X-X-X-X=X2X6XqX2X6X|.2X6XqX6X6XwXwXwXwXwXeXeXeXwXwXwXeXeXeXeXeXeXeXeXeXrXrXtXkXlXkXtXkXlXlXlXkXlXlXnXnXbXxXxXbXnXnXxXnXnXnXmXnXnXnXnXmXnXnXnXnXnXnXnXnXmXmXmXmXmXMXMXMXZXZXMXMXmXNXNXNXNXNXNXZXZXZXNXMXZXZXNXZXZXZXZXZXZXZXNXZXZXmXkXeXgXgXeXeXhXgXgXhXgXgXhXgXgXkXhXhXhXhXhXhXgXlXhXhXlXkXhXhXhXkXlXkXhXhXhXhXhXhXkXhXhXhXhXeXwXwXeXeXwX8X8X8X8X8X8X8X8X8XeXhXhXhXgXxXhXeXgXgXgXgXeX6XhXhXhXhXhXkXgXeXeXwXkX6XeXgXgXgXeXeXeXeXeXeXeXeXeXwXwXwXeXeXwXeXeXwXwXwXeXeXeXeXwXwXeXeXeXwXwX8XwX8X8XwXwXwX8XwX8X8X8XwXeXeX8X8X6X8X$Xl.CX6X=X8XwXeXeXeXtXMXMXMXnXnXnXxXxXlXkXlXbXlXtXkXkXkXlXlXlXtXhXhXtXkXkXlXxXxXlXlXkXtXtXtXtXeXeXtXhXtXtXtXeXeXeXeXwXeXeXeXeXeXwX8X6X6X6X6X6X6X6X6X6X=X=X-X=X=X-X=X=X=X*X*X*X*X",
"` 1.1.1.1.5.5.5.4.4.9.5.4.4.4.4.7.7.q.q.8.q.q.y.u.y.y.l.7.q.y.y.l.x.x.}.c.|.|.XXXXXXXX|.XXoXXXoX@XoX@XoX@X@XoX@X@X@X$X$X@X$X*X=X=X$X=X=X=X=X=X=X1X1X1X1X1X1X1X1X1X1X1X2X1X6X6X6X1X1X1X1X1X1X1X6X6X6X6X1X6X6X6X6X6X6X6X6X6X6X6X6X6X6X8X8X6X8X8X8X8X8X8X8X9XeX8X8X8X9XeXeXgXgXgXgXeXeXhXgXeXgXgXeXhXgXhXkXgXhXhXeXhXhXgXkXhXgXkXkXhXhXhXhXkXhXhXhXhXhXhXhXhXhXhXeXhXgXB.i.e.y.8.4.4.4.4.4.4.6.;.6.6XhXeXeXgXeXgXgXhXhXgXhXeXeXeXhXhXhXhXgXeXeXeXwXwX&X$XgXgXgXgXgXeXeXgXeXeXeXeXwXwXwXwXeXwXeXeXeXeX8XeXeXeXeXeXwXeXeXeXeXwXeX8XwX8X8XeXwX8XwXwX8X8X8X8X8X8X8X8X1Xq.nX=X) Q ) ) ) W Y x.8X=X1X1X1X1X1X1X1X1X1X%X=X%X%X=X=X=X=X=X=X%X$X$X$X$X$X$X$X$X$X$X@X@X@X@XoX@XoXoXoXXXXXoXXXXX|.|.|.|.|.|.c.c.c.x.x.x.l.l.l.u.y.y.y.y.y.y.y.q.q.q.7.7.7.7.4.",
"5.5.5.7.4.0.0.7.7.0.q.q.q.q.q.7.y.q.u.l.q.y.l.l.v.l.v.|.q.l.}.}.}.|.XXXXoX|.oX@X@X@XXX|.$X$X@X$X*X@X$X$X=X*X$X*X$X*X=X=X=X=X=X2X=X=X1X6X6X6X6X6X6X6X8X8X8X6X6X6X6X8X6X8X6X8XwX8X6X6X6X6X8X8X6XwX8X8XeX8XwXeXeXeXwX8XwXwXeXeX8X8XwXeXeXeXeXwXeXeXeXgXgXgXgXgXeXeXeXeXgXgXgXeXgXgXeXhXhXeXeXgXeXeXhXgXeXgXhXhXgXeXkXhXgXhXkXeXhXhXlXhXhXhXhXhXhXhXhXkXgXhXhXhXeXhXhXhXeXwX8X8X8X8X8X8X8X8X8X8X8X8XgXkXhXeXgXhXhXhXkXhXhXgXeXeXeXeXeXgXgXgXeXeXeXeX2X-X=X=XgXgXgXgXeXeXeXeXeXwXeXeXeXwX8XeX8XeXeXeXwX8XeXeXwXeXeXeXeX8XwXeXeXwXwXwX8X8XeXeXwX8XwX8X8X8X8X8X8X8X6X7.hXeX1.1.4.1.1.1.4.1.x.=X8X8X6X6X2X6X6X2X6X1X2X6X=X1X1X1X2X2X2X1X=X1X1X1X=X=X=X=X1X=X=X=X$X*X*X@X*X@X$X$X$X@X$X@X@X@XoX@X@X@X@XoXXXXX|.|.|.|.|.x.x.}.l.l.x.y.l.v.l.l.l.y.y.y.q.q.",
"1.2.5.4.4.7.5.7.7.7.7.0.q.q.q.q.q.y.u.u.l.7.7.l.l.u.l.}.0.l.}.v.}.|.|.|.oX|.}.oXXX@X@X|.XX$X$X@X$X@X@X@X$X$X@X$X$X*X=X=X=X=X=X1X=X@X=X2X6X6X1X2X2X6X6X6X6X6X6X6X6X8X6X8X8X8X8X8X6X6X6X6X6X6X6X8X6X6X8XwXeXeXwXeX8X6XeXwX8X8X6XwXwXeXeXwXeXeXeXeXeXeXhXgXeXeXeXeXeXeXeXeXeXeXeXgXwXhXhXgXeXeXgXeXgXhXgXgXhXgXgXeXgXgXgXeXgXgXgXgXhXhXgXgXhXhXgXhXhXhXhXhXhXhXhXhXtXhXbXmXnXnXmXmXMXmXmXmXmXmXmXnXlXeXhXhXgXhXlXgXhXhXeXeXeXeXeXeXeXgXgXeXeXeXeXgX=X.XkX+X8XhXeXeXeXeXeXeXeXeXeXwXwXwX8XwX6XeXeXwXeXeXeXeXeXeXeXeXeX8X8XwX8X8XwXwXwXwXeXwX8X8X8X8X8X8X8X8X6X8Xy.6XkX7.1.4.5.4.1.7.x.c.c.1X6X6X6X1X1X1X1X1X1X1X1X6X$X$X1X*X=X=X=X=X=X1X1X=X*X=X1X=X=X=X=X=X$X$X$X@X$X@X@X@X$X@X$X$X@XoX|.|.+X+XoX|.|.|.|.}.|.|.|.x.l.x.l.l.l.l.l.l.l.y.y.q.q.q.0.7.",
"` 5.4.4.7.5.7.7.7.q.0.7.q.q.q.q.q.u.l.l.l.0.q.l.u.x.}.|.0.l.}.x.x.|.|.|.oX+X|.|.XX@X@XXXc.@XXX@X*X$X@X@X@X@X$X$X@X*X=X=X=X=X=X=X=X=X2X=X=X1X1X6X6X1X6X8X6X6X6X6X6X6X8XwX8X8XwX8X8X6X6X6X8XwX8X6X6XwX8XeXwXeXeXwX8X6X6X8X8X8XwXwX8XwXwXeXwXwXeXeXeXeXeXeXhXeXeXeXeXeXeXeXeXeXeXeXeXeXeXeXeXeXeXgXhXhXgXgXgXgXgXeXeXeXeXgXeXgXeXgXhXgXgXhXhXgXkXhXhXkXhXhXlXkXkXlXkXeXXXc.z.x.z.x.x.c.c.c.x.x.x.c.eXtXhXeXeXhXhXgXhXeXhXeXeXeXeXeXeXgXeXeXeXeXeXeXeXlXeXeX|.gXeXeXeXeXeXeXeXeXeXwXwXwX8XwX6X6XeXeXeXwXwXwXeXgXeXeXeXeX8XeXeXwXwXwXwX8XwX8X8X8XwXwX8X6X8X6X8XXXXXNXy.1.4.4.4.4.1.4.c.$X=X6X6X1X=X=X1X1X%X$X=X1X1XoXXX}.1X6X6X=X=X1X=X=X=X=X$X=X2X=X=X=X=X$X$X$X$X$X$X@X@X@X@X$X@X@XoX+XoX@X|.oXoXoXXX|.|.|.|.|.x.x.x.x.x.x.x.l.l.l.u.u.y.y.q.q.0.0.",
"1.2.4.5.5.5.5.7.7.7.7.0.q.q.q.u.y.q.l.l.q.l.x.l.l.}.x.|.0.u.}.x.}.XXXXXXoX@X+XXX@X@XXXoX@XoXoX$X$X$X@X$X$X$X*X=X=X=X=X=X=X=X=X=X2X=X1X1X=X=X2X6X6X6X6X8X6X6X6X6X8X8X8XwX8X8X8XwX8X6X6X8X8XwX6X6XwXeXwX8XeXwXeXwX6X6X8X8XeXwXeXeX8X8X8XwXwXeXeXeXeXeXeXeXeXeXeXeXwX8X6XeXeXeXeXeXeXhXgXeXeXeXeXwXwXhXgXgXeXgXgXeXhXeXeXeXwX1XeXeXhXhXgXeXhXhXhXhXtXhXgXkXkXkXgXeXhXeX%X$X$X$X$X$X#X$X%X%X%X$X%X1XgXkXhXgXeXgXhXgXeXgXeXeXeXeXeXeXeXeXeXeXeXeXeXwXeXeX6XhX6X@XlXtXtXeXeXtXeXeXwXeXwXwX6XwXeX8XwXeXeX8XeXeXeXeXeXeXeXwX8XwXwXwXwXwXwX8XwXwXwX8X8XwX8X8X6X8X=Xl.ZX$X3.7.7.4.5.7.5.( c.8X1X=X1X=X=X=X=X=X%X%X$X1X1X1X6X=X=X6X6X1X1X1X=X%X*X1X1X1X=X=X=X=X$X$X*X$X$X$X@XoXoX@X@X$X$X@XXX@X@X+XXXoX|.|.XXXX|.|.|.|.|.}.x.x.l.x.l.y.l.x.u.u.y.l.y.y.0.0.",
"` 2.7.5.7.4.5.7.7.0.0.0.q.q.q.u.u.y.u.u.u.u.k.l.l.x.}.|.7.l.x.x.x.|.XXXXXXXXXXXXXX@X+X@X@X@X@X$X$X@X$X$X$X$X$X$X=X=X=X=X=X=X=X=X=X=X1X1X2X6X=X1X6X6X6X8X6X6X6X8X6X8X8X8X8X8X8X8XeX8X8X8X8XwX6X$XeXeXeXwXwXeX1X2X8X6X8X8XeX8XeXeX6X8X8XwX|.=XeXeXeXeXeXgXeXeXeXeXeX8X+X8XeXeXeXeXeXgXgXeXgXeXeX@X@XeXeXeXeXeXeXeXeXeXeXgX6X$XeXgXgXgXgXgXhXgXhXhXeXhXhXgXkXkXgXhXhXhXkXlXlXlXlXlXlXlXlXlXkXkXkXkXgXgXgXgXgXhXeXeXeXeXeXeXeXeXeXeXeXeXhXeXeXeXeXeXwX8XeX8XnXXX6XlXeXeXeXgXeXeXeXeXwX6X6XwXwXwXwXwX8X8XeXeXeXeXeXeXeXeXwXeXeXwXwXwXwXwXwX8X8X8XwXwXwX8X6X6Xq.mX8X3.7.7.7.7.e.x.7.y.8X5X%X2X1X1X1X1X1X1X2X2X2X1X1X1X=X%X%X1X1X2X1X1X1X=X1X1X1X=X=X=X=X=X$X$X$X$X@X@X@XoX@X@X@X@X@X@X@X@XoXXXXXXX|.|.XXXX|.|.|.|.|.c.x.x.l.l.l.y.l.x.y.y.y.y.y.y.q.0.",
"1.4.4.5.5.7.7.5.7.5.0.0.7.q.q.y.y.y.y.l.l.l.l.l.l.x.v.|.7.l.x.x.x.|.|.|.XXXXXXXXXXoXoX@X@X@X@X@X@X@X@X@X$X@X=X=X=X=X=X=X=X=X=X1X=X=X1X1X=X1X1X2X6X1X6X8X6X6X6X8X6X6X8X8X8X8XwXwXwXwXwXwXwXwXwX6X8XeX8XeXwX8X@X@X8X6X8X8X8X8XwXwX8X8X8X6XeXtXwXeXwXeXeXeXeXeXeXeXwXeXkXwXwXeXeXeXeXeXgXeXeXeXeXkXbXgXeXeXeXeXgXeXeXwXeXeXhXxXeXeXgXgXeXeXgXeXeXeXeXhXtXeXhXkXgXhXeXhXtXtXeXeXeXgXeXeXeXeXeXgXeXgXgXgXgXgXeXeXhXgXeXeXeXeXwXeXeXeXeXeXeXeXeXeXeXeXeXwXwXeXeXkX}.hXeXwXeXeXeXeXeXwX8XwX8XwXwX8XwXeXwX8XeXeXeXeXwXeXeXwX8XwXeXwXwXwXwXwX8X6X8XwXwXwXwX8X8Xy.wXkX3.7.9.6.y.k.c.c.k.1X8X1X=XkXnXxXxXkXkXxXlXkXcX8X=X1X=X=X@X=X1X=X=X1X1X1X=X1X=X=X=X=X*X*X*X*X$X$X$X@X@X@X@XoXoX@X@X@XoX@XoXXX|.XX|.XXXX|.|.|.|.|.|.c.c.}.x.x.l.y.x.l.y.u.y.y.q.q.y.7.",
"` 5.5.5.7.5.7.5.5.5.5.7.q.7.q.q.q.y.y.y.u.l.u.l.l.l.x.}.0.l.}.}.}.|.|.XXXXXXXXXXXXoXoXoXXXXX@XoX@X@X@X@X$X$X=X=X=X=X=X=X=X=X1X1X1X=X1X1X=X2X2X6X6X6X6X8X6X1X6X6X6X8XwX8X8X8X8XwXwXwXeXeXwXwXwX8X8XwX8XwX8X6XeX8X6X6X8X8XwXeXwXwX6X8X8X8XwXeXwXeXeXeXeXeXeXeXeXwXeX8XwX8XeXeXeXeXeXeXeXwXeXeXwXhXkXeXeXgXeXeX6X8XeXeXeXeXeXeXeXeXhXhXgXeXgXgXtXeXeXhXeXhXhXhXeXhXeXeXeXlXeXhXeXhXeXeXeXeXeXgXeXgXeXeXgXeXeXeX6XeXgXgXeXeXeXwXeXeXeXeXeXeXeXeX8XwX6XwXwXeXwXxX1X+XhXwXeXeXwXwXwXwXwX8X8X8XwX8XwXwX8X8XeXeXeXeXwXwXwX8X8XwXwXwX8X8XwX8X8XwXwXwX8X8X6XwXXX+XkX1.7.8.7.6.+X+X|.|.=X8X1X6X6X6X1X=X1X1X1X2X1X1X1X@X=X1X=X$X=X=X=X=X%X=X=X=X=X=X*X=X=X*X$X$X*X$X=X$X$X$X@X@X@X@XoX@X@X@XoX@XXX|.XXXX|.XXXXXXXX|.x.x.|.|.c.c.x.x.l.l.l.l.u.u.u.u.q.q.q.2.",
"` 1.5.5.5.4.7.5.7.4.7.7.0.q.q.y.q.y.y.y.u.y.q.l.l.l.x.}.q.l.|.x.}.|.|.XXXXXXXXXXXXXX@XoXXX+X@X+X@X@X$X$X$X$X$X*X=X*X=X=X=X=X1X1X1X=X1X2X2X6X6X6X6X6X6X8X6X6X6X6X6X8X8X8X8XwXwXeXwXwXwXwXwXwXwXwXwXeXwXwX8X8X=X2X6X6X8X8X8X8XwXeX8X8X8X8X6X8XeXeXeXeXgXeXeXeXwX8XeX6X2XwXwXeXwXwXeXeXeXeXeXgXeX=X2XeXeXeXeXeXwX8XeXeXeXeXwX=XeXeXhXkXeXeXhXtXtXtXeXeXeXeXgXeXgXhXhX1Xx.eXeXeXgXeXeXeXgXgXeXeXeXeXeXeXeXeXeX6Xk.8XhXeXeXeXwXeXeXeXeXeXgXeXeXeXeXeXx.@XeXeXeXwXcX}.=XtXwXeXwXeXwXwXwXwX8X8X8X8X8XwXwX8XwXeXeXwXwXeXeXwX8X8XwX8X8XwX8XwX8X8X8XwX6X8XwX=X}.kX1.1.7.y.9.7.XX%XXX=X8X1X1X6X6X$X1X1X1X1X1X6X1X5X=XXX=X=X=X@X=X1X=X=X=X=X=X=X=X=X=X=X=X=X*X*X*X$X*X$X$X$X@X@X@X@XoXXXoX@XoX@XXXXXoXXX|.XXXXXX|.|.|.|.c.c.}.x.x.x.l.y.l.x.u.u.y.y.q.y.0.1.",
"` ` 1.2.1.4.7.5.7.5.7.0.7.q.q.q.q.y.y.q.q.u.u.y.l.x.x.}.7.l.|.x.|.|.|.|.XXXX|.XXXXXXoX+X+X+X+X@X+X@X@X$X$X=X=X=X=X=X=X=X=X=X=X1X=X=X=X2X2X2X6X6X6X6X8XwX8X6X6X6X6X8X6X6X8XwXwXeX8X8XwXwXwXwXeXeXwXeXeXeXeXeXl.$XwX6X8X8X8X8X8X6X8X8X8XeX&X8XeXeXwXeXgXeXeXeXeXwXeX=XXXeXwXeXwXeX8XeXeXeXeXgXeX@X6XgXeXeXeXeXkXhXhXeXeXgX=X@XgXeXhXkXhXeXhXeXeXeXeXeXeXeXgXgXeXgXgXeXgXeXeXhXtXeXeXeXtXhXeXeXeXeXeXeXeXgXeXhXcXgXeXeXgXgXeXeXeXwXeXeXeXwXeXeXeXwXxXlXwXeXeXeXeXkXy.*X6X2X=X=X=X1X1X=X=X=X=X=X=X=X1X1X1X=X=X1X=X=X1X=X=X=X=X=X=X=X=X1X1X=X1X=X=X=X@Xl.xXy.~ 4.e.y.6.e.1X1X%X8X8X6X6X6X8X$X%X1X1X1X2X6X1X6XXX$X1X1X1X$X=X1X1X=X=X=X=X=X=X%X=X*X1X=X=X=X=X*X$X$X@X@X@X@X@XoXoXXXXXXXXX@XoXXXXXoXXXXX|.XX|.|.|.c.c.c.x.c.x.x.l.l.x.l.l.y.u.y.q.y.5.2.",
"1.1.2.5.5.7.7.7.7.7.7.7.7.7.q.q.q.q.y.y.y.l.y.l.l.x.x.|.7.l.|.}.|.|.|.|.|.XX|.|.+XXXXXoXoXoXXX@X@X@X@X$X$X$X=X=X=X=X=X=X=X=X=X1X1X=X=X1X6X1X6X6X6X8X8XwXwX6X6X6X5X8XwXwXeXwXeXeXeXeX8XeXeXeXeXeXwXeXeXeXeXeXkXgX6X6X8X8X8X8XwXwX8XwXwXwXwXeXeXwXeXeXeXeXeXeXeXwXeXgXkXwXwXwXwXeXwXeXwXeXeXgXgXcXlXeXeXeXgXeXgXeXwXeXeXeXeXbXeXgXgXhXhXgXgXhXgXgXeXhXeXeXgXeXgXhXgXkXxXgXhXhXtXtXhXeXeXeXeXgXeXhXgXeXgXgXeXgXcXgXgXeXgXgXeXeXeXeXeXgXeXwXeXeXeXeXhXeXeXeXeXgXeXtXnX Xq.l.l.l.u.q.q.q.u.u.q.q.q.u.u.u.q.0.q.q.q.0.5.5.0.0.q.0.5.0.q.u.u.q.q.u.h.u.l.xX%X1./ k.x.y.z.k.+X1X8X8X6X6X6X6X8X6X$X+XXXXXc.XX|.c.@XwX2X1X1X=X=X=X=X2X6X6X6X1X1X1X1X1X1X1X=X=X%X$X$X@X@X$X@XoX@X@XXXXXXXXXXX@XoXXXXXXXoXXXXXXX|.|.x.x.x.|.c.c.x.x.x.l.x.x.l.y.y.y.y.y.7.7.",
"` 1.1.2.4.7.7.7.7.4.7.7.7.7.q.q.7.y.y.y.y.l.l.l.l.l.x.|.7.l.|.}.|.|.|.|.|.|.XXXXXXoX@XXXoXXX@X@XXX@XoX@XXX$X=X=X=X=X=X=X=X=X=X1X2X1X=X1X1X6X6X6X8X6X8XwXwX8X8X8X8XwXwX8X8XeXeXeXeXeXeXeXeXeXwXwXwXeXeXeXeXeX8X8X8X8X8X8X8X8XeXgXeXeXeXeXeXwXwXeXeXeXeXeXeXeXeXeXeXwXwXeXeXeXeXeXwXeXeXeXeXgXeX9XeXgXeXeXeXeXgXeXeXwXeXeXeXwXgXgXgXgXgXgXgXhXhXeXeXgXeXgXgXgXgXgXgXgXeXgXgXhXhXeXgXeXeXeXgXgXeXhXeXeXgXeXeXeXeXgXgXeXgXeXeXeXgXgXeXeXeXeXeXeXeXeXeXeXeXgXgXgXeXwXeXnXmXMXZXZXZXmXmXMXMXZXMXbXnXMXMXNXnXnXmXMXMXMXbXbXmXmXmXnXbXmXMXZXZXMXmXMXNXMXZXgXC.OXXXoXOXOX$XXXc.1X8X8X6X6X6X8X6X8XwXeXeXwX8X8X6X6X8X6X1X1X1X=X1X1X2Xx.7.q.0.7.7.7.5.k.1X=X=X*X$X$X$X@X$X@X@X@X@X@X@X@XoXXXXX@XXXXXXXXXXXXXXXXX|.|.}.x.l.|.|.x.l.y.y.x.x.x.l.y.y.y.y.y.q.0.",
"` 1.1.4.5.4.7.7.7.7.7.q.7.0.q.q.q.q.y.y.y.l.l.l.l.x.x.|.7.x.|.|.}.|.|.|.|.|.|.|.|.|.oXoXXXXX@X@X@X@X@X$X@X=X=X=X=X=X=X=X=X=X=X=X=X1X1X2X1X2X6X6X6X=X6XwXwX8X8X8X8X8XwX8X8XeXeXeXeXeXeXwXwXwXwXwX8XeXwXwXeXeXwXwX9X8X8X8X8XeX1X$X=X=X=X=X$X=X=X1X8XeXeXeXeXeXwXeXeXwXeXeX8XeXeXwX8XeXwXeXeXeXgXeXeXeXeXgXgXeXeXgXeX8XeXgXeXeXgXgXhXgXeXeXeXeXeXeXeXeXeXeXgXeXgXgXeXkXkXgXhXhXeXeXgXgXhXgXeXeXeXhXgXeXgXeXeXeXeXgXgXeXeXeXeXeXeXeXeXeXeXeXwXeXeXwXeXeXeXeXeXeXeXeXwX8X8XwXeXwXwX8XwXwXwXwX8X8XwXwXeXeXwXwXwXwXwX8X8X8XwX8XwXwXwXwXeXeX8X8X8X8X8X8X8X8X8X8X6X6X5X6X6X6X8X6X6X6XwX8X6X6X6X1X1X6X2X1X1X1X=X1X=X1X=X6X6X=X=X1X6X' d H J J J J H T =X=X=X%X$X$X@X@X@X@X@X@X@X@X@X@XXXXXXX@XXXXX@XXXXXXXXX|.|.|.}.x.|.|.x.x.x.l.y.x.x.l.y.y.y.y.q.q.q.7.",
"` ` 1.4.5.5.0.7.7.7.7.7.7.7.0.y.q.q.u.l.y.l.l.l.x.x.x.|.7.x.XX|.|.|.|.|.|.|.|.XXXX|.oXoXXXXXXX@X@X@X@X$X@X$X=X=X=X=X=X=X=X=X=X1X1X1X=X1X1X2X2X6X6X8X8X6X8X6X6X8X6X8X8X8XwX8XeXwXeXwXwXeXwXwXwXeX8XeXeXwXeXeXeXeXeX8X8X8XeX1Xc.%X+X#X#X+XXXXX+X+Xc.eXeXeXeXeXeXwXeXeXwXeXeXeXeXeXwXeXwXeXeXeXgXeXeXeXgXeXgXeXeXeXwXwXeXeXeXeXeXgXeXgXeXeXeXgXgXeXeXeXeXgXgXeXgXgXgX2XoXgXgXgXgXeXeXeXeXeXeXeX8XgXeXeXgXeXeX2Xc.eXgXgXgXeXeXeXeXeXeXtXeXeXeXgXwXwXXX@XeXeXeXeXwXeXeXeXeXtXtXeXeXeXeXeXeXwXeXeXeXeXeXeXeXeXeXeXeXeXeXwXwXwXwXwXwXeXeXeXwXwXeXwXwXwX8X8X6X6X6X6X6X6X8X8X8X8X6X6X8X6X6X6X6X6X6X6X1X1X1X1X1X1X1X1X2X1X1X1X1X1X=X@X@X&X&X$X*X*X&X+X$X$X*X%X$X$X$X$X@X$X$X@X@X+XoX+XXX@XXX@X@X@XXXXXXXXX|.|.|.|.|.x.|.x.x.x.x.l.x.l.l.l.l.y.q.q.y.q.7.7.",
"` 1.1.4.5.7.0.0.7.5.0.0.7.7.q.q.q.q.q.l.y.l.l.x.x.l.x.c.7.x.XX|.|.|.XX|.|.|.|.XXXXXXXXXX+XoXoX@X@X@X@X$X$X$X=X=X=X=X=X=X=X=X=X=X=X1X=X=X=X6X6X1X6X6X6X8X8X6X6X6X6X8X8X6X6XwXeXwX8X8XwXeXeXeXeXwXwXwXeXeXeXeXeXeXeXeX8X8XeX@XeXcXcXcXcXcXxXcXcXnX$X8XeXwXwXwXeXwXwXwXeXeX9XwXeXeXwXwXeX8XwXeXeXeXeXgXeXeXeXeXeXeX8X8XeXeXeXgXeXeXeXeXeXeXwXeXgXgXeXeXeXeXgXeXgXgXkXwX8XhXgXeXtXeX6XeXeXeXeXeXwXwXeXeXeXeXeXeXgXgXeXgXeXeXeXeXeXeXeXeXeXeXeXgXeXwXwXwXwXeXwXwXwXwX8XeXeXeXeXeXeXwXeXwXeXwXwXeXwXeXeXeXwXeXwXeXeXwXwXeXwXwX8X8XwXwXwXeXwXwXwXwXwXwX8X8X8X6X6X8X8X6X6X6X6X6X6X8X8X6X6X6X6X2X6X6X2X6X2X1X1X1X1X1X1X1X1X=X1X1X1X&X@X@X@X@X@X@X@X@X$X$X=X$X$X$X@X@X$X$X$X@X@X@XoX@X@XoXXX@X@XoXoXXXoXXX|.|.|.|.x.c.|.x.x.x.x.l.l.l.x.l.0.y.u.y.q.q.q.7.",
"` 2.1.2.4.7.7.7.4.7.7.7.7.7.7.9.8.q.q.y.y.l.l.l.x.x.x.|.7.x.|.|.|.XX|.XX|.|.|.XXXXXXXXXX@XoX@X@X@X$X$X$X$X=X=X$X*X=X=X=X=X=X=X=X=X=X=X1X1X=X6X1X6X6X6X8X6X6X8X8X8X8X8X6X6X8XwX8X8X8X8XwXwXeXwXwXwX8XwXeXeXeXeXwXeXeXwX8XeXXX=XxXkXkXkXkXkXkXkXkX+X8XeX8X8XwXwXeX8X8XeXeX8X8XeXeX8XwXeXwXwXeXeX8XeXeXeXeXeXeXeXgXgX8XeXeX1X@XeXwXeXeXeXeXeXeXeXeXeXtXeXeXgXeXgXgXgXnXmXgXeXeXeXeX8XeXeXeXeXwXeXhXeXeXgXeXgXgXgXeXeXeXeXeXeXeXeXeXeXgXgXeXeXeXeXwXhXhXwXeXeXeXgXgX6XeXeXeXeXeXeXeXeXeXeXwXeXeXwXeXeXwXwXwXwXwXwXwXwXwXwXwX8X6XwXwXwXwXeXeXwXwX8X8X8X8X8X6X6X8X8X6X8X1X6X8X6X6X6X6X6X1X6X1X1X6X2X1X2X1X1X1X=X1X=X*X$X*X$X=X2XP * 3 u u 3 i + P =X%X%X$X@X$X@X$X$X@X@X@X@X@XoX@X@X@XXX@XXXXXoXXXoXXX|.|.XXXXx.x.|.|.x.x.x.x.x.l.x.l.7.y.y.y.q.q.y.q.",
"` 1.2.2.5.7.7.7.4.5.5.5.7.7.4.q.7.q.q.y.y.u.l.x.l.x.x.x.7.x.}.x.|.XXXXXX|.XXXXoXXXXXXXoXXXXX@X@X@X$X$X$X$X$X=X*X$X=X=X$X$X%X=X=X=X=X=X=X1X1X=X1X6X6X8X8X8X6XQ R T R R H $X8X8XwX8X8X8XwXwXeXwXwXwXwXwXeXwXeXeXwXeXeXeXwXeX1X8.y.y.y.y.y.y.i.k.y.XXeXeXeXeXeXeXeXwXeXeXeXeXeXeXeXeXeXwXeXwXeXwXwXwXeXeXeXeXeXeXeX8X8XeXeX8X=X6XwXwXeXeXeXwXeXeXeXeXeXeXgXeXgXeXgXgXeXeXeXeXeXtXeXwXeXeXeXeXwXeXhXeXeXeXeXgXgXeXeXeXeXwXeXeXeXeXeXeXeXeXeXeXeXeXeXeXwXeXeXeXeXeXeXwXeXeXeXhXeXhXwX^ ^ ^ / Q 0.eXwXeXwXwXwXeXeXwXwXwXeXwXeXwXwXwXeXeXeXwXwXwX8X8X8XwXwX8X8X6X8X8X8X8X6X6X6X8X8X6X6X6X6X6X6X6X6X1X1X1X1X1X1X1X1X=X=X*X=X*X=X=X X.X.X X}. X.X X X=X$X$X$X$X$X$X@X$X@X@X@X@X@XoX@X@X@XXX@XoXoXoXXXoXXXXXXXXX|.|.|.|.}.x.x.x.x.l.l.l.l.u.y.y.y.q.y.q.q.",
"` 2.5.4.5.7.7.7.7.4.7.5.7.7.7.7.7.q.y.l.y.y.k.l.l.l.x.|.q.l.|.}.|.XXXX|.|.XXXXXXXXXXXXoXXX+X@X@X@X$X@X=X$X$X$X$X$X$X=X$X=X=X=X=X=X=X=X=X1X1X1X1X6X6X8X8XwXx.R +X@X+X@XU l.eX8X8X8X8XwXwX8XwXwXwX8XwXwXwXeXeXwXwXeXeXeX8XwXeX9X6X8X6X6X8X6X6X6X6X8XwXwXeXwXwXwXeX8X8XeXeXwX8XeXeXeXeXeXeXeXeXeX8X8XeX8XeXeXwX8X9X9XeXeXwXkXkX6X8XwX8X8XeXwXwXeXeXeXeXeXeXgXgXeXeXeXeXeXeXeXeXeXeXeXeXeXeXeX8XwXeXeXeXeXeXeXgXeXeXeXeXwXwXeXeXeXeXeXeXeXeXeXeXeXwXeXeXeXeXeXeXeXgXeXgXeXeXeXeXkX1.H @X@X.Xv.I $XeXwXwXwXeX=X|.eXeXwX8X8XwXwXeXeXeXeXeXwXwX8X8X8X8X1X|.8X8X8X8X8X6X6X6X6X6X6X6X6X6X6X6X6X6X6X1X1X1X1X=X=X1X1X=X=X=X1X=X=X1X=X8XeXwXwXwXwXwXwXwX=X=X=X$X$X=X$XXX@X@X@XoX@X@XoX@X@X@X@X$X@X@XoXXXXXXXXXXXXX|.c.|.}.x.x.c.x.x.l.l.l.l.l.y.y.y.y.y.y.q.",
"` 4.4.5.4.7.7.7.7.5.4.7.7.7.7.7.q.y.y.y.y.y.y.l.l.v.x.|.0.l.|.|.XX|.XXXX|.XXXXoXXXXXXXXXoX@X@X@X@X@X$X$X$X=X$X=X$X$X=X=X*X*X=X=X=X=X=X=X1X1X6X5X5X6X6X6X8X@XnXUXGXGXUXCX6X8X8X8X8X8X8XwXwX8XwX8XwXwXwX8XeXeXwX8XeXeXeXeXeX8X8XeXeXeXeXeXeXeXeX8X8X8XeXwXeXwXwXeXeXwXwXwXwX8XwXwXeXeXeXeXeX8XwX8X8XwXwXeXwX8X8XeXeX9XeXeX8X8X8XwX8X8XwXwXwXeXeX8XeXgXeXeXgXgXeXeXeXeXeXeXeXeXeXeXeXwXwXeXwXwXwXeXeXwXeXeXeXeXwX8XwXeXwXeXeXeXeXeXeXeXeXwXeXwXeXwXwXwXeXeXeXeXeXwXwXeXeXeXeXhXeXl.MXUXUXUXUXGXeXeXwXwXeXeX6X=X6XwXwXwXwX8X8X8XwXeXeXwXwXwX8X8X8X8X8X8X6X8X8X6X8X6X6X6X6X8X6X6X6X6X6X6X6X6X1X1X1X1X=X1X1X1X=X1X=X=X=X=X=X1X=XQ d m G G H H b Q $X$X=X*X$X%X$X@X@X@XoXoX@XoXoX@X@X@XXX@X@XoX@XoXXXXXXXXXXX|.x.x.}.x.x.x.x.l.y.l.l.l.y.u.y.y.y.y.y.q.",
"` 2.1.4.5.4.7.7.7.4.4.5.7.7.5.7.7.q.y.u.u.y.y.l.l.x.x.|.7.x.c.|.|.|.XXXXXXXXXXXXXXXXoXXX|.XX@X@X@X@X@X@X$X=X*X$X$X$X=X=X=X=X=X*X=X=X=X=X1X2X2X1X6X6X8X8X6XeXxXwXeXeXwXtXeX6X8X6X8X8X8XwX8XwXwX8X8XwXwXwXeXeXeXeXeXeXkXeXeX8X8X9XeXeXwXeXwX8XwX8X8X8XwXwXwXwX8XwXwX8X8XwX8X8XeXwXeXeXeXeXeXwXwX8X8XeXwXwX8X8X6X8X9X8XeXwX8X8X8XeXwX8XwXwXeXeXeXeXeXeXeXgXgXeXeXgXeXeXeXeXwX@XtXeXeXwXeXwXwXwXwXeXeXwXeXeXeXgX8X6XwXwXwXeXeXeXeXeXwXeXeXeXeXeXwXwXeXeXwXeXeXeXeXeXwXeXwXeXeXeXeXmXnXeXhXgXgXlXgXeXwXwXeXeXgXlXwX8XwXwXwX8X8X8X8X8XwX8X8XwX8X8X8X6X8XeX8X8X8X6X6X6X6X6X6X6X6X6X6X1X1X1X2X6X6X2X1X=X=X1X=X=X1X=X=X=X=X=X1X1X=Xq.q.y.l.l.y.q.q.l.*X$X$X*X$X=X$X$X$X@XoXoX@XoX@X@X@XXXXX@XoXXXoXXXXXXXXX|.|.|.}.}.l.l.x.x.x.l.y.y.l.l.u.u.u.y.y.y.y.q.",
"` 1.1.5.5.5.5.5.4.4.2.4.7.7.4.7.7.7.q.y.u.y.y.l.l.l.x.}.7.l.x.|.|.|.XXXXXXXXXXXXXXXXXXXXXXXX@X@X@X@X@X$X*X$X$X$X$X$X=X=X=X=X=X=X=X=X=X=X=X=X2X1X6X6X8X6X6X5X6X8XwX8X8X6X6X8X8X6X8X8X8XwXwX8XwXwXwX8XwXeXeXeXeXeXeXeXeXeXeXeX8XwXeXwXeXeXwXwXwX8X8X8XeXwX8XwXwXeX8XwX5X#X$X%XeXeXeXeXwXeXwXeXwX8X8XwXwXwX8XwX8X8X8X6X8X8XwXwX8XwXwX8X8XwXwXwXeXwXeXeXeXeXeXeXeXgXwXeXeXeXeX=XeXeXeXwXeXwXwXwXwXeXwXwXeXgXeXeXeXeXeXwXwX8XeXeXeXeX8XwXeXeXeXeXwXeXx.|.hXgXeXeXeXgXwXeXeXeXeXeXwX8X8XeXeXeXeXeXeXeXeXeXeXeXwX8XwX8XwX8XwXwX8X8XwXwXwXwX8X8X8X8X8X6X6X6X8X8X8X6X6X6X6X2X2X6X6X6X1X1X2X6X6X2X1X1X1X=X=X=X=X=X=X1X=X=X=X=X=X%X=X6X6X6X6X6X6X1X2X2X$X$X%X$X@X$X$X@X$X$X@XoX@X@X@X@X@X@X@XoX@XoX@XXXXXoXXX|.|.|.|.x.x.x.x.x.l.y.y.l.l.l.u.y.l.y.y.y.y.q.",
"` 2.1.4.4.4.5.7.7.4.4.5.5.7.4.5.4.7.q.q.y.y.u.l.l.l.x.|.7.l.x.x.|.|.XX|.XXXXXXoXXXXXXXXXXX+X@X@X@X$X$X$X=X=X=X*X$X@X=X=X=X=X=X=X=X=X=X=X=X=X1X6X6X6X6X6X6X6X8X8X8X8X8X8X8X6X8X8X8X8X8XwXwX8XwXwXwXeXeXwXwXeXeXwXeXeXeXwXeXwX8XwXeXeXeXeXeXwX8X8X8XwXeX8X8XwXwX8X8XeX1XXX#X>XeXwXwXeXeXeXwX8XwX8XwX8XwXwX8X6X8XwX8X6X2X6X=X$XwX8X8XwXwX8XwXeXeXwXeXeXwXeXeXeXeXeXeXeXeXwXeXeXeXeXeXwXwXeXwX8XwXwXwXwXeXeXeXeXeXwXeXwXwX8XwXeXwXeXwXwXeXeXeXeXeX8X8XeXgXeXeXeXeXeX8XwXeXeXeXeXeXeXwXeXeXeXeXgXeXeXeXeXeXeX8XwXwXwX8XwXwXwXwXeX8XwXwX8X8X8X8X8X8X8X8X8XwX8X8X6X6X=X6X2X1X1X6X6X6X6X6X6X6X6X2X1X1X=X1X1X1X1X6X1X1X1X1X*XOX%X=X=X=X=X1X%X=X=X=X%X%X=X$X@X$X*X$X@X$X$X$X@X@X$X@X@X@X@XoXXX@XXXoX}.|.XXXXXX|.|.|.x.x.x.c.x.l.l.l.l.l.l.u.u.l.y.y.l.y.q.",
"` 4.1.4.4.5.5.4.7.4.4.5.5.7.5.7.7.7.q.q.q.y.y.l.l.l.}.|.7.y.x.x.x.|.|.|.XXXXXXoXXXXXXXXXXXXX@X@X$X$X$X=X$X=X=X%X$X=X=X*X=X=X=X=X=X=X=X=X=X1X1X1X6X6X6X6X6X8X6X6X8X8X8X6X8X8X8X8X8X6X8XwX8X8XwXwXwXeXeXwXwXwXeXwXwXeXeXwX8X8X8XwXeXeXeXeXeXeXwXwXwXwXwXwX8XwX8X8X8XeX1Xc.#X%XeX8XwXeXeXeXwXwXwX6XwX8X8X8X8X6X6X8X6X1X1X6X$XoX8X8X8XwXwXwXwXwXwXwXeXwXwXeXeXeXeXeXeXeXeXwXeXeXeXeXeXeXeXeXwX8XwXwXwXeXeXeXeXeXwX9XwXwXeXwXeXeXwXeX8XeXeXeXeXeXwX8X1XwXwXeXeXeXeXeX8XeXeXeXeXeXwXwXwXwXeXeXeXgXeXeXeXeXeXeX8XeXwXwXwX8X8XwX8X8X8XwX8X8X8X8X8X8X8X8X6X6X8X8X6X6X6X1X6X2X1X6X6X2X6X2X6X6X6X6X1X1X1X1X1X1X1X1X1X1X*X1X1X*X1X1X1X=X*X%X=X=X=X=X=X$X*X=X$X@X$X$X@X@X$X$X@X@X@X@X@X@X@XoXXXoXXX|.XXXXXXXX|.XX|.|.|.x.x.x.x.x.l.l.l.l.l.l.l.y.l.u.y.y.y.q.",
"` 1.5.5.5.2.5.4.5.5.4.7.7.7.7.7.7.q.q.q.q.y.y.y.l.l.l.|.7.l.x.l.x.}.XX|.|.|.XXoXXXXXXXXXXXXXoX@X$X@X$X$X$X$X=X%X$X=X=X$X=X=X=X=X=X=X=X=X=X=X1X=X1X1X6X5X6X8X6X8X8X8X8X6X8X8X8X8X6X6X8X8XwXwXwXwXwXwXwXeXwXwXwXwXwXeXwXeXeXeXeX8XwXeXeXeXeXwX8XwX8XwX8XwXwXwX8X8X8XwX1Xx.z.+XwX8XeXwXwXwX8XwX8X6X8X8X6X8X8X8X6X=X1X1X1X6X8XwXwX8X8XwXwX8XwXwXwXwXwX8XwXwX8XwXwXeXeXeXeXwXeXeXwXeXeXeXeXwXwXwXeXwXgX=X8XgXeXeXeX8X8X8XwX8X8XwXwXwXwXeXeXeXeXwX8X8XtXeX8XeXwXeXeXeXeXeXeXeXeXeXeXwXwXwXeXeXeXeXeXeXeXeXwXwXwXeXwX8XwX8X8X8X8X8X8X8X8X8X8X8X8X8X6X8X1X6X8X6X6X8X6X6X6X6X1X6X1X6X6X6X6X2X6X6X1X1X2X1X1X1X=X1X=X1X*X*X%X%X1X1X1X1X=X=X=X%X*X%X*X*X$X%X$X@X@X$X$X$X@X$X@X@X$X@XoXoX@X@XXXXXXXoXXXXX|.XXXX|.XX|.|.|.x.x.x.l.l.l.l.l.l.l.y.l.l.y.y.l.y.q.",
"1.1.5.4.7.4.5.7.7.5.4.4.7.7.4.7.7.7.q.q.y.y.q.y.y.l.x.}.0.l.}.l.l.x.|.|.XXXXXXXXXXXXXXXXXXXXoX@X@X$X@X@X$X$X=X=X=X$X$X$X=X=X=X=X=X=X=X=X=X=X1X=X1X6X1X6X6X8X6X6X8X6X6X6X6X8X8X6X6X8X8X8X8X8XwXwXwXwXwXwXwXwXeXwXeXwX8X8X6XeX8X8XeXeXwXeXwXwXwX8X8XeX8XwX8XwX8X8X8XwX1Xz.c.XX8X8X8X8X8X8X8X8X8X8X8X6X6X6X6X6X6X6X6X6X5X1X6X6X6X8X8XwX8X8X8X8X8XwXwXwXwX8X6XwXwXwXeXeXeXwXeXwXwXeXeXeXeXwX8X8X8XwXeXtXeXeXeXeX8XwX8X8X8X8X6XwX8X8XwXeXeXeXeXwXwXwXwX6X8XeXeXwXeXeXwX8X8XeXeXeXwXeXwXeXeXeXeXgXeX9XeXeXwXeXwXwXwX8XwXwXwXwX8X8X8X8X8X8X8X8X6X6X8X8X=X6X6X6X6XXXc.x.v.l.l.y.k.y.x.|.2X6X6X6X2X1X1X1X=X1X1X1X1X1X*X*X%X%X=X1X=X1X1X=X=X$X$X$X@X$X@X$X$X%X$X$X$X@X$X$X@X@X@X@XoXoX@X@XXXXXoXXXXXXX@X|.|.|.|.|.|.x.x.x.x.l.l.x.y.y.l.l.y.y.y.y.y.l.y.q.",
"2.2.4.5.5.7.4.4.0.5.7.7.0.0.7.7.7.7.q.q.y.y.y.l.l.5.|.|.0.l.}.l.l.x.x.|.|.|.|.|.|.XXXXXXXXXXoX@X@X@X@X$X$X$X=X=X=X$X$X=X=X=X$X=X=X=X=X=X=X=X=X1X=X1X1X6X6X6X8X8X8X6X6X6X6X6X8X8X8X8X8X8XwX8XeXwX8XwXwXwXeXeXwXwXeXwX8X8X6XeX8X8XwXwXwXwXeXwXwXwXwXwX8X8X8X8X8X8XwXeX1Xx.c.+X8X6X8X8X8X8X8X8X8X6X6X6X6X6X6X8X1X1X6X2X6X6X2X6X2X8X6X8X8X8X8XwX8X8XeXwXwXwX8XeX8XeXeXeXeXwXwXeXwXeXeX8X8X8XwXeXeXeXeXeXeXwXwX8X8X8XwX8XwX6X6X8X8XwX8XwXeXwXwXwX8XwX8X6X6X8XeXwX8X8XwXeXeXeXeXwXeX9XeX8XwXeXeXgXgXeXeX8XwXeX8XwXwXwXwX8X6X8X8X8X8X8X8X8X8X8X8X8X6X6X*X=X6X8X@Xc.gX6X6X5X6X8X8X5X9X5X2X6X6X6X=X=X1X1X=X1X1X1X1X=X=X=X1X%X=X=X=X%X@X%X*X*X*X*X@X@X@X$X$X$X$X$X$X@X$X$X@X@X@X@XoX@X@X@XXXXXXXXXXXXXXX|.|.|.|.|.|.c.x.x.x.x.l.l.l.l.l.l.y.l.y.q.y.y.y.y.",
"2.5.4.4.4.7.5.7.7.0.0.7.7.0.7.7.5.7.7.y.q.y.l.l.y.y.}.x.0.l.l.v.l.x.|.c.|.|.x.|.c.XXXXXXXXXXoX@X@X@X@X@X$X$X=X=X=X=X=X*X$X$X=X=X=X=X=X=X=X=X=X1X1X1X1X6X6X8X6X6X6X6X6X6X6X8X8X8X8X8X8X8X8X8X8X8X8XeXwXwXwXwXwX8XwXwXwXeX8XeXeX8XeXeXwXwXeXeXwXeX8XwXwXwX8X6X8X8XwXeX5Xx.XX@XwX8X8X8X6X6X6X6X8X6X6X8X8X6X6X8X6X1X6X6X2X6X6X8X6X6X8X8X8X8X8XwXwXeXeX8XwXwX8XwXwXeXeX8XeXwXeXeXwXeXwXeX8X8XwXeXeXeXeXeXeXwXwXeX8X8X6X6XeX6X6XwX8X8X8XwX8X6X8XwX8XwX8XwX6X6XwXwX8XwXwXwXwXwXwXeXwXeXeXwXwXeXwXeXeXwX8X8X8XwXwXwXwXwX8X8X8XwX8X8X6X8X8X6X8X8X8X6X6X8X=X@X2X8X@X8XZXkXkXgXeXgXgXkXkX=X=X6X6X2X=X=X1X1X1X1X1X=X=X=X$X$X=X*X*X%X%X%X$X$X*X@X$X@X@X@X$X$X$X@X@X$X$X@X@X@X@X@X@X@XoX@X@X@X@X@XXXXX|.XXXX|.|.|.|.}.|.x.x.x.x.x.l.x.l.l.l.l.k.y.y.y.u.l.y.q.",
"2.2.4.4.5.7.4.7.7.5.4.7.0.0.7.5.7.0.q.q.q.y.x.l.y.l.l.x.7.y.x.l.x.x.|.x.|.|.x.|.|.XXXXXXXXXX@X$X@X$X@X@X*X$X*X=X=X=X=X=X=X=X=X*X=X=X=X=X=X1X=X1X1X1X6X6X6X6X6X6X2X6X6X6X6X8X8X8X8X8X8X8XwXwX8XwXwX8X8X8X8X8XwX8XwXwX8XeX8XeXeXeXeXeXeXeXeXeX8XeXwXwXwXwX8X8X8X8X8X8X8X1X1X6XwX8X8X8X8X8X6X8X8X6X6X6X8X6X6X6X6X6X2X1X6X8X$X@X8X6X8X8X8X8X8XwXwXwXwXeXwXwXwXeXwXwXwXwXeXeXeXeX8XeXeX8X8X8X8XeXwXeXwXeXeXwXwXwX8X9X6X8XeX8X6X8X8X6X8XeXwXwXeXeXwX8X8XwXwXeXwXwX8XwXwX8X8XeXwX8XwX8XwXwXwX8X8XeXeXwXwXwX8XwX8XwX8X8X8X8X8X8X6X8X8X8X8X8X6X6X8X6X8X8X1X6X8X8X+Xl.gX5X=X=X&X&X=X=X=Xz.$X6X1X1X1X1X1X1X1X1X1X=X=X=X$X$X=X*X=X%X%X=X$X$X*X@X$X=X$X$X$X$X$X@X@X*X$X@X$X@X@X$X@XoXXX@X@X@X@X@XXXXX|.|.|.|.|.x.|.|.x.x.x.x.x.x.x.x.l.l.l.y.u.y.y.y.y.y.y.8.",
"2.4.4.5.7.7.5.5.4.4.5.5.5.7.7.7.7.7.q.q.q.y.l.x.l.l.l.x.7.y.x.y.l.x.x.x.x.c.|.c.|.XXXXXXXXXX@X@X@X$X$X$X$X$X$X$X*X=X=X=X*X=X=X=X=X=X=X=X=X=X1X1X1X1X1X6X6X6X6X6X6X6X6X6X6X8X8XwX8X8X8X8X8X8X8XwX8XwX8XwXwXwXwX8XwXwX8X8X8X8XeXwX9XeXeXeXeXeXeXeXwXeXwXwXwX8X8X8X8X8X8XeXwXwX8X8X8X8X8X8X6X8X8X6X6X8X8X6X6X6X6X6X6X6X6X8X6X8X6X8X8X8X8X8XwXwX8XwXwXeXwX8X8XwXwXwXeXeXeXwXeXwXwXeXeXwX8X8X8XeXwX8XeXeXeX8X8X8X8X8X8X8XeX8X8X8X8X8X8XwXwX8XwX8X8X8XwXwXwXwXwXwX8X8X8XwXwXwX8X8XwXwXwX8X8XwXwXeXwX8XeX8XwXwX8XwXwX8X8X6X6X8X6X8X6X8X8X8X6X6X6X6X6X8X1X6X8X8X&Xy.XXz.x.z.x.z.c.B.y.%XeX2X6X1X1X1X1X1X=X1X1X=X=X*X*X%X1X*X*X%X*X=X$X$X%X$X$X*X$X$X$X$X$X$X@X$X@XXX$X$X$X$X$X@XXXXXoXXXoXXXXXXXXXXXXX|.|.|.c.l.x.x.x.x.l.x.x.x.l.l.l.l.u.u.y.y.y.y.y.q.",
"4.4.4.4.7.7.5.5.5.4.5.5.5.7.7.7.7.7.7.7.q.y.y.l.u.l.l.l.7.y.l.l.y.l.x.l.v.x.x.x.x.|.XX|.|.XXoXoX@X@X$X$X$X$X$X$X$X$X*X=X=X=X=X=X=X$X=X=X=X=X=X1X1X1X5X6X6X6X6XXXl.=X8X6X6X8X8X8X8X8X8X8X8X8X8X8X8X8X8X8XwXwXwX8XwXwX6X8X6X8X8X8XeXeXeXwXeXeXeXeX8XwXeX8X8X8XwX8XwXeX8X8X8X8X8X8X6X8X6X6X6X6X8X6X6X6X6X5X1X6X6X6X6X6X6X6XwXeX6XwX8X8X8X8XwX8X8XeXeXwXwXeXwXwXwXwXwX8X8XeXeXwXeXwXwXwXwX8X8XeXwX8X8XwXwX8X8X8X8X8X8X8XwX8X6X8X8X8X8XwXwX8XwX8X8XeX|.v.wXwXwX8XwXeX8X8XwXwX8X8XwX8XwXwXwXwX8XeXwXwXeXwX6X8X8XwXwX8X8X8XwXwX6X6X8X8XwX8X6X8X6X6X6X6X6X1X6X6XwXkX6X6X8X6X6X8X6X6X6X8X6X1X=X1X1X=X=X=X1X1X1X=X*X=X=X$X*X=X=X$X*X=X%X=X=X$X@X$X@X$X$X$X%X%X$X*X$XXX@X@X@X$X@X@XoX@X@XXXoXXXXXXX|.XX|.|.|.|.c.c.l.x.x.x.l.l.x.x.l.l.l.y.y.y.y.y.y.y.y.q.",
"4.4.4.5.7.7.5.5.5.5.5.5.7.7.7.5.7.0.0.q.q.y.l.y.y.y.l.v.5.q.y.y.l.l.x.l.v.x.l.c.v.}.|.x.c.XXoX+X@X@X@X@X$X$X$X*X$X$X$X$X=X=X*X=X=XXX$X=X=X=X=X=X=X=X1X5X1X6X5XXXc.@XwX6X6X8X8X8X8X6X6X6X6X8X8X8X8X8X8X8XwXwXwXwXwXwX6X8X8XwX8X8XeXeXwXeXeXeXeXwX8X8XwX8X8X8X8X8XwX8XwX8XwX8X8X8X6X6X6X6X6X6X6X6X6X6X6X6X1X6X6X6X6X6X6X6X6X6X8XwX8X8XwX8XwX8X8XwXeXwXwXeXeXwX8X8X8X8X8XeXeX8XeXwXwXwXwX8X8XwX8X8X8XwXwXwX8X8X8X8X8X8X8X8X6X8X8X8X8XwXeXwXwX8XwX8XwXeX6X8X8X8XwXeXwX8XwXwX8X8X8X8X8XwX8XwXwXwXwX8XeX8X8XwX8XwX8X8X8X8XwX8X8X6X8X8XwX6X6X8X8X6X8X8X6X6X6X6X8XwXwX8X6X6X6X8X6X6X6X1X=X1X=X6X6X=X=X=X1X1X1X1X=X=X=X$X*X=X%X$X=X=X*X=X=X$X@X*X@X@X$X$X%X$X$X$X@X@X@XoXXX$X@X@X@X$X@X@XoXXXXXXXXXXXXX|.XXXX|.|.|.x.l.x.x.l.l.l.l.l.l.y.y.q.q.q.y.y.q.8.",
"1.1.4.7.5.4.5.5.5.5.2.5.5.7.4.7.7.7.0.7.q.y.l.y.l.u.l.l.4.q.l.7.P P P P P P P P T T U T T / XX@X@X+X@X$X$X$X$X$X$X$X*X$X=X=X$X*X1X$X$X$X$X=X=X=X=X=X1X1X6X6X6X1X5X6X6X6X6X8X6X6X8X8X6X6X8X8X8X8X8X8X8X8XwXwXwX8XwXwX6X8XwXeX8X8X8X8X8X8XeXeXeX8XwX8X8X8X8X8X8X8X8X8X8XwX8X8X8X6X6X8X6X6X6X6X6X6X6X6X6X6X6X6X6X1X1X6X6X8X8X8X8XwX8X8X8X8X8X8X8XwXeXwXwX8XwXwXwXwX8X8X8XwXwXwXwXwX8X8X8X8X8XwXwX8X8XwXwX8X8X8X8X8XwX8X8X8X8X8XwX8X8X8XeXeXwXeXwX8XeXeX6X6X8XwXwXwX8X8X8X8X8X6X8XwXwXwXwX8X8X8XwXwXwX8X8X8X8X8X8X8X8X8X6X6X8X8X6X8XwX8X6X6X6X8X6X6X8X6X8X8X8X6X1X6X6X6X6X6X6X1X1X1X=X=X1X1X1X=X=X=X=X1X%X1X=X1X=X*X*X*X*X$X%X=X$X$X$X$X$X@X@X@X@X@X$X@X$X$X@X$X@XoX$X$X$X@XoXoX@XXXoXXXXXXXXXXXXXXXXX|.|.x.x.x.l.x.x.l.l.l.l.l.y.u.u.y.q.7.y.q.7.7.",
"` 1.4.5.5.7.5.4.5.5.4.5.4.5.4.7.7.7.7.0.q.q.y.l.l.l.y.l.4.q.l.y.~ ) ) / ) ( ( ` 1.1.1.( ` 4.oX@X@X@X@X@X$X$X*X*X=X=X$X$X$X$X*X$X%X%X$X$X=X=X=X=X=X6X1X6X6X6X6X8XeX6X6X6X6X8X6X8X6X8X8X8X8X8X6X6X8X8X8X6X8XeXwXwXwXwX6X8XwXeX8X6X8X8X8X6X8XeXeXeX8X8X8X8X6X8XwX8X8XwXwXwX8X8X6XwX6X6X8X6X6X6X6X6X6X6X6X6X6X6X5X8X8X6X6X6X8X6X8XwXeXwXwXwX8XwXeXwXeXwXwX8X8XwX8X8XwXwX8XeXwXeXeX8X8X8X8X6X6XwX8X8X8XwXwX8X8X8X8X8X8X8X8X8X8X8X8X8X8XeXeXwX8XeXwX8X6X8X6X8XwX8X6X8X8X8X8X8X8X8X8X8XwXwXwX8X8XwXwX8X8X8X6X6X8XwX8X8X8X8Xv.}.8X6X6X8X8X8X6X8X6X8X8X8X8X8X6X6X8X1X|.6X6X6X6X6X6X2X1X6X2X=X=X=X=X%X*X=X=X@Xl.$X=X=X1X=X*X$X*X$X%X=X*X*X*X$X$X$X@Xu.x.$X$X@X@X$X$X$X$X|.oX$X@X@XoX@X@XXXoX|.XXXX}.|.XXXXXX|.c.|.x.x.l.x.x.l.l.l.l.l.u.u.y.y.7.8.q.q.7.4.",
"` 4.5.4.4.5.5.4.5.5.5.5.7.7.4.5.7.q.7.q.q.q.u.l.y.l.l.x.7.q.y.}.>X1X1X2X5X5X5X8X8X9X8X5X8X5X$X@XXX@X@X@X$X$X$X$X$X*X$X$X*X$X$X%X=X*X$X=X=X$X=X*X=X=X1X5X6X6X5X1X1X6X6X8X8X6X6X6X8X6X6X6X6X8X6X8X8X8X8X6X8X8XwX8X8XwX6X8X8X8X8X8XwXwX8X8X8XeXwX8X6X8X8X8X8X8X8X8X8X8X8X8X8X8X6X6X6X6X8X8X6X1X6X6X6X6X5X6X2X6X5X6X6X6X6X8X6X6X8XeXwXwXeX8X8XeXwXwXwXwXeXeX8XwX8X8X8X8X8XeXwX8X8X8X8XeX8X8X6X8X8X8X8X8XwX8X8XwX8X8X8X8X8XeX8X8XwX8X8XwX8X8X8XeX8XwX8X8X6X8X8X8X8X8X8X8X8X8X8X6X6X6X6X8X6XwX8X8X8X8X8X8X8X8XwX8X8X8X6X6XeXtX1X6X6X6X8X6X6X6X6X8X8X6X8X6X6X6X6X8XwX6X6X6X6X6X2X1X1X6X=X1X1X=X1X=X=X*X=X=XtX=X*X*X=X*X*X=X$X%X%X=X=X=X*X$X$X$X@X6X=X@X$X$X@X$X$X@X@X$X@X@X@X@XoX@X@X@XoXXXXXXXXXXXXX|.XXx.x.x.l.x.x.x.x.l.l.l.l.l.y.y.y.q.7.q.q.q.q.7.",
"` 1.5.5.5.7.4.5.5.4.2.1.4.7.7.4.7.0.q.q.q.y.l.k.y.l.l.x.7.q.u.y.q.9.9.9.9.q.q.q.9.q.9.q.q.k.+X@X@X@X$X@X@X@X@X$X$X$X$X$X$X$X$X$X*X=X$X$X$X$X*X$X=X1X1X1X6X6X1X6X6X1X6X8X8X8X6X6X6X6X6X8X8X8X8X6X6X8X8X8X8XwX8X8XwX8X1X8X8X8X8XwX8X8X8X8X8XwXwX8X8X8XwX8X8X8X8X6X6X6X8X8X8X8X8X8X2X6X8X6X6X5X6X6X1X6X6X5X2X6X6X6X2X6X2X6X6X1X8X8X8XwXwX8X8X8X8X8X8XwX8XwX8X8X8X8X8X8X8XwXwXeX8X8X8X8X8X8X1X8X8XwXeXwXwX8X8X8X8X8X8X8X8X8X8X8X8X6XwX8XeXeX8X8X8X8X8X6X6X8X6X8X8X8X8X8X6X8X8X8X8X8X8X6X8X8X8X6X6X8X6X6X8X6X8X8X8X6X6X6X1X1X1X1X6X6X8X8X6X8X6X8X6X6X6X6X6X6X6X1X1X6X6X6X6X1X1X1X=X=X1X=X=X=X=X=X=X*X=X=X%X=X=X=X%X%X*X=X=X=X*X=X%X=X=X$X$X*X$X@X@X$X$X$X$X$X@X@X@X$X@X@X@X@X@XoX@XoXXXXXXXXXXXXXXX|.|.|.c.x.x.x.x.x.x.x.l.l.l.y.y.y.y.q.7.q.q.q.7.5.",
"` 1.1.4.4.5.4.5.2.2.5.1.4.7.2.5.7.0.q.q.q.q.y.y.l.l.y.x.7.q.v.5.G K G m m m Y Y I Y I I U ^ |.XXoX@X@X$X$X@X@X$X$X$X$X$X$X@X$X$X@X@X@X@X*X*X*X$X=X1X6X1X1X1X1X2X6X1X6X8X8X6X6X6X6X6X6X6X8X6X6X6X6X8X8X8X8X8X8X8X8X8X6X6X8X8X8X8X8X8X8X6X8X8X8X8X8X8X8X6X6X6X8X8X8X6X8X8X6X8X6X6X6X6X6X6X2X1X6X1X1X1X6X6X6X6X6X6X2X5X6X8X@XXX6X8X8X8X8X8X8X8X8X8XeX8X8X8X8X8X6X8X8X8X8X8XeX8X8XeX8X8XwX8X6X8X8XwX8X8X8X8X8X8X8X8X8X6X8X8X8X8XwX6X8XeXeXeX8X8X8X8X6X6X6X8X8X6X8X8X8X8X6X8X8X8X8X8X8X8X6X6X6X6X6X6X6X6X6X6X8X8X6X6X6X6X6X1X1X6X6X6X6X1X8X8X6X6X6X8X6X6X2X6X1X6X6X2X2X6X2X2X1X1X=X=X1X=X=X=X=X=X=X=X=X%X1X*X*X*X%X$X$X*X=X=X=X=X%X$X=X$X$X$X@X*X@X@X$X@X@X$X@X@X@X@X@XoXoX@XoX@X@X@XXXXXXXXXXX|.|.|.|.c.c.x.x.x.l.v.x.l.l.l.l.l.y.y.y.q.0.q.q.q.0.4.",
"1.4.5.4.4.4.5.5.4.5.5.4.5.7.5.2.7.7.0.q.q.q.y.y.l.l.l.x.7.q.l.l.}.c.x.c.|.|.XXXXXX+XoXXX@XoXXXXXoX@X@X@X$X$X$X$X$X$X@X$X$X$X@X$X@X$X@X@X$X*X=X=X=X1X1X6X2X1X1X2X2X1X1X8X8X6X6X6X6X6X8X6X6X6X6X6X6X6X8X8X8X8X8X6X6X8X1X6X8X6X6X8X8X8X6X8X8X8X8XwX8X8X8X6X6X6X8X8X8X8X8X8X8X6X6X8X6X6X6X6X6X2X1X6X2X6X1X6X8X6X1X6X6X6X6X6X8XwX1X8XwX8X8X8X8X8X8X8XwX8XwX8X8XwX8X6X6X8X6X6X8X8X8X8X8X8X8XwX6XwX8X8X8X8X8X8X8X8X8X8X6X6X8XwX8X8X8XwX8XeXeX8X8XeX8XeX|.|.6X6X6X6X8X8X8X8X6X8X8X8X6X8XwX8X8X6X6X6X6X6X1X6X6X2X8X6X6X6X6X8X}.oX6X6X2X6X8X6X6X6X8X8X6X6X1X6X2X1X6XXXl.6X2X6X1X2X6X1X=X=X=X1X=X=X=X*X*X$X=X$Xu.$X*X*X$X=X*X$X$X=X=X*X$X*X=X*X$X@X@Xv.|.$X$X$X$X$X$X@X@X@X@XXXXXoXoX@X@XoXXXXXXXXXXX|.|.|.|.c.x.x.x.x.l.l.l.x.l.l.x.l.u.y.y.q.7.0.q.y.0.5.",
"` 2.1.1.5.4.5.5.4.5.5.5.4.4.5.5.7.7.7.q.q.q.l.y.l.l.l.x.7.y.x.x.|.|.|.|.XXXXXXXX|.XX@XXXoXXXXXXXoXXX@X@X@X@X$X$X@X$X$X$X@X$X*X@X@X*X@X*X@X@X=X=X=X=X1X=X@X1X1X1X1X1X6X8X6X6X6X6X=X1X6X6X6X6X6X&X@X6X6X8X8X8X8X8X6X6X=X6X6X8X8X8X6X6X8X@X$X8X8X8X8X8X8X8X8X8X8X6X6X6X8X8X6X6X=Xx.=X6X6X6X6X1X6X2X1X1X1X6X6X6X6X6X6X6X6X1X2X1X1X6X8X6X8X8X6X8XwX8X8X8X8X8X8X8X8X6X8X8X6X8XwX8XwXeXeXwX8X8X6XwXwXwXwXwXwX8X8X8X6X1X8X6X8X8X8X8X8XwX8X8XeX8X8XwX8X8XwXwX1X8X8X6X6X6X6X8X6X6X8X8X6X8X8X6X6X1X6X1X2X6X1X6X6X1X6X6X6X6X6X6X@X-X2X6X6X6X6X2X6X6X6X6X6X6X1X6X2X1X1X*X@X=X2X2X1X1X2X1X1X=X=X=X=X=X*X$X*X%X1X$X|.@X$X$X$X*X$X@X$X=X=X=X$X$X$X@X$X$X@X|.@X@X$X$X$X$X@X@X@X@X@XXXx.XXoXoX@XoXoX|.XXXXXXXX|.|.|.c.|.x.x.x.c.l.l.x.x.x.l.y.y.y.y.y.q.q.q.y.q.0.",
"` ` 1.1.1.5.5.4.5.5.2.2.4.7.4.4.7.7.q.q.q.q.y.y.l.l.l.x.7.l.x.x.l.}.x.x.x.|.x.|.|.XXXX|.XXXXoXXXXXXX@X@X@X@X@X$X@X$X$X@X$X$X@X$X$X$X$X$X@X@X$X=X=X=X1XXXy.*X1X1X1X1X1X6X6X6X6X6X1X5X6X6X6X6X8X|.u.1X6X6X6X6X6X6X8X2X=X8X8X8X8X6X6X6X6X+X.X8X8X6X8X8X8X6X6X6X8X8X8X6X6X8X6X8X$Xx.%X6X6X6X6X6X2X=X1X6X1X1X6X6X6X6X6X6X1X1X2X6X6X8X8X6X6X6X6X6X8X6X8XwX8X8X6X8X8X6X8X6X6X8XwX8X8X8X8XwX8X8X6X8XeXwXwXwX8XwXwX8X8X6X6X6X8X8X8X8X6X8X8X8X8X8X8XwX8X6X6X1X6X6X6X6X6X6X6X6X6X6X6X6X6X8X8X6X1X1X6X2X1X1X2X6X6X1X1X1X6X6X6X6XeX8X1X6X6X6X6X1X6X6X1X=X=X1X6X6X1X2X1X8XgX1X=X1X=X=X1X%X*X=X=X=X=X=X=X$X$X*X$X=X2X=X$X$X@X$X@Xu.$X%X=X=X$X$X@X@X$X@X@X8X*X@X$X$X@X@X@X@X@X@XoXXXXX@XoXoXoXoXXXXX|.XXXXXXc.|.|.c.x.x.x.x.x.x.x.x.x.u.l.l.y.y.y.y.q.q.y.q.y.q.",
"` 1.1.1.` 1.5.1.4.5.1.2.4.5.7.4.7.7.0.q.q.y.y.y.y.l.y.x.7.l.x.l.v.}.l.}.x.x.|.|.|.XXXXXXXXXXoXXXXXXXoX@X@X@X@X$X@X$X$X$X$X$X@X$X@X$X$X@X@X@X=X*X&X$X=X6XeX*X=X1X1X1X1X1X6X6X6X6X5X5X6X6X8X6X5XeXxX=X1X6X6X6X6X6X6X6X6X8X8X6X6X6X8X8X6XxXMX5X6X6X8X8X8X8X6X6X8X6X8X8X8X8X8X6XwXkX8X1X6X6X6X1X6X5X1X6X6X1X2X2X2X5X2X2X6X6X6X6X6X8X6X5X6X6X6X6X8X6X8X8X8X8X8X8X8X8X6X8XeX6X8XwX8X8X8XwX8X8X6X6XeX8XwXwX6X8X8X8X8X8X6X6X6X8X8X8X6X8X8X8X8X8X6X8X8X8X1X1X6X6X6X6X6X1X6X6X6X6X6X6X6X6X6X6X2X1X1X1X=X1X=X1X6X1X6X6X6X6X6X1X2X2X6X6X6X6X6X=X6X6X1X2X6X=X1X1X1X1X1X*X$X1X=X=X=X=X=X=X=X*X=X=X*X$X*X$X$X$X$X$X@X$X$X@X@X@X@X$X=X$X%X$X$X@X$X+X@X@X@XoX@X$X$X$X$X@X@X@X@XoXoXXX@XXXXXXXoXoXXXXX|.XXXX|.|.|.c.c.c.x.x.x.x.x.l.x.l.y.y.l.y.y.l.y.y.y.q.y.q.q.",
"' ` 2.1.1.2.5.4.5.5.2.1.4.7.5.7.7.7.7.q.q.q.y.y.y.y.y.l.7.l.x.x.x.v.l.x.v.v.}.|.|.|.XX|.XXXXXXoXoXXX@X@X@X@X@X$X@X$X$X$X@X@X$X$X@X$X@X@X@X@X$X$X$X$X$X=X$X=X=X1X1X1X1X1X1X1X6X1X1X5X6X6X6X6X6X1X=X1X8X6X6X8X6X6X6X6X8X6X6X6X6X6X6X6X8X6X6X8X8X8X8X8X8X6X6X6X6X6X8X8X8X8X6X6X6X1X1X6X8X6X6X1X6X5X1X1X6X6X1X1X1X1X1X1X2X6X6X6X6X6X6X6X8X6X6X6X8X6X8X8X8X8X8X8X8X6X8X8X6X8X8X8X8X8X8X8X8X8X6X8X8X8X8X8X8X8X8X8X8X8X8X8X8X6X8X8X8X6X6X6X6X6X6X6X6X6X6X6X6X6X6X8X8X6X8X8X6X6X8X6X8X8X6X8X6X6X6X5X5X6X6X2X6X6X6X6X6X6X6X6X6X6X6X6X6X8X8X6X6X6X6X6X6X2X2X2X2X2X6X2X2X2X1X1X1X1X1X=X=X=X=X=X1X=X=X=X*X=X%X%X=X=X=X$X$X$X$X=X=X=X$X*X$X@X@X@X@X@X@X@X@X$X@X$X@X@X@X@X@X@X@X@X@XoX@X@XXXXXXX|.XXXX|.|.|.c.x.x.x.x.x.x.x.l.l.l.l.u.y.l.y.y.y.y.y.y.q.q.q.0.",
"` 1.` 1.1.1.5.4.4.5.1.2.5.5.5.5.7.7.7.0.q.q.y.y.y.y.y.x.4.u.x.x.v.v.v.x.l.x.x.|.c.XXXX|.|.XX|.oXoXoX@X@X@X@X$X@X@X@X$X$X@X@X@X@X@X@X$X@X$X$X$X$X@XXX@X$X$X*X=X1X1X1X1X=X1X1X6X5X1X1X1X6X6X6X6X6X8X6X@X6X6X8X6X6X6X6X2X1X8X6X6X8X6X6X8XwX8X8X6X6X6X6X6X8X6X6X6X6X8X6X6X8X8X6X6X6X6X6X8X6X6X6X1X1X1X1X6X2X1X1X1X1X1X=X=X5X2X5X6X8X6X6X6X6X6X6X8X6X6X6X8X8X8X8X8X8X8X8X6X6X8XwX8XwX8X6X8X8X6X6XwX8X8X8X8XwXwX8X6X8X8X8X6XeX=Xu.u.u.q.u.q.q.u.l.l. X7.5.5.` ] ] ] ] ] ] ` ` ] ] ` ` ` ` ` ` ' ' ' ' ' ' ' ' ' ' ' ' ` ` ] q.q.5.5.5.5.5.5.5.5.5.q.q.q.0.7.7.7.7.5.5.2.5.5.5.7.5.5.5.5.5.7.5.5.5.5.5.5.5.7.5.5.2.2.5.5.7.0.l.$X*X@X$X@X@XoXoX@XXX@X$X@X@X@X@X@X@X@X@X@X@XoX@X@XXXXXXXXX|.|.|.|.|.c.x.x.x.x.l.x.l.l.l.l.l.l.l.y.y.y.u.l.y.q.y.q.q.y.q.",
"' ` ` ` 1.1.5.4.5.5.5.` 5.4.5.7.7.5.7.7.q.y.y.y.l.k.y.x.7.u.@X=X@X=X@X=X=X=X*X|.|.|.|.|.|.|.|.XXXXXX@X$X@X@X@X@X@X@X$X$X@X$X@X@X@X@X@X$X$X$X$X=Xl.v.=X$X@X+X$X1X1X1X1X1X1X1X6X6X6X6X6X6X6X6X6X8X6X6X@X6X6X6X6X6X6X6X6X1X6X6X6X6X6X8X1X@X8X8X6X6X6X8X6X6X5X6X6X6X8X6X=X6X8X6X6X6X6X8X8X6X6X6X1X1X1X1X6X1X1X%X%X1X1X1X1X5X6X8X6X8X6X6X6X5X6X6X6X6X6X6X8X8X6X6X8X8X8X8X8X6X8XwX8X8X8X8X8X8X6X8XwX8X8X8X8X8X8X8X8X8X8X8XeXXXv.bXbXbXnXmXmXmXMXMXZXZX5.^ 1.` ` ' ( ` ` ` 1.` ` 1.` ` ` ` 1.1.1.1.' ( ` ` ` / / ^ ^ ^ / / I rXGXnXnXnXnXbXbXnXMX-XtXlXlXtXbXbXbXtXyXtXtXtXtXtXtXtXtXtXtXtXtXtXrXrXrXeXrXrXrXrXeXwXwXwXwX6X6X.Xy.=X@X$X@X+X@Xy.' x.@XoX@X@X@X@X@X@X@X$X@X@X@X@XoXoXXXXXXXXX|.|.XX|.c.x.y.k.l.l.x.l.l.l.x.x.l.l.l.l.y.l.y.y.y.y.q.y.y.q.",
"' ` ` ` 2.2.1.4.7.9.5.4.4.4.7.4.5.7.7.7.q.y.u.y.y.l.y.}.7.q.$X1X=X=X=X=X1X=X8X@Xc.|.|.|.c.|.XXXXXXXX@X@X@X@X@X@X$X@X@X$X$X@X@X@X@X@X@X$X$X$X$X$X5X8X=X=X=X+XoX1X%X1X1X=X=X1X5X1X6X6X6X6X5X6X6X8X6X6X6X5X=X6X1X6X6X6X6X1X6X=X=X8X6X8X2X*X8X6X6X6X6X6X6X6X6X6X8X6X6X6X1X6X6X6X6X6X6X8X8X6X6X6X6X6X1X1X1X2X1X%X%X=X1X2X2X8X$XXX6X6X6X6X6X6X6X6X6X6X6X6X8X8X8X8X8X6X6XwX8X8X8X8X8XwX8X8X8X8X8X8X8XeXeX8X8X8XwXwX8X8XeX6Xy.@XmXgX8X8XwXwXeXeXwX8X8X6Xk.e.e.e.i.y.e.y.e.i.y.e.i.e.e.e.e.y.y.y.i.e.e.y.i.y.y.e.e.y.e.8.e.i.1.6XgXeXeXeXeXeXeX8XwX@X6X8X8X8X8X8XwXwX8XwXeX9X8X8X8X6X8X8X8X8X8X8X6X6X6X6X6X6X6X6X6X1X1X1X=X=X=X8Xy. X$X@X@X|.B.oX1X$X@XoXoX@X@X@X@X@X@X@X@X@X@X$X@X@XoXoXoXT q.XX|.|.c.x.x.l.x.x.l.l.l.l.l.l.l.l.l.l.y.l.l.l.y.y.q.q.q.0.",
"` ` ` ` 2.` 5.5.4.4.4.7.4.7.4.5.4.7.4.5.q.q.u.l.y.l.l.|.7.q.@X=X=X=X1X6X5X6X1Xy.x.XXXXXXXX|.q.XXXXXX@X@X@X@X@X@X@X@X@X$X@X+X@X$X@X@X$X$X$X$X$X=X=X=X=X=X=X%X1X1X%X1X=X=X=X1X1X1X1X1X6X5X6X6X6X6X6X6X1X6X6X6X6X6X6X6X6X1X6X1X=X8X6X6X8X8X6X6X6X6X6X6X6X6X8X6X8X6X6X8X6X6X6X6X6X8X8X6X8X6X6X6X6X2X1X1X5X6X2X1X1X1X2X2X5X8X%X$X5X6X6X8X6X6X2X6X6X1X6X6X6X6X8X8X8X8X8X8X8X8X8XwX8X2X8X6X8X8X8X8X8XeXwX9X8X8X8X8X8XeX$Xl.rXnX8X8XeXeXeXwXeXwXeXeXeX8XtXbXbXkXlXxXlXxXxXxXxXbXnXnXxXxXxXbXbXbXlXxXxXnXnXbXlXlXlXlXlXkXtXkXkXtX8X8X8X8X6X6X6X1X1X|.6X8X8X8X6X8X8X6X6X6X6X6X6X6X6X6X1X1X1X6X6X6X6X1X1X6X1X=X=X=X=X=X$X*X$X*X$X$X=X7.@X$X@X@X@X$X=X@X@X@X@X@X@X@X@X@X@X@XoX@XXXXXoX@XoXXXXX7.l.|.|.c.}.x.x.x.x.x.x.l.l.l.l.l.l.l.l.l.y.y.y.q.q.y.q.q.y.7.",
"` ` 1.` 2.2.1.1.7.0.7.7.4.7.4.5.4.4.5.7.q.q.q.y.y.l.x.|.7.` y.XXXXXX@X@X$X@Xx.( x.|.XXXXXXXXl.XXXXXX@X@X@X@X@X@X@X$X@X@X$X@X@X$X$X@X$X$X$X$X$X%X=X=X=X=X=X=X1X1X1X=X=X=X=X1X1X1X1X1X1X5X2X5X6X5X6X6X5X6X6X1X6X6X2X1X1X1X1X6X6X6X6X6X6X6X6X6X6X6X6X8X8X8X6X6X8X6X6X8X6X6X6X6X6X6X6X8X6X6X8X6X2X6X1X1X2X6X2X1X1X2X6X1X2X5XeXeX2X5X6X1X1X6X6X2X2X2X2X6X6X6X6X8X8X8X8X8X6X8X8X8X8X=X8X8X6X8X8X8X8X9X8X8X8X6X8XeX8X}..XbXkX6X8X8XwXwXeXwXwXwXwX8XeX8XhXbXnXbXbXnXbXbXbXnXMXMXMXNXMXmXmXMXMXmXnXnXnXmXMXMXnXnXnXnXnXnXbXbXbXeX8X8X8X6X6X6X6X6X6X|.6X8X8X8X6X8X6X8X8X6X6X6X6X6X6X2X1X6X6X6X6X1X1X1X1X2X1X=X=X=X=X*X$X$X*X=X=X*X=X|.q.*X@X@X@X@X$X@X@X@X@X@XoX@X@XoX@X@XoXoXoXXXXXoXXXXX|.XXc.c.|.|.|.x.x.x.l.l.x.x.l.l.x.l.l.l.u.u.u.y.y.q.q.y.y.y.y.q.",
"' ` ` ` ^ ^ ` 5.^ ` 7.5.4.7.7.7.q.q.q.7.q.0.q.q.y.y.l.|.9.G ' 4.1.4.7.4.7.7.Q ` |.|.XXXXXX@X$XXXXXXXXX+X@X@X@X@X@X@X@X$X@X@X@X@X$X@X$X$X$X$X$X$X=X%X=X=X=X=X1X1X%X=X=X=X=X=X1X1X1X1X1X1X1X1X5X5X5X5X1X1X1X1X1X1X6X1X1X1X1X1X5X6X6X6X6X6X6X6X6X6X6X6X6X6X6X6X6X6X6X6X5X5X6X6X6X6X6X6X6X6X6X2X1X1X$X1X1X2X1X2X2X6X2X%X1X6X6X1X2X1X1X=X1X1X1X1X2X1X1X1X1X6X6X6X6X8X6XwX8X6X8X6X8X8X6X8X8X8X8X8X8X8X8X8X8X8XeX=Xv.eXnX6X5X8XwX8XeX8XwXeXeXwX8X8X8X8X8X6X6X6X6X6X6X6X6X8X8X8X8X8X6X6X6X6X8X6X8X8X8X8X8X6X6X6X2X6X6X6X6X6X6X6X8X6X6X8X6X2X6X2X6XXX6X8XwX6X6X8X6X6X8X6X6X6X6X6X6X6X6X6X6X2X1X1X6X1X1X1X=X=X=X=X=X*X$X$X=X*X*X*X*X1Xq.}.$X@X@X@XoX@X@X@X@X@XoX@X@X@X@X@XoX@X@X@XXXXXXXXXXXx.x.c.l.5.x.x.x.x.x.l.l.x.l.x.l.l.l.l.y.u.y.u.u.y.y.y.y.q.q.q.",
"/ ` ` ` ' 1.` ` 5.9.4.4.4.2.R R ^ ^ ^ 7.7.7.q.q.q.y.l.x.q.^ H G P P K K P I Q l.|.|.}.|.|.oXoXoXoXoXXXXXXX@X@X@XoXoX@X$X@X@X@X@X$X@X$X$X$X$X$X$X=X$X=X=X1X=X=X1X%X%X=X%X=X=X1X1X1X1X1X1X1X6X1X5X6X6X1X1X1X1X1X1X1X1X1X1X6X1X1X6X6X6X6X6X6X6X6X6X6X6X6X6X6X6X6X6X6X6X6X6X6X2X6X1X1X5X2X1X6XwX8X6X1X8X8XeXgX$X2X6X2X1X2X2X6X1X1X1X1X1X1X2X1X6X1X1X1X1X6X6X1X6X8X8X8X8X8X6X6X6X8X6X6X6X6X6X8X6X6X8X6X6XeX8Xl.+XZXkX1X6X8X8XeX8XeXeXwXeXeXeX8X8X8X8X8X6XwX8X6X8X8X8XwXwXwXwXeXwX8XwXeXwXwXwXeXeXeXeXwX8X8XwX8X8X6X8X8XwX8X6X8X6X8X8X6X2X6X6X8XXX8X8X8X6X6X6X6X6X6X6X6X6X6X6X6X6X6X6X6X1X1X1X2X2X1X1X1X=X=X=X&X=X=XoXoX=X=X=X=X=X=Xq.$X$X@X@X@X@X@X@X@X@X@X@X@XoX@X@X@XoXXX@XoXoXoXXXXX|.|.}.}.l.x.x.x.x.x.x.l.l.l.l.u.u.l.y.y.y.u.y.y.q.q.q.q.y.y.q.",
"/ ` ` ` ` ` ` ` 5.4.4.4.4.f   3 b b   P q.0.q.q.q.l.l.c.q.x.q.q.x.l.l.l.x.x.|.|.|.|.|.XXXXXXXXoXXXXXoXXXoX$X@XXX@XXX@X@X@X@X@X@X$X@X$X$X$X$X$XoX$X=X=X=X1X=X=X=X=X=X%X=X=X=X=X1X1X1X1X=X=X1X1X1X1X1X1X2X1X6X5X1X1X1X1X=X1X6X1X6X6X6X6X6X6X6X6X6X6X6X1X6X6X6X6X6X6X2X6X6X1X1X1X=X=X1X1X1X8XeX8XeX8XeX9XeXkX+X1X6X2X2X2X2X1X1X1X1X1X1X2X2X6X2X2X=X2X6X1X6X6X6X6X8X6X6X6X6X6X8X8X6X1X6X6X6X8X6X6X8X8XeX=X4.wXZX8X1X6X8XeXeXeX8XeXeX8XeXeXeXwX8X8X8X6X6X8X6X8XwX8X8X6XwXwX8X8XwX8X8X8X8X8X8XwXwXwXwX8X2X8XwX6X6X$XoX=X2X=X2XwXwX8X6X6X6X6X6X8XoX6XwX8X6X6X8X6X6X6X6X6X6X6X6X8X6X1X1X1X1X1X=X1X=X1X1X1X=X1X=X=X=X=X$XXXc.1X=X=X$X1X@Xy.$X@X@X@X@X$X@X@XoX@X@X@XoX@X@XoX@X@XXXXXoXXXXXXX|.}.|.}.x.x.c.x.x.x.l.l.x.l.l.l.l.l.y.y.y.q.y.q.q.q.q.q.q.y.0.",
"/ ( ` ' / / ` ` ` 4.1.4.' H  X-X6XwX|.P q.q.q.q.q.l.l.x.7.y.x.}.c.c.|.|.|.XXXX|.|.XXXXl.XXoXXXXXXXXXXXXXXXoX@XXXXX@X@X@X@X$X@X7.l.$X@X@X$X$X$X$X=X=X=X=X=X=X=X=X%X=X%X=X=X=X=X1X1X1X=X%X*X=X1X1X1X1X=X1X1X1X1X1X1X1X1X1X1X1X5X6X6X6X6X6X6X6X6X1X1X1X5X2X6X6X1X1X1X1X1X=X1X1X=X=X1X1X5Xc.$X6X=X=X=X=X1X1X6Xv.5X6X5X6X6X6X1X=X8X6X6X6X6X6X6X6X6X2X6X6X6X6X6X6X8X8X8X6X6X1X8XeX8X8X6X8X8X8X6X8X6X8X6Xy.l.mXmX2X6X8X8X=X6X8X8X8X8X8XeXwXeX8X8X8X9X8X8X8XwX8X8X8X6X8X6X8X8X8XwX8XwX8X8X8X8X8X8X8X8X8X8X8X6X6X6X6X6X1X1X6X6X6X6X6X6X6X6X6X8X6X8XXX6XwX8X8X6X6X6X6X8X6X6X6X6X6X6X6X2X1X2X6X1X=X=X=X=X=X1X=X1X=X=X=X=X*X$X+X=X=X=X=X$X6Xv.x.$X@X@X$X@X$X$X@XXX@X@X@XoX@XoXoX@X|.|.oXXXXXXX|.|.|.x.x.x.x.x.x.x.l.l.x.l.l.l.l.y.y.y.y.q.y.q.q.y.y.y.q.7.7.",
"/ / ' ' / / ` ` ` ` 5.1.7.=X6X=X6X6XwXqXq.q.q.q.q.y.l.l.4.u.x.l.x.x.x.}.|.XX|.|.XXXXoX$XoXXXXXXXXX|.oXXX|.XX@XoXoXoX@X@X@X@X@XwX6XXX@X$X*X=X=X*X*X=X$X*X%X%X=X=X=X$X=X1X=X=X=X1X=X1X1X%X%X%X1X1X1X1X1X1X1X1X1X1X1X1X1X=X1X5X1X1X1X6X1X1X6X6X1X1X2X1X1X6XXXy.y.q.q.q.q.7.7.7.7.q.7.5.7.` T |.+X@X@X@X%X1X@X^ 7.7.7.q.q.7.4.5.9.q.q.7.7.9.q.q.7.4.7.7.7.4.5.5.7.q.q.9.5.4.7.7.7.7.9.9.q.q.7.7.7.7.1.&XZXeX1X8X8X8XwX$X$X8X8X8X8X8XwXwX8X8X8X8X8X8XeX8X8X8X8X8X6X6X6X8X8X8X8X8X6X8X8X8X6X8X8X8XwX8X6X8X8X6X6X6X6X6X6X6X6X6X1X1X6X6X2X6X8X6X8XXX6X8X6X6X6X6X6X6X6X1X1X6X2X1X6X2X2X1X1X1X1X1X1X=X=X=X=X=X1X1X=X=X*X$X*X=X=X$X=X*X$X$X6Xq.@X@X@X$X$X$X@X@X@X@X@X@XoXoXoXXXXXXXoXoXXXXX|.|.|.}.x.x.x.x.v.x.x.l.l.x.x.l.u.y.y.y.y.y.q.q.q.7.' q.y.q.7.5.",
"^ ` ` ` ` ` ` ` ` 1.1.1.5.7.2.4.4.4.4.7.q.q.q.q.q.q.l.x.5.u.x.v.v.v.x.x.}.|.|.|.|.|.XXXXXXXXXXXXXXXXoXXXXXXXoX@XoXoXoX@X@X@X@X+X@X@X@X@X$XXXoX$X$X=X$X$X=X%X$X=X=X=X$X*X=X%X=X=X1X=X1X*X*X%X1X=X=X=X1X1X1X6X1X=X1X1X1X=X1X5X1X=X1X6X1X1X5X6X1X2X6X1X1X@Xl.xXkXxXxXlXkXlXlXxXtXkXmXMXMXMX=X1.7.q.q.q.q.q.u.bXbXnXbXbXtXtXtXtXtXrXrXrXrXrXrXrXrXrXtXtXtXtXrXtXtXyXyXtXtXtXtXtXtXtXtXtXtXyXtXtXrXrXlXmX2X1X6XwX8X8X8X8X8X8X8X8X8X8X8X8X8XeX1X8X8X8X8XwXwXwX8X8X8X8X6X8X8X8X6X8X6X6X6X8X8X8X8X6X6X8X6X8X8X6X6X6X6X6X5X6X1X1X6X6X6X6Xc.$X8X8X8X|.2X8X2X6X6X6X6X2X6X6X1X1X1X1X1X2X=X=X1X=X1X1X1X=X=X$X*X*X=X=X=X*X=X$X*X=X*X%X*X=X*X$X=X@X8.$X@X$X$X$X@X@X@X@XoX@XXX@XoXoXoXoXXXXX|.XX|.c.|.}.x.l.x.x.x.x.l.l.y.l.l.l.l.u.y.y.y.y.y.q.y./ m ` y.7.7.7.",
"/ ` ` ' ` ` ` ` 2.1.` 1.2.5.7.0.0.q.q.q.q.q.q.y.q.4.y.l.4.y.l.l.x.x.x.x.x.x.}.|.|.|.XXXXXX|.XX@XXX|.XXoXXXXXXXXX|.XX@XoX@X@X@X@X@X$X@X$X$XXX*X$X$X%X$X%X%X&X$X=X%X=X$X%X$X$X=X=X%X=X=X%X%X%X1X=X=X=X1X1X1X1X1X=X=X1X=X=X1X1X1X1X1X1X2X1X1X1X1X1X6X1X=X7.eX8XXXXXXXXX+X@XXX@X1X6XlXeX8X8XeXeXeXeXeXeXeXwXwXwX8XwXeXeXeXeXeXeXeXeXeXeXeXeXeXeXwX8XwXwXeXgXeXeXeXhXkXgXgXkXkXkXkXgXgXgXgXgXgXgXeXgXeX1X6X1X*X8XwXwX8X8X8X8X8X8X8X8X8X8X8Xq.^ l.8X8X8X8X8XwX8X8X8X8X6X6X8X6X8X8X8X6X6X8Xl.` @X8X6X8X6X8X6X6X6X6X6X2X2X6X6X6X6X6X6X6X1X1X8X6X8X|.2X6X6X6X6X6X6X1X6X1X1X1X1X=X1X=X=X=X=X1X1X=X=X=X=X=X=X*X$X@X*X$X$X$X$X$X@X$X=X*X$X$XoX1Xl.x.%X$X$X$XoXoX@X@XoXoXXXoX@X@XoXoXXX|.|.|.|.|.|.|.x.x.c.x.x.l.x.l.l.l.l.y.y.y.y.y.y.y.y.y.q.q.l.y.q.q.q.7.",
"/ / ' ` / / ` ` 1.1.1.` ] 5.5.7.0.q.q.0.q.q.q.y.u.q.l.x.5.y.v.l.x.x.x.c.|.c.|.XX|.|.XXXXXX|.XXXXXX|.XXoXXXXXXXXX|.}.XXoXXX@X@X@X@X@X@X$X$X=X=X$X$X%X%X*X$X$X%X$X%X$X$X=X%X$X%X$X$X=X=X%X%X%X=X=X=X=X=X=X1X=X=X=X=X=X=X=X=X1X1X1X1X1X5X1X1X1X5X1X1X6X7.=XgX%Xz.c.l.l.l.y.y.y.+X8XwX6X6X6X6X6X6X6X8X8X6X6X6X5X6X6X6X8X6X6X6X6X6X6X6X6X6X6X6X6X2X1X6X=X6X8X6X6X6X6X8X8X6X8X8X8X8X6X6X6X6X6X6X6X6X6X8X8X6X6X=X8X8X8XwX8X8XwX8X8X8X8X8X8X8X5X6X2X8X6X6X8X8X8X8X8X8X6X6X6X6X6X8X8X8X8X8X1X+X=X@X8X6X6X6X6X6X6X6X6X6X6X6X6X6X6X2X2X2X5X6X6X6X6X8X|.=X6X6X6X=X2X6X1X2X2X2X1X=X1X=X=X1X=X1X1X1X=X=X=X=X*X*X$X=X$XoX@X$X$X@X$X$X@X@XXX@X+X@X@X=Xq.@X$X$X$X@XoX@X@XoX@XXXoX@XXXoXXXXX|.|.|.|.|.|.|.x.x.x.}.x.x.l.y.l.u.l.y.u.y.y.y.y.y.q.q.q.y.|.y.q.q.0.7.",
"^ / ' / ` ' ' ` ` 1.1.1.5.4.5.7.7.q.q.7.7.7.q.q.y.u.x.c.4.y.l.l.x.l.x.x.x.x.|.|.|.XX|.XXXX|.XX+XXXXXXXXXXXXXXXXXXX|.XX@XoX@X@X@X@X@X@X@X@X$X$X%X@X%X%X$X$X$X$X@X=X=X@X%X%X$X$X$X=X=X=X%X%X%X1X=X=X=X=X=X1X=X=X=X=X=X=X=X=X=X1X1X1X1X1X6X5X1X1X1X6XXXq.gX1Xc.c.z.y.q.x.c.x.c.$XgX8X8X8X8X8X6X6X8X8X8X6X8X6X6X6X6X8X8X6X8X6X6X6X6X8X8X6X8X8X6X8X6X6X2X8XwX8X8X6XwX8XwX8XeXeXeXwX8X6X6X8X8X6X8X8X8X8X8X8X8X6X8X8X6X6X8X8X8XwX8X8X8X8X8XeXkXkXgX6X6X6X8X8X8X8X8X6X8X8X6X8X6X6X8X8X6X8X8XkXxXgX6X6X6X6X6X1X1X6X6X6X1X6X6X6X6X6X2X2X6X2X6X6X6X8X|.2X6X2X2X=X2X6X=X6X1X2X1X=X=X=X=X1X=X1X=X=X=X=X1X=X=X=X*X=X$XXX@X$X$X@X=X%X%X@XXXx.4.x.$X$X@Xy.*X$X@X@XoXXX@XoX@XXXoXoXXXXXXXXX|.|.|.XX|.|.|.x.x.x.}.x.l.l.l.l.y.y.y.u.y.y.y.y.y.y.y.q.7.5.7.q.7.q.7.",
"^ / / ` / ' ` ' ` ` ` ` 2.4.4.7.7.q.q.7.7.9.q.q.q.y.y.x.4.q.l.l.}.x.l.x.x.x.x.x.|.XX|.XX|.XXXXXX|.XXXXXXoXXXXXXXXXoXoX@X@XoX@Xq.u.@X@X@X@X$X$X$X@X$X%X%X$X$X$X$X%X%X@X$X$X@X$X$X%X1X=X=X=X=X=X=X=X=X=X=X=X1X=X=X$X*X=X=X=X1X1X1X=X=X=X=X=X1X1X6X5X7.8X8Xc.c.z.l.q.9.y.y.k.l.8X8X6X8X8X8X6X6X6X6X8X6X6X8X6X6X6X1X6X8X6X6X6X6X6X6XwX8X8X8X8X6X8X8X6X2XwXwX8XwXwXwX8XwX8XeX8X8XwX8X8X6X6X6X6X8X8X8X8XwX8X6X6X6X8X6X6X6X8X8X8X8X8X8X8XwXeX8X8X8X8X8X8X8XwX8X6X8X8X6X8X6X8X6X6X8X8X8X8X8X8X8X1X6X6X6X6X6X1X1X6X6X6X6X6X6X6X6X2X1X2X1X6X6X6X6X6X|.2X8X6X2X1X6X6X6X6X1X2X1X=X1X=X=X=X=X=X=X=X=X=X=X*X=X=X=X*X$X=X%X=X$X=X8X2XgXkXgX6XXXk.%X@X=X|.|.$X@X@X@XXX@X@XXXXXoX@XoXXXXXXXXXXXXX|.|.x.x.x.l.x.x.l.x.l.y.y.y.y.y.y.y.y.y.y.y.y.q.q.7.7.7.7.q.7.q.",
"^ / / / / / ( ` ` ` ` ` 5.1.4.7.7.7.7.7.7.7.7.q.q.y.y.l.4.q.l.u.l.l.x.x.x.x.x.c.|.|.|.|.|.|.XXXXXXXXXXXXXXXXXXoXXX@XoX+XoX+X#X@XXXXX@X@X@X$X$X$X$X$X%X%X=X$X=X%X%X=X$X$X%X$X$X$X*X=X=X*X%X=X=X=X=X=X=X=X1X1X=X=X%X%X%X=X1X1X1X1X=X*X%X=X=X1X1X6Xk.&XeXXXx.z.z.x.y.k.x.x.y.=XeX6X8X8X8X6X6X6X6X8X8X8X6X6X6X6X6X6X6X6X6X8X=XXX6X6XwXwXwXwXwXwX8XeX+X@XwX8X8X8XwXwXwXeXwX8X8X8XwX8X6X8X6X6X2X8X8X8X8XwXwX6X6X6X6X6X6X8X8X8X8X6X8X8X8X8X8X8X8X8X8X8X8X8X8XwX8X8X8X8X8X8X8X6X8X8X8X8X8X8X8X8X6X6X5X6X8X6X6X2X1X1X2X1X2X1X6X2X6X2X1X1X1X2X6X6X6X}.=X6X6X1X6X2X=X6X6X1X6X6X1X1X1X=X=X=X1X=X=X1X=X=X=X*X%X%X=X%X%X%X=X$X$X6XeXeXgXkXgXkX6X$X@X@X1Xy.XX@XoX@XXXXXXXXXXXXXXXXXXXXXXXXX|.|.|.|.}.|.x.l.x.x.l.l.l.x.l.y.y.y.y.y.y.y.y.q.q.0.q.q.7.q.q.0.7.7.",
"^ / / / ' ' / ` ` ` 1.1.4.4.5.4.4.7.7.7.7.7.7.q.q.y.y.l.4.q.l.l.l.k.l.x.l.l.v.l.x.x.|.|.}.x.|.|.|.XXXXXXXXXXXXXXXXXXoX@X@XoX@X$X$XXXoX@X@X$X$X$X$X$X@X$X$X$X$X$X%X=X@X$X$X$X$X$X$X=X=X%X$X=X=X=X=X=X=X=X%X=X=X%X$X=X*X=X=X=X1X=X=X=X=X=X=X=X2X|.v.gXXXx.x.k.z.k.y.x.c.y.+XeX6X8X6X8X8X6X6X6X6X8X8X6X6X8X6X6X6X5X2X2X6X8X=X$X8X8XwXwXwXwX8XwX8X8X8X8X8XwX8X8XwXwXwXwXwX6X8X6X6X6X8X8X8X6X6X8X8X8X8XwXwX8X6X6X8X6X8X8X8X8X8X8X6X8X8X8XwX8X8X8X6X6X8X8X8X8X8X6X8X8X6X8X8X8X6X8X8XwX8X8X8X6X6X8X6X8X8X8X6X6X2X1X1X2X1X1X6X1X1X1X1X1XXXXX6X6X6X|.1X6X6X1X=X1X1Xx.$X1X1X6X1X=X=X=X=X=X1X*X%X=X1X$Xy.%X%X$X$X%X$X%X%X$X=X1X6X6X2X1X1X6X8X$X$X$X%X@X7.@XXX@XXXXXXXXXXXXXXXXXXXXXXXXXc.|.|.|.|.c.x.x.l.x.l.l.l.x.u.y.y.y.y.y.q.y.y.y.q.0.q.q.7.7.q.0.7.0.",
"^ ^ / ` ' ' ` ' ` ` ` ` 1.1.1.4.4.4.7.7.4.5.7.7.7.y.y.x.2.q.y.u.l.l.l.l.l.l.l.l.l.x.|.x.x.x.c.|.|.|.|.XXXXXXXXXXoXXXXX@X@XoX@X@XXXXXXX@XoX@X$X$X$X$X$X@X$X$X@X@X%X=X$X@X@X@X$X$X$X=X%X%X$X=X=X=X=X=X=X=X=X=X%X%X$X%X%X1X=X=X1X1X=X1X1X=X%X=X$Xq.gX6Xc.c.c.c.k.k.k.c.c.x.6X6X6X6X6X6X8X6X6X6X6X6X6X6X6X6X6X6X2X2X2X2X6X6XwXeX6X8XwXwXwX8X8X8X6X8XwX8X8XwXwX8XwXeXwXwXwXwX6X8XwX6X6X8X8X6X6X6X6X8XeXeXwX8X6X6X6X6X8X8X8X8X8X8X6X8XwX8XeX8X8X8X8X8X8X8X8X8X8X8X6X8X8X6X8X8X8XwXwX8X8X8X8X6X6X6X6X6X8X6X6X6X6X6X1X1X1X1X1X1X1X1X1X=X$X$X1X1X6X|.1X6X2X1X=X1X@Xh.XX1X=X1X=X=X1X=X=X=X$XoX$X=X=X=X$X$X$X$X$X$X$X=X%X$X@X$X$X$X@X@XoXoXoX$X@X$X$X1Xl.l.@XXXXXXX|.XX|.XXXXXXXXXXXX|.|.c.c.XXc.c.x.l.u.l.l.l.x.x.x.y.y.y.y.y.y.q.y.y.q.0.0.7.7.7.0.7.7.7.",
"^ ^ / ` / / / / / / ` ` 1.2.2.1.1.4.9.7.4.7.7.7.7.y.q.l.4.q.u.l.u.u.l.l.x.l.v.l.l.l.x.x.x.x.c.|.|.|.|.XXXXXXXXOXXXXXXX@X@X@X@X@X@XXX@X@X@X$X@X@X@X$X@X@X$X$X$X$X%X=X$XXX@X@X$X$X$X$X%X$X%X$X%X$X=X$X=X=X=X=X*X%X$X$X%X%X=X=X=X=X=X=X=X=X%X1Xy.6XgXXXc.x.c.c.XXXXXX+XoX1XwX1X6X6X8X6X8X6X6X6X6X6X6X6X1X1X1X6X6X1X6X6X5X6X6X1X6X8XwXwXwX8X8X8X8X8X8X8XwXwX8X8XwXwX8XwXwX8X8X6X8X8X8X8X6X=X=X8X6X8XeXwX8X6X6X6X6X6X6X8X8X8X8X8X8X8X8X8X8X8X8X6X8X8X8X8XeX8X8X8X8X8X8X8X8X8X8X8X8X8X8X8X8X8X6X6X6X6X8X8X6X8X6X6X6X1X1X1X6X1X2X1X1X=X*X*X1X1X1X|.=X6X1X=X1X6X=XgXgX%X1X1X=X=X1X=X1X=X%X$X%X1X=X=X$X$X%X$X*X=X=X=X=X$X=X$X%X%X$X@X@X@X@X@X@X$X$X@X=X7.|.oX|.|.XXXX|.XXXXXXoXXXXXXX|.|.x.c.c.c.c.x.x.x.l.l.x.x.k.y.7.q.y.y.y.y.y.q.q.7.7.7.7.q.q.7.7.5.",
"^ ^ / ` / / / / / / ` ` 1.1.1.1.2.4.4.7.7.7.q.8.q.y.q.y.2.q.y.q.y.y.y.l.l.v.l.l.y.l.l.x.l.x.c.|.|.|.|.XXXX|.XXoXXXXXXXXX@XoXoXoXoX+X@X@X$X$X@X@X@X@X@X@X@X=X$X@X=X=X%XoX$X=X$X$X$X@X$X$X$X$X$X$X=X=X=X1X=X=X*X$X%X@X$X%X1X=X=X=X=X=X=X=X1Xx.|.cXXXi.k.z.c.XXc.#X5X%X%XwX6X6X1X8X8X6X6X6X6X6X8X8X6X6X1X1X5X6X2X2X6X6X6X6X6X6X8X8XwX8X8X6XwXwX8X8X8X8X8XwX8X8XwXwXwXwX8X8X6X8X8X6X8X8X6X1X6X8X6X8X8XwX8X8X6X6X8X8X6X8X8X8X8X8X8X8X6X8XwX8X8X8X6X6X8X8XwX8X8X8X8X8X6X8X8X8X8XwXwX8X8X6X8X8X8X8X6X8X8X8X8X6X6X6X6X6X1X1X6X6X2X1X1X=X%X=X1X=X1X}.=X6X1X=X1X1X1X=X%X1X1X1X1X=X1X1X=X1X2X1X%X=X=X=X$X=X=X=X=X=X=X=X=X$X=X1X=X%X$X@XoX@X@X$X=X$X@X@X$XoX5.@X|.|.XXXXXXXXoXoXXXXXXXXX|.x.x.c.c.c.c.c.x.x.l.x.l.l.y.y.7.q.y.y.q.q.y.q.q.q.q.q.q.q.0.7.4.5.",
"^ ^ ' ' ' ' ^ ^ ' / ' ` 1.1.` ` / 4.7.7.7.7.7.7.7.1.0.y.5.q.y.q.y.7.q.l.l.l.l.l.u.l.l.7.y.x.|.XX|.|.|.|.XXXXXXXXXXXXXXXXXXoXXX) 4.$X$X$X$X@X$X@X$X@X@X@X@Xv.$X$X*X=X=X+X@X$X%X$X$X$X$X@X$X$X$X$X=X$X=X=X=X=X*X%X$X$X%X1X1X1X=X=X%X%X$X=X$X7.cX1Xk.x.k.c.XXXXc.1X8X$X8X8X8X6X6X8X6X6X6X8X6X8X8X8X6X6X6X8X8X8X6X5X2X6X6X6X6X6X6X8X8X8X8X8X8X8X6X8X8X8X8XwX8X6XwXwX8X8X8X8X8X8X8X8X8XwX8X8X8X8X8X6X8X8X8X8X6X6X8X8X8XwX8X8X8X8X8X8XwXwXeX8X8X8X8X8X8X8X8X8X8X8X6X8X8X8X8X8X8X8X8X8X8X8X8X8X8X8X6X8X8X6X8X8X6X6X6X6X6X6X1X2X6X2X1X=X@X*X=X=X=Xx.=X2X1X=X1X1X=X1X1X1X2X1X%X1X1X1X1X1X1X%X=X1X=X=X%X*X=X%X=X=X$X$X=X@X$X$X=X$X$X@XXXXX@XXX5.}.$X$X@X1Xl.u.@XoX@XXXXXXXXXXXXX|.|.|.c.|.x.c.}.|.c.x.x.x.q.y.l.l.y.y.1.y.y.y.y.q.y.q.q.' 5.q.0.7.7.7.5.4.",
"^ ^ / ' ' / I P T ' ' ` ` 1.` T P ^ 7.7.7.7.7.q./ ^ ^ l.1.7.q.q.q.^ P y.l.l.l.l.l.l.l./ ` c.|.|.XXXX|.|.|.|.XX|.|.XXXXXXXXXX+X&X=X@X$X$X$X@X@X$X*X$X@X$X=XXX$X%X%X=X%X$X@X$X$X$X&X$X$XXX@X@X$X$X$X$X%X=X$X%X@XXXXX@X=X=X=X=X1X=X%X%X=X1X4.wXeXy.z.z.k.c.$X@XOXgX8X8XeX8X8X8X8X6X6X6X6X6X6X6X6X8X6X8X6X6X6X6X6X6X2X6X6X8X@XB.8X8X6X8X8X8X8X8X6X8X8X8X8XwX8X8XwXwXwX8X8X8X8X8X8X8X8X8X8X6X6X8X6X6X8X8X8X6X8X8X8X6X6X8X8X6X8X8X8XwX8XwXeXeX8X8X8X8X8X8XwX8X8X8X8X8X8X8X8X8X8X8X8X8X8X6X8X8X8X8X6X8X8X6X8X6X6X6X6X1X6X6X6X1X1X1X=X=X*X*X=X=X=Xx.=X6X1X=X1X1X=X=X=X*X1X1X1X1X1X1X1X1X1X%X%X=X=X=X%X%X=X$X%X=X=X*X=X@X=X%X$X$X$X@XoXoX$Xx.9.q.$X@X@X@X2X2.|.@X@XXXoXoXoXXXXX|.|.|.|.|.x.x.c.c.x.l.x.k.4.y.l.l.l.` T 4.y.y.q.q.y.y.5.^ W y.7.7.7.7.5.4.",
"^ ^ ^ ' / ^ ( 7.^ ' / ` ` ` ` 1.9.1.5.7.7.4.7.q.q.h.q.y.1.q.q.y.v.z.8.y.l.l.y.u.l.l.v.v.l.c.|.XX|.|.|.XX|.|.c.|.|.|.|.XXXX|.oX$X=XoX@X@X$X$X@X|.$X@X$X$X$X1X$X@X@X@X$X$X$X$X$X$X@X+X@X@XXXXXXX@X$X$X$X$X=X=X1X=X%X=X@X@X=X=X=X%X=X%X1Xy.+XxXy.6.i.x.x.x.XX1X+X8XeXeX6X8XwX8X6X6X6X6X6X6X6X6X8X8X6X6X6X6X6X6X6X5X5X5X6X6X6XeX6X8X8X8X8X8X8X8X6X6X8X8X8X8X8X8X8X8X8X8X8X8X8X8X8X8X8XwX8X6X8X6X6X6X8X6X8X6X6X6X8X6X6X8X8X8X8X8X8X8X8XwXwXwX8X8X8X8X8X8X8X8X8X8X8X8X8X8X8X8X8X8X8X8X8X8X8X8X8X8X8X8X8X6X8X6X6X6X6X1X6X1X1X1X=X=X=X*X*X=X=X=X1X}.=X2X=X=X=X1Xl.7.%X*X1X1X1X=X1X1X=X%X1X=X%X=X1X%X%X=X=X=X%X=X$X*X=X=X5X8X1X$X$X$X@X@X@X$X&X&X@X@X@XoX*X@X5.$X@XoXoX@X@XXXXX|.|.|.|.c.x.c.x.x.x.x.x.x.x.x.x.l.y.q.v.l.y.y.q.q.q.q.0.9.q.7.7.7.7.7.5.4.",
"^ / / / / ( 4.4.` / ' ' ` ` 1.7.y.7.4.7.7.7.7.7.l.x.y.y.1.q.u.q.l.XXx.y.l.l.u.y.u.l.x.XX|.|.c.|.|.|.c.c.XXXXXX|.XX|.|.c.|.$X*X=X*X=X=X%X$X$X@Xy.XX$XeXeXeXeXeXeXtX6X@X@X@X@X$X@XrXwXwX8X6X6X6X6X$X$X$XXXkXxXgXkXeXwXwXeX=X$X=X$X@X=X+Xq.kX|.8.z.+X$X=X%X$X5X%X5XeX6X8X8X8X6X6X8X6X6X8X6X6X6X8X8X6X6X6X6X6X6X2X6X6X5X6X5X6X8X6XwXwX8X8X8X8X8X1X6X6X6X8X8X8X6X8X6X8XwXwXwXwX8X8X8XwX8X8X6X6X8X6X6X8X8X8X6X6X6X8X8X6X8X8X8X8X8X8X8X8XwXeXwXwX8X8X8X8X8XwX8X8X8X8X8X8X8X8X8X8X8X8X8X8X8X8X8X8X8X8X8X8X8X6X6X6X2X6X2X1X1X1X=X=X=X=X=X*X=X=X=X2X}.=X=X=X*X1X=X@X6X*X%X1X1X*X=X=X1X=X=X=X=X=X=X=X=X@X%X=X$X=X=X$X=X*X$X1X1X=X@X$X$X@X@XoX@X$X@XXX@X@X@XXX2Xl.x.$XoXXX@XXXXX|.|.|.|.|.}.x.c.x.x.c.|.x.x.x.x.x.x.l.x.x.x.y.q.q.q.q.0.q.l.y.0.7.7.7.7.7.4.",
"^ / ` / / / / ^ / ` ` ` 2.2.1.1.1.2.5.7.7.7.7.0.7.7.8.y.4.q.y.q.y.y.y.y.y.l.y.y.l.l.y.l.x.x.x.c.|.|.c.c.XXXXXXXXXXXX|.|.u.2.6.5.7.7.7.7.@X@X|.@X=Xx.y.l.x.v.v.l.x.+X@X@X@X@X@X@Xx.8.i.k.k.k.x.|.@X$X$X=X+Xz.y.y.e.7.y.|.|.%X$X$X$X%Xq.wX6X6X6X6X6X6X6X6X6X6X5XeXwX1X8X6X8X8X6X8X8X6X6X6X6X6X8X8X8X6X6X6X6X6X6X6X1X6X6X6X5X1X6X8X8X8X8X8X8X8X1X8X8X8X8X8X6X8X8X8X8X8XwXeXwXwXwXwX8XwX8X8X6X6X8X8X8X8X8X6X6X6X8X8X6X8X8X6X6X8X8XwXwXwXeXeX8X8X8X8X8X8XwXwX8XwX8X8X8X8X8X8X8X8X8X8X8X8X6X8X8X8X8X8X8X6X6X6X6X6X1X2X2X1X1X=X$X=X=X=X$X$X=X=X=X}.=X1X=X=X=X=X1X1X%X%X1X1X1X%X%X=X=X$X=X%X=X=X=X=X$X$X=X=X=X=X=X=X=X*X$X@X$X%X%X%X@X@X+XXXXXoXoXXX@X@XoXoX2Xq.oXoXoX@XXX|.|.XX|.|.|.|.|.|.x.x.c.x.x.x.l.x.x.x.l.y.y.8.8.y.y.q.q.7.4.4.7.0.7.5.7.7.7.4.",
"^ / / / / / ' / / ` ` ` 1.1.1.1.1.2.7.7.7.4.7.7.q.q.y.y.2.q.y.q.y.k.y.k.l.l.k.x.l.l.l.l.l.x.c.c.c.x.c.c.c.|.|.|.XXXX|.}.x.7.v.|.y.|.=Xc.@XXXXXXX@XXXz.z.k.z.z.z.z.c.@X@X@X@X@X@Xe.e.e.i.z.z.B.B.$X$X$X&Xc.i.z.z.z.z.i.i.z.@X%X$X=Xq.|.eX=X1X6X1X1X1X1X2X2X6X2X1X=X=X6X8X8X8X6X8X6X6X6X6X6X6X8X8X8X8X8X6X2X6X1X6X6X6X6X1X6X6X6X8XwX8X6X6X6X8X6X6X8X8X6X8X6X6X8X8X6X8X8XwXwXwXwXwXwX8X8X8X6X6X8X8X8X6X8X6X6X6X6X8X6X6X8X6X6X6X8XwX8XwXeX8XwX8X8X8X8X8X8XwX8XwX8X6X8X8X6X6X8X8X8X6X8X6X6X8X8X8X8X8X8X6X8X6X6X6X2X=X=X=X=X=X=X=X=X$X=X$X=X=X=X}.=X1X1X=X=X=X=X=X$X=X1X=X*X=X=X=X1X=X=X%X%X=X=X1X=X=X=X=X=X=X*X=X=X$X$X$X=X%X$X$X@X@X@XoX@X@XoX@X@X@XoXXX$X@X0.@XXXXXXX|.XXXX|.|.|.|.c.c.x.x.c.x.x.l.l.l.l.x.l.l.l.q.1.q.q.q.q.7.4.4.7.5.7.7.7.4.4.4.",
"W ^ / / ^ / ` / / ` ` ` ` 1.` 1.1.2.4.4.5.5.7.q.7.y.y.y.5.q.y.q.y.y.y.l.k.y.k.x.l.x.l.l.l.x.x.c.|.c.x.c.c.c.c.c.XX}.c.c.|.@X6X@X1X8X8X1X@XXXoXXX|.=X5X5X5X5X6X1X5X1X@X@X@X@X@X@X%X8X8X6X8X8X8X5X=X@X$X@X%X8X8X9XiXgXiX8X5X+XoXXXx.2.eX=X1X1X2X1X1X1X6X6X6X6X6X8X$Xl.6X6X6X6X6X8X6X6X6X6X6X6X8X8X6X6X6X6X9.x.6X1X1X1X1X6X@XXX8X6X8X8X6X6X6X8X6X6X8X6X6X8X8X6X8X8X8X8X8X8X8X8X8X8X8XeX8X8X8X6X6X6X6X6X6X8X6X6X8X8X6X8X8X6X8X8X6X8X8XwXeXwXwX8X8X8X8X8XwX8X8X8X8X8X6X8X6X6X8X8X8X6X6X6X6X8X8X8X6X6X8X6X6X8X6X6X=X=X=X=X=X=X=X=X=X=X=X%X=X=X*Xl.=X1X1X=X=X=X$X$X%X1X1X1X%X1X1X=X%X%X=X%X%X=X=X1X%X%X=X%X*X1X*X1X*X%X$X$X=X%X$X@X@X@X@XoX@X@X@X@X@X$XXX@XoX6Xv.l.+XXXXX|.|.XXXX|.|.|.x.c.x.x.x.x.x.l.l.l.l.l.l.l.l.l.x.y.q.q.q.7.5.5.5.5.7.5.5.7.4.1.",
"W ^ / ^ ^ / ( / / ` ` ` ` 1.1.1.1.2.4.4.4.4.7.7.7.q.q.y.2.q.y.l.y.y.k.x.y.y.x.k.y.l.l.l.l.x.x.|.c.x.x.c.x.c.c.x.}.c.c.}.|.|.x.c.|.XX|.XX@X@X@X@XXXXX|.XX+XoXoXoXXX@X$X@X$X@XoX$X@Xx.|.@XoXoXXX@X@X=X*X@X$X$X=X=X%X=X=X%X5XXX6X=X( 8X1X=X1X1X2X1X=X6X2X1X5X2X6X6X6X8X6X6X8X6X6X8X8X8X8X8X6X6X6X8X6X6X6X6XeXwX1X1X=X=X2X6X=X=X6X6X6X8X6X6X6X6X6X6X6X6X6X8X6X8X8X8X8X8X8X8X8X8X8XwX8XeX8X8X8X6X6X6X8X8X6X6X8X8X8X8X8X6X8X8X6X6X8X8X8XwXwXwXwXwXwX8X8X8X8X8X8X8X8X6X6X6X6X6X6X8X8X6X8X8X6X6X8X8X6X8X8X6X6X6X6X6X6X+X^ / / ) ) ~ ^ ^ ^ ^ ^ T T 1.=X2X1X=X=X=X=X=X=X=X1X1X1X1X1X=X=X%X=X=X%X=X1X=X=X%X=X*X=X=X*X%X%X%X$X$X%X$X%X$X@X@X@XoX@X@XoX@X@X@XoX@X@X@X=X5.XXXXXXXXXXXX|.XXXX|.c.x.x.x.c.x.x.l.y.y.k.k.y.y.y.y.q.q.y.q.0.0.5.5.7.5.4.4.4.4.4.2.",
"^ ^ / ^ ) / / / ' ' / ' ^ ` 1.1.1.4.4.4.4.4.7.7.7.0.q.y.2.q.l.l.y.y.l.l.l.y.y.y.y.l.l.l.l.x.x.x.x.x.l.x.l.x.x.c.c.x.x.x.|.|.XX$XXXXX+X@X+XXX|.oXXXXXXXXXoXXXoX@X@X@X@X@X@XoX+X@X%Xc.c.$X@X@X@X@X@XoX$X@X*X$X@X@X@X@X$X*X1X6X6Xy.@XeX$X=X=X=X1X1X1X1X1X1X2X6X2X6X5X2X1X6X8X6X6X8X6X8X6X6X6X6X6X6X6X6X6X6X8X8X1X1X1X1X1X1X8XgX1X6X6X2X6X1X1X8X6X6X6X8X6X8X8X8X8X8X8X6X8X8X8X8X8XwX8X8XwX8X8X6X8X8X8X6X6X8X6X6X8X8X6X6X8X8X8X8X8XwX8XwXwXwXwX8X8X8XwX8X8X8X8X8X8X6X8X6X1X6X6X8X6X6X8X6X6X8X8X6X8X8X6X6X8X6X6X6X6X+X1.1.1.4.4.4.9.7.7.7.8.4.7.k.=X1X1X=X=X=X|.q.%X1X1X=X1X=X1X=X*X$X%X%X%X=X1X=X*X*X=X*X=X*X*X%X$X%X@X@X%X$X%X%X%X@X@XoX@X@X@X@X$X$X@XoX@XXX@XoX7.@XXXXXXXXX|.c.|.|.|.|.x.x.x.l.l.l.y.y.l.y.y.y.y.y.q.q.q.q.0.0.7.5.4.5.2.2.4.2.4.1.",
"W ^ ^ / ^ / ' / ' ` ' ` ` ` ` ` 1.4.4.4.7.4.4.7.7.7.7.y.` q.y.l.y.y.u.l.y.u.y.l.l.l.u.l.l.x.x.x.x.x.l.l.u.x.x.x.c.x.x.x.x.|.|.|.XXXXXXXXXXoX|.XXXXXX|.oXXXXXXXoX@X@X+X+X@XXXoX+X@X@X@XXX@X@X@XoXoX@X@X@X@X@X@X@X@X@X$X$X$X2X|.7.kX$X1X=X1X=X1X1X=X1X1X1X2X6X1X1X6X6X6X8X6X6X6X6X6X6X6X6X6X6X8X6X6X6X6X6X1X1X1X1X1X1X1X2X1X1X1X6X2X6X=Xy.q.=X6X6X6X6X8X8X6X6X6X8X8X8X8X8X8X8X8XeX8X8X8X8X8X6X8X6X8X6X6X6X6X6X8X6X6X8X8X6X6X6X6X8X8XwXwX8X8X8X8X8X8X8X8XeX8X8X8X8X6X6X6X6X8X8X6X6X6X8X6X8X8X8X6X8X6X6X8X6X6X6X=X6XgXgXkXkXgXkXgXkXgXgXgX9X9X@X@X1X=X=X=X=X|.=X=X1X1X1X=X=X=X=X$X$X%X=X=X*X=X=X%X*X*X%X*X*X%X$X%X*X$X$X%X@X@X$X$X$X@X@X@X$X@X$X$X=Xu.0.@XoXXX=Xl.l.@XXXXXXXXXc.c.XX|.x.x.x.x.x.l.y.y.y.x.y.y.q.q.q.0.0.0.7.7.7.5.5.2.5.` 2.4.2.2.2.",
"/ / / ` ` ` ` ` ` 1.` 1.1.1.5.2.4.7.7.7.q.7.7.q.q.y.y.l.2.l.x.l.l.l.l.l.l.l.x.x.l.x.x.x.x.x.x.}.}.x.x.x.l.x.c.x.c.c.|.|.|.XX+XXXXX@X@XXX+X@X+XXXXXoXXXoXXX+X@X@X@X@X@X@X@X@X@X@X@X@X@X@X@X$X*X@X@X@X@X@X$X$X$X$X$X$X*X=X1X@X^ eX5X=X1X1X1XoX=X=X=X=X1X1X2X6X1X2X6X1X1X6X1X1X6X1X1X5X6X6X6X6X6X6X1X5X6X6X6X1X5X1X1X1X1X6X6X6X1X1X6X6X=X|.|.=X6X6X6X6X6X8X6X6X8X8X8X8X8X8X8X8X8X8X8X8X8X8X8X6X6X8X6X8X8X6X8X6X8X6X8X8X6X8X6X6X6X6X6X8XwX8X8X8X8X8X8X8XwX8X8X8X8X8X6X6X6X1X6X6X6X6X6X8X8X6X6X8X8X6X6X6X6X6X6X6X2X@Xk.l.l.v.l.y.q.y.y.y.y.q.q.q.=X1X1X1X1X=X1XtX1X%X=X=X=X=X1X=X@X$X=X=X1X1X=X=X*X*X1X%X%X%X=X$X%X%X@X@X$X@X@X@X@X@X@X@X@X@X@X$X@X@X@XXX@XXX@XoX%X9.XX@XoX@XoXXXXXXXXX|.c.|.|.|.x.l.l.l.x.l.u.q.q.y.q.q.q.q.q.q.5.5.5.5.5.5.5.7.4.4.",
"G G G G G K P P P P P P P R T T T T T T T T T W ~ W ~ ^ T ^ ^ / / / 2.q.q.q.q.q.q.q.q.q.q.q.q.q.q.q.q.q.q.q.q.q.y.q.q.q.q.l.l.y.u.l.l.l.q.7.7.7.7.7.7.7.4.4.7.7.7.4.4.9.9.4.4.5.5.2.4.7.7.7.7.7.5.5.4.5.7.7.7.7.7.5.7.q.q.^ wXwX$X=X=X=X=X=X=X1X1X=X1X1X1X5X1X2X1X1X1X1X1X1X6X1X1X1X1X1X1X1X6X6X6X5X6X6X1X1X6X1X1X5X1X6X1X1X1X1X2X2X6XeXgX8X6X6X6X8X6X8X8X6X6X6X6X8X6X8X8X8X8X8X8X8X8X8X8X6X6X8X8X8X6X8X8X6X6X6X6X6X6X6X6X6X6X6X6X6X8X8X8X6X8X6X8X8X8X8X8X8X8X6X6X6X6X1X6X6X6X6X6X6X8X6X8X6X6X6X6X6X6X6X6X2X6X+XU W T T T T P P P U W W W q.1X2X=X1X=X1X=X*X*X=X=X=X*X=X1X1X%X$X*X%X=X1X1X=X%X@X%X%X%X%X%X%X%X#X@X$X%X$X@X#X@X@X@X@X@X$X@X@X@X@XoXoXoXoX@XoX@X@X` q.y.q.7.4.7.4.4.5.5.4.5.2.1.` ` ` ` ` ` ' ' / ' ' ^ ^ / ' ^ ^ Q Q Q T W T W T ",
"] ] ] 5.5.w.w.w.w.w.w.w.w.u.h. Xh. X X X X X X X X X X Xw.v..X X.X.X' f d d b b b l d f f d d d b b n n n H n H n n b n b n n H m n H d w.}.|.@X&X-X&X&X@X.X.X@X@X@X&X&X0.-X-X-X-X-X-X-X-X-X-X-X-X-X-X-X-X-X-X-X=X-X-X&X&XeXwX%X1X=X=X1X=X=X=X=X=X1X1X1X1X1X1X1X1X1X1X1X1X1X1X1X1X1X1X1X1X=X6X6X1X1X1X6X1X1X1X1X1X1X1X1X2X1X1X1X2X1X1X6X6X5X6X6X6X8X6X8X8X6X8X6X6X6X8X8X8X8X8X8X8X8X8X8X8X6X8X8X6X6X6X6X6X6X6X6X6X6X6X6X6X6X6X6X6X6X8X8X6X6X6X6X6X8X8X8X8X6X6X6X6X6X6X2X6X8X6X6X6X8X6X6X6X8X6X8X6X6X6X6X6X2X6X1X=X=X%X%X=X>X%X#X$X%X%X#X%XXX=X1X1X1X1X1X1X2X=X=X=X*X*X=X=X=X*X$X=X*X*X=X1X1X%X$X%X@X%X%X$X@X%X%X@X@X$X@X@XoXoXoXoX@X@X+X@X@X@X@XXXoXoXoX@X@XXX%X=X}. X X X X}. X}. X Xl.l.h.l.v.v.h.h.h.u.u.u.w.w.q.u.w.w.w.u.w.w.w.w.w.w.w.w.w.",
"7.8.7.q.q.q.y.l.l.l.l.l.l.l.v.}.}.|.|.|.XX|.XX+X@X@X@X@X|.@X@X@X+XwX}.H J P P I P P P P P P P P P P T U T T T T T T U T U T T T T T T ^ l.7.v.8X6X6X8X8X6X6X6X8X8X6X6X6X|.1X6X2X1X1X6X2X2X6X6X6X6X8X6X6X6X8X6X6X6X6X6X6X6X1X%X1X1X1X=X=X=X=X=X=X=X*X1X1X=X1X1X1X1X1X1X1X1X1X1X1X1X=X1X=X=X=X1X6X1X1X1X1X1X1X1X1X1X1X1X1X%X@X1X1X1X1X1X1X1X6X6X6X6X6X6X8X8X6X8X8X8X8X8X8X6X8X8X8X8X8X8X8X6X6X8X6X6X6X6X6X6X6X6X6X6X6X6X6X6X6X6X6X6X8X8X8X6X6X6X6X6X6X8X8X8X8X6X6X1X1X1X2X6X6X6X6X6X8X6X6X6X6X6X6X6X6X2X6X6X6X1X6X6X2X2X2X6X2X2X1X=X=X=X1X6Xv.=X1X1X1X1X1X1X1X1X=X=X$X%X=X1X%X$X%X*X%X=X*X=X1X*X=X%X@X%X$X$X@X%X$XoXoXoXoXoXoX+XoXoXoXoX+X@XoXoX@XoX@X@XXXoXoXoXXXoX=X=X=X*X*X=X=X*X*X$X$X$X$X$X$X$X@X@X@X@XoXXXoXXXXXXX|.|.|.|.}.}.x.}.}.}.}.v.x.",
") ( / / / / ` ` ` ` ` 1.1.2.1.4.7.7.7.7.7.7.7.q.y.y.y.y.y.y.y.y.q.l.x.~ ~ ^ ~ W W Q Q ^ ^ ^ ^ ^ ^ ^ / / / / / ) ( ( ( ( ) ) / ` 1.1.1.y.z.e.7.XXXX@XoX@X@X@X@X@X@X@X@X@Xl.@X$X@X@X@X@X@X@X$X@X$X$X$X$X$X@X*X$X$X$X@X%X%X%X=X1X1X1X6X1X=X=X=X=X=X=X=X1X=X=X=X=X%X=X1X$X1X1X1X1X=X1X1X=X1X=X1X1X6X1X1X5X1X1X1X1X=X=X=X=X2X|.y.=X=X=X1X=X1X1X1X8X6X6X8X8XeX8X8X8X8X6X8X6X6X6X8X6X6X8X6X8X6X6X6X8X6X6X8X8X6X6X6X2X6X6X6X2X6X6X1X1X6X6X6X8X6X6X6X6X2X1X6X6X8X8X6X6X6X2X1X6X6X8X6X6X6X6X6X6X6X6X6X6X6X6X6X6X8X6X6X6X2X=X=X1X=X1X1X1X=X*X=X=X=X1Xx.=X6X1X1X1X1X%X1X=X*X=X=X=X%X=X=X%X%X=X%X%X%X%X%X%X%X%X$X%X$X%X#X%X$XoXoXoXoXoXoX+XoXoXoX+X+X+X+XoXoXXX@XoXXXXXoXoXXXXXc.c.c.x.x.x.x.x.l.u.l.x.l.x.u.u.u.y.y.y.q.y.y.q.q.q.0.0.0.7.7.5.4.7.4.5.4.1.1.",
"` 1.` ` ` ` 1.1.1.2.2.2.5.4.4.7.0.q.q.q.q.q.q.y.l.u.l.l.y.l.x.l.v.l.$XnXnXnXbXbXbXbXnXnXnXbXnXnXnXnXmXnXmXnXnXmXnXmXmXmXnXnXnXtXkXkXlXlXkXgX=XXX@X@X$X$X$X$X$X$X*X*X$X$Xx.$X*X$X$X$X$X$X@X$X$X$X$X$X$X@XXX=X=X%X$X%X%X=X=X=X%X1X1X5X1X=X=X=X=X=X*X=X1X=X*X=X=X=X=X%X$X=X1X1X1X1X1X1X=X=X1X=X1X6X1X1X1X1X1X1X1X=X1X=X1X1X=X=X1X=X1X1X=X1X1X1X6X6X6X8X8XeX8X8X8X6X6X6X8X6X6X6X8X6X8X8X8X6X6X6X6X6X6X6X6X6X1X6X1X1X6X6X6X1X6X1X1X6X6X6X8X6X6X1X1X2X6X6X6X6X6X6X6X6X2X2X2X1X6X6X1X6X8X6X6X6X6X6X6X6X6X1X6X6X6X5X6X6X1X1X1X1X6X1X1X1X*X=X1X=X1Xx.=X1X=X1X=X=X1X1X=X$X=X=X%X=X1X%X%X%X=X=X%X=X=X%X$X%X$X@X$X@X@X@X$X@XoXoXoXXXXXoXoXOXOXoXoX@X+XoXoXoXXX@X$X|.XXXXoXXX|.|.XX|.c.}.c.}.c.}.x.x.x.x.c.c.x.l.l.l.l.u.y.l.u.l.u.y.q.q.q.q.q.7.7.0.q.7.7.4.",
"/ ` ` ` ` ` ` 1.` 1.1.2.4.4.2.4.7.7.7.0.q.q.q.y.y.y.y.u.l.l.l.l.l.l.l.=X=X=X-X=X1X1X=X=X=X1X1X1X1X1X2X6X6X6X8X6X6X6X6X6X6X6X6X@XXX6X=X6X8X8X$X@X$X$X@X$X$X@X$X$X*X$X$X=Xl.@X*X$X*X$X$X$X@X$X$X$X$X@X$X@X@X$X%X$X%X%X%X%X=X1X1X1X=X1X1X=X=X=X=X=X=X=X1X=X%X%X%X%X=X=X1X=X=X1X1X1X1X1X1X1X=X=X1X1X=X=X1X1X1X1X1X=X1X1X=X=X1X2X%X=X1X1X=X=X1X6X6X6X8X8X6X8X8X8X8X6X6X6X6X6X6X6X6X6X8X8X8X6X6X6X6X6X8X6X6X6X6X6X2X6X2X1X6X6X1X1X1X1X6X6X6X6X6X6X1X1X6X6X6X6X6X6X6X2X2X1X1X2X6X6X1X1X6X6X1X1X1X6X6X6X6X1X1X1X5X5X1X1X1X2X1X1X1X1X1X1X=X=X1X1X1Xx.=X1X1X=X=X=X*X1X*X$X=X*X%X*X=X=X$X%X=X=X%X=X$X$X@X@X@X@X@X@X@X@X@X@XXXoXoXXXXXXXoXXXoXoXoX#X@XoXoXoXXXoXoX|.XXXXXXXX|.|.|.|.c.c.c.c.x.c.x.c.x.x.x.x.x.l.l.u.y.y.y.l.l.u.u.q.q.y.0.7.q.7.0.7.0.0.7.7.",
"/ ` ` ' / ` ` 1.` ` 1.2.2.4.1.4.7.7.q.q.q.q.q.y.y.y.l.y.q.l.l.l.l.v.x.y.y.y.y.l.l.x.l.l.x.c.c.c.c.c.B.XXXXXXc.XXXXc.c.c.c.c.|.x.XX|.c.c.c.XXoX@X@X$X$X$X$X$X$X$X$X$X$X=Xl.@X=X=X=X$X=X$X$X$X$X$X$X$X*X$X$X%X$X$X%X%X%X%X=X%X1X1X=X=X=X=X*X=X=X=X=X=X=X%X%X%X%X%X=X=X=X%X=X=X1X1X1X1X1X1X=X=X1X1X1X=X1X1X1X1X=X=X=X1X=X1X=X=X1X1X1X1X1X1X1X1X1X6X6X6X6X6X8X8XwX8X8XeXeX8XeX8X6X8X8X8X6X8X6X6X6X8X6X6X6X6X1X1X6X2X2X1X6X6X6X1X=X1X6X6X6X6X6X1X1X1X1X1X6X6X6X6X5X2X2X1X6X6X1X1X1X1X6X6X1X6X6X2X6X6X6X1X6X1X6X2X2X1X1X2X1X1X1X1X1X=X$X=X1X1X1Xx.*X1X1X1X1X%X@X$X=X*X=X%X*X*X1X*X$X%X=X1X%X%X@X@X$X@X@XoX@XoX@X@X@X@XXXXXoXXXoXoXoXoXoXoXoXoX@X@XoXoXXXXXXXXXXXXXXX|.|.|.c.x.x.x.c.c.x.c.}.x.x.l.x.x.l.l.u.l.l.y.y.l.l.u.y.y.q.q.0.7.q.7.7.7.7.7.7.7.",
"^ / / / / ` ` ` ` ` 1.1.5.2.1.4.5.7.7.q.q.q.q.y.y.y.y.y.q.l.l.l.y.x.x.l.l.l.v.}.x.c.|.|.|.XXXXXXXXXXoXoXXXXXXXXXoXoXXXXXXXXXXXXXXX|.XXXXXXoX@X@X@X$X$X@X$X$X$X$X$X$X$X%Xl.$X=X=X*X%X%X$X$X$X$X$X$X$X$X@X$X$X$X$X$X$X%X%X=X=X1X=X=X1X=X=X=X=X=X=X=X=X*X*X%X=X%X%X=X=X=X=X=X=X1X=X=X=X=X=X*X=X=X1X=X1X1X1X1X1X1X=X=X=X$X=X=X1X1X1X1X1X*X1X1X=X1X1X6X6X6X6XwXlXlXnXxXnXnXnXnXeX=X8X8X8X6X6X5X6X6X6X6X6X6X2X1X1X1X1X1X1X1X1X1X1X=X6X1X6X6X6X6X1X1X1X1X1X1X1X1X6X6X2X2X1X1X2X5X1X1X1X6X5X1X1X1X6X6X6X1X6X1X1X2X1X1X1X1X1X1X1X=X=X1X1XXX1X1X1X1Xx.$X1X1X=X1X=X$X%X=X=X=X%X%X%X1X*X*X$X%X$X$X$X%X$X@X@X$X@X@XoX@X@X@X@XXXoXoXoXoXXXoXoXoXoXXXoX@X@X@XoXXXXXXXXXXXXXXX|.|.c.x.c.l.x.c.c.c.x.x.x.x.l.x.l.y.y.l.l.l.y.y.u.y.u.l.y.y.y.7.7.0.7.7.7.7.7.5.7.",
"^ / / / ` ` ` ` ` ` 1.1.5.4.1.1.4.7.7.q.q.q.q.y.y.y.y.y.y.l.l.y.l.v.y.q.l.v.l.x.x.|.|.|.x.c.XXoXXX|.XXoXXXXXXXXX|.XXXXXX|.|.|.|.|.XXXX|.XXXXXX@X@X@X@X$X$X$X$X@X$X$X$X%Xk.$X*X=X%X$X%X$X$X$X$X$X$X@X$X@X$X$X$X$X$X$X%X%X=X=X=X1X=X=X=X*X=X=X=X=X%X*X=X1X=X%X=X1X%X=X=X=X%X=X=X=X=X=X=X=X=X%X1X1X=X=X=X1X%X=X=X=X=X=X%X=X=X=X1X1X=X1X=X=X1X1X1X1X2X2X2X=X1XcXlXkXcXlXgXxXxX8X$X8X6X6X6X6X1X5X6X1X5X1X1X6X6X1X1X6X1X1X1X1X1X=X=X1X2X6X1X1X1X1X1X1X=X1X1X1X2X1X1X1X2X1X1X1X6X1X1X1X1X6X5X1X6X6X6X6X6X6X6X1X1X6X1X1X1X=X=X=X=X=X1X=X1X1X=X1X1Xx.=X1X=X%X=X1X%X$X%X$X%X=X$X*X*X$X%X$X$X$X$X$X%X$X@X@X@X@X@X@X$XoXXXoXoXXXoXoXoXoXXXXXoXoX@X@X@XoXoXoXXXXX|.XXXX|.|.|.|.c.c.|.x.x.x.x.x.x.x.x.x.l.l.l.l.y.l.u.u.y.y.u.y.l.y.y.y.y.8.7.q.0.7.7.7.5.5.7.",
"^ / / / ` ` ` ` 1.` ` 1.4.4.1.4.4.4.7.7.7.0.q.y.y.q.l.y.y.u.l.y.y.x.y.q.l.x.l.l.x.x.|.|.x.x.XXXX|.c.XXXXXX|.XXXX|.XX|.XX|.XXXX|.|.XXXX|.XXoXXX@X@X@X$X@X@X@X@X@X$X$X%X%Xy.$X=X$X*X$X$X$X$X$X$X$X$X@X$X@X@X$X$X$X=X*X$X%X=X=X1X=X=X1X=X=X=X=X=X=X=X*X*X=X=X1X1X1X1X1X*X*X=X=X=X%X$X=X%X%X%X$X%X1X=X=X=X=X=X1X%X$X%X1X=X=X=X=X=X=X1X1X1X1X1X1X=X1X1X=X=X=Xx.5X8X8X8X8X5X6XeX@X=X8X8X6X6X6X6X1X1X1X1X1X1X1X2X=X1X1X1X=X1X=X=X*X=X1X6X6X6X1X1X1X1X1X1X1X1X1X1X1X5X1X1X1X6X5X1X2X5X1X6X6X1X5X6X6X6X6X1X5X5X1X2X2X1X1X=X1X1X=X=X=X1X1X*X1X1X1X1Xx.=X=X*X$X=X%X*X%X%X%X%X$X%X$X$X$X$X$X%X%X%X%X%X@X@X$XoXoX@X@X@XoXoXXXoXoXoXoXoXoXoX@XoXoX@XoXoX@XoXoXoXXXXXXX|.XXXX|.|.|.c.c.x.v.x.l.x.l.x.x.x.l.l.x.l.k.y.x.l.y.y.y.q.y.y.0.8.y.q.7.7.0.7.5.0.7.0.0.",
"^ ^ ^ / ` ` ` ` / ` ` ` 5.4.1.4.7.7.7.q.7.0.q.q.y.q.y.y.q.y.y.y.y.l.l.l.x.x.l.k.c.|.}.c.x.c.|.XX|.|.|.XX+X|.XXXXXX|.|.XXXX|.|.|.|.|.|.|.oXoXoX@XoX$X$X@X$X$X@X@X$X%X@X@Xk.$X=X=X$X$X$X$X$X$X$X%X$X$X$X$X@X$X%X$X=X$X$X=X%X=X1X1X=X=X=X=X%X$X=X=X=X=X$X=X=X1X1X1X=X%X%X%X%X=X=X$X%X%X$X%X%X%X$X=X1X1X1X=X1X1X%X=X1X*X*X%X*X%X=X=X=X2X1X1X1X1X=X=X=X=X=X6XXXz.$X@X+XB.OXOXoXoX6X6X6X6X6X1X1X1X1X1X1X1X1X1X1X1X1X1X=X1X1X=X=X=X1X6X6X6X6X1X1X1X1X1X1X1X=X=X6X5X1X1X1X1X1X6X6X1X1X1X1X6X1X1X5X6X6X6X5X6X6X1X1X1X1X=X=X1X1X=X=X1X1X=X*X1X=X=X=Xv.$X1X=X%X%X%X%X1X%X$X$X$X@X@X%X%X$X@X%X@X$X@X@X@X@X@X@XoX@X$X@X+XoXoXXXXX@XoXXXoX@X@X@X@X@X@X@X@X@XoXoXoXXXXXXXXXXXc.|.|.x.|.x.v.x.y.c.x.|.c.x.y.l.x.l.y.y.y.y.y.y.y.P ` l.7.0.q.7.7.0.7.5.7.7.7.0.7.",
"Q ^ ^ ) ( 1.` ` ` ` ` ` 2.4.2.2.5.7.7.q.5.7.q.y.y.y.y.y.q.y.l.y.y.l.l.y.l.x.v.c.c.c.c.c.c.c.|.|.|.|.XXXXXXXXXXXXXXXXXXXXXXXX|.x.}.XXXXXX@XoXXX$X@X@X@X@X$X@X@X$X$X@X$X%Xy.@X*X*X$X$X$X$X$X$X$X$X$X$X$X$X$X%X%X$X=X$X$X%X1X1X=X1X=X=X=X=X%X=X%X%X$X%X%X=X%X=X*X$X%X=X=X=X*X$X%X%X%X%X%X%X%X%X%X1X1X1X1X1X*X1X1X=X1XoX@X$X*X$X*X*X=X1X1X1X1X1X=X=X=X1X1X=X=XoXXXoXoX+X$X=X%X5X1X1X6X6X6X2X1X1X1X2X6X6X1X5X6X1X1X1X*X1X1X1X1X1X=X1X6X6X6X1X1X1X1X1X=X1X1X1X1X6X1X1X2X1X1X5X1X1X=X1X6X1X1X1X1X6X1X6X6X1X1X1X1X1X1X1X1X1X1X1X1X1X%X=X%X*X=X=X=Xx.+Xx.x.x.c.c.|.|.XX$X@X$X@X$X$X@X$X$X@X%X@X$X@X$X@X@X@XoX@X@X@X@XoXoXoXoX@X@XoXoXXXoXoX@X@X@X@XoXoXoXXXXX|.XXXXXXXX|.XXXX|.|.l.u.x.x.c.x.c.c.x.k.l.x.l.y.y.y.y.y.y.q.|.v.q.q.q.q.7.7.7.7.5.4.7.7.7.7.",
"W ^ ) ( / ` ` ` ` ` 1.1.2.1.1.1.4.4.5.7.4.7.0.q.y.y.y.q.y.y.y.q.q.l.l.l.k.k.l.x.x.c.x.c.c.x.}.XX|.|.|.XXXXXX|.XXXXXXXXXXXXXXXXy.4.XXXXXXoX@X@X@XXX@X@X@X@X@X@X@X@X@X$X%Xk.$X$X$X$X=X$X@X$X$X$X@X$X=X%X$X$X%X*X$X$X=X=X*X=X=X=X=X%X=X1X=X%X%X=X*X*X$X=X=X%X$X*X=X%X%X=X=X%X%X%X%X$X$X$X%X%X=X=X1X=X1X1X1X*X1X=X1X%X@X*X1Xv.8.=X*X=X1X=X=X=X=X=X1X1X=X1X=X=X8XeXeXeXeXeXgXeX2X1X6X6X6X6X2X1X1X2X1X6X6X2X2X1X1X1X1X1X1X1X1X1X1X1X6X6X1X6X6X1X1X1X1X1X1X=X1X1X1X1X=X1X1X1X1X1X1X1X=X1X1X1X1X1X2X6X6X2X1X1X1X1X1X1X=X=X=X=X=X=X*X=X=X%X*X=X=X=Xx.XXc.z.y.x.c.x.XX#X@X$X$X@X$X$X@X%X@X$X%X@X%X@X@X@X@X@XoX@X@X@X@X@XoXoXoX@X@XoXoXoXoXoXoXoXXXoXoX@X+XoXoXXXoXXXXXXXXX|.|.|.|.x.x.|.x.x.l.x.c.x.l.l.x.l.k.y.y.y.y.y.y.y.y.q.y.7.q.5.4.5.7.7.7.q.7.7.7.",
"W ^ / / / ` ` ` ` ` ` ` 1.1.1.1.4.5.7.7.7.7.q.q.q.y.y.q.q.y.u.y.y.l.l.y.l.k.k.l.x.x.x.c.x.x.x.|.c.|.|.|.XXXXXXXXXXXXXX|.XX|.|.$XqX|.XXXXoX@XXX+XoX@X@XoX+X+XXX@X@X$X$X%Xl.@X=X=X@X@X$X$X$X$X@X$X$X%X=X%X%X%X=X$X%X=X=X=X$X=X$X%X*X=X=X=X=X=X=X=X$X*X=X=X$X$X=X=X$X$X%X%X%X$X$X$X$X$X$X$X%X=X=X=X=X=X1X1X=X=X1X*X=X=X%X%X=X8X$X=X=X=X=X=X=X=X=X=X=X$X=X=X=X=X=X=X=X=X=X=X=X1X1X1X6X6X6X1X1X1X1X6X6X2X2X2X6X2X1X1X6X1X1X1X1X1X1X2X1X1X1X6X1X1X=X=X=X1X1X=X1X1X1X=X=X=X1X=X1X1X=X=X2X=X1X=X1X6X1X1X1X1X2X1X1X1X1X=X=X=X1X=X=X1X=X%X%X%X=X%X=Xv.XXk.x.z.x.x.c.1X%X@X$X@X@X$X$X@X$X$X$X%X$X@X$X@X@X$XoXXXoXoX@X@X@XoXoXXX@XoXoX@X@XoXoXXXoX@X@X@XoXoXoXoXXXXXXXXXXX|.|.|.XX|.|.|.|.x.x.l.l.x.x.x.l.x.l.y.q.y.y.y.y.y.y.q.y.q.7.q.7.7.7.7.5.7.0.7.7.5.",
"W ^ ^ / ( ` ` ` ' ` ` / ` ` 1.1.4.4.7.7.4.7.7.q.y.q.y.q.y.y.y.y.y.k.y.y.l.l.k.x.x.y.l.x.x.x.x.|.x.c.|.|.|.XX|.|.XX|.XXXXXX|.|.|.}.|.XXXXXX@XXX@XoX@X@XXXXXXXXXoX@X$X*X=Xl.$X=X=X$X@X$X$X@X$X$X$X$X%X%X%X$X$X*X$X$X=X%X*X*X=X=X=X$X=X%X=X=X=X=X=X$X$X=X=X$X*X$X$X%X%X%X%X=X$X%X%X@X$X$X$X%X=X$X$X=X%X=X=X1X=X=X=X=X%X=X%X=X=X$X*X=X1X=X=X=X=X=X$X=X*X=X=X1X6X2X1X1X1X1X1X1X6X1X2X6X6X6X6X1X=X1X1X6X6X6X2X2X2X1X5X1X1X1X1X1X=X=X1X6X1X1X1X1X1X=X*X=X=X1X1X2X1X=X=X=X=X=X=X1X=X1X1X=X1X1X1X1X1X1X1X1X1X1X1X1X1X1X=X=X=X=X=X=X=X*X*X%X%X$X&X=Xv.x./ ` 1.` / / XX$X$X@X@X@X@X$X@X@X$X$X$X@X$X$X$X$X@XoXoXoXoXoXoX@XoXoXoX+XoXoXoXoXXXoXXXoXoXoXoXoXXXXXXXXXXXXXXX|.|.|.|.|.|.|.}.x.x.x.x.l.x.x.x.l.x.l.q.q.y.y.y.y.y.y.q.y.q.5.7.0.7.7.q.7.7.7.7.7.4.",
"W W ^ ` / ( ` ` ` ` ` 1.` ` ` 1.1.2.4.7.4.5.7.q.q.y.y.y.i.y.y.y.y.l.y.y.y.k.y.y.k.x.x.x.c.x.c.|.|.|.x.x.|.|.|.|.|.|.|.XXXXXXXX|.|.|.|.XXXXXXXX@XXXXX@XXXoXXXXXXX@X@X%X=Xl.@X@X=X=X$X@X@X@X$X@X@X$X%X=X%X$X%X*X$X$X=X=X$X$X$X$X=X=X$X*X=X=X=X*X=X=X$X=X=X$X$X$X$X$X$X@X$X%X%X$X%X%X%X$X%X$X*X*X$X=X%X%X=X=X=X=X=X$X$X=X=X=X%X=X=X2X1X=X=X*X1X=X$X=X=X=X=X6X6X6X6X6X6X6X6X6X6X6X2X6X6X6X2X1X=X2X2X2X6X2X2X2X2X5X1X1X1X1X1X1X1X1X6X2X1X1X1X1X1X=X=X=X1X1X1X1X=X1X=X=X=X1X1X1X1X1X=X%X=X1X=X=X1X1X1X1X1X1X1X1X1X=X1X=X=X=X$X$X%X&X%X=X%X$X&X=Xx.c.^ ' 1.' / ' c.@X@X@X@X@X$X$X@X@X$X$X$X@X$X%X@X@X@XoXXXoXoX@X@XoXoXoXoX@X@X@XXXoX@XXXXXXXXXXXXXXXXXoXXXoXXXXXXXXXXXy.u.|.|.}.x.|.|.c.x.x.c.x.l.x.l.l.y.q.q.y.q.q.y.q.0.y.q.7.0.0.7.0.0.7.7.0.0.7.4.",
"T W ^ / / / ( ( ' ` ` ` ` ` ` ` 1.4.4.7.4.4.7.q.q.q.y.y.y.y.u.y.y.y.y.y.y.k.z.k.k.x.x.x.x.x.x.x.|.x.|.|.|.|.XXXX|.|.|.|.XX|.|.|.|.c.|.|.|.XXXX@X@XXX@X@XXXXXXXXXoX$X$X$Xl.@X$X*X*X$X$X$X@X@X@X$X$X@X$X$X=X*X=X$X$X%X=X=X*X=X=X*X=X=X=X=X=X=X*X$X$X*X=X=X%X$X$X$X$X%X$X%X%X$X$X$X$X$X$X$X$X%X=X$X=X*X%X%X%X%X%X=X%X%X$X%X=X=X%X*X1X1X=X=X=X=X=X=X=X1X1X=X8XeX8XwXeXwX8X8X8X6X6X2X6X6X6X2X1X1X1X1X2X6X6X2X5X1X1X1X1X1X6X5X6X1X1X6X6X1X1X1X1X1X1X=X=X1X1X1X1X1X1X$X=X=X=X1X1X1X1X1X1X=X1X1X=X1X1X=X=X1X1X1X1X1X1X1X=X=X=X=X=X=X%X$X%X%X=X%X=Xx.|.W ` 7.` ^ ^ XX@X@X$X$X@X$X$X@X@X$X$X$X$X@X@X@X@X@XoXoXoX@X@XoX@XoXoXoX@X@X+X+XoXoXoXXXXXXXoXXXXX+XXXXXXX|.XX|.y.|.x.x.XX|.|.|.|.c.c.x.l.x.x.x.x.x.l.y.y.q.q.q.q.q.y.q.q.q.0.7.0.7.0.0.5.7.7.7.7.4.",
"T ~ ^ ^ ^ / / ( ( / ` ` ` ` ` ` 1.4.4.4.5.4.7.8.8.q.y.y.q.y.y.y.y.k.y.y.y.l.k.x.z.x.x.x.x.x.x.c.c.x.}.|.|.XXXXXX|.|.|.XX|.c.}.y.y.|.}.XXXXXXXX+XoX@XoXXX@XXXXXoX+X@X@X$Xl.$X$X*X$X$X$X@X@X@X@X@X$X$X$X$X$X$X=X=X$X=X%X=X=X=X=X=X=X$X=X%X%X1X=X*X%X$X*X=X%X%X%X$X=X%X%X=X%X$X$X@X@X@X@X@X$X$X$X$X=X%X=X=X%X%X*X=X1X=X$X=X*X$X*X=X1X=X%X=X=X=X=X=X1X=X=X=XkXwXeXeXhXeXeXeXeXeX2X2X2X1X6X1X1X1X2X1X1X2X2X6X1X1X1X1X1X1X1X1X1X1X1X1X6X1X1X1X1X=X=X1X1X1X1X1X1X1X1X@X1X=X%X1X1X1X1X1X=X=X1X1X=X1X1X=X1X1X1X1X1X1X1X=X=X%X=X=X%X1X=X%X%X%X=X=X1Xx.|.G P Q T T P 4.@X@X@X@X$X*X%X@X@X$X$X@X$X$X$X@X@X@XoXXXoX@X@X@X@X@XoXoX@X@X+X@XXXXXXXXXXXoXoXoXXXoXXXXX|.|.@XXXc.XX|.XXXX|.x.|.|.x.x.x.x.x.x.x.x.x.k.y.y.y.y.y.y.q.^ 1.y.0.7.q.7.7.7.7.7.5.7.7.7.7.",
"T W ^ ^ ^ / ( ( ( ( ' ` ` 1.` ` 1.1.4.4.7.4.7.7.q.q.y.7.q.y.y.y.y.l.k.y.y.x.y.y.y.y.l.x.c.c.x.c.x.x.x.z.c.|.XX|.c.|.c.c.|.}.B.y.7.|.|.XXXXoXoXXXXXoX@XXXXXXX|.oXoX@X@X$Xl.@X$X$X$X$X@X@X@X@X$X@X$X$X$X$X$X$X$X=X=X=X%X*X=X=X=X=X=X=X=X$X=X1X1X*X$X$X%X=X1X%X%X%X=X*X%X*X%X%X@X$X@X@X$X@X@X@X%X@X$X%X%X=X%X*X=X%X%X*X=X*X=X=X*X*X=X=X=X=X=X$X%X%X=X%X1X|.@X2X5XeXgXeXeXgXkX1XoX1X6X6X1X1X1X1X1X1X2X2X2X2X1X1X1X1X1X1X1X1X1X1X1X1X1X6X1X1X1X1X1X1X1X1X1X=X1X=X%X1X1X1X1X1X1X=X1X=X1X=X1X1X=X=X=X=X=X=X1X1X=X=X1X=X=X*X1X1X=X=X=X%X%X=X1X1X1Xl.+X}.}.|.|.XX}.@XXXoX$X@X$X%X$X$X@X$X@X@X$X$X$X@X@X@X@XoX@X@X@X@X@XoXoX@X+X@X@X+XoXoXXXXXXXoX@XXXXXXXXXXX|.XXXXXXXX|.|.XXXX|.|.|.|.x.x.x.x.x.x.y.k.x.k.y.l.y.y.q.y.q.9.0.q.q.7.7.0.7.0.7.7.4.7.7.0.5.",
"W W ^ ^ ^ ^ ( ( / ( / / ` ` 1.1.1.1.4.7.5.4.7.7.7.7.8.7.7.q.y.y.y.l.l.y.y.y.y.k.y.y.y.y.x.x.x.x.x.x.x.c.|.}.XX|.c.c.c.c.x.}.c.XX=X}.|.|.|.XXXXXXXX@XoXXXXXXX|.XXXXoXoX@Xl.@X$X$X$X$X@X@X@X@X@X$X$X@X@X@X$X$X%X$X%X%X$X=X=X$X=X*X=X*X=X=X=X1X=X%X$X*X%X%X%X$X$X$X%X=X@X$X$X$X@X@X$X$X@X@X$X$X$X%X$X$X%X%X%X$X*X=X%X*X*X=X@Xl.$X*X=X1X=X=X=X%X@X@X$X$X1Xx.1.c.XX$X@X@X@X%X1X4.l.1X1X1X1X1X1X=X1X1X1X2X1X2X1X1X1X=X1X1X1X1X1X1X1X1X1X1X$X$X1X1X1X=X1X1X=X1X=X1X1X1X1X=X=X1X1X=X1X6X1X1X1X1X1X=X1X1X1X1X1X=X=X=X=X=X=X*X1X=X*X*X=X%X%X%X1X1X1Xl.@X6X%X1X1X=X%X1X@X$X$X$X$X$X%X$X@X@X$X%X$X@X$X@X@X@XXXoXoXoX@X@X@X@XoX+XoX@X+X+XoXoXoXoXXXXXXXXXXX|.XXXX|.|.XXXXXXXXXXXXXX|.c.|.|.c.x.x.q.y.x.y.k.x.k.y.y.y.y.y.y.0.|.v.7.0.7.7.7.0.7.7.7.4.7.7.5.4.",
"Q ^ ~ ^ ^ ) / ( ( / ` / ` ` 1.1.` 1.5.' 7.7.7.7.7.8.7.7.7.0.y.y.q.y.y.l.y.y.x.y.l.y.y.y.l.k.l.x.x.x.x.x.c.c.XXc.c.c.c.|.x.x.x.x.x.}.|.|.XXXXXXXXXXXXoXoXXXXXXXXXXXXX@X@Xk.@X$X$X@X@X@X@X@X$X@X@X@X@X$X$X$X$X%X$X$X$X*X*X=X=X=X=X=X$X$X@X%X%X*X=X%X%X$X@XXXoX%X%X$X%X@X@X$X@XoX$XoX$X$X%X%X$X%X%X$X*X%X*X$X$X=X=X*X*X*X*XXX}.$X$X=X=X=X=X=X%X%X$X$X=X=X=X5.W T T T I P T Q ^ =X1X1X1X1X1X1X1X1X1X1X1X1X5X1X1X1X1X1X1X1X1X1X1X1X1X2X1X6X6X=X=X=X=X=X=X=X*X*X1X=X=X=X=X=X1X=X1X1X1X1X1X1X1X1X1X1X1X1X1X=X1X%X=X=X%X*X=X=X=X%X1X=X$X%X%X1X1X1Xx.oX@XXXXXoXoXXXc.$X$X@X$X$X$X$X@X@X$X%X$X$X$X$X@X@X@XXXoXXX@XoXoX@XoX@X+X@X@X+X@XoXoXXXXX|.@X@XXXXXXXXXXX|.XXXX|.XXXXXXXXXX|.|.XX|.c.x.x.y.l.l.y.y.k.y.y.y.y.y.y.y.y.5.7.q.0.7.7.5.7.7.7.4.4.7.7.4.1.",
"W ^ ^ ^ ^ ) / / / / / ' ` 1.1.1.1.1.4.' 7.5.7.7.7.7.8.q.7.q.y.y.y.y.y.k.x.x.y.y.k.y.y.y.l.k.l.x.x.k.l.x.x.c.}.|.x.x.|.|.|.}.c.c.x.c.|.|.XX|.XXoXXXXXoXXX|.XXXX|.XXXXoX@Xk.+X@X$X$X@X$X@X@X@XoX@X@X@X$X$X@X$X$X@X$X*X*X$X$X=X*X=X%X*X=X$X%X$X$X%X$X$X*X$XoX@X%X%X%X@X@X$X$X@X$X$X@X$X$X=X$X$X$X%X%X%X%X*X$X$X=X=X=X$X$X$X=X*X@X$X=X1X=X%X=X%X%X=X=X=X=X1X=Xy.y.y.y.q.7.7.u.%X1X1X1X1X1X1X1X=X1X1X1X1X1X1X=X1X1X1X1X1X1X=X1X1X1X2X1X6X1X%X1X=X=X*X=X=X*X=X%X1X=X1X=X%X=X1X1X1X1X1X1X1X1X1X=X1X1X=X1X1X1X1X$X%X*X$X$X$X=X=X=X=X=X$X$X%X%X1X1Xx.@X@XoX@X@XoX@XXX@X$X$X$X$X$X@X@X@X$X@X@X$X$X$X$X$X@X@XXXoXXX@X@X@X@XoX@X@X+X+XoXXXXXoXXXXXXXoXXXXXoXXXXXXX|.|.|.XXXXXXXXXXXXXXc.c.x.x.x.l.l.x.y.y.x.y.y.y.y.y.q.q.q.7.7.7.q.7.7.7.7.7.7.7.4.4.5.7.2.",
"W W ^ ^ ^ / ( / / / ` ' ` 1.1.1.1.1.4.7.4.4.7.7.7.7.7.q.8.q.y.q.y.y.q.7.y.y.y.l.x.l.k.k.l.l.l.x.x.x.k.x.c.}.|.|.x.c.c.|.c.}.x.x.c.}.c.|.XXx.XXoXXXXXoXXX|.XXXX|.|.XXXXXXy.XX@X@X@X@X$X$X@X@X+X@X@X@X@X@X@X$X$X@X$X$X*X*X$X*X$X=X*X$X$X$X$X%X*X$X$X%X%X*X%X@X$X@X@X%X%X%X%X@X@X@XoX$X$X$X$X$X$X$X%X*X=X*X$X$X%X=X%X%X=X%X$X=X@X=X=X=X=X=X=X%X=X=X=X1X=X=X1X1X2X2X2X2X1X1X1X=X*X=X1X1X1X2X%X=X=X1X=X1X1X1X=X1X1X1X1X1X1X=X1X=X1X2X1X1X1X=X1X=X=X=X=X1X$X%X%X1X1X%X=X*X%X1X1X1X1X1X1X1X1X1X=X1X1X1X1X1X1X1X$X%X=X$X%X=X=X=X=X=X=X$X@X=X=X=X1Xl.XX$X@X@X@XoXoXXX@X$X$X$X$X@X@X@X@X@X@X$X@X$X@X$X$X@X@XoXXXXXoXoXoXoXoX@XoXoXoXXXXXXXXXXXXXXX+X@XoXoXXXXXXXx.XX|.l.XXXXXXXX|.c.c.c.c.c.x.x.x.x.y.y.y.y.y.y.q.q.q.7.7.8.q.7.q.7.7.4.4.7.7.7.4.4.5.5.4.",
"W W W ^ ^ ^ / / / / / / ` 1.1.1.1.1.4.1.4.4.7.7.5.7.7.q.7.0.0.7.7.y.y.7.q.y.y.y.l.l.k.x.l.k.l.x.x.x.k.x.c.x.x.x.x.x.c.|.c.|.c.x.x.}.|.|.XXXX|.XXXXXXXXoX|.XXXX|.|.oXXXXXy.XX+XXX@X@X$X$X@X@XoX@X@XXX@XXX@X$X$X$X$X$X$X$X$X*X$X$X$X$X$X$X%X*X%X$X$X*X$X$X@X@X@X@X@X$X%X$X$X@X@X%X$X$X$X$X$X$X$X@X$X$X%X%X$X$X%X%X%X%X%X*X$X@X$X=X=X=X%X=X=X%X%X%X$X=X=X=X=X=X*X%X=X%X$X$X%X%X=X=X=X=X1X1X=X=X=X1X=X=X1X1X=X1X1X1X1X1X1X1X1X1X1X2X2X1X1X=X=X1X=X$X=X=X%X>X1X1X1X1X1X=X1X1X1X1X1X1X1X1X1X1X1X1X1X1X1X1X=X1X%X=X%X%X=X=X=X=X=X%X=X$XXX%X=X=X1Xl.c.XX$X@X$X@X@X@X$X$X%X$X@X@X$X@X@X@X@X@X@X@X@X@X@X$X@XXXXXXXoX@XoX@X@X+XoXoXOXoXXXXXXXXXXXXXoXXXXXoXoXXXXX|.XXx.y.oXoXXXXXXX|.|.|.}.|.c.x.c.x.y.y.y.y.y.y.y.q.y.7.7.1.4.y.q.7.5.4.1.5.7.5.4.5.4.7.4.",
"W W W ^ ^ ^ ^ / ' / ' ` 1.` 1.1.1.1.5.4.4.4.5.4.7.7.7.7.7.7.0.7.7.y.q.8.q.y.y.y.k.y.k.k.k.l.l.l.x.k.x.x.x.x.x.x.x.x.c.x.c.|.c.e.4.|.}.|.XXXXXXXX|.XXXXXX|.|.|.XXXXXXXXXXy.|.@X@X@X@X@XXXoX@XXX@X@XXXoXXX@X@X@X$X$X$X$X$X$X*X$X$X$X$X$X$X$X%X%X%X%X$X$X$X@X@X@X@X$X@X$X$X%X$X$X$X@X$X$X$X%X$X$X$X%X=X$X=X=X@X%X$X%X%X$X*X$X$X*X$X$X=X=X=X=X*X%X%X=X$X%X=X1X=X=X*X$X%X=X$X$X%X*X=X=X=X1X=X=X=X=X%X%X=X1X%X1X1X=X1X1X1X1X1X1X1X=X1X1X1X1X=X1X1X=X%X%X=X%X1X1X1X1X1X=X%X=X=X=X1X1X1X1X1X2X1X1X1X1X1X1X=X%X%X%X%X=X%X%X=X=X1X%X=X%X$X%X%X=X=X1Xl.x.y.XXXXXX|.XX|.$X$X$X@X@X$X@X@XoX@XoXoX@XoXXXoX+X@XXXXX+X@XoXoXoXoXXXXXoXOXoXoXXXXXXXoXXXXXoXXX|.XXoXXXXXXXXXXXXXXXXXXXXX|.|.|.x.x.|.x.c.c.x.y.y.u.q.y.y.y.q.q.7.7.q.q.q.q.7.7.7.4.5.5.4.4.5.4.4.4.",
"W W ^ ^ ^ / / ^ / / ` / ` 1.1.1.1.4.1.4.5.5.4.5.7.5.7.7.7.8.7.7.7.y.q.7.q.y.y.y.y.l.y.y.y.l.y.l.x.x.x.c.c.c.c.c.x.x.x.x.c.c.c.+X-Xx.|.c.c.|.}.}.|.|.|.XXXXc.c.XX|.XXXXoXy.XX$X@XoXXXoX+XXXXXXXXXXXXX|.XXXXXX@XoX$X$X$X$X$X=X$X*X$X$X$X$X$X$X$X@XXX$X@X$X$X$X$X@X$X@X%X$X%X$X%X$X$X$X@X$X$X$X$X$X%X%X=X%X$X%X@X$X%X$X$X$X*X$X=X=X=X*X=X=X=X%X1X=X$X$X%X%X%X$X$X@X$X@X@X@X@X@X=X=X=X=X=X=X=X=X%X=X%X%X=X%X=X1X=X1X=X1X1X1X1X1X1X1X=X=X=X1X1X1X*X1X%X%X%X*X1X1X=X1X1X=X=X1X1X1X1X1X1X1X1X1X1X1X1X=X%X*X1X%X$X*X$X%X%X%X1X*X%X$X*X%X$X%X%X%X1Xl.l.y.+X9.l.c.1.7.$X$X@X$X@X@X@X@XoXoXoXXXoXXXoXoXoX@XXXoXXX@XoX@XXXXXXXXXXXoX+XoXOXXXoXXXOXoXXXXXXXoXXXXX|.|.XXXXc.XXXXXX|.c.x.x.l.x.x.x.c.x.x.y.y.y.y.y.y.8.8.8.8.7.l.y.7.7.7.7.5.4.4.4.4.4.5.5.5.q.",
"T W W Q ^ ^ ^ / / / ( / ` ` ` ` ` 1.4.4.4.5.4.7.7.5.5.8.7.7.q.4.7.y.q.7.7.q.y.y.k.x.l.l.l.y.y.y.l.x.x.x.c.c.x.x.c.x.x.c.x.x.c.c.c.c.c.c.}.|.c.}.XXXX|.XX|.|.c.|.XX|.XXoXy.XX@X@XXXXXoXoX@X5X6X6X6X6X1X2X8X=X@X@X@X$X$X$X$X$X$X$X$X@X@X$X$X$X$X@XoX$X@X@X$X$X$X@X@X@X@X$X$X@X%X%X$X%X$X@X$X@X@X$X$X$X%X%X$X%X$X@X$X$X*X*X$X$X*X=X1X1X1X%X=X1X1X%X$X$X=X@X$X6X1X6X6X6X6X6X6X6X$X=X=X=X%X1X=X=X=X=X%X1X%X%X=X*X=X=X=X1X1X1X1X1X=X*X1X1X1X1X=X%X%X%X%X%X*X1X1X=X1X1X1X$X*X1X1X1X1X*X1X1X1X1X1X1X1X*X%X=X=X*X=X*X$X%X%X=X*X%X@X$X=X%X%X$X%X%X=Xl.l.v.|.v.v.@Xq.|.$XoX$X$X@X@XoXoXXXXXXXXXXX@X@X@X@X@XXXXXXX@X@XoXXXoXXXXXXXoX@XoXoXoXoXoXXXOXXXXXoXXXXXXXXXXXXXXX|.XXXXc.|.XXc.c.x.y.x.z.x.c.x.l.y.y.y.y.q.8.y.8.7.8.7.7.7.7.7.4.4.7.2.2.2.2.4.5.7.7.",
"T T Q W ~ ^ ^ / / / ' ` ` 1.1.` ` 1.1.4.4.4.4.5.7.7.7.7.7.7.7.7.0.q.q.q.7.q.q.y.y.l.l.x.y.y.l.l.l.x.l.u.x.x.x.x.x.c.x.x.x.x.c.c.x.c.c.x.c.}.}.c.XXXXXX|.XX}.c.c.XXXXXXXXy.|.XXXX|.oX@XXXc.8X6X6X5X5X=X1X8X1XXXoX@X$X$X$X$X%X$X@X$X$X@X$X@X$X$X$X$X@X@X@X@X@X@X@X@X$X$X$X@X$X%X%X$X@X$X@X$X@X$X$X%X$X*X$X$X$X$X$X@X@X$X$X$X$X$X$X%X1X1X=X=X%X=X=X%X=X=X@XwXkX8XeXwXwX8XwXhX8X@X%X$X$X%X=X=X%X%X=X=X1X%X%X%X=X=X=X1X1X=X1X1X1X=X=X=X=X=X%X=X1X1X%X%X%X%X%X%X*X=X=X%X$X%X=X1X=X=X=X=X=X1X1X1X1X1X%X%X*X=X=X%X$X$X%X%X=X=X%X$X%X%X%X%X%X$X%X=Xk.l.1.l.|.v.` 4.y.x.x.$X$X=X1X=X=X=X*X*X$X@X@XoXoXXXXXXXoXoX@X$X@XoX@XoXXXXXoXoXoXoXoXoXoXXXXXXX|.XXXXXXXXXXXXXXXX|.XXXXXXc.c.c.x.x.u.x.c.x.x.y.y.y.y.y.y.8.q.0.7.q.7.8.7.7.7.4.4.2.4.1.1.2.2.4.4.7.7.",
"T T W W W ^ ) / / / / / ` ` ` 1.1.1.1.1.4.4.4.5.4.7.7.7.7.7.7.7.y.q.7.q.q.y.q.y.k.y.y.x.l.y.k.l.k.l.l.x.x.x.x.x.x.x.x.x.x.x.x.x.x.x.x.c.c.x.c.c.XX|.|.|.|.}.}.|.XXXXXXXXy.XX@XoXoX|.XX|.1.1X6X1X=X5X=X1X8X+Xx.@XoX$X$X$X$X$X$X$X*X$X@X@X@X@X$X$X@X@X@X@X@X@X@X+X@X$X$X@X@X@X@X$X@X@X$X$X@X$X@X$X$X$X$X$X$X$X$X$X$X$X$X=X|.u.$X$X$X$X$X=X=X$X$X%X$X=X1X1XXX1X1X1X1X=X%X1X5Xi.B.$X$X$X$X%X=X=X=X*X%X=X=X%X1X1X%X=X=X=X=X1X1X=X=X=X*X=X*X%X%X=X1X1X%X%X%X%X%X%X*X%X%X%X%X=X1X=X*X=X%X%X=X%X=X1X1X%X=X=X%X%X$X%X@X%X%X%X%X%X*X$X$X$X%X%X%X%X%Xy.l.7.l.x.l.@X@X|.|.@XoXXX1X$X$X%X$X$X%X=X@X}.|.XXXXXXXX@X@X@XoX@X@X@XoX@XoXoXoXOXOXXXXXXXXXoXXXc.XXXXXX|.XXXX|.XX|.XXXXc.c.B.c.z.x.x.x.x.y.x.y.y.y.y.q.q.0.7.0.7.7.7.8.7.7.7.4.7.4.2.1.2.2.1.4.7.5.5.",
"I T T T W ^ ^ ^ / / / / ' ` ` ` 1.1.` 1.1.1.1.4.4.7.5.7.7.7.y.7.7.q.y.7.q.y.y.y.k.y.k.k.k.y.y.k.i.y.l.x.x.x.x.l.l.x.x.x.x.x.x.y.4.x.x.x.x.c.x.c.c.XX}.|.}.}.}.}.XXXXXXoXy.|.@X@XoXXX@X@X/ x.$X$X$X$X$X@X@X( }.oXoX@X$X$X$X$X@X$X$X$X@X$X@X@X@X$X@X@X@X$X$X@XoX+X@X@X@X%X@X#X%X%X@X@X$X$X@X@X@X@X@X$X$X$X$X$X*X$X$X$X$X$X@X@X@X$X$X$X$X$X$X@X$X$X$X%X=X=Xc.XX$X@X@XoXXX+Xc.c.+X@X$X$X=X=X%X=X=X=X$X%X=X=X=X=X$X%X=X=X=X=X=X=X=X*X%X=X%X%X%X%X%X%X@X%X$X%X%X$X$X%X$X$X%X=X=X*X=X=X*X=X=X=X=X=X1X%X=X%X%X%X%X%X$X@X%X%X$X%X%X@X$X$X$X%X$X$X$Xy.v.q.5.8.y.5.q.c.c.@X@XXX$X+X@X@X+X+X@X@X+X|.q.oXXXXXXXoXoX@XoX@Xq.4.XX@XoXoXoXOXoXXXXXoXoXoXoXXXXXXXXX|.4.l.XX|.|.XXXXXXXXB.c.x.u.x.x.y.y.x.y.8.P 2.y.0.0.0.y.0.7.q.` 1.7.7.4.1.1.7.4.T W 5.5.5.7.4.",
"P T T W W ^ / ^ ^ / / ' ` ' ` / ` ` 1.` 1.1.1.1.7.7.4.7.7.7.q.q.7.7.8.8.q.q.q.8.y.y.l.y.y.y.y.y.y.y.y.y.y.l.l.l.l.x.x.x.x.x.x.y.l.x.x.x.c.c.c.c.c.}.}.|.|.c.c.|.XXXXXXoXq.XX@X@X@XXXoX$X|.T T ^ ^ W W W I 5.@XoX@XoX@X$X@X$X@X@X$X$X@X@X@XoX@X@X@X@X$X%X@X@X@X@X@X@X@X@X@X@X@X%X@X@X@X@X@X@X@X@X@X@X@X$X@X@X@X@X@X$X@X@X=X=XoX@X@X@X@X@X$X$X*X@X|.$X=X%X6XXXx.x.k.x.x.k.z.%X$X@X@X$X$X%X$X$X$X=X$X=X=X$X$X$X$X$X$X=X=X=X=X=X=X$X$X%X*X=X$X$X%X$X@X$X$X$X@X$X$X$X$X$X@X%X=X%X%X%X%X*X=X*X*X=X=X=X$X$X$X$X$X@X@X@X$X@X$X%X$X@X$X$X$X$X$X@X$Xy.x.u.v.|.l.x.c.x.|.$X$X|.$X@X$X@X+X#X#X#XXX@X@XXXXXXXXXXXoXoXoXoXXX@XoXoXXXXXXXXXoXoXoXoXoXoXXXc.XXXXXX}.@X@X}.XX|.XXXXXXB.B.B.x.x.c.x.y.y.u.y.y.+Xy.7.q.q.y.q.7.7.7.7.7.7.7.4.5.4.7.1.y.l.4.5.5.5.5.",
"P T T W W ~ ^ ^ ^ ^ ^ / ` / ` ` ` ^ T ` ^ ) ^ / / ` ' / 7.7.7.7.4.4.7.8.8.q.7.y.y.y.y.y.y.y.y.y.y.y.y.y.l.l.l.l.l.x.c.x.x.x.x.c.@Xx.x.x.x.c.c.c.c.c.|.c.c.c.c.|.XXXXXXoXq.XX@X|.x.oX$X@X=X@X}.XX|.XX|.x.|.@XXXoXoX@X@X@X@X$X@X@X$X%X$X@X@XoX@XoX@XoX@X$X@X@XoX@XoXoX+X$XoX+X@X@X@XoX@X$X@X@X@X@X@X@X@X$X@X@X$X@X@X$X@X@X@XXXoX@X@X@X@X@X@X$X@X@Xc.$X*X$X1X8X8X6X1X6X6X6X1X$X@X@X$X$X$X%X@X@X%X%X$X$X$X*X$X$X$X$X$X=X%X$X=X=X=X$X$X*X$X$X$X$X$X$X@X@X$X$X@X@X$X$X@X@X$X%X%X$X%X=X*X$X=X$X%X=X%X=X$X$X@X$X%X@X@X$X$X$X@X$X@X$X$X$X@X@X@X@X$Xy.x.q.0.k.|.y.q.x.|.@X@X$X+X+X+XXX|.XX|.|.XXXXXXXX|.|.XXXXXX@XoXXX@XoXXXoXXXoXXXXXoXXXoXXXoXoXXXc.|.XXXXXX@X+X|.XXXXXXXXXXc.c.c.x.c.x.x.y.y.y.y.y.l.y.7.7.q.y.y.8.7.7.q.7.7.7.4.7.5.4.4.7.8.4.7.7.4.5.",
"P I T W W W Q ^ / ^ / ( ` ( ( ` ` P ^ |.q.y.8.y.y.k.k.4.` 7.7.7.7.7.8.7.8.0.0.8.y.q.q.5.1.1.1.4.1.5.1.4.u.l.x.u.l.x.x.x.l.x.x.x.y.x.c.x.x.c.c.x.k.c.XXc.c.c.|.|.|.XXXXoXy.XX$XXXl.$X@X$X@X@X%X%X%X$X$X%X$X@X@X@XXX@X@X@XoX@X$X%X$X@XoXXX@X@X@X@X@XoX@X@X@XoX+X@X@X@X+X+X@X+X@XoX@X@X@X@X@XoXoXXX@X@X@X@X$X@X$X$XXX@X@X@X@X@XXX@X@X@X@X@X@X@X@XXXXX%X$X$X@X$X=X$X$X$X*X$X@X@X@X$X@X$X@X%X$X$X%X%X$X$X$X$X$X=X$X$X$X=X=X$X%X=X=X$X%X$X$X$X$X$X$X$X@XoX@X@X@X@X@X@X@X@X@X$X$X$X$X$X%X$X$X%X%X$X%X=X$X$XoX@X%X$X$X$X$X$X@X@X%X%X@X$X$X$X$X@X$Xy.l.y.v.XXv.c.x.XXXX@XoX$X@X@X$X@X@X@X@X@X$XXXXXXXXX|.XXXXXX@XXXXXXXoXoXoXXXoXXXoXoXXXXXXXOXOXXXc.c.XXXXXXc.c.XX|.XXXXc.c.c.c.c.x.x.x.x.y.y.y.y.y.q.q.7.7.y.y.y.q.0.7.4.7.7.7.4.5.7.4.4.2.1.5.5.4.5.5.",
"P I T W W W ^ ^ ^ ^ / / 1./ ( 1.1.^ ;.1.1.4.4.4.1.1.4.4./ 7.7.7.7.8.8.7.7.7.7.7.8.q.y.d   X X X . X   n x.l.x.x.l.l.l.l.l.x.x.x.x.x.x.x.l.x.x.c.c.x.c.c.c.c.c.|.|.XXXXXXy.XXoX@X@X+X@X@X@X@XXXXX@X@X@X@X@X@X@X@X+X@X+X+X@X$X$X$X$X@X@X@X@X@X@XoXoX@X@X@X@XoXoX@X@X@X@X@X@X@X@X@XoX@X@X$X+X+X@XXX@X$X@X@X@X@X@X@X@XXX@X@X+X|.oXoXXX@X@XoXoX@X@Xx.@X%X$X$X@X$X$X$X$X$X@X@X@X@X@X@X$X$X@X$X$X$X%X%X@X@X$X@X$X=X$X@X@X@X=X$X%X%X$X$X%X%X$X$X$X$X@X@X@X+X@X@XoX@X@X@X@X@X@X$X@X@X$X$X$X$X$X$X$X%X$X%X%X$X@X$X$X$X@X$X$X@X@X$X@X@X$X$X@X@X$X$X$Xy.x.q.' ` 7.' ^ q.|.XXoXoX@XoXoXXXXXXXXX|.XXXXoXXXc.|.oXoXXXoXXXXXoXXXoXoXc.B.oXXXXX|.XXXXXXXXc.XXXXXXx.|.XXXX|.c.c.c.}.c.c.x.z.x.x.x.x.y.y.k.i.y.y.y.8.7.7.y.7.7.7.7.7.7.5.7.5.7.7.4.4.1.1.4.4.4.4.4.",
"P I T T W Q W ^ ^ ^ ^ / ( ` 1.( 1.T W ( / / / ` ` ` 4.1.1.7.7.7.9.7.7.7.7.7.7.7.8.q.y.` ' ' ^ ' ' ` Q ^ x.l.l.l.x.x.l.l.x.l.l.l.l.l.l.x.x.x.c.c.c.}.c.|.c.c.c.c.XXXXXXoXy.XX+XXX@X@X@X@X+X+XoXoX@X@X@X@X@X@X@XoX@XoXoX@X@X@X@X@X$X%X@XoX@X@X@X@X@X@X@X@XoX@X+XoX@X@X@X$X@X$X$X@XoXoX@X@XoX@X@X+X@X@X@X@X@X#XoX@Xu.|.@X@X|.x.XXXX@X@X@X@X@X@XXX|.%X$X$X$XoX$X%X$X$X@X@X@X@X$X$X$X$X$X$X$X$X@X$X%X@X@X@X@X$X%X@X@X@X@X%X$X$X$X$X$X%X%X@X$X@X@X@X@X$X$XoX@X@X@X@X@X@X@X+X@X@X@X@X$X$X$X$X$X$X$X%X%X$X@X$X$X$X@X$X$X@X$X@X@X$X@X@X@X@X@X$X$X%Xy.l.l.+X|.x.+Xc.l.|.XXXXXXXXXXXXXXoXXX|.oXoXXXXX|.c.XXoXXXXXXXXXXXXXXXXXXXXX}.XXXXXXc.XX|.XXXXXXc.|.|.c.|.|.|.XXc.}.c.c.c.x.c.c.z.x.y.y.y.y.y.y.y.7.y.8.0.7.7.8.7.5.7.7.7.7.q.5.5.7.5.4.1.4.4.4.4.2.2.",
"P I I T W W ^ W W Q ^ ) / / ` ( 1.1.T T T W ~ ^ ^ ^ W / 5.5.5.7.5.7.7.7.7.4.7.7.8.7.q.@X=X@XXXXXXX@XXXx.y.y.k.y.l.x.k.l.l.l.x.l.l.l.l.x.l.x.c.x.x.c.|.XXc.}.c.c.|.XXXXoXy.XXoXoX@XoXoXoXoXXXoXXX+X+X@XoX@X@X@X@X+XoX+X$X@X@X@X@X$X@X@XoXoX@X@X@X@X@X@XoX@X@X@XoX@X@X@X@X@X@X@X@X@X@XoXoXXXXXoX+X@X@XoX@X+X+X@X@XXXXX@X@X$X1XoXx.c.|.|.|.}.c.c.XXoX+XoXXXoX@X@X@XoXXXoXXXXXoXXXoXoXoX@X@XoXXX@X@X@XoX@XoX@X@XoX+X@X@X$X@XoX@X+X@X$X$X@X@X$X@X@X@X$X@X@XoXoXXXoXXXoXoXoXoXoX@X@X$X$X*X$X@X$X$X$X$X@X@X$X@X@X%X@X@X@X$X@X@X@X@X@X@X@X@X@X@X%Xy.l.y.y.q.q.q.y.c.c.@XXXXXXXXXXXXXXXXXXX|.XXXXXXoXXXXXXXXXXXXXXX|.c.XXXXXX|.c.|.XX|.c.c.c.XXXXc.|.}.|.XX|.|.|.|.x.x.c.c.x.x.x.x.y.y.y.y.y.y.i.i.q.7.7.0.7.7.7.7.7.5.7.` 1.7.7.7.5.5.5.2.5.4.5.4.2.1.1.",
"P P I T W W ^ W W Q ^ ^ / ( ` / ` 1.4.4.4.7.7.4.4.7.4.4.4.5.5.7.7.5.7.7.7.4.5.7.7.7.q.4               i y.k.y.y.y.l.l.y.k.l.l.l.y.l.u.u.l.l.x.x.}.|.c.XX}.c.x.}.XXXXXXXXq.XXoX@X@X@XoXXXXXXXoXoX@X@X@X@X@XoX+X+X@X@X@X$X@X@X@X$X@X@X@XoXoXoX@XoXoX@X@X@X@X@X@X#XoXoX@X@X@X+X@X@XoXoX@XoXoXXXoX@X@X@X@X@X@X@X@X@X@X@X@X@X@X@X5.0.q.q.w.w.w.5.5.w.5.0.0.0.w.w.q.u.w.w.0.0.0.w.0.0.w.w.q.0.w.w.w.0.0.5.w.w.5.0.5.5.7.7.0.0.5.5.5.5.5.5.] ] ' ] 7.7.7.7.5.5.5.5.5.5.5.0.0.0.0.' |.=X@X$X%X$X$X$X$X$X$X$X$X@X$X@X@X@X@X@X@X@X$X@X$X$X@XoX@X@X$Xq.l.y.v.l.q.q.q.q.c.|.XX|.XXXX|.|.XXXX|.|.|.XXXXXXXX}.XXXX|.XXXX}.|.XX|.}.c.XXXX|.}.x.c.c.c.c.}.XX|.|.XX|.x.c.|.y.y.c.x.x.y.l.y.y.y.z.y.y.y.y.y.7.7.7.7.7.7.7.5.7.5.5.` 2.7.7.5.5.5.2.1.2.5.5.2.1.` ` ",
"P P I T T W W ^ W Q Q ^ ^ / ( / ` ` ` 1.1.1.1.1.4.1.1.1.1.5.7.7.7.5.7.5.7.5.5.7.7.7.q.' Q ^ ^ ^ ^ ^ R ^ y.k.y.y.l.l.l.l.l.l.x.q.w.l.u.l.l.l.c.}.}.c.c.c.c.x.}.XXc.c.XXXXq.XXoX+X@XoXoXoXoX+XoXXXoX@X+X#X#X@X@XoXoXoXoX@X@X@X@X$X@X@X@XoXoX@X@X@X@X@X@XoX@XoX@X@X@X@X@X@X@X@XoXoXoXoXoXoXoXoXoXoX@X@X@X@X@X@X@XoX@XoX@X@X$Xq.}.wX6X8XwXeXtXtXtXtXeXeXrXeXwXwXwXwXwX6X6X6X8XwXwXwXeXwXwX8X8X6XwXeXrXtXtXrXeXtXtXtXtXtXtXtXtXtXeXeXwX8X6XrX-X' v.u.l.q.}.6X=X2X6X2X6X6X6X2X6X*X` @X$X$X$X@X@X$X$X$X$X$X@X@X@X@X@X@X@X@X@X@X@X@X@X@X@XoX@X@X$Xq.k.q.0.9.7.l.y.y.l.7.y.XXx.|.XXx.c.|.l.x.XXc.c.XXoX|.c.XX|.x.|.c.c.c.}.c.c.y.u.}.x.y.x.x.x.c.x.y.x.c.|.x.x.x.c.k.x.y.y.y.y.y.y.y.y.y.y.y.y.y.y.7.7.7.7.7.7.7.7.7.7.4.y.y.2.4.4.2.5.1.1.2.5.1.1.2.1.` ",
"P P P T T W W W W W ^ / ^ ^ / / ^ ` 1.1.1.4.1.1.1.1.1.1.4.5.5.5.4.4.5.1.4.5.5.7.y.8.q.+X$X@X|.|.|.|.XX|.y.y.l.y.l.l.y.l.y.l.y.x.$Xl.x.k.l.x.x.x.x.c.c.x.x.x.XXc.c.c.XXXXq.XXoXoX@XoXXXXXXXoXXXXXXXoX@X@XoXoX@X+XoX@X@X@X@X@X+XoX@X@X@X@XoX@X@X@X@X@X@XoX+X@X@X@X@X@XXXXXoXoXoXoX@XoXoXoXXXoX@XoXoX@X@X@X@X@X@XoX@X@XoX@X|.q.6Xz.B.c.XXz.x.x.x.x.z.c.c.c.x.c.XXc.l.y.y.y.k.x.x.l.x.x.l.y.k.l.x.c.c.|.|.c.|.|.c.XXXXXXXXc.c.c.x.x.x.k.k.c.q.X f G J : J oXXXXXXXc.x.x.k.x.y.|.|.5.$X$X$X@X%X$X$X$X$X$X$X@XoX@X@X@X@X@X@X@XoX@X@XoX@X@X@X@X$Xy.y.7.1.4.q.9.q.k.y.7.7.l.q.y.7.7.y.8.` 7.XX7.7.x.x.7.y.|.q.5.y.i.5.5.y.5.7.1.9.y.4.4.8.1.5.y.1.5.4.4.l.x.x.x.x.l.x.u.x.i.y.y.y.q.y.q.y.7.8.y.7.4.7.7.7.7.9.7.7.7.4.4.1.1.4.2.4.2.2.1.` 2.1.1.1.1.` ` ",
"L P P I T W Q W T Q ^ ^ Q ^ / ^ / ` ` 1.1.1.1.1.1.` 1.1.1.5.5.5.6.4.1.1.4.4.7.7.7.y.7.b 2 i 3 3 3 3 4 H y.y.y.y.y.y.y.y.y.l.y.y.y.l.l.x.x.x.l.l.l.c.c.c.c.x.x.XXc.c.c.c.q.XXoXXX+XoXoXXXoXXXoXoXoXoX+X@XoXoX@XXXXX@X@X@X@X@X@X+XoX@X@XoXXX@X@X@X@X@X@XoX@X$X@X@X@X@X@XXXXXXXoXoXoXXXoXXXXXoXoX@XoX@X@X@X+X@X@X@XoXoXoX@X4.*XXXXXXXXXy.4.1.2.1.1.1.4.4.4.4.4.4.4.^ ^ ) / ( 1.5.4.4.1.1.1.1.1.1.4.5.5.5.7.4.5.5.5.7.7.7.7.4.7.7.7.7.7.q.y.^ ] eXmXmXxX] ` 4.4.1.1.` ' / / ' ` q.^ 0.=X$X$X*X$X$X@X@X@X@X@X@X@X$XoX@X@X@XoX+X@X@X+X@X@X@X@X$Xy.x.7.v.k.x.XXl.k.|.+X|.x.y.x.x.y.l.y.l.XX7.y.y.l.q.y.|.x.y.y.x.y.8.y.y.4.y.l.l.1.k.l.3.y.x.1.c.@Xx.4.` x.x.x.x.x.x.y.x.y.y.8.5.7.q.7.y.7.7.7.7.4.1.5.7.7.7.7.5.5.2.4.4.2.1.4.2.1.1.1.1.1.2.1.1.` ` ` ",
"K P P I T T W T T W W W W ^ / ^ / ( ( / ` / ( ` ( ` 1.3.1.1.1.1.1.1.4.1.1.4.5.7.0.q.q.b f H H H n n 3 J k.y.y.y.y.y.y.y.y.l.l.y.y.l.l.x.u.u.y.l.x.x.x.c.c.c.x.c.c.c.c.c.y.XXoXXXoXXXoXoXoXXXXXoXoXoXoXoXOXoX@XXXXXXX@X@X@X@XoX@X@X@X@X@X@X@X@X@X$X@X@XoXXX@X@X@X+X@X@XXX+XoXXXoXXXXXoXXXXXoXoXoXoX@X@X@XoXoX@X@X@XXX@Xy.}.=Xc.XXXXXX4./ ` ` ` ( ` ` ( ( ( ( ^ W W W W W Q Q ) / / / ^ ^ ( ( ( ) ^ ) ^ ) ) ( ` 1.` ` ` ` ( ` ` ` 1.1.1.1.q.wXcXNXmXZX8Xm P P I T I I P I P I P ` ` |.1X$X$X@X$X@X@XoX@X@X@X@X@X@XoXoX+XoXoX+XoXoX@X@X@X@X@Xy.y.q.y.5.7.y.l.7.k.l.l.l.5.7.x.x.1.8.x.x.9.7.x.4.4.l.y.x.y.8.l.1.y.y.^ q.y.4.4.x.y.y.7.y.7.5.q.7.q.y.y.l.x.x.x.y.y.y.y.y.e.y.q.7.7.7.7.7.7.7.5.1.4.4.5.7.5.7.7.5.4.1.2.1.1.1.1.1.1.1./ ( 1.` ` ` ` ` ",
"K K K I I T T T T T W W W ^ ^ ^ ^ ^ ^ ^ ^ / / ` ` ` ` 1.` / ` 1.1.1.1.1.1.1.4.7.7.7.y.@X@X@X$X=X=X@X+Xv.y.q.y.q.y.y.q.q.q.y.y.y.y.l.y.y.l.y.y.y.l.x.x.c.x.x.x.x.x.x.x.x.q.|.XXXXXXXXXXXX|.XXXXXXXXXXXXoXXXXXXX|.XX+X@XXX@X@XoX@X@X@XoX@X@X@X@X@XoXoXXX@X@X@X@X@X@XoXXXoXXXXXXXXXXX|.XX|.XXXXoXoXoX@X@X@X@XoXoXoXXX@Xc.4.6Xx.XXXXXXc.7.z.y.x.x.x.z.z.i.y.y.y.y.7.y.e.e.y.y.7.x.l.x.k.y.y.k.l.k.y.y.y.q.y.y.y.l.x.x.x.k.y.y.y.l.x.x.x.x.z.x.8.1.1.1.` 1.1.7.e.e.9.7.5.5.7.7.5.5.7.e.4.$X%X@X@X@X@X@XoXoXoXoXXXoXoXXXoXXXXXXXXXoXoXoXoXoXoX@Xq.l.y.x.l.l.x.q.l.|.x.x.x.c.c.k.l.x.x.u.x.l.l.u.x.x.x.y.x.x.l.x.x.y.y.y.l.x.y.x.XXk.l.|.x.l.c.x.l.x.XXXXk.y.y.y.y.y.y.y.y.7.q.8.7.5.5.5.4.9.7.5.4.1.1.1.1.1.1.1.1.1.1.1.1.1.1.1.1.1.` / / / ( ` ' ' ' ",
"K K K I T T T T T T T T T W ^ W ^ Q W ^ ^ ^ / / / ' ` ` ` 1.1.1.1.1.1.1.1.1.1.7.5.7.7.8.y.y.y.y.q.y.q.q.q.q.y.q.q.q.y.y.q.q.y.8.y.l.y.y.y.y.y.y.y.l.x.x.l.k.y.x.y.y.x.l.7.x.|.|.XX|.|.XXXX|.}.c.|.XX|.XXXXXXXX|.XXoXoXoXoX@X@XoXoX@X@X+X@X@XoXoXoXoXXXoX@XoX@X@X@XXXoXXXXXXXXXXXXXXXXXXXXXXXoXXXXXoXoXoX@X@XXXXXXX@X1.@X@Xl.|.XXXX7.R 1.4.` 1.` 1.3.1.( Q Q U U W T W W W ! Q Q Q ) ( ) ^ ^ ( 4.4.4.` 1.( / ( q.4.4.4.4.1.1.( ) ^ ;.;.) ;.1.( / / ^ ) 1.7.9.7.8.7.7.6.9.4.4.3.5.9.q.u.%X@X@X@XoXXXXXXXXXoXXXoXXXXXXXXXXXXXXXXXXXXXXXoXoXoXq.y.x.XXc.XX}./ q.x.XXXXXXXX|.c.c.c.|.c.x.x.x.x.x.x.x.x.x.x.x.c.x.x.u.x.y.y.x.x.x.x.x.x.x.x.x.x.x.l.l.XXq.7.y.q.7.7.y.y.8.7.7.7.7.7.5.7.7.4.5.5.1.1.1.1.1.` 1.1.1.1.1.^ ^ 5.1.1.1.1.` / ` / / / ' ' / ",
"P P I T T T T T T W W W T T ^ W ^ ^ ^ / / / ( ` ` ` 1.1.1.1.2.5.5.5.5.4.4.5.5.7.7.q.y.q.y.y.u.y.y.y.y.y.y.y.y.y.u.y.y.y.y.y.y.y.y.y.l.l.x.l.k.l.l.x.x.x.x.x.x.k.y.k.x.x.q.|.|.|.XXoXXXXXXXXXXX|.}.|.}.|.XXXXXXXXoXoX@XoX@X@XXXoX@X@XoXXXoXoXoXoXXXXX@XXXXXXXoXoXXXXXXXXXXXXXXXXXXXXXXXXXoXXXXXoXXXXXoXoX@X@XoXXX@Xq.v.=Xx.l.XXc.7.^ R ` 1.1./ ` x.c.i.y.7.7.9.6.9.7.7.7.9.e.y.k.8.9.7.1.l.XXy.1.4.y.7.4.1.( / 0.u.l.y.y.7.y.y.y.7.8.e.8.8.7.5.4.4.1.4.7.8.k.z.x.z.x.k.i.8.8.k.e.y.x.x.l.$XoXXXXXXX|.XXXXXXXXXXc.|.XXB.XXXXXXXXXXXXXXXXoX@Xq.x.c.XX|.x.c.W ` y.c.c.XX|.XXc.c.c.}.c.c.x.x.x.x.c.x.c.c.x.x.c.x.x.y.x.k.i.i.x.x.x.x.y.x.x.l.y.x.l.y.+Xq.5.y.q.q.y.y.y.y.7.0.7.7.7.7.7.4.4.7.5.1.1.1.1.7.1.1.1.` ` 1.7.q.1.1.1.1.1.` / ( / ` ` / ' ' ",
"d d k k n n n G m n m H H G H G G G G G L L P P I P I I P P I I U I T T I I I U W W W T W ^ / ^ ^ ^ ^ ) ^ / / / / / / ) / / / ` / / / / ` ` / ^ ` 1.1.1.1.1.` ( 1.1.( ` W ^ 4.7.q.y.y.q.q.q.y.y.c.XX|.|.}.XXXXXXXXoX@X@X@X@X+X@XXX@XoXXXXXXXoXXXXXXXXXXXXXXXoXXXXXXX@XXXXXXXXX@XXXXXXXXXXXXXXXXXXXoXoXoX@X@XXX@X|.7.=Xx.|.|.c.i.1.^ R ^ / ` 7.y.|.c.y.x.z.y.e.i.x.c.z.z.z.z.XX&X+X$Xy.k.$X6X|.` 1.7.7.5.1.( / 5.l.l.k.7.4.y.+XXXoXOXXXXXc.x.c.x.x.x.y.c.z.x.+X%X$X$X$XXXXXXX@XXXXX@X+Xq.4.XXc.x.x.x.x.x.x.x.x.k.z.z.z.x.x.x.x.x.c.c.c.c.x.` 7.4.7.1.;.8.^ ' 4.y.y.y.y.y.y.q.q.y.y.q.7.7.q.7.0.7.5.7.0.7.8.7.5.9.7.5.5.3.5.7.5.4.1.6.7.5.5.7.6.e.OX5.` 1.1.1.1.1.1.1.1.1.1.1.` ( ` / ^ / ( / / ^ ^ / ) / ^ ^ W ^ / ^ ^ ^ ^ ^ W T T W T T T T T T ",
"R R R R R ^ ^ f Q ' ^ ^ ^ Q Q Q R R R ' ^ ' ' ' ' ' ' ' ' ' ` ] ] 5.w.w.w.w.u.u.w.w.u.w.w.w.w.w.u.u.w.w.w.w.w.w.w.] w.w.w.w.w.w.w.w.w.w.w.w.w.w.] ] ] ] w.w.w.w.w.h. X X Xu.w.h.w.w.5.] w.w.w.w.' XXXXXXXXXXXXXXoX@XoXoXoXoXoXXXXXoXXXXXXXXXXXXXXXXXXXXXXXXXXXXXXX|.XXXXXXXXoX@XXXXXoXXXXXXXXXXXXXXX@X+XXX@XoX@X4.@Xx.x.XX|.l.e.0.] R ^ ` y.=X1X=X=X$X%X=X$X@X@X%X=X=X$X%X=X1X1X6X1X@XXX8XeX=X|.|.+XoX+XXXx.x.c.+X@X|.v.k.@X=X=X=X$X=X1X2X1X2X=X=X1XXX1X5X=X6XeXeXeXeXeXeXeX8XwX1XXXXX=Xw.' ] ] 5.] ] [ ] ] ] ] ] ] ] ] ] [ ` ] 5.5.] [ [ ' ' ' ` ` ] ' P R ] [ ] w.w.5.] ] ] w.w.w.] ] ] ] ] [ ] ] ] ] ] ] ] ] ] ] ] ` ] ] ] ] ` ' [ [ ] [ ' ' ] ` ' ^ ^ ' ' ' ' ' ' ' R ] ' ' Q Q ^ ^ ' ' ^ Q ^ Q Q R R R R R P R Q Q Q R R R R R R P P R R R ",
"^ ^ / ' ` 5.5.Q ` 5.5.` ' ^ ` ^ ^ ' ' 5.5.5.0.7.7.7.7.7.7.5.7.q.l.@XXXoX@X$X$X$X$X@X$X@X@X@X@X@X@X$X$X@X$X$X*X*X@X@X@X*X=X=X*X*X*X=X=X=X=X=X=X=X-X=X*X=X=X=X6X6X6X8XqX-XqX@X@X=X8X6X1X=X5X6X=XwX|.4.+X|.XX+XoXoXoXXXoXoXXXoXoXXXXXoXoXXXXXoXoXXXXXXXXXXXXXXXXX|.|.|.XXXXXXoXoXoXXXXXXXXXXXXXXXXXXXXXoXoXoXoX@X7.|.%XoX+X@Xy.y.7.w.] ` ` q.=X1X1X1X=X=X=X=X=X$X=X=X=X=X=X=X=X=X=X=X=X@X$X=X=X=X1X1X1X1X1X1X%X%X%X=X=X$X$X$X=X1X1X1X=X=X1X1X=X1X1X=X=X@X$X=X=X=X1X1X1X1X1X1X1X6X6XeXxXkX6XeXwXwXeXtXeXrXeXeXtXtXtXtXeXtXrXeXwXwXwXeXeXeXwXwXwXeXeXeXwXwX8X6X( |.6X2X8X8X8X8X8XwXwXeXwX8X8X8XwXwX8X8X8XwXeXwX8X8X8X8X8X6X2X6X6X6X6X1X=X2X6X6X1X=X=X=X=X=X$X@X@X=X=X=X$X$X$Xl.=X@XXXx.q.h.v.v.h.l.h.l.q.q.q.7.7.7.5.` 7.q.q.q.7.7.y.l.l.l.y.u.l.v.}.",
"G G G G G G G P n n m H n f n l n n n H H H G G L P K G G G K K L ( 1.1.4.7.7.7.8.7.7.7.0.7.0.q.q.7.q.q.y.q.y.q.y.y.y.y.y.y.y.y.y.u.q.y.u.u.y.l.y.y.l.l.l.l.y.y.k.4.t & G T n   ^ c.x.x.x.x.x.y.=X7.x.@XoX+XOXOXXXXXoXoXoXoXoXXXXXXXXXXX|.XXXXXX|.|.XXXXXXXX|.XXc.}.XXXXXXXXXXoXXXXXXXXXXXXXXXXXXXoXoXoXXX@Xl.4.%Xc.XX@XXX7.1.7.[ ' ^ ` XX=X@X%X$X$X@X@X@X$X$X@X@X$X@X@X$X=X=X=X*X*X@X$X%X%X$X%X1X%X=X=X=X=X$X*X=X$X*X$X$X$X$X$X$X$X=X=X$X$X$X$X$X$XXX@X@X$X$X@X$X$X%X$X$X@X$XXX$X8X1X@XoXoX@X@X@X@X@X@X@X@XoXXXXXXXoXoXXXXXoX@X@X@X@X+X@XoX@X@X@X@X@X$X1X6X@XXXXXXXXXXXXXoXoXoXXXXXXXXXXXXX|.c.}.XXc.c.c.c.c.c.c.c.}.c.|.c.c.c.x.x.x.x.x.x.l.l.x.y.y.y.y.y.y.y.q.y.7.7.` 8.5.5.4.^ [ [ [ [ Q R Q W T I P K G m P P Q T T W W Q ^ Q Q Q W W W U ",
"P P P P P P R H H J G G G n H n n m G P J J P P R [ ' R I P P I P I ` 7.7.q.q.y.y.y.u.u.u.u.u.u.l.y.l.l.l.l.l.l.l.l.l.l.l.x.x.x.l.}.l.l.x.x.x.x.v.}.}.x.|.}.}.}.|.q..X8X6X8X8X|.w.|.}.|.|.}.c.}.c.@X5.XXoXoXXXB.oXXXoXoXoXoXXXXXXXXXXXXX|.|.|.XX|.XX|.c.c.|.|.|.c.|.XXXXc.XXoXoXXXXXXXXXXXXXXXXXXXXXXXXXXX|./ @X|.XXoX@X@Xx.9.w.' ] 9.q.$X@X$X$X*X*X$X@X$X$X$X$X@X$X@X=X=X=X=X1X*X=X*X@X=X=X1X1X1X1X1X=X=X=X=X=X*X$X$X*X$X*X$X=X*X$X$X=X$X*X=X$X$X$XoX$X@X@X$X$X%X%X=X$X*X@X$XXXx.oX@X$X$X$X$X$X$X$X%X$X$X$X$X@X@X@X$X@X@X@X$X@X$X$X$X$X$X@X$X=X=X=X*X*X$X5X%X@X@X@X@X$X@X$X$X$X$X$X@X@XXXoXXXXXoXoXXXXXXXXXoXXXXXXXoXXXXX|.XX|.|.}.|.|.}.x.}.x.c.l.x.x.x.l.l.l.l.u.y.y.` y.q.q.q.' ] ] ] ] [ [ Q ^ ^ T T I P K ` T ^ ^ ^ / ^ / / / / / / / ^ ^ ",
"G K L L P P G n H H H H H m H n f d m J P G J L P J J P R P P P P I ^ K ` q.q.q.y.q.y.y.y.y.y.y.q.q.q.u.u.u.y.y.u.y.l.l.l.l.y.l.l.l.x.l.l.x.l.l.x.x.x.x.x.x.x.}.x.x.-X-X@X$X1X6X=Xl.c.x.x.x.x.}.x.@XXX5.@XXXXXXXoXXXXXoXXXXXXX|.|.|.XXXXXX|.XX}.|.c.c.c.XX|.}.}.c.}.XXXXXXXX@XXXXXXXXXXXXXXXXXXX|.XXXXXXoX1.c.+XXXXXoX+X|.3.q.] Q [ 9.+X@X@X$X$X$X$X$X$X%X$X@X@X$X@X@X|.$X=X=X=X*X$X$X@X$X$X=X1X1X=X=X=X=X*XoX$X*X$X$X$X$X$X*X@X@X$X$X=X$X$X$X$X@XoX@X$X$X$X$X%X$X@X%X$X$X$X@X$X=X@X@X@X$X@X$X@X$X@X$X$X@X$X@X@X@X@X@X@X@X@X@X$X@X@X$X$X$X$XoXXX$X*X*X$X$XXX+X@XoXoXoXoX@X@X+X@XoXXXXXXXXXXXXXXXXXXXXXXXXXXXXXXXXXXXXXXXXX|.|.|.|.}.|.|.|.x.x.x.x.x.l.x.l.y.y.y.y.y.y.y.` y.q.q.7.' [ ] ] ' ' ^ Q Q ^ T I P P K ( / ^ W ` / ^ ^ ^ ^ ^ / ^ ^ Q W ",
"G K K K P I n 2 H n l n n l H l f d n P J H P J J J H H R P P P P P T W / 7.q.y.y.q.y.y.y.y.y.y.y.y.y.y.u.y.y.y.u.u.l.y.k.l.y.y.l.l.l.l.l.l.l.x.x.x.x.x.x.x.x.x.x.x.y.l.|.x.x.l.x.|.|.x.x.c.}.}.|.x.$Xl.y.@XXXXX|.|.@X+XXXXXXXXXXXXXXXXXXXXXXX|.c.c.x.c.|.XX|.c.x.|.|.XXXX}.XXXXXXXXoXXXXXXXXXXXXXXXXXoXq.q.@Xx.|.XX|.XXy.( w.w.[ ' c.=XoX@X$X$X$X$X$X@X@X@XoX@X@X$X|.6.z.=X=X=X=X$X$X*Xx.e.XX1X1X=X=X%X=Xc.e.z.$X@X$X*X$X=X}.) l.=X$X$X$X$X$X$X@X@X@X$X$X$X$X%X$X$X$X$X$X$X@X$X$X$X$X=X%X$X$X$X@X@X$X$X@X$X@XoXoX@X@X@X@X@X@X@X@X@X@X$X$X$X$XoX@X@X$X$X@X@X@XXX@X@XXX|.@X@X@X$X@XXXXXXX|.XXoXXX|.XXXXXXXXXXXX|.XXXXXXXXXX|.|.|.|.x.|.|.|.c.x.x.l.l.y.l.l.y.y.y.y.y.y.y.1.y.q.7.7.' ] [ [ ` ' R Q T T P I P K K / ` ` ^ 1./ Q Q ^ ^ ^ ^ ^ ^ Q W ",
"H K G G K I H i G n l m n i l i 3 f H H H n n H H H f H P P P P P P T W ^ 7.y.y.y.y.y.y.y.y.y.y.y.y.y.y.u.y.y.y.y.y.y.y.y.y.y.u.l.u.u.l.l.x.x.x.l.x.x.x.x.x.x.x.x.x.x.c.c.x.|.x.x.x.x.x.x.x.c.c.}.|.x.1X0.x.XX|.|.|.XX+XXXXXXXXXXXXXXXXXXXXXXXXX|.c.x.x.}.}.XXc.x.}.XXXXXX|.XXXXXXXXXXXXXXXXXXXX|.XXXXx.5.@X|.XXXXXXoXx.9.' ]  X[ 7.=X+X@X@X@X@X$X$X@X+X@X@X@X$X$X$XXX>X#X%X%X=X%X$X*X$X$X1X$X%X$X%X=X$X%XB.#X%X@X$X$X$X$X=Xy.#X%X@X$X$X$X$X$X@X@X@X+X$X$X$X$X$X$X@X$X$X@X$X$X@X$X$X$X$X%X$X$X@X@X@X$X$X#X@X@X#X@X@X@X+XoX@X@X@X@X@X@X@X@X$X$X@X+XoX@X@X@X@XoXoXoXoXXXXXoX@X+X@X@XoXXXXXXXXXXX|.XXXXXXXXXXXXXX|.|.XXXXXX|.|.c.x.x.x.c.x.x.c.x.x.l.l.l.l.l.y.y.y.y.y.y.q.` y.y.7.7.^ ' ' ^ ^ ^ T R P P P K K K G ~ ~ ^ R ` ^ Q Q W Q ^ ^ Q Q W W ",
"H G G G G Y U P G K K P P P I P I T P P P P K K H P L P T T T W W ^ 1.q.7.8.q.q.q.y.y.y.y.y.y.y.y.y.y.y.y.q.y.y.y.y.l.y.y.k.y.7.1.l.l.l.l.x.x.l.l.x.x.x.x.x.c.x.x.l.x.|.x.c.}.x.x.x.x.x.x.c.x.c.|.c.c.XX=X` c.|.|.|.XXXXx.|.XXXXXXXXXX|.|.c.XXc.c.c.c.c.x.x.x.x.x.c.|.XX|.c.|.|.c.XXB.c.B.XX|.|.XX|.|.1.+XXXXX@XXXXX}.4.u.] w.h.' +X*XXX@X@X+X@X$X@X@X@X@X@X@X@X$X@X=X8X1X@X$X%X%X%X*X$X2X1X=X$X$X$X%X$X$X$X$X%XoX@X$X$X$X$X5X8X1X@X$X$X@X@X$X@X+X+X@X@X$X$X$X@X$X$X$X$X@X@X@X@X@X@X$X$X@X$X$X$X%X@X@X@X@X@X@X@X@XoX@X@XoXXXoX@X@XoXoXoX@X@X@X@X@X@X@X@X@X@XXXoXoXoX@X@X@X@XXX+XoXXXXXXXXXXXXXXXXXXXXXXXXXXXXX|.XXXXXXXX|.|.x.x.x.x.x.x.l.x.x.x.x.y.y.l.y.y.y.y.y.y.y.q.` y.y.7.7.^ ^ T T I T T T T W W ~ ~ W ~ 1./ / ( ( Q ^ Q W Q Q ^ W Q W T ",
"H G G G G P P H G G K G U 1.4.1.7.4.4.4.4.9.7.4.4.4.q.7.4.1.1.1.~ q.|.7.7.7.7.y.y.y.y.0.y.y.y.y.y.y.y.y.y.q.y.l.y.y.k.y.y.y.y.7.5.y.l.l.l.l.l.y.y.l.x.x.x.x.x.x.x.l.x.x.x.x.|.x.x.x.x.x.c.x.x.c.x.x.|.x.@X+X` XX|.c.|.c.x.x.XX|.c.c.|.|.|.c.c.c.x.c.x.x.x.x.x.x.x.x.}.c.XXc.c.c.c.c.c.c.|.XXXXc.c.XX1.l.+Xu.XXXX}.|.q.q.q.w.w.] l.=XXX@X@X@XoX+X@X@X@X@X+X@X@X$X$X@X+X@XoX@X$X$X@X$X*X$X@X@X$X$X$X$X$X@X@X+X@XoXoXoX@X$X$X@X$X$X@X@X$X$X@X$X$X$X@XoX@X$X@X@X@X@X$X@X@X$X@X@X@X@X$X$X@X$X$X@X$X$X@X+XoX@XoX@X@X@X@XoXoXoXXXXX@XoXoX@XoX@XoXoXoXXX@XXXoX@XXXXX@X@XoXoX@X@X+XoXXX+XoXoXXXXXXXXXXX|.XXXXXXXXXXXXXXx.c.XX|.XX|.|.c.}.x.x.x.l.y.x.x.x.x.k.y.y.y.u.y.y.y.y.q.q.` y.7.7.7.T Q I T W I W W Q ( ;.3.4.4.4.3.3.7.1.^ / ^ ^ ^ Q W Q W W W T ",
"K K K K P P U L K P I P ~ 7.4.7.8.7.q.y.q.y.k.x.c.x.v.k.k.y.k.y.7.x.y.7.0.7.7.0.q.y.q.y.y.y.y.i.y.y.y.y.y.q.y.y.i.y.k.k.y.y.y.x.-Xk.y.l.l.l.x.y.y.l.l.l.x.x.x.x.x.x.x.x.x.x.x.x.x.x.x.x.x.c.x.x.l.l.|.c.l.=Xu.7.|.x.|.|.x.l.c.|.c.x.x.x.c.c.c.|.c.x.x.x.l.x.x.l.x.x.}.c.c.c.x.c.c.c.c.|.|.c.c.c.XX8.4.*X|.q.XXXX|.l.x.v.4.q.0.w.@XXXXXoX@XoX@X@X+X@XoX@X@XoX@X@X@X@XoXXXXX@X$X%X$X@X$X$X@X@X@X@X$X@X$X@XoXoX@XoXoXoX@X@X$X$X$X@X@X@X@X@X$X$X$X@X@XXXoX@X@XoX@X@X@X@X@X$X@X@XoXoX@X@X@X@X@X@X@XoXoXoXoX@XoX@X@X+XoXoXoXoXXXXXXXoXoXoXoXoXoXoXXXXXoXXXXXoXXXXXoXoXXXoXoXXXXXoXXXoXXXXXXXXXXXXXXXXXXXc.c.XXXX|.XX}.c.XXc.c.x.x.c.x.x.x.x.x.y.x.x.u.l.y.y.y.y.y.y.y.y.y.y.q.' y.y.y.y.7.q.7.x.|.|.XXx.y.x.z.k.x.l.y.l.k.1./ 1.1.1.1.` ( / / / ` / ^ ",
"P I I I U I T L P T T I I T U U U T W ~ ~ ~ ^ ) / ( / / ( ( / 1.7.4.7.0.0.0.7.7.q.y.q.y.y.y.y.y.y.q.q.y.y.q.q.y.i.y.y.i.k.y.y.y.y.k.k.x.x.l.l.y.k.k.l.l.x.x.x.x.l.l.x.x.l.x.x.x.}.}.}.x.x.c.x.x.x.x.|.}.c.x.@X2.l.|.|.|.}.x.}.x.x.x.x.x.XXc.c.c.x.x.x.x.x.x.x.l.x.c.c.x.x.c.c.c.c.}.XX|.|.c.c.XXx.^ $XXX$X$XXX|.x.}.XXx.k.|.XX$X@XXXoXoX@X@XoX@X@X+XXX+X@XoXXXXXoXXXXXXXXX+X@X%X%X$X$X@XXX@X@X@X@X@X%X$X+XoX@XXXoX@X+X@X$X@X@X@X@X@XoX@X$X@X@XoXXXXXoX+XXXoX@XXX@X@X@X@X@X+XXXoX@X@XoX@X@X@X+XoXoXoXoXoXoX+X+XoXoXXXoXXX|.XXXXXXoXoXoXoXXXXXXXXXXX|.XXoXXXXXXXXXoXoXoXXXoXoXoX@XOXoXXXXXXXoXXXXXoXc.XXXXc.c.XXc.XXXXc.c.x.x.c.x.x.x.x.x.u.u.u.u.l.k.y.y.i.y.8.8.q.y.q.7.` y.q.y.y.x.x.x.x.x.x.x.l.z.z.z.y.y.q.8.7.5.5.7.7.4.5.4.4.1.1.1.1.1.1.` ",
"P P I I I U W P P T T U T T ^ ` / ' ' ` 1.4.4.1.4.4.7.4.1.1.1.4.4.7.7.0.0.q.0.0.y.q.y.y.y.y.y.y.y.y.y.y.y.y.y.y.y.y.y.i.i.y.y.y.k.k.k.k.k.k.l.l.l.l.l.l.x.l.x.x.x.x.l.x.x.x.x.x.x.x.x.x.x.z.x.c.k.q.|.|.}.c.x.XX' y.l.y.y.y.y.q.q.q.y.y.y.y.y.y.y.y.y.y.y.y.y.q.y.y.y.y.y.y.y.y.u.y.u.y.y.y.y.y.T }.@XXX+XXX|.|.|.|.|.c.B.k.@XoXXXoXXX@X@X@XoXXX@X@XXXoXoXXXXXXXXX|.|.XXoXoXoX$X@X@X@X@X@X$X@X$X$X@X@X@X@X@XoXXXoX@X@X@X@X@X@X@XoX+XoXoXXX@X@X@XXXXXXX@XXX@XoXXX@X@X@X@X+X@X@XoX@XoXoXoXoXXXXXXXXXXXoX@XoXoXoXXXXXXXXXXX|.|.XXXXoXoXoXoXXXXXXXXXXXXXXX|.|.|.XXXXXXXXXXXXXXXXXXoXXXXXXXXXXXXXXXXXXXXXXXc.XXc.XXc.c.c.x.c.x.c.x.x.x.x.x.x.u.l.x.x.l.y.y.y.y.q.q.8.7.y.y.7.` u.y.y.q.q.q.7.7.7.7.7.4.5.5.5.4.4.1.1.1.2.4.1.1.5.1.1.1.` ` 1.1.1.1.` ",
"P P I I I U W P P T T W T / |.|.|.XX|.+X@X@X@X@X$X$X*X=X+XXX|.7.4.7.7.q.8.y.7.y.y.q.y.y.y.y.y.y.y.q.y.y.y.y.q.q.y.y.y.i.i.i.y.y.y.y.k.k.y.l.l.k.y.y.l.u.l.l.x.x.x.l.y.l.x.x.x.x.x.x.x.x.x.z.x.c.x.k.|.|.x.x.x.XX+Xw.w.5.] w.] ] w.w.w.w.w.w.w.w.w.w.w.w.w.w.w.w.w.w.w.w.w.w.w.w.w.5.5.5.5.0.0.w.=X$Xc.XXXXXXXX|.XX|.|.XX@XoXXXoXoXoX@XoX@X+X+XXX@X@XXXXXoXXXXXXXoXXXXXXXXXoXoX@X@XoX@X@XoX@X@X@X@X@X@X@X@XoX@XoXoXoXoX@X+XoXoXXXXX@XoX+XoX+XoXoXXXXXXXoXoXoXoXXXoXoXoXoXoXoXoXoXXXXXXXoXXXoXXXXXXXXXoXXXXXXXXXoXXXXXXXXXc.|.XXXXXXXXoXXXXXXXXXXXXX|.}.XXc.c.XXXXXXXXXXXXXXXXc.oXXXXXXXXXXXXXXXXXXXl.c.c.c.c.XXc.c.c.x.x.x.x.x.x.x.x.x.x.x.l.k.k.k.y.y.y.y.8.8.7.7.q.7.7.` l.y.y.y.y.y.0.y.y.e.y.7.7.7.7.7.7.5.4.' ` 4.1./ 1.4.1.1.1.1.1.1.1.1.` ",
"I I I T T T W K I T T W W W ) ( ( ( / ( ` 1.1.1.1.4.5.4.5.7.4.5.5.4.7.7.9.8.7.7.7.7.e.y.y.y.i.y.y.8.y.y.y.y.8.y.y.e.y.e.y.y.y.y.y.y.y.k.k.y.k.i.i.y.l.y.l.x.x.x.k.y.y.l.l.x.x.x.x.x.x.x.x.x.c.c.c.c.|.c.x.x.}.x.XX2X6X6X8X6X6X6X8X8XwXwXwXwXwXwXeXeXwXwXwXeXwXwXwXwXwXwXwXwXwXwXwX8X8X8X8X8XwX8X@Xk.|.|.@Xq.y.XX|.|.|.|.}.|.oXoXoXoXoXXX+XXXXX@X@X+XXXXXoXoXXXB.XXXXXXXXoX+XoXoX+X@X@X@XoX@X@X@X@X@X@X@X@X@XoXoXoXoXoX+X+XoXoXXXXXoX+X@XoXoX+XXXXXXXXXoXXXXXXXXXoXoXoX@XoXXXXXXXoXXXoXXXXXXXXXXXXXXXXXXXXX|.XXXX|.XX|.XX|.|.XX|.|.XXXXXX|.XX|.|.|.|.|.|.}.c.XXXXXXXXXXXXXXc.B.oXXXXXXXXXc.c.|.XXB.c.B.c.c.c.c.x.x.x.l.x.l.y.k.l.x.x.x.l.y.x.z.x.z.y.y.i.y.y.e.7.8.8.y.8.` l.l.y.y.y.y.q.8.e.y.y.7.7.7.7.7.5.4.4.T W 1.2.4.1.1.1.1.1.` 1.1.1.1.1.",
"I U I T T T W G I W W W W ^ / ^ / ` ( ` ` ` ` 1.1.1.4.4.5.5.4.5.4.4.7.5.5.7.5.7.7.9.8.8.y.y.y.8.y.e.y.y.y.y.8.e.i.8.8.e.e.e.y.y.y.y.y.y.l.y.y.y.y.y.y.k.x.x.x.y.y.y.y.l.x.x.x.x.x.l.l.l.x.x.x.c.x.x.c.c.x.x.x.|.x.x.x.x.l.x.y.y.x.l.l.l.y.k.x.x.x.x.l.x.c.x.x.x.k.x.x.x.l.x.x.x.x.x.k.k.y.y.y.y.k.x.x.x.|.XX|.|.}.|.}.}.|.|.XXXXXXXXoXXXXXoXoXoX@XoXXXoX+XOXXXXXXXXXoXXXoX+XXXoX@XoX@X@X@X@X@X@X$X@X@X@X@XoXoXXXoXXXoXoXoXoXoXXXXXXXXXXXoXoXXXXXXXXXXXoXXXXX|.oXoXoXoXoX+XoXOXoXOXXXXXoXXXB.XXXXXX|.XX|.l.|.XXXX|.}.XXc.x.x.|.|.XXXX|.XXXX|.|.}.|.|.|.XX|.x.XXXXXXXXXXXX}.c.c.XXXXXXXXXXXXc.XXXXB.B.B.c.c.c.c.x.x.x.x.x.u.l.l.l.l.l.x.l.l.` ^ ^ ^ ^ ^ W T T T T T T T ^ ` x.l.y.y.y.y.7.7.y.q.8.7.5.7.7.7.4.4.2.4.q.1.1.4.2.1.1.1.1.1.1.1.1.1.1.",
"I I T T T T ^ P I W W W W ^ W W ( ` ` ` 1.` ` 1.1.4.4.4.4.5.5.1.1.4.7.7.9.7.7.5.7.5.7.7.y.y.y.y.e.y.y.y.q.8.8.e.y.y.0.7.e.7.y.q.y.y.y.y.y.y.k.y.y.y.y.k.y.k.x.k.y.y.l.x.x.x.x.x.l.l.y.y.k.x.x.x.c.x.x.x.l.x.}.|.}.}.}.c.|.|.x.x.x.}.x.}.c.x.c.|.XXXX|.XXXXXXXX|.x.c.c.|.|.|.|.XX|.c.c.x.c.x.x.x.c.x.x.x.|.XXc.c.XX}.}.}.}.|.|.XXXXXXXXXXXXXX|.c.XXXXXXXXXXXXXXXXXXXXXXXXXXOXOX+X@X@XoX@X@X@X@X@X@X@X@X@XoXoXoXXXoXoXXXXXXXoXOXXXc.|.c.XXoXXXXXoXXXXX|.XXXXXXXXXXoX@X@X+XoXoXOXoXXXXXXXXXXXB.XXXXXXXX|.|.y.x.}.}.}.}.|.|.x.x.x.c.c.XXXXXXx.c.|.x.XXXX|.|.}.|.|.XXXX|.XX|.x.}.XXXXXXXXc.x.c.c.XXc.c.x.c.c.c.c.z.z.x.x.x.l.l.l.l.y.4.l.l.l.l.( ! W W W W U I Y I Y K K G T ` l.y.y.y.y.y.7.7.7.7.7.7.4.7.7.5.4.4.2.1.4.` ` 4.1.1.1.2.1.1.1.1.1.1.1.",
"I I I U T T W P I W Q ^ Q Q Q Q ( 1.1.( 1.1.` 4.1.4.4.4.4.5.5.4.1.4.7.7.5.5.5.5.4.5.7.8.e.e.e.y.y.y.y.y.y.8.7.e.7.7.7.7.9.e.y.1.^ y.y.y.y.y.l.y.y.y.k.k.y.y.x.x.y.y.k.x.l.x.c.x.k.u.l.y.y.x.l.x.c.x.x.c.x.x.|.|.c.c.x.z.c.x.x.x.x.x.x.l.x.x.x.|.|.|.c.|.c.XXc.x.x.c.c.x.` / / / / ^ ^ ^ ^ ^ / / / 4.x.c.c.XXx.y.oXc.c.c.|.|.|.XXc.XXc.|.|.|.}.l.}.XXXXXXOXoXXXXXXXXXXXXXXXoXXXoXXXXX@X@X@X@X@X@X@X@XoX@XoXoXXXXXoXXXXXXXXX+XoXc.XXXX|.c.|.oXoXXX|.XXx.|.XXXXXX|.XXoX@X+XoXoXoXXXXXXXXXB.XXXXXXXXXXXX|.|.}.c.x.l.x.x.x.x.x.|.|.c.c.|.XXXX}.oXXX}.XXXX|.c.XXXXoXXXXXXXXXXXu.x.XXXXc.c.c.x.c.XXc.c.c.x.|.B.c.c.c.z.x.x.x.x.u.y.u.x.x.y.l.l.u.c.B.OXOXB.B.B.B.B.OXB.B.z.z.z.7.l.q.y.q.y.q.7.7.7.0.7.7.7.5.7.5.5.4.4.2.1.4.^ 1.5.1.1.1.1.1.1.1.1.` 1.",
"P I I T T T W K T Q W ^ ^ ^ ^ ) ) ( ( 1.1.1.1.1.1.4.4.4.4.5.5.4.4.1.4.5.1.4.5.5.4.4.P d 4.e.8.8.e.y.y.y.y.7.7.7.7.7.7.7.8.e.9.c.@X5.y.y.l.y.k.y.y.k.k.k.y.y.z.z.y.y.y.k.x.x.x.x.k.l.u.y.y.x.x.x.c.x.x.x.x.x.c.c.c.|.c.c.x.x.x.x.l.x.k.x.x.x.x.x.c.|.|.c.c.c.x.c.z.c.x.x.~ U W W I I U U U W W W ! 5.|.|.|.XX|.x.|.c.XX|.7.y.B.c.XXXXB.c.c.c.|.XXXXXXXXXXoXXXXXXXXXXXXXXXoXOXXXoXXXXX@X@X@X@XoX@X@X@XoXoXoXXXoXXXoXoXoX+XXXOXXXXXXX|.c.XXXXXXXX|.XXXXx.|.|.|.|.XXXXXXoX@XoXXXXXXXXXOXXXXXXXXXXXXXXXXX}.}.x.x.x.x.x.x.c.x.|.}.}.c.c.c.|.|.XXc.}.}.XXXXXX|.|.XXXXXXXXXXXXXX}.XXXXXXXXc.c.c.c.c.c.|.|.c.B.z.z.z.c.c.x.x.x.x.l.u.u.y.y.y.l.l.l.x.x.x.v.l.v.l.l.l.x.x.x.l.y.z.q.l.y.y.y.7.q.7.7.y.7.7.7.7.5.9.5.5.4.5.4.4.7.4.4.5.1.1.3.1.1.1.1.1.1.` ",
"P I I I I T W L T W W Q ^ ^ ^ ^ ( ( ( 1.1.1.1.1.1.1.4.4.1.4.5.4.4.4.4.5.4.4.7.7.4.4.' R ( e.9.e.e.e.y.y.7.7.7.7.q.7.7.7.8.e.7.7.8.8.y.y.y.y.y.8.y.k.k.k.k.y.x.k.y.y.y.x.z.x.x.x.x.k.y.u.y.k.x.x.x.c.x.x.x.x.c.c.c.c.x.x.c.x.x.x.l.x.x.x.x.x.x.c.c.c.c.c.c.c.x.c.c.x.c.c.B.B.B.B.B.B.B.B.B.B.B.B.B.c.c.c.c.c.XXXXc.}.}.|.c.z.c.c.c.B.c.c.c.c.XXXXXXXXXXoXXXoXXXXXXXXXXXB.OXOXXXoX@XoXXX@X@X@X@XoXoX@XoXoXoXoXXXXXoXoXoXXXXXXXXXXXXXXXXXXXXX|.XX|.|.|.x.c.XXc.|.XXXXXXXXXXXXoXXXXXB.XXOXXXXXB.c.XXXX|.|.|.x.u.x.x.x.x.x.x.c.}.}.XXc.c.|.}.XXXXXXXXXXXXXX|.|.XXXXXXXXXXXXXXXXXXXXXXXXc.c.c.c.c.x.x.XXc.c.c.c.z.c.c.x.x.x.x.u.y.y.l.y.y.l.l.l.1.~ ^ ^ ~ ~ ~ W W ! W U U I W 1.l.y.y.7.7.q.q.y.7.7.7.7.7.5.5.5.4.4.7.7.4.4.4.5.6.1.1.4.1.1.1.1.1.1.` ",
"P I I T T U T L T T W ^ ^ / ^ ^ ^ ) / ( ( 1.1.3.1.1.4.1.4.4.1.4.1.4.4.7.5.5.7.5.4.7.=X=Xy.6.9.7.e.7.7.e.7.7.7.7.7.7.5.7.9.7.7.8.8.y.7.y.y.y.k.y.y.k.x.l.k.y.l.x.z.y.z.x.x.z.x.x.k.k.l.y.y.y.x.c.c.x.x.x.x.x.x.x.x.x.x.x.x.x.k.x.x.x.l.x.x.l.u.x.x.x.x.x.x.c.c.x.x.x.c.XXXXXXXXXX|.|.|.|.c.XXXXXX+XXXx.x.x.x.|.c.c.XXc.XXXXc.x.x.c.z.z.c.c.c.XXXXc.XXy.c.oXXXXXXXXXXXB.c.OX+XOXoX+XXXXXXX+X|.l.oXoXoXoX+XoXoXoXXXoXoXXXXXXXXXXXXXXXk.x.XX}.}.XX|.|.c.c.c.XX|.XXXX|.|.XXXXXXl.c.B.B.B.B.XXXXc.XXl.q.XXx.x.x.c.c.c.x.x.c.c.c.}.XX}.|.XX|.}.c.XXx.|.XX|.c.c.XXXXXXXXXXXXXXXXB.c.XXc.z.c.c.x.c.c.x.z.c.z.c.c.x.x.c.x.x.x.y.z.y.y.z.x.y.y.l.l.u.l.x.x.x.z.z.i.z.i.i.i.k.i.i.q.1.y.y.q.q.7.q.q.7.7.7.7.7.5.5.5.4.5.4.4.7.4.5.4.6.5.1.4.3.1.1.1.1.1.` ` ",
"P I I I I T W L T Q W Q ^ ^ ^ / ^ ( ( ( 1.1.1.1.1.1.4.4.4.4.4.1.1.1.4.5.6.4.4.7.5.5.7.8.7.7.7.7.7.8.7.8.e.7.7.7.7.7.9.9.7.9.7.7.7.q.8.y.y.y.y.z.z.z.z.x.k.k.x.x.z.k.x.y.z.l.x.x.y.y.y.y.x.y.l.x.x.c.x.x.x.x.x.x.x.x.x.x.x.x.x.x.z.x.x.x.l.x.x.x.x.x.x.x.x.x.x.x.x.x.c.k.I Y P I I I I I I T W U U 6.c.x.x.x.}.c.c.c.c.c.c.y.x.x.c.B.c.c.c.c.c.B.B.c.y.x.oXXXXXXXXXXX|.XXXXXXOXOX+XOXoXoXXXk.q.XXoX+XoXoXoXXXoXXXoX@XoXoXXXXXXXXXXX7.7.XX}.}.|.|.|.|.x.}.|.}.XXc.|.|.XXXXl.w.y.XXc.XXXXXXXX|.XXc.x.XXc.|.x.x.c.c.x.x.c.}.c.|.XX|.c.XXc.c.|.XXl.|.XXc.c.}.XX|.c.c.B.c.XXB.c.c.c.c.c.x.}.c.c.c.z.c.z.z.c.c.x.x.c.z.x.x.y.y.y.z.k.x.x.k.x.y.y.y.l.x.l.l.l.x.l.y.k.l.k.y.k.y.` y.7.q.y.y.0.y.8.0.q.7.5.5.5.5.5.9.6.5.4.4.5.4.5.5.5.1.1.1.1.1.1.1.` ` ",
"I I I I I I T K I ^ Q Q ^ / / ) ( ( ( ( 1.1.1.1.1.1.1.4.1.4.5.1.4.4.1.1.5.4.4.4.5.7.7.7.7.7.7.8.y.7.8.7.7.7.9.5.7.7.9.7.9.9.7.7.y.q.q.8.e.y.i.z.i.k.z.x.l.k.k.x.x.y.y.x.k.x.x.k.y.y.y.y.y.l.l.x.x.x.x.x.c.x.x.l.x.x.l.x.z.x.x.z.x.z.x.x.z.x.x.c.x.x.y.y.q.0.x.x.x.x.z.c.y.y.i.i.i.i.y.i.y.e.e.y.e.e.x.x.x.x.5.y.c.XXc.z.c.B.x.x.x.B.c.c.c.|.c.|.XXXX$X$XXXXXXXXXXX|.|.XXXXXXB.OXoXOXOXoXXX6X1XoXoXoX+X@XoXXXOXXXoX+XXXXXXXXXB.c.XX$X$Xx.c.|.c.|.XX|.c.c.c.c.c.x.|.XXXX|.@X6Xc.B.c.XXOXXXB.XX|.XXXXc.c.c.x.x.XX|.x.x.x.c.c.c.|.XXXXc.c.}.XXXXc.XX|.|.c.c.c.c.|.c.c.c.XX|.B.c.c.c.c.c.c.|.c.c.c.c.z.c.x.c.x.x.x.x.x.y.y.y.y.y.l.x.z.k.x.l.k.k.k.x.y.l.k.k.y.y.y.y.y.y.y.y.` y.7.q.y.y.y.y.7.8.7.7.9.5.5.5.7.5.5.9.^ / 7.4.5.5.4.1.1.1.1.( ` ` 1.` ",
"I I I I I T W G I W W Q Q ^ ) ) / ( 1.( ( 1.1.1.1.1.1.1.4.1.1.1.1.4.1.1.4.4.4.4.5.5.5.9.7.7.9.7.7.7.7.9.7.7.9.9.7.7.5.9.9.7.7.( I q.y.y.y.e.i.z.k.y.x.x.l.k.k.k.k.y.y.x.z.k.x.z.i.y.y.y.u.y.k.x.x.x.x.x.x.x.x.x.x.x.l.x.x.l.x.z.k.z.x.x.x.x.x.x.x.z.k.z.c.l.x.c.` k.c.c.XXXX|.|.c.x.c.x.c.z.c.c.z.c.x.z.x.x.c.XXc.c.c.c.z.z.x.x.x.B.c.XXc.c.XX|.XXXXB.XXoXXXXXXXXX|.XXXXXXOXXXOXXXXXXX+XoXXXoXoXoXoXoX+XoXXXoXXXXX+XXXXXXXXXB.c.XXc.c.|.c.c.c.x.c.c.XX|.c.c.x.x.x.|.c.XX|.c.XX|.c.XXXXB.c.c.|.}.c.|.c.c.x.x.}.|.c.c.x.c.c.c.|.}.c.}.c.c.}.XXXXXX|.c.c.c.c.c.c.x.x.c.z.c.c.z.c.c.c.x.x.c.x.x.x.x.z.c.x.x.x.x.x.l.y.l.y.y.y.y.y.x.x.y.l.k.k.k.i.y.y.y.y.y.y.y.y.i.y.y.y.8.1.u.0.q.7.q.y.7.7.7.8.7.7.7.7.5.5.6.6.6.k.y.2.4.5.5.1.1.1.1.1.( 1.` ` ( ",
"P I U I T T W G I W W W Q ^ ^ ) / ^ ( ( ( 1.1.1.1.1.1.3.4.1.1.1.1.1.1.3.1.3.1.3.4.4.6.7.5.7.7.7.7.7.9.7.7.9.5.9.5.7.7.9.7.7.7.q.|.7.7.e.y.y.y.i.i.i.x.x.l.k.x.z.k.y.y.y.y.i.i.y.y.y.y.y.l.k.k.x.x.x.x.x.x.x.x.x.x.x.y.z.x.x.x.z.k.z.x.x.x.z.x.x.x.x.x.z.z.z.x.c.c.c.c.c.x.x.x.x.x.x.x.k.x.x.x.x.x.x.x.x.x.z.c.c.c.c.c.c.z.z.x.z.c.B.c.B.B.B.c.c.B.B.XXXXXXXXXXXX|.c.XXXXB.XXB.XXXXXXXXXXXXXXXXXXXXXXOX+XOXXXXXXXXXOXB.XXc.B.B.|.|.c.XXc.c.c.x.}.c.c.|.|.|.c.x.x.c.}.c.|.c.|.|.c.|.XXc.c.|.c.c.|.c.|.|.|.x.x.}.c.x.x.c.}.c.c.|.c.c.c.c.c.c.|.c.|.|.c.c.c.c.c.x.x.x.x.z.c.c.y.x.c.c.c.c.x.x.x.x.x.x.z.x.x.x.x.x.x.y.y.l.k.x.z.k.z.z.y.x.x.y.i.k.i.y.y.y.y.y.i.y.y.y.y.y.7.` y.7.0.7.7.5.7.7.7.9.7.7.5.5.6.6.6.6.6.9.9.5.4.4.4.1.3.1.1.1.1.1.1.( ( ",
"I I U T T T W G I T T W Q ^ ^ ^ ( ) ( ( ( 1.1.1.1.1.1.1.1.1.1.1.4.4.1.3.1.1.1.1.6.4.4.5.7.6.5.7.5.7.7.5.7.7.5.5.5.7.9.9.9.7.9.y.x.7.7.e.y.y.y.i.y.y.x.l.l.k.l.z.k.y.y.y.y.y.y.k.i.y.y.y.u.l.y.l.k.k.x.x.l.l.x.l.x.x.y.k.y.x.z.k.k.x.z.k.i.z.x.z.x.z.z.z.x.x.x.x.c.x.c.x.x.c.x.x.x.l.k.z.x.z.x.x.x.z.x.x.c.c.c.c.x.c.c.c.x.x.x.c.c.x.c.XXc.c.c.XXXXXXXXXXXXXX|.|.XXc.c.XX|.XXc.c.XXXXXXXXXXXXXXXXXXXXoXXXXXXXXXc.c.XXXXXXc.c.|.}.}.XXXXc.c.c.c.c.c.c.x.x.XXc.x.x.|.|.x.}.c.|.|.c.|.|.c.c.}.|.c.c.}.}.}.|.x.x.}.|.c.x.c.c.c.c.x.x.x.c.c.c.|.}.}.c.x.c.c.|.c.x.c.x.x.x.x.x.c.x.x.c.c.c.c.x.x.x.x.c.x.x.x.x.x.x.l.l.x.k.k.k.x.y.y.z.z.y.l.x.k.y.y.i.y.y.y.y.i.y.e.y.y.y.y.8./ y.7.5.7.7.1.7.7.7.7.7.5.5.7.6.6.6.6.6.4.4.5.4.1.4.1.1.1.1.1.1.1.` ( ( ",
"I U T T U T W L I T T W W ^ ^ ) ( ( ;.) ) ;.;.1.1.1.1.1.1.1.1.1.1.1.1.1.1.1.( ( 1.4.1.4.5.5.5.4.5.7.5.7.5.5.5.5.7.9.9.9.9.9.7.9.6.7.7.y.y.y.q.y.k.y.k.x.k.l.k.k.i.y.y.y.y.e.k.y.y.y.y.y.y.y.y.y.y.y.k.l.l.x.x.k.x.x.y.y.k.z.k.k.z.z.k.x.k.k.k.x.x.z.z.z.x.x.x.x.c.x.x.x.x.x.x.x.k.k.x.x.x.y.x.z.y.x.z.z.z.z.c.c.x.x.x.c.x.x.x.x.c.x.c.|.c.XXc.c.B.XXB.XXXXc.x.c.x.c.c.XXXX|.c.c.oXXXB.XXXXXXXXoXXX|.XXB.XXXXXXz.c.XXc.XXc.B.c.c.c.XXXXc.x.x.c.c.|.l.c.x.c.c.x.x.c.c.c.|.c.c.c.c.|.c.c.c.x.c.c.c.c.|.|.c.}.x.}.}.c.x.x.x.c.x.c.XXc.c.|.|.c.x.c.c.c.c.c.c.c.c.x.c.x.x.x.x.c.z.x.c.c.c.c.c.x.z.x.k.x.x.x.k.x.c.z.k.y.z.k.k.l.k.k.k.y.y.k.y.y.y.y.y.y.y.y.y.y.y.y.y.y.y.e.7./ y.0.5.7.7.5.5.7.7.5.5.5.5.7.6.6.6.1.5.4.1.5.1.3.4.1.1.1.( 1.( 1.` / ( ",
"K I I T T W W L I W W T W W Q ^ ^ ^ ^ W ^ ( ( ( 1.1.1.1.1.` / ` 1.1.1.1.1.1.1.^ 1.6.1.4.5.4.7.4.1.7.6.5.7.5.5.5.9.7.9.9.7.9.9.7.y.7.9.7.8.y.7.i.y.y.k.z.k.k.k.y.y.y.y.y.y.y.y.i.y.y.y.y.y.y.y.l.y.y.y.y.x.k.y.z.x.k.y.z.x.z.k.y.k.k.k.x.x.y.y.y.k.y.k.x.y.l.x.c.x.x.x.x.x.x.z.x.z.y.y.k.k.x.x.z.k.x.x.z.x.x.c.c.x.x.x.c.x.x.k.k.c.z.z.|.c.XXB.c.B.XXXXc.XXXXx.x.c.c.c.c.c.|.c.x.XXXX|.XXXXXXB.B.B.B.XXXXXXc.c.x.x.XXXXc.|.XXc.c.c.c.XXc.c.c.x.c.c.c.x.x.c.c.x.x.x.c.c.c.c.x.x.x.c.c.c.x.c.x.c.c.x.c.|.c.c.x.x.c.c.x.x.x.x.x.x.x.}.XXc.c.x.x.x.c.c.c.c.c.B.x.x.z.x.x.x.x.x.x.z.XXc.c.x.x.x.k.k.k.y.x.x.c.x.x.x.z.i.k.k.y.k.y.k.y.y.y.y.y.y.y.y.y.y.y.y.y.e.e.e.e.y.e.e.9./ y.7.5.5.7.5.5.5.7.6.6.5.6.6.6.1.1.1.1.4.5.5.1.3.1.1.1.3.1.1.( 1.` / / ",
"K P I I T T W P I T T W T W W ~ Q ~ ( ( ( ( ( ( ( 1.1.1.( / ` ` 1.1.1.1.1.1.1.4.4.1.1.4.4.1.5.4.1.4.5.6.5.5.7.7.5.5.5.9.6.7.9.4.' 7.7.7.7.7.q.y.y.q.y.y.k.y.y.8.y.y.y.i.y.y.y.i.i.y.y.y.y.y.y.y.y.y.k.y.l.x.x.k.k.l.x.x.k.x.y.y.k.x.y.y.k.y.y.y.z.x.x.k.k.l.x.x.x.k.x.x.x.x.k.x.k.k.k.x.l.k.k.z.z.x.x.x.x.z.x.x.k.x.x.c.z.x.x.x.x.x.x.c.c.c.c.c.c.c.c.c.c.XXc.c.c.c.x.c.XXXXc.c.XXc.|.XXXXXXc.B.c.c.c.B.XXc.c.B.x.XXXXXXc.c.|.c.c.c.XXz.x.c.x.x.x.x.c.l.x.x.c.x.x.c.c.c.x.x.x.x.c.x.x.x.x.x.x.x.x.x.c.c.x.l.c.c.x.l.x.x.x.x.x.x.x.x.x.x.x.x.z.x.x.c.c.c.c.x.x.c.x.k.x.x.x.z.x.B.x.x.c.x.l.x.x.x.x.x.x.x.x.x.z.k.i.k.k.x.k.k.k.y.y.y.y.l.y.y.y.y.y.y.y.y.y.7.4.7.7.9.8.7./ 7.5.5.5.5.5.5.5.9.9.5.6.9.6.1.1.1.1.1.Q ^ 7.1.1.1.1.1.4.1.1.;.1.' / / ",
"K P P I T T W P I T T T W W ~ ~ ~ ^ ^ Q ~ / ( ( ( ( ( ( ( ` 1.` 1.1.1.1.1.1.1.1.1.1.1.4.5.4.4.1.1.1.4.4.1.4.7.5.4.4.5.5.5.4.5.4.9.7.q.7.q.y.8.y.y.8.e.y.i.y.y.y.e.y.y.y.i.e.y.y.y.y.y.y.i.y.y.y.y.y.y.y.k.x.k.k.k.y.k.y.y.y.y.k.y.k.k.y.k.i.y.y.k.y.k.k.k.k.l.x.k.k.x.z.z.k.x.x.k.l.x.x.l.k.l.y.k.x.x.x.x.x.x.x.x.x.x.x.x.x.x.z.x.z.x.c.c.c.c.x.c.c.c.c.c.c.c.c.c.c.z.c.XXXXXXXXXXc.XXXXB.B.c.|.c.c.c.c.|.c.c.c.XXc.B.c.c.c.c.c.c.c.B.c.c.c.x.l.x.x.x.x.x.x.x.x.x.c.c.c.c.x.x.x.x.x.x.x.x.x.x.x.x.x.c.c.c.x.x.c.z.z.x.x.x.x.x.x.x.x.x.x.x.x.z.z.x.c.c.c.c.z.x.x.x.x.z.i.x.x.x.c.c.c.c.x.x.x.x.x.z.z.x.z.z.k.k.k.y.z.k.l.l.l.x.z.i.i.y.y.y.y.y.y.y.y.y.y.e.8.7.9.8.8.8.5.^ 7.5.1.1.5.5.5.5.9.9.9.5.6.5.4.3.1.1.1.5.7.4.1.1.1.1.1.3.1.` ( ` ` / / ",
"K P P I I T W K P T T T W W W W W Q ^ ~ ^ ) ( ( ( ( / ( ( ` ( ` ` 1.1.1.1.1.4.1.4.1.5.T b H H n b b n H ` 4.4.4.4.5.4.1.1.1.1.9.c.7.7.7.8.8.8.y.y.y.q.y.q.y.y.y.y.8.y.i.y.e.y.i.y.7.e.y.y.y.y.y.y.y.k.y.k.l.i.k.k.y.y.y.y.y.y.k.y.k.y.i.k.i.i.y.i.i.y.y.i.k.k.y.k.y.k.k.z.x.k.x.z.y.y.x.k.y.k.k.k.x.x.x.x.x.x.x.x.z.z.c.x.x.x.x.x.x.x.z.x.x.x.l.x.c.c.z.x.x.c.c.x.B.c.XXXX|.c.z.XXc.c.c.B.c.c.c.c.c.XXXXc.c.c.x.c.z.B.c.c.c.c.c.x.c.c.c.c.c.x.x.l.x.y.y.x.x.c.x.x.x.c.c.x.x.x.l.x.x.x.x.x.x.x.x.x.x.c.x.k.z.z.x.x.x.x.x.x.x.x.x.x.x.x.x.x.x.x.x.x.x.z.z.c.x.c.x.x.x.x.x.x.k.z.c.x.x.x.x.x.x.x.z.y.k.x.k.y.y.y.y.y.y.y.k.y.k.x.x.y.y.y.k.y.y.y.y.y.y.e.e.e.9.4.7.7.7.7.5.^ 7.5.1.1.1.4.5.5.7.9.9.5.6.6.1.6.1.1.1.7.7.1.1.1.1.1.1.1.1.1.` ` ` / / ",
"K P P P I I W P P T T T W W T W Q ^ ) ) / / ( ( ( ( ( ` / ( ( ` ` 1.1.1.1.1.1.1.1.1.4.H   = = = $ @ o o ' 7.4.4.5.6.4.4.4.4.6.5.1.5.5.7.7.7.8.y.y.y.y.8.8.y.y.y.e.y.y.y.y.y.y.e.9.9.7.y.7.8.y.y.8.y.y.y.y.y.y.i.y.y.y.y.y.y.7.y.y.k.y.y.y.y.y.e.8.y.y.y.y.y.y.y.y.i.y.k.k.y.y.k.y.y.y.z.k.y.y.y.k.x.x.x.x.z.x.x.x.x.c.z.z.y.z.k.x.x.x.x.x.x.k.x.x.z.x.z.c.x.x.x.x.c.c.c.XXXXc.c.B.c.x.c.x.x.x.x.x.x.c.c.XXc.c.c.c.c.c.c.c.c.z.x.x.z.c.x.x.x.l.x.l.l.y.x.x.i.x.x.x.c.x.x.x.x.x.x.x.x.x.x.x.x.x.x.x.x.x.z.z.x.c.x.x.x.x.x.x.x.x.x.x.x.x.x.x.x.k.l.l.x.x.c.x.z.x.x.x.y.x.z.x.x.x.z.x.x.x.y.y.y.x.x.k.x.k.k.y.y.y.y.e.y.i.k.y.y.x.y.y.y.y.y.y.y.y.y.y.8.q.y.8.8.5.9.9.9.7.7.^ 7.2.6.1.1.1.1.6.6.5.5.6.1.4.1.1.1.1.1.1.1.1.1.1.1.1.1.1.1.( ( ` ( / / ",
"G L P P I I T P P I T T T W Q ~ ^ ^ ^ ) ^ ) / ( ( ( ( / ( ( ( ` ` 1.1.1.1.1.1.1.1.1.1.4.l.x.x.v.v.l.l.l.7.4.7.4.4.5.4.4.5.4.5.5.5.5.5.5.7.7.e.e.e.e.q.8.y.y.y.y.8.7.y.e.y.y.y.y.9.9.y.q.7.q.8.8.7.y.y.q.y.y.y.y.y.8.y.y.8.y.7.8.y.y.y.y.y.y.y.8.5.y.y.8.y.y.y.y.y.i.y.k.y.k.y.y.i.y.y.y.y.y.y.y.y.y.x.z.z.x.x.x.x.x.z.z.z.x.x.k.x.z.x.x.x.x.x.k.x.x.x.x.c.XXz.x.x.z.c.c.XXXXXXc.XX|.c.c.c.x.x.l.l.k.x.x.c.x.x.x.c.c.c.c.c.x.c.x.x.x.x.x.u.x.x.y.x.l.x.x.z.x.x.x.x.x.c.z.x.x.y.k.x.x.z.z.z.z.z.x.x.z.x.x.x.c.x.x.x.x.z.x.x.z.x.x.x.x.k.k.x.x.l.x.k.l.x.x.x.i.k.x.z.y.l.k.x.y.z.x.z.x.z.y.y.y.z.x.k.k.k.y.y.y.7.y.8.y.y.y.y.y.y.y.y.i.y.y.y.y.y.8.7.8.y.y.7.8.5.5.9.7.8.7.^ 7.1.6.1.1.1.1.4.6.1.1.4.4.5.1.1.1.1.4.1.1.1.1.1.1.1.1.1.1.` ( ` ( W / ",
"G K P P P I W P P I T T T Q Q ) ~ ^ ) ) ~ ~ ) ( ( ) ( / ) ( ( ` 1.1.1.` 1.1.1.3.1.1.4.T P T P R R R R R ` 7.4.4.7.6.5.4.1.4.4.4.4.4.4.5.7.9.8.e.7.e.8.8.8.q.e.y.y.8.8.i.y.8.y.y.e.7.y.y.y.y.7.7.7.y.y.8.y.y.y.y.8.9.7.e.7.y.7.7.y.y.y.y.i.8.e.7.7.q.7.y.y.y.y.y.y.y.y.y.i.k.y.y.y.y.y.y.y.y.k.i.y.y.k.x.x.z.x.x.x.x.x.z.z.y.k.k.z.z.x.x.x.c.x.l.x.x.x.x.x.c.z.c.x.c.x.x.c.x.c.c.c.c.c.x.x.x.x.x.x.y.x.c.x.c.x.l.c.x.z.x.c.x.x.c.x.x.c.x.u.x.x.y.y.x.x.x.z.k.k.x.x.x.x.c.z.k.y.y.k.x.x.k.z.z.x.x.z.x.x.x.z.z.x.z.x.x.x.x.x.x.x.x.x.x.l.k.x.l.x.k.x.k.x.x.x.k.i.x.k.k.x.x.k.k.z.z.x.i.y.k.y.k.k.y.y.y.y.y.y.y.7.8.y.e.e.i.y.y.y.y.i.i.i.k.y.8.e.y.7.8.y.q.8.7.9.6.9.9.7.5.Q 7.1.1.1.1.1.1.1.6.6.3.1.4.1.1.1.1.1.1.1.4.1.1.1.1.1.1.1.1.1.` 1./ ^ ` ",
"G G K K P I T P P I I T W W ^ ^ ~ ~ ^ ^ ~ Q ^ ) ) ) ) / ( ( ` ` ` ( ( 1.1.1.1.1.1.1.5.G                 ^ 4.1.1.4.4.4.4.5.4.1.5.7.4.1.4.7.9.7.e.8.e.e.q.8.7.8.y.y.q.8.e.y.8.8.8.8.7.7.9.^ 1.8.7.7.8.y.8.q.4.^ 7.8.9.7.8.7.5.W I e.y.y.y.y.y.7.7.8.7.y.y.y.y.y.y.y.y.y.y.i.i.y.y.i.y.y.i.y.y.y.y.i.y.k.x.l.x.x.k.x.x.x.z.x.z.z.k.z.x.z.x.x.x.x.x.x.c.x.x.x.x.x.x.x.x.x.x.c.x.x.x.c.x.x.x.x.x.l.l.k.x.x.c.c.c.c.x.x.z.x.x.x.x.x.c.x.c.x.x.u.u.x.y.y.y.x.x.z.l.y.x.x.x.z.x.c.k.k.x.x.x.x.k.z.z.x.x.z.k.x.x.l.y.z.x.z.x.x.x.z.x.x.x.x.x.x.y.k.k.k.k.y.y.x.x.k.y.z.y.y.y.y.c.z.x.k.k.k.y.i.1.q.k.k.y.y.y.y.8.( 1.7.e.e.e.e.e.y.y.( e.i.i.y.k.y.8.e.y.7.8.y.q.7.7.9.5.7.9.7.5.^ 7.5.1.` 1.1.1.4.7.4.6.6.` ) ( 4.1.1.1.^ / 4.W H ` 1.1.3.( ` ` ` ` ` ` ",
"H K K P P I T P P I I T W W W ) ~ ~ ~ ^ ~ ~ ) ^ ^ ) ( ) / ` ( 1.` ( ( 1.1.1.1.3.1.1.1.e.y.7.4.7.7.q.q.4.1.1.1.1.4.6.5.5.5.4.5.` P 1.5.4.7.9.5.e.y.7.8.y.8.7.7.7.q.8.e.8.8.q.y.8.8.7.e.( / ( y.7.7.7.8.8.8.W P ) 8.7.7.e.3.1.U n 7.y.8.e.8.y.1.P 7.7.7.y.y.y.y.y.y.y.y.y.i.y.y.i.y.y.y.y.y.y.y.i.y.k.k.x.x.k.x.x.z.x.x.x.x.x.z.z.z.z.x.z.x.z.x.x.x.x.x.c.x.x.x.x.k.x.x.z.z.x.c.z.x.x.x.x.x.x.x.x.x.i.x.x.x.x.x.z.z.x.x.x.x.x.x.x.x.x.c.x.x.x.x.y.x.i.y.l.x.k.y.z.y.z.x.x.x.x.x.l.x.k.x.z.k.x.x.x.z.x.x.y.i.y.x.z.x.z.z.x.z.z.z.x.x.x.k.l.k.y.k.q.7.6.z.k.y.y.y.y.y.` G 7.z.z.x.k.y.z.1.H 1.x.y.i.y.y.y.1.U I 7.e.y.y.y.y.y.1.~ / z.e.y.y.8.8.y.y.7.7.y.y.7.7.7.5.9.7.e.5.^ 7.2.1.` 1.1.1.1.4.6.6.6.4.e.1.1.1.1.4.4.1.1.` 7.1.1.3.1.1./ ( ` ( ` ` ",
"H G P P P I T P P I T I W ^ ^ ) ~ Q Q ~ ~ ) ^ ^ ^ ) ) ) ( ` ( 1.1.;.1.1.1.1.1.1.1.1.1.` ` ' ^ ^ ( ` 1.1.` ` 1.1.1.4.6.4.4.6.4.4.q.4.1.4.7.7.7.7.7.8.7.8.8.7.8.7.7.q.7.7.7.8.8.8.7.9.9.e.XXx.5.9.8.8.8.7.7.e.k.9.9.7.7.7.y.x.#X1.( y.8.8.8.9.k.v.7.1.q.y.q.y.y.y.y.i.y.y.y.i.y.y.y.y.y.y.i.y.y.y.y.k.l.l.l.k.x.z.k.x.x.z.x.i.x.z.z.z.z.z.k.x.x.x.x.z.x.x.x.x.c.c.x.x.k.x.c.z.x.x.x.l.x.x.x.x.l.x.k.y.i.x.x.c.z.x.z.x.x.x.x.k.x.x.x.c.z.z.x.i.x.i.y.k.x.l.y.y.y.z.y.y.x.x.x.x.x.x.k.k.x.y.y.z.x.x.x.x.x.k.y.y.i.x.z.x.x.z.z.z.x.x.x.z.k.k.k.k.k.k.B.B.i.y.y.y.y.y.y.x.c.y.y.y.k.k.k.z.y.c.+Xy.y.i.y.y.y.y.z.y.e.e.e.y.y.y.y.y.XXy.e.e.y.i.8.8.y.y.y.7.e.8.9.7.7.5.5.9.9.5.^ 7.1.1.1.1.1.1.1.4.4.1.4.7.8.5.1.1.1.1.4.7.1.9.y.1.1.1.1.( ( ( 1.` ` ` ",
"H G K P P I T P P T I T W Q ^ ~ Q ~ ~ W ~ ^ ^ ^ ^ ^ ^ ) / ( ( ` 1.( ( 1.1.;.;.1.;.;.1.f                 ^ 1.1.1.1.4.4.4.4.4.1.4.q.1.1.5.7.9.9.7.7.7.7.7.7.7.7.8.7.7.7.7.7.8.e.7.8.7.7.8.y.8.9.7.8.9.8.7.7.e.8.9.7.e.7.8.e.8.5.1.1.e.9.7.9.7.y.x.1.1.y.q.8.8.8.8.8.5.2.y.y.e.y.y.e.7.e.e.y.y.y.y.y.y.y.z.k.k.x.k.k.x.x.x.c.z.z.z.x.z.z.z.z.z.z.i.y.x.x.x.x.x.x.x.z.z.x.x.z.x.x.x.k.l.x.k.k.l.y.y.y.y.y.i.x.x.x.x.x.k.k.x.x.x.x.x.k.z.c.x.z.y.x.x.l.l.l.l.k.y.y.i.y.k.z.x.k.i.y.l.l.y.k.x.x.x.k.x.x.x.z.i.y.y.z.x.z.z.x.z.k.x.z.y.z.x.k.i.k.y.y.z.B.c.i.y.y.8.y.y.y.y.x.k.y.y.i.i.y.i.i.x.i.i.y.y.y.8.8.y.y.y.e.y.e.y.y.y.e.y.y.i.e.y.y.e.8.7.e.y.5.7.8.8.7.9.9.6.5.7.9.5.^ 5.1.1.1.1.3.4.3.6.4.3.4.1.6.1.4.4.1.1.1.` 1.1.1.3.3.1.( 1.( ( ( ( ( / ",
"H G K P P I T P G G I T T T T W W W ~ Q Q ^ ^ ^ ^ ^ ^ ) / ( ( ^ ~ ( 1.1.1.;.;.;.( ;.;.^ ^ Q R R Q Q Q R / 1.1.1.1.4.5.4.7.4.4.4.1.1.1.4.5.8.7.7.7.7.7.7.7.7.8.7.7.7.7.7.8.8.e.7.8.e.7.7.7.7.7.8.8.9.8.7.7.9.7.9.7.7.e.8.8.7.5.4.1.e.y.7.7.7.6.3.7.y.q.y.7.7.7.7.5.4.` 8.7.7.y.y.y.7.8.e.y.y.e.y.y.y.y.x.z.k.x.x.y.x.x.x.z.x.z.z.z.x.z.k.y.i.y.7.y.x.x.x.k.x.z.k.y.k.x.z.c.z.x.x.x.x.x.x.x.y.y.k.k.i.y.i.x.x.k.z.k.z.k.z.z.x.x.z.y.x.x.z.y.y.k.y.y.k.y.x.k.i.i.k.y.y.y.z.i.y.y.l.k.k.k.( 1.x.x.x.z.z.z.z.i.y.z.k.y.y.k.y.k.x.x.z.x.k.k.k.z.k.y.y.y.y.y.y.y.y.y.y.y.y.8.y.y.i.i.i.y.y.y.y.y.y.y.y.y.y.y.y.e.e.y.y.y.e.y.y.y.y.7.e.i.e.y.e.e.7.8.y.5.7.e.7.7.7.9.6.5.7.5.4.Q 5.1.1.1.( 1.1.3.1.6.1.1.4.4.3.1.6.1.1.` 1.` ` 1.1.1.( ( 1.1.` ( ` ` / ",
"H G P P P I W G X n I T T W W W Q W W W W ~ ^ ~ ^ ( ) ) / 1.I f b ^ 1.( 1.1.( ( ( 1.( y.x.y.y.q.y.y.y.y.1.` 1.1.1.4.4.4.1.4.4.1.1.1.1.4.5.9.7.7.7.7.8.7.8.8.7.7.7.7.8.7.8.8.8.8.8.8.8.8.7.7.y.9.8.y.e.7.9.9.7.7.7.y.y.7.8.7.5.7.6.3.4.6.1.1.1.3.3.3.6.6.4.6.3.6.6.7.9.9.7.7.9.7.7.8.9.9.9.9.7.9.9.9.9.e.e.7.8.8.8.e.e.e.8.9.i.y.y.i.y.y.i.k.k.l.x.k.x.x.k.k.z.z.y.k.k.x.x.x.x.x.x.l.x.x.x.y.k.y.6.9.e.i.x.z.z.z.k.z.k.k.z.z.z.z.y.z.z.y.i.i.k.i.i.i.y.q.y.k.i.y.i.z.y.y.y.y.k.k.k.z.y.] ^ k.x.x.z.k.k.i.y.i.y.y.y.i.k.y.y.z.z.k.y.i.y.z.z.z.y.y.i.i.y.k.i.q.y.y.y.y.y.y.y.y.y.y.y.y.y.y.y.i.8.y.y.8.y.8.y.e.y.y.y.7.y.y.y.y.7.8.y.8.8.8.8.7.y.y.7.7.e.8.7.7.8.9.5.5.7.5.^ 7.1.1.1.( ( 1.1.1.6.3.3.4.4.3.1.1.1.1.1.1.` ` 1.1.` ` ( 1.1./ ` ` / / ",
"G G K P P P I ^ h.^ I T T Q W W W W Q I T ~ ^ ) ^ ) ( ) ( ^ y.}.7.1.1.1.1.1.( ( ( ` ` ( 1.1.( ( ^ ) ( ` 1.1.1.1.1.4.4.4.4.1.4.1.1.1.1.4.7.9.5.5.7.7.7.7.8.7.7.7.7.5.7.7.7.7.8.7.7.7.8.8.7.7.y.e.y.8.y.8.7.7.7.7.7.y.8.9.8.7.9.3.;.;.;.;.1.3.3.3.3.3.3.3.3.6.6.7.7.9.9.9.5.7.9.e.9.6.6.6.3.3.>.>.>.3.3.6.3.3.3.3.3.6.6.6.6.9.6.3.6.6.9.e.8.e.y.k.z.k.k.x.k.k.k.k.z.k.k.x.x.x.x.x.x.y.x.z.x.k.x.z.i.8.9.e.i.i.i.e.e.e.i.i.i.i.i.i.i.i.z.i.i.i.e.z.z.k.7.3.9.y.y.y.i.y.k.k.y.y.y.y.k.k.k.&X@Xz.z.x.k.y.y.y.y.y.i.k.i.y.i.i.i.k.k.k.y.k.z.z.z.z.z.y.y.i.i.z.k.q.y.y.y.q.y.y.y.y.y.i.y.y.e.y.y.y.7.8.y.7.7.8.e.e.y.y.e.8.y.e.e.y.y.8.8.8.7.8.7.7.y.y.5.5.e.8.7.5.9.9.5.5.7.4.^ 7.1.1.1.1.1.1.1.1.1.1.1.1.1.3.1.4.1.1.1.1.` ` ` 1.` ' / ` ` ( ` ` / ^ ",
"G G K K P I I P ' T T T T W W W W W Q ~ ~ ~ ~ ^ ^ ~ ^ ) / / 4.y.4.( ` 1.( ( ( 1.1.( 1.1.1.1.1.;./ ( 1.1.1.1.1.1.1.1.1.1.4.1.4.1.1.1.1.1.5.5.4.5.7.9.7.9.7.5.5.7.7.5.7.7.7.7.8.7.7.7.8.8.8.8.8.e.8.9.8.7.7.7.7.7.5.7.9.7.7.5.5.6.;.3.3.6.3.3.3.6.3.3.1.9.9.6.6.6.5.9.7.5.5.9.9.7.9.9.p.t.t.8.8.8.t.t.e.t.e.e.t.e.6.3.6.6.6.6.9.9.9.9.e.8.8.9.8.y.k.k.k.z.z.x.z.x.i.k.x.x.z.x.x.c.x.y.y.z.z.k.k.k.y.y.y.i.e.i.i.z.i.z.z.z.z.z.i.z.i.z.C.z.i.z.t.t.i.i.z.i.t.e.y.y.y.i.y.k.y.y.y.y.y.i.y.XX|.k.z.x.k.y.l.y.e.i.i.i.y.e.e.y.i.i.y.k.z.z.i.y.z.z.x.y.i.y.y.i.y.8.8.y.8.8.e.e.y.y.8.e.y.y.y.e.8.e.9.8.7.9.e.y.8.y.q.y.y.y.y.y.8.y.7.8.q.7.7.8.7.7.7.e.7.5.8.7.7.5.7.5.1.5.5.4.^ 7.1.1.1.` ` 1.1.1.4.1.;.1.3.1.1.1.1.1.W W 1.` ` 1.` / ( ( ( ( ( ( / / ",
"G G K P P P I G G I T T T W T W Q W W ~ W W ^ ^ ^ ^ ~ ~ ~ / ^ W Q / ( ( ( ( 1.1.( ` ` ` ( 1.1.1.` ` 1.4.1.1.1.1.4.4.1.1.4.1.4.1.1.1.1.1.4.5.4.7.7.7.9.5.7.7.5.5.7.5.5.7.7.7.7.7.7.7.9.8.7.7.8.7.7.7.7.7.7.5.7.7.7.9.7.9.5.1.1.3.3.3.3.3.3.3.3.3.3.3.3.9.9.5.6.7.6.9.9.5.5.6.9.7.9.6.6.t.t.8.6.t.t.t.t.8.e.e.6.t.6.3.6.7.6.6.6.7.9.9.7.e.9.9.e.y.k.k.k.k.k.k.x.x.k.k.x.x.k.k.x.x.z.y.i.z.k.i.y.i.y.i.y.i.e.e.i.z.i.i.z.i.i.z.i.i.i.i.z.i.e.i.e.8.8.e.e.e.8.7.y.y.y.y.y.y.i.y.y.y.y.y.i.y.y.k.k.z.y.y.y.y.y.i.y.y.e.e.y.y.y.y.y.y.k.y.y.y.i.i.k.i.y.k.y.y.y.y.8.e.e.8.e.e.y.y.8.8.8.8.e.8.8.e.8.7.e.8.e.7.7.8.7.8.e.y.y.8.e.y.9.8.e.7.7.8.7.9.9.8.9.7.7.7.5.5.5.5.5.5.6.1.^ 7.1.1.` ` 1.1.1.4.1.3.3.1.3.1.( ;.( ( ^ ^ ` ` ` ( / / ( ( 1.( ( / / ^ ",
"G G K P P P U G P I I T T T T I W W W W ~ ^ ^ ^ ^ ^ ^ ^ / / / / ^ ) ( ( ( ( ( ( ( ( ( 1.3.1.6.q.7.7.y.x.8.` 1.1.1.4.4.1.1.1.1.1.` 1.1.1.4.5.9.6.7.7.7.5.7.7.4.5.5.7.7.7.7.7.7.7.7.5.7.7.7.7.7.7.7.7.7.7.7.6.7.5.5.5.5.1.1.1.4.3.>.3.3.3.;.;.;.;.;.1.3.3.7.6.5.6.6.6.7.7.4.1.1.4.6.3.3.;.3.6.6.6.t.t.6.8.6.6.6.3.3.3.5.6.6.9.9.9.7.e.e.7.e.7.y.y.y.k.y.k.y.k.z.k.x.x.k.x.x.z.z.z.x.y.z.y.i.y.y.y.i.i.y.i.e.e.e.i.i.i.i.i.t.z.i.i.i.e.z.e.t.8.6.t.9.y.e.e.9.8.y.i.e.y.i.y.y.8.8.y.y.e.i.y.y.i.i.y.y.i.e.y.y.y.y.8.y.8.y.y.y.y.y.y.y.y.y.i.y.y.y.y.e.y.y.y.e.7.8.y.7.e.y.8.y.e.y.e.8.7.y.8.y.y.7.7.8.8.7.7.7.8.7.7.7.7.8.e.y.e.7.8.8.7.7.8.7.7.7.9.9.7.7.7.7.5.5.5.5.5.5.1.^ 7.1.` ` ( ( 1.1.1.1.3.1.1.1.1.1.1.( ( 1.4.` ` ( ( ` / / ` 1.` ` ( ^ W ",
"K K K Y K P I G P I I T T W T W W W W W ^ ^ ^ ^ ^ ^ ^ ^ ^ ^ ^ ) ^ ) ( ( ( ` ( ( ( ` ( / 1.;.( ( ( ;.( 1.1.1.1.1.1.1.1.1.1.1.1.1.5.' 1.1.4.6.7.5.6.7.7.5.5.7.5.7.5.5.5.5.5.5.7.7.7.9.5.7.9.9.7.q.7.9.7.7.5.5.4.4.5.5.1.( 1.1.1.3.;.;.1.1.1.1.3.3.8.e.e.8.9.5.5.9.9.8.7.e.9.9.9.7.7.8.e.9.t.t.8.8.e.e.i.i.i.e.e.e.9.6.6.6.6.9.7.7.7.9.7.9.8.8.y.y.i.i.i.y.y.k.x.k.x.x.k.z.k.x.z.k.k.y.y.y.k.y.y.i.y.i.y.y.e.e.e.8.e.i.e.e.e.e.i.e.e.e.i.t.8.e.e.e.e.e.e.8.7.i.y.y.y.y.y.y.i.7.7.7.e.e.y.y.y.i.i.y.y.y.i.e.8.y.y.8.e.e.y.y.y.y.y.y.y.y.y.y.y.y.y.y.y.i.y.y.e.7.7.7.e.7.e.7.y.e.e.8.e.8.7.8.q.8.8.7.8.8.5.6.7.8.7.9.7.8.7.8.8.7.7.7.8.8.7.7.8.5.5.7.7.5.7.7.7.5.4.9.5.1.4.1.^ 5.1.1.` ;.1.1.1.1.4.1.3.;.1.1.1.1.;.( ( ( ` ` ( ( ` / ` ` ` ` ` ( W T ",
"G G K K Y P I G P I I I I T T W W W Q W Q ^ ^ ^ ^ ^ ~ W W ^ ^ ^ / ^ ( ( ( ( ( ( ( ( / P ( ( ( ( ( ( 1.1.) ` 4.1.1.1.1.1.1.1.1.) ^ 1.1.1.4.5.5.4.1.4.7.5.5.7.7.7.7.5.4.5.5.7.7.7.5.7.5.5.7.7.7.y.7.7.7.5.5.5.4.4.1.5.1.1.1.1.5.1.1.3.1.1.1.1.5.7.4.4.5.9.9.7.7.9.7.7.7.7.5.4.5.1.3.1.1.1.6.4.4.6.7.9.9.6.4.9.4.7.5.4.1.3.1.1.1.4.5.5.7.7.7.q.7.7.y.k.i.y.y.y.x.i.y.k.z.k.k.x.k.y.y.y.y.i.y.y.y.y.y.y.y.y.y.y.7.q.7.7.i.e.y.i.e.e.e.i.z.e.e.e.e.9.y.e.5.7.7.y.y.y.e.y.y.7.y.e.9.9.e.e.y.y.8.e.y.i.y.i.y.y.q.8.y.8.e.e.y.e.y.y.y.y.y.y.y.y.e.y.y.y.y.y.e.8.9.7.7.7.7.7.7.q.y.e.y.7.7.7.7.7.8.7.8.8.8.8.8.5.9.9.7.7.9.7.8.e.7.7.7.7.7.7.7.9.7.5.5.7.5.5.5.7.9.5.5.5.5.1.5.1.^ 7.1.1.1.1.1.1.1.1.4.3.;.1.1.1.;.( ( ( ( ` ( ` ` ` / / / ( / / ` / W T ",
"G G K K K P I H P I P I T T T W W Q Q Q Q Q W W ~ ) ~ W Q ^ ^ ^ ^ ^ / / ( ( ( 1.( ( ) K ^ ) ) ( ) ) ( ( Q ` 1.1.1.1.1.1.1.1.3./ R ` 1.1.4.6.6.1.4.4.4.4.5.5.5.5.7.5.5.4.5.5.5.5.5.5.5.7.7.7.8.8.9.5.4.5.5.1.4.1.1.1.1.1.1.1.4.1.1.1.1.1.3.4./ G H m H H H H H H H H H H H H n m m n n n b n n n m n b f f f f l ^ 4.4.1.1.1.1.4.5.4.7.7.7.8.q.y.y.y.y.y.y.y.y.y.y.y.y.i.k.k.k.y.y.y.y.y.y.y.y.i.y.y.8.y.q.y.8.q.8.8.y.e.8.y.8.e.e.e.y.e.8.e.e.7.7.7.5.5.7.8.e.y.e.y.y.e.e.e.7.5.e.y.i.5.7.i.y.i.y.e.e.y.y.8.y.y.e.7.7.e.y.y.y.y.y.q.q.y.y.y.y.y.y.e.8.7.9.7.9.7.9.e.7.8.8.8.7.7.7.9.9.7.7.7.7.7.7.7.4.y.i.y.8.8.7.7.9.9.e.7.7.7.9.9.7.5.7.5.4.7.9.5.6.5.9.5.4.4.6.1.6.1.Q 5.` ` 1.1.( ( 1.1.3.1.;.;.1.;.;.;.( ( / ( 1./ 1.1.( / ^ / / ^ ^ ^ W W ",
"G G K P P P I G K I P I T T T T W W W Q W W W W Q Q Q ~ W ^ ^ ^ ^ ^ / / / ( / ( ( ( ) H W W ~ ^ ~ ^ ) / W 1.1.1.1.1.1.1.1.1.1.4.}.` ` 1.1.4.1.1.1.4.4.4.4.5.4.5.5.5.4.5.4.1.4.1.4.5.5.7.8.9.7.7.5.5.5.4.1.1.1.1.1.1.( 1.3.1.3.1.3.1.;.;.1.I < 3 3 3 2 2 < = < 2 2 3 3 2 3 2 2 2 2 2 2 2 2 3 3 3 3 3 3 2 2 2 2 < 3 J ) ) ^ ) ^ ^ ) ( ( 3.1.1.1.1.1.7.i.e.e.7.8.7.7.9.9.9.e.e.9.5.6.5.9.9.7.7.7.9.7.5.6.4.4.4.4.1.1.1.6.6.1.1.1.3.1.1.1.1.1.6.5.1.1.4.( 1.1.4.4.7.e.e.y.y.y.y.9.7.7.7.e.e.8.e.e.y.y.e.y.e.y.y.y.y.e.y.8.y.i.8.q.y.y.8.8.q.y.y.y.e.e.7.7.7.9.9.9.9.9.9.7.8.7.7.8.y.+XXXXXXX+X|.XXx.7.7.4.q.y.8.8.7.9.9.7.8.7.7.7.4.5.6.7.6.5.6.4.6.6.1.4.5.5.4.4.4.1.1.1.1.Q 4.` ` 1.1.( ` ;.3.1.3.3.;.( ( ( ;./ / W ^ 1.` ` ` ( / ) ) ^ ^ ^ ^ W W ",
"G G P P K K P H P I P I I T T T T T T T T W ^ ^ Q Q Q W W Q Q ^ ^ ^ / ^ / / / ( / ( ` K G U U T T T W W ~ 1.` ( ;.;.1.( ( 1.1.` / ` ( ` 1.1.1.1.` 1.1.2.1.5.1.4.5.5.5.1.1.4.1.5.4.5.5.7.8.e.9.7.9.4.4.4.1.1.1.1.` / 1.1.1.1.1.^ J Q R R R P J H K G H d f d d f d l b b b b b l d d d d l d l b d b d f d l d b n n P R R R R P P R R f 4 = $ @ + Q ' ' ' ' ' ' [ [ ' ' ` [ ' [ ' ' ' ' ' ' ^ ' ' ^ Q Q Q ^ ' ^ ^ ^ ^ ^ ^ ^ Q ^ ' ' ' [ [ R ' ' ^ ^ ^ [ ' ' ' R 5.e.8.8.y.y.7.5.9.7.8.y.9.8.y.y.y.8.y.8.y.y.8.8.e.y.7.9.7.8.y.8.8.7.q.y.8.y.y.q.7.5.7.7.9.7.7.5.7.7.7.7.5.8.4.x.&X|.x.x.|.c.c.x.7.4.7.8.q.8.7.5.5.7.5.9.7.7.4.5.7.6.6.6.4.4.4.6.6.1.4.4.4.4.4.4.1.3.1.` T 4.` ( ` 1.1.1.1.3.1.3.1.( ( ( ( / ( ^ 1.1./ ` ( ( ^ / ^ ^ W W ^ ^ W W ",
"H G K L K P I H L I I I I T T T T U U I W Q ^ ~ Q ~ Q W W Q Q Q ^ Q ^ ^ / / / ` / ( ) 1.4.1.1.1.1.1.` 1.1.( 1.( ( ( ( 1.1.1.1.` ` ` / / ` 1.1.1.` 1.1.1.6.1.5.1.4.4.4.4.1.4.4.4.5.5.5.7.7.9.9.7.7.4.4.4.1.1.1.1.( ^ ^ ` 1.1.4.P .X-X=X-X-X=X5X2./ / ^ T U I I I I I I I T T T T I I T U T T T T T T T T T W W ~ ~ ^ |.@X+XXX|. X|.@X+X3 R ' ' [ =  XrXqX6X6XwXrXrXwXrXrXrXrXrXrXeXrXrXrXrXrXrXrXrXwXwXwXwXwXwX6XwX6XqX6X6XwXwXwXwXwXwXwXrX X.XwX2X-X&X-X2X-X6X.XI y.7.y.y.7.7.7.9.9.7.7.7.7.e.y.7.7.y.y.8.y.e.7.7.7.7.7.8.8.8.8.8.9.7.e.y.y.y.y.7.9.7.7.7.9.9.7.7.5.5.5.5.7./ 9.XXy.8.y.y.y.i.7.5.4.7.7.7.7.` 1.5.7.1.5.7.5.7.5.5.6.6.1.6.6.6.6.6.1.1.6.6.5.1.4.1.1.1.` T 1.1.1.` ` 1.1.1.` 1.1.` / ( ( / ( / ( ` / ` / / / R / ^ ^ Q W ^ ^ ^ W ",
"H G K P K P I H P I I I I I U I U U T W W Q ~ W Q W Q W W Q W W Q ^ ^ ^ / / / ` ( / ^ 7.XXXX+X@XoX|.x.x.8./ ( ( ( 1.( 1.1.1.1.` ` ` / ( 1.1.1.1.1.1.1.1.1.1.1.5.4.4.4.1.4.4.4.4.5.5.7.7.7.7.9.9.5.4.4.4.1.1.1.` / ` ` T ) 5.W 5.l.1.5.5.5.7./ *XMXnXbXxXcXbXxXlXkXkXkXkXkXlXlXlXkXkXkXkXkXlXkXkXkXtXkXlXlXlXbXlXkXeX+XXX@X+X@X@X$X=X5.&XZXMXZXZXyX}.y.k.x.y.k.k.y.y.y.k.y.x.l.y.y.y.y.y.y.l.l.y.y.y.y.y.y.y.y.y.y.y.y.y.y.8.q.q.y.q.q.7.q.7.q.7.7.7.7.7.7.8.7.|.0.) e.7.7.7.7.7.7.7.7.7.7.7.7.y.7.9.7.8.8.y.8.7.7.7.7.5.8.8.8.7.7.8.8.e.e.y.y.7.9.5.7.7.9.7.7.5.7.5.6.5.7.7.1.^ k.7.7.7.7.7.7.( 1.^ 7.4.7.1.1.4.7.5.4.5.7.7.4.6.6.1.6.1.6.6.6.1.1.6.6.4.5.5.1.1.1.3.1.` T 1.` ` ` ( ( 1.` 1.1.1.` ( ( ( ( ( ^ ( W Q ` / ^ ( ^ ^ ^ ^ W W ^ ) ^ W ",
"H G K K K P P H K P I I I I I I T T T W W W W W W T W W W W Q ^ W ^ ^ ( ( / / ( ( / ^ W ` Q Q ^ Q W Q ^ U ^ ( / ( ` ( 1.1.( 1.1.` ( ( ` 1.1.1.4.1.1.1.2.1.1.1.1.1.1.1.1.5.4.4.4.5.5.5.7.7.5.5.7.7.1.1.1.1.` 1.` 1.1.1.1.1.1.^ }.7.7.q.7.7.7.1.4.XXXX+X$X$X$X$X$X$X$X$X$X$X$X$X$X&X$X$X$X$X*X%X$X$X@X$X&X=X=X=X=X=X$Xc.c.c.c.c.x.x.x.|.@Xc.c.XXXX@XXXx.|.|.l.x.x.x.x.x.x.x.c.x.}.x.x.x.l.x.x.x.x.x.l.}.x.x.}.v.v.v.l.l.l.u.l.x.l.l.l.l.y.y.y.y.y.q.q.q.y.q.y.y.q.XX^ 1.7.7.7.7.7.e.4.4.9.7.7.8.5.q.8.7.7.q.8.8.y.7.7.7.7.7.7.y.q.y.e.8.e.y.e.y.8.7.9.5.7.7.8.7.7.y.8.5.5.5.5.5.P ~ W W T W W T G ^ y.4.4.4.1.7.4.1.4.4.5.5.5.6.4.4.1.1.1.6.6.4.1.1.1.1.1.6.5.1.1.1.1.` ( T 1.` ( ` / ( 1.` ` 1.` / ( ( / ( ( / / / ( ` / / ( ) ^ ^ ^ ^ W ^ ^ ^ T ",
"H G G G K P I H L I P P I I I I I I T T W W W T T T W W W Q W W Q ^ ^ / / ( ) / / ^ ^ m T T U T T T W ~ K T 1./ ( ` ( ` 1.;.1./ P ^ ` ( 1.1.1.4.4.1.4.4.4.4.3.6.4.1.1.T T 1.4.4.4.5.5.7.7.5.5.7.7.4.1.4.1.` ( W W 1.1.1.4.T l.y.7.7.q.q.5.7.1.^ 1.1.4.7.7.7.y.7.y.q.8.q.7.7.7.q.y.8.7.y.e.y.y.8.7.7.y.y.y.y.y.i.y.y.l.l.y.y.y.y.y.y.y.y.y.y.y.y.y.l.x.x.x.l.v.x.x.l.x.x.x.c.c.x.l.x.x.l.l.l.l.x.l.l.x.x.}.x.l.v.l.l.l.l.u.l.l.l.l.l.k.y.y.q.Q 7.q.q.7.y.q.y.q.q.y.x.T 7.7.7.5.7.8.U ;.y.q.7.1.4.y.8.q.8.8.7.7.7.7.7.7.7.7.` / y.8.8.8.e.e.e.7.7.7.9.7.7.5.5.7.7.^ T 7.5.5.1.9.;.K K K P P P U W 7.8.1.1.5.7.1.1.1.4.1.5.5.5.5.1.5.1.1.3.1.4.1.1.1.1.5.3.1.4.1.1.1.1.1.( T 1.` ` ` / ( 1.( ' ` / ( / ( / ( ( / ^ 1.1./ ^ / / ) ^ ^ ^ ^ ^ ^ ^ ^ W ",
"m H G G P P I H L P P I I I P I T T T T W W T W T T T T W W ^ Q W ^ ^ ^ ^ / ) ) ) ^ ^ l i b d b l l b l f ^ ( ) / ( ` ` 1.` 1.( ` ^ / / 1.1.1.1.1.1.1.1.1.1.1.4.1.4.1.4.8.7.1.4.4.4.4.5.7.5.5.5.5.1.1.1.1./ ( ` 5.( 1.1.^ 7.x.7.7.7.7.7.7.q.1./ 7.7.0.y.y.q.y.y.y.y.y.y.y.y.y.y.k.l.y.y.y.y.y.y.y.y.k.x.l.x.l.x.x.l.y.y.u.y.y.y.y.l.y.l.y.l.y.y.y.l.x.x.x.l.x.x.l.l.x.x.u.x.x.x.l.l.x.l.u.y.x.x.l.u.x.x.x.x.l.l.y.y.l.l.l.y.y.y.y.y.y.y.y.q.l.y.7.q.7.q.8.7.q.q.7.y.7.Q y.5.5.7.4.5.7.7.7.7.7.7.q.q.7.4.5.7.7.5.5.5.5.7.7.4.` 8.7.8.8.8.7.7.7.5.5.7.7.5.5.5.7.5.4.9.1.5.1.1.6.9.9.9.7.7.7.7.y.y.1.1.4.4.1.` 4.1.1.4.1.4.4.4.4.1.4.1.1.1.1.4.1.1.1.1.1.1.1.1.1.1.` 1.1.( T 1.` ` ` ( / ` ` ( ` ( / / ( / / ( / / ^ ^ / ^ / / ^ ~ ^ ^ ^ ~ ^ / ^ T ",
"m H G G L K P H K P P P P P I I U T I T W T I T T T T T T W Q U I ~ / ^ ^ / / ^ ^ ^ / W f f f f f f f f I ` ( ^ / ( / ` ` ( ( ` q./ ^ ( 1.1.1.1.1.1.1.1.1.1.1.1.1.1.1.5.k.7.1.1.1.4.4.5.7.4.5.4.4.1.` ( ^ ^ ` 1.9.;.1./ ^ }.7.8.0.7.7.7.7.7.1./ 5.5.7.q.q.q.q.y.y.y.y.y.y.y.q.y.k.l.y.y.y.y.y.y.y.y.y.x.x.y.y.y.y.l.y.y.y.y.y.y.y.y.y.y.k.l.l.y.y.y.x.c.x.l.l.x.x.x.x.x.u.l.x.l.l.l.x.l.u.y.l.x.l.l.x.x.x.l.l.l.u.y.y.y.y.k.y.y.q.y.y.y.q.y.|.7.7.q.4.7.8.7.7.7.7.5.x.' 1.5.4.5.4.l.y.4.7.7.7.7.7.5.7.7.1.5.5.4.4.4.4.4.1.y.7.5.7.7.7.7.7.5.4.5.4.4.4.5.1.4.5.4.q.y.1.1.1.1.4.5.7.7.5.5.4.4.5.4.1.1.1.1./ H ^ 2.2.1.1.2.1.1.1.1.1.1.1.4.4.1.1.1.1.4.4.1.1.1.W / ` ` ` ( T 1./ ( ` / ` ` / ( ( / ^ / / / / ^ ^ / / / / ^ / / ^ ^ ^ ^ ^ W ^ / ^ T ",
"m m H G K G P G G P P P P P I I T I I T W I I U T T T T T ^ ( ;.~ ~ ^ ^ ^ ^ ^ ^ ^ ^ ^ ( ( ( ( ( ( / ) ( 1.( / / / ` / ` ` ( ` / Q ^ / / 1.1.` 1.1.1.1.1.1.1.1.1.1.1.1.1.1.1.1.4.1.1.2.2.4.5.5.5.1.1.` / W ( 1.( ( 1./ I l.y.7.8.7.7.7.7.5.7.1./ 4.4.7.q.q.q.y.y.y.q.y.y.y.y.q.y.k.y.y.y.y.y.y.y.y.y.y.z.z.y.y.y.y.y.y.y.q.y.y.y.y.y.y.y.y.k.k.y.y.y.y.l.x.u.l.x.x.x.x.x.y.y.x.y.k.y.l.l.y.y.l.x.l.l.x.l.l.l.l.l.y.y.y.q.y.y.y.y.y.y.y.q.q.7.1.5.7.q.7.7.7.7.7.7.7.7.7.v.T 5.7.7.7.4.5.7.0.q.q.q.7.7.7.7.7.7.7.9.5.5.5.7.1.1.6.7.7.7.7.7.7.5.5.5.4.4.4.5.4.4.5.5.1.1.5.1.1.5.5.7.7.7.7.7.7.7.7.7.1.1.1.` 1.1.I 1.2.1.1.4.1.1.1.1.1.3.1.3.1.1.1.1.1.1.1.1.1.1.T 1.` ` ( / I 1.( ( ( ( ( ( ( ( / / ^ ^ ^ ^ ^ ^ ^ / ` / / ^ ) ) ^ ~ ^ Q W W ~ ^ W T ",
"m m H G G H P H G P P P P P I T I T I T U I U T U T T W T W ( ;.^ ^ ^ W W ^ W Q ) ^ ^ ^ / 1.` 1.1.1.1.1.` ( / ^ / ` ( ( / / / / / / / / ` ` 1.1.1.` 1.1.( ` 1.1.1.1.1.1.6.1.1.1.1.1.1.1.4.4.1.1.1.1.` ( ` ` 1.1.1.1.P 7.x.7.q.7.7.7.7.7.4.7.1.^ 7.4.7.y.8.8.y.y.y.q.y.y.q.y.y.y.y.y.y.y.y.y.y.y.y.y.y.z.z.k.y.y.y.k.y.y.q.y.y.y.y.y.y.y.y.y.y.y.y.y.y.y.l.l.l.x.u.l.l.x.y.x.x.y.k.y.y.l.y.y.l.l.k.l.l.l.l.k.k.k.y.y.y.y.y.q.y.q.8.8.7.8.8.7.7.5.8.8.7.7.7.8.7.7.4.7.7.y.q.T Q Q ~ ~ ~ ^ ^ / ` / 1.2.1.` 1.` / ( ( / ' ` / ( / ` ` 1.1.` ` ` / / / ^ ^ ^ / ^ / / / / / ^ ^ U U W W W W U U P I P ` 1.1.1./ 1.1.1.2.1.1.2.1.1.1.1.1.1.1.1.3.1.1.1.1.1.1.1.1.1.( 1.( ( ` / I 1.( ( / ( / / / ) / ^ ^ ^ ^ Q ^ ^ ^ ^ ^ / ) / ^ ^ ^ ~ ~ W W W ^ ^ Q T ",
"m m m m G G P H G L P P P P P I I I I I I I I I T I T T W W / 4.) W ^ W W W Q ^ ~ ~ ^ ^ ` ` ` ` 1.` ` ` ^ / ( / / / / / / ^ / ^ I / / / ` ` 1.( ` ` 1.1.` 1.1.1.1.1.1.1.1.1.1.1.1.1.1.1.1.1.1.1.1.` ` 1.1.1.1.1.4.^ W x.7.8.7.7.7.7.7.7.5.7.` ' 7.2.7.q.q.q.q.y.y.y.e.y.y.y.y.q.y.y.y.y.q.y.y.y.y.y.y.k.k.y.y.y.y.y.y.k.x.k.y.y.y.y.y.y.y.y.y.y.y.y.y.y.x.l.y.u.y.l.x.x.x.x.x.y.k.l.y.k.k.y.l.l.k.u.u.y.y.y.y.y.y.y.y.y.y.y.` ^ ( / ( ) ) ^ ^ ^ ^ 1.q.q.7.y.9.` 7.q.q.7.x.l.q.w.q.u.h.h. Xh.h.h.J 2 3 2 2 4 4 2 2 2 3 3 3 3 3 3 3 3 3 3 3 3 3 3 3 3 3 3 3 3 3 3 2 2 3 < f w.w.w.w.w.w.w.w.w.w.w./ 1.1.1.1.4.4.4.4.4.2.1.2.1.3.;.1.;.1.1.1.1.1.1.1.1.1.1.` ` ( ` 1.` ` / P ( ( / / ) ( ^ ^ ^ ^ ^ ^ ^ ~ W Q ~ ^ ~ H I / ^ ^ ^ ~ W ^ ~ W W ^ ^ W T ",
"m m m m G G K H H K K K P P P P P I I I U I I I I I I T W W ) 4.( W W W W W W W Q Q W 1.1.^ / ( / / ^ / / / ^ / / / ` / ` / / ^ ( / / / ( 1.` ( / ` 1.` ` ` 1.1.1.1.1.1.1.1.1.1.1.1.1.1.1.1./ G G G G H H G J J H ~ x.7.7.7.7.7.7.7.5.7.5.7.` / 7.5.7.q.q.7.4.y.y.y.y.y.y.y.8.q.y.y.y.y.q.q.y.y.y.y.y.y.y.i.e.y.k.k.y.x.z.y.y.y.y.y.y.y.y.y.y.y.y.y.y.y.i.y.y.y.k.x.x.x.k.y.x.y.y.y.y.k.y.y.k.l.y.y.y.y.y.y.y.y.y.y.q.y.y.y.^ XX#X#X$X+X+X+X@X$Xc./ q.y.q.y.8.7.y.q.7.0.7.|.@X@X@X$X*X*X$X=X$X2Xw.d m m m n H m H m m H H m m H H H G G G G G G G G G H H G m m m n m l H @X$X@X@X@X@X@X@X*X$X1X7.n J G G J G G G G G J P G Y ;.1.1.1.;.1.1.1.1.1.1.1.1.` ` / ( ( ` ( ) P ` ^ / / / / / ) ^ ^ ^ Q ^ ^ ^ ~ W ^ W / ^ ^ ~ ~ ^ ^ W ^ W W W Q W W T ",
"n m m m m G K H G K K K K P P P P P P I T I I I I T T T T T / 8.) W W W W T T T W Q W 1.q.7.q.y.y.y.k.z.( ^ ) ^ ) ( ( / / / ^ / l.` ^ / ( ` ` 1.1.` ` ` ` ' 1.1.1.1.1.1.1.3.1.` ` ` 1.1.1.1.K d f d f i f f f l b q.l.7.8.7.7.7.7.7.4.7.1.5.` / 7.5.7.q.y.8.7.y.y.y.y.8.y.y.8.8.y.y.y.y.y.y.q.y.y.y.y.y.y.y.y.y.y.i.y.y.y.y.y.y.y.y.y.y.y.y.y.y.y.y.y.y.y.y.y.y.y.l.k.k.y.l.y.y.y.y.y.y.k.y.y.y.y.y.y.y.q.y.y.y.0.7.y.y.y.q.y.c.z.y.k.y.y.q.8.8.y.8.q.q.q.q.7.7.q.7.7.7.0.7.7.5.5.5.5.5.7.5.7.5.q.7.` ` ' ^ ' ' ' ` ` ` ` ` ` ` ' ` ` 1.` 1.` ] 5.5.2.] ` ] ] ] 5.] 5.` ] 1.1.1.1.` 1.1.1.1.1.1.l.Q G P G G H H m m m m m m m I 1.` ( 1.;.1.1.1.` ` 1.1.` ` / / / / ` ^ P ( ^ W ^ ^ ^ ( ) W Q ^ ^ W Q ~ ^ ^ ^ W 1.` W W W ^ W W W W T T W W T T ",
"n n m m m G K G H K K K K K L P P P P I I I I I I I I I T I 7.x.4.T T T W W T T T ~ I K 7.7.7.8.q.7.z.z.I ~ ) ^ ^ ( ( / ` ) / / W ^ ^ / / / ( ( ( / ( ( ` / 1.1.1.1.` 1.` 1.3.1.` / ` 1.1.I n m n m n m H m H P ` l.5.q.7.7.7.7.4.4.7.7.4.7.` ^ 4.2.7.q.q.8.7.y.y.y.q.7.q.q.q.8.q.y.y.y.q.y.q.y.y.y.y.y.i.y.y.y.i.k.y.y.y.k.y.y.i.y.y.y.y.y.y.y.k.y.y.y.y.y.y.y.k.y.y.l.k.y.k.7.y.y.y.y.k.y.y.y.y.y.l.y.0.y.y.y.q.q.8.y.q.q./ 1.1.1.1.1.` ` 1.1.` ' q.q.q.q.4.2.7.7.5.7.0.q.y.q.y.y.y.q.y.y.y.y.q.qXtXlXlXlXlXxXnXnXxXlXlXxXlXkXtXkXkXlXlXlXlXlXlXbXlXlXkXkXlXtXtXrXrXrX6X7.7.7.4.4.5.7.7.7.7.7.7.l.T P G G G G G G K G G H G m T ` ( 1.( ( ` ` / / ` ( ` ` / / / / ` ^ P ^ ) T T P P ^ ^ Q ^ Q W ^ W W ^ ^ ^ ^ T T W W W W ^ Q W T T T T W W T ",
"n n m m H H G G H K G K K K K L P P P I I I I I I I I U T I 9.9.1.T T T T T W W T ^ P f U I T T U I W T H ^ ) ^ ^ / / / / / / / / ^ ^ ^ / / ( / / ' ( ( ` ` ` 1.` 1.` 1.1.1.1.1.1.( ( 1.W n n d l H m H H m P ^ }.7.7.7.7.7.7.7.5.7.7.5.5.5.` ^ 4.4.4.7.0.q.7.q.y.q.q.7.8.q.8.q.y.y.q.y.y.y.y.q.y.y.y.y.y.y.q.y.i.k.y.y.l.k.y.y.y.y.y.y.y.y.y.y.y.y.i.y.i.y.y.i.k.x.l.y.y.y.y.7.y.y.y.y.y.y.y.y.7.q.x.y.y.y.q.8.8.8.q.q.y.y.4.U I I I P P I T W ^ 7.7.7.q.q.7.1.4.7.7.8.7.7.7.7.q.q.q.q.q.q.y.y.y.8.y.l.y.y.y.y.l.l.y.y.y.y.y.y.q.y.y.l.l.k.y.y.y.y.y.q.q.q.q.q.q.7.7.5.1.4.5.7.4.4.5.4.5.7.7.5.4.7.0.H P G H m H G G m m m n m b Q ` ` ( ` ` ` ` / / / / / / / / / / ^ P ^ W ~ W W ^ ^ ^ Q ^ W W W W W ^ ^ ^ Q W W T T W W W Q ~ T T T T W W W ",
"d b n m m H H H m G G G G K K K P P P I I I I I I I I I T I P P P T T W W W W W W Q T 2 3 i f f f f d f H ^ ^ Q ^ ^ / / ^ / / / / ^ ^ ^ ^ ^ ^ ) / ' ` 1.` ` ` ` ` 1.` ` 1.;.1.1.( ` ( ) H m n n l G R H G T U l.l.4.7.5.7.5.5.7.4.5.1.1.5.5.` ^ 4.1.2.5.7.7.7.q.q.q.8.y.q.8.8.7.q.y.y.8.q.y.q.q.y.q.y.y.y.y.y.y.y.y.y.y.y.y.y.y.y.y.y.y.y.y.y.y.y.y.y.y.y.y.y.y.k.l.l.k.y.k.y.y.k.y.y.y.y.i.y.y.y.q.y.y.y.y.y.y.8.7.y.q.q.y.y.y.y.y.y.y.q.q.y.y.q.8.7.7.8.8.7.4.7.7.4.4.4.5.7.7.q.q.q.7.q.q.y.8.y.q.7.7.7.7.5.5.5.5.4.4.4.4.4.4.4.4.4.5.7.7.7.4.7.5.7.7.4.5.7.4.5.4.5.4.5.4.4.7.4.1.5.5.4.7.7.4.4.1.q.^ L P G H G G G m m m m m m H 1.1.1.1.` ` ` / / / / / ^ / / ) / ^ P / ~ ^ W ~ ^ / W ^ ^ W ^ Q Q W ~ ~ W Q W T W T W W W T T W T T T T U I ",
"d d n n m m G H m H G G G G G K L L P P P P P P I I I I I I I T I I T T T T W ^ W W ~ m f f d d d l f l U ^ Q W ^ ^ ^ ^ ^ / / / ^ / Q ^ ^ ^ / ( ) / ` 1.( ( 1.1.` / / ( ;.;.1.;./ ) ( K n n l l H H G G K K 5.x.1.7.7.5.4.4.4.4.4.1.1.5.7.7.` Q 1.1.1.1.7.4.4.8.7.q.8.q.q.q.y.8.y.y.8.y.8.y.e.y.y.y.e.q.y.y.y.y.y.y.q.y.y.y.y.y.y.y.q.q.y.q.q.y.y.y.y.y.y.y.y.y.l.u.y.l.y.y.y.y.y.y.y.y.i.y.y.y.y.y.y.y.y.e.y.y.8.8.8.8.8.q.q.y.y.y.7.y.7.9.8.7.7.7.7.7.7.7.5.1.7.9.4.4.7.7.7.7.7.0.0.7.7.7.7.7.7.7.q.q.7.7.7.7.5.5.5.5.1.5.5.5.7.5.5.7.7.7.0.7.7.5.5.5.7.9.5.4.7.7.7.5.7.4.4.4.4.7.5.5.5.7.5.4.4.1.` q.T K K G G H H m G H m m H n ^ 1.` 1.` 1.( ( ( ( ` / ^ ^ ) ^ ^ ^ P ^ ~ ^ W W W R W ~ ^ W W ^ W W ~ W W T W W T I T W W T T T U I U T I I ",
"d l d d n n G H m H H G G G G G K P K P P P P P I I I I I P P I P I I T T T T W W W ^ W U U I P K L K P W ~ Q W ~ ^ ^ ^ ^ / / T f P ^ ^ ^ / ( ( / / ' ` ( / ` ( / / ( ( ( ( ;.( / ( T n n d d H H H m m P ^ }.1.4.4.4.4.4.1.1.4.2.1.1.4.2.5.( W 1.1.1.1.4.7.7.7.7.8.8.8.8.y.q.q.q.y.q.q.7.y.7.7.e.8.8.8.y.e.8.q.y.y.` 4.i.y.y.y.y.y.y.y.8.7.7.y.y.q.y.y.y.y.y.y.u.l.l.y.y.y.y.y.y.y.8.8.e.e.y.q.y.y.e.y.y.y.7.5.8.e.e.7.y.y.q.8.9.8.8.8.7.7.7.5.5.7.7.7.7.5.4.1.4.5.5.7.5.7.7.7.7.7.7.7.5.5.7.7.7.7.7.7.7.7.7.7.4.4.4.5.6.4.5.4.4.7.4.4.4.5.7.7.4.7.4.4.4.4.4.4.4.4.7.5.4.2.1.1.4.4.2.4.1.4.5.4.1.1.1.4.7.K K G G H G G H m m m m G J ` 1.` ( 1./ / ^ ( / ^ ^ ) / ^ ) ^ P ) ~ W W W ~ W T W Q W W W W W W T T T I I T T I T T T T I I I T T I I ",
"d d d n n m H m m H H H H G G G G K G P P K P P P I P P I P G P P I I T T W T W W ~ ^ ^ / ( ( / / ) / ( ) ^ W W Q / ^ ^ ~ / / W ' ' W ^ / / ^ ) / ) ) ( ) ) / ( ^ / ( ;.( ( ( / ) ~ m m b b d H G G G P T x.7.1.4.1.1.1.1.4.1.4.4.4.1.1.1.1.( Q 1.1.` 2.4.2.4.7.7.7.7.7.4.7.q.q.8.7.q.8.8.y.7.5.8.8.8.7.7.8.8.7.7.q.y.y.e.y.q.q.y.y.y.y.y.y.8.8.q.8.8.q.8.8.y.y.y.l.y.q.q.y.8.y.y.q.8.7.8.e.y.8.8.e.e.e.y.y.0.q.y.y.y.7.7.7.y.7.7.7.7.7.7.5.5.9.5.7.5.7.5.7.4.1.4.1.4.7.5.7.7.5.7.5.5.4.4.5.4.5.7.5.7.5.7.7.5.4.4.7.5.4.4.4.6.5.5.4.5.5.4.7.7.5.4.4.4.4.1.1.1.4.4.4.4.1.4.1.1.4.1.4.1.1.4.1.4.4.4.1.1.( 7.4.H G H H m m H n n n m m G P 1.` ( ( ) ) / ( / ^ ^ ^ ^ ^ ^ ^ P ^ Q W T Q Q Q W W W W Q W T T T T T T J J T I I I I T I I I I U T I P ",
"d d d n n n H H n H H H H H G G G G G G I T P P I P I T I I P T P I T W T T W ~ Q Q W / 1.1.1.4.1.1.4.5.7.^ W W W ^ ^ ^ ^ Q Q ~ ` ' W ^ ^ ^ Q ^ ^ ^ / ) ) / / / / ` / ( ( ( / ( ) m n l b l n H m m K G q.y.1.1.1.1.1.1.4.1.1.1.1.1.1.2.1.1./ Q 1.` 1.1.5.4.4.4.7.7.7.7.7.7.q.0.7.7.7.q.8.q.5.5.q.7.9.7.7.8.7.7.7.q.8.8.y.y.8.8.y.y.y.y.7.8.7.7.7.7.7.7.7.y.7.q.y.y.q.q.q.q.8.y.y.y.8.9.7.e.7.8.7.y.8.7.e.q.y.8.y.e.7.7.7.e.7.7.5.7.7.7.5.5.7.5.1.1.1.7.4.5.1.1.1.1.4.5.7.5.5.l.l.k.k.y.y.k.k.z.5.6.5.4.5.7.5.4.4.7.6.1.1.4.6.7.7.4.4.4.5.4.5.5.4.1.4.2.1.4.4.1.1.1.1.1.1.1.1.1.1.1.1.1.1.3.4.1.1.1.1.1.1.q.Q b b d d f d l l l d f l G T 1.( ( ) ) ^ / / ^ ^ ^ ^ Q ^ ^ P ^ W W W W W W T W Q W W Q W T T T T T ^ / I U T T I I I I P I I I I I ",
"d d k n n n m H n m m m m H G G G G K G W 4.1.7.q.k.l.1.P I I I P I I T U T W W Q Q Q W P P U T I I U U W W W T W W W ^ ^ W Q ^ W W ^ ^ ^ Q ^ ^ ^ ^ ^ / / / / / / ` / ) ( ( ^ ( G b m l b d l R m P ^ ^ y.( 1.1.1.1.1.1.1.2.1.1.1.1.1.1.1.1./ W 1.` ` 4.4.4.2.4.7.7.7.7.7.7.q.7.7.7.7.7.7.8.7.5.7.7.7.7.5.7.8.7.7.8.q.q.q.8.8.8.8.8.8.8.7.7.7.7.7.7.7.7.7.q.4.8.y.y.y.q.q.q.8.y.q.8.7.5.7.7.7.7.8.7.8.7.7.q.7.7.y.y.8.7.7.7.7.5.4.7.5.5.4.2.5.5.1.5.4.4.6.1.1.1.1.1.4.7.4.4.` y.8.8.8.7.7.7.7.8.1.1.4.4.4.5.4.1.1.6.4.1.4.1.6.4.4.2.1.4.4.2.4.4.4.4.1.4.1.1.1.1.1.1.1.1.1.1.1.1.1.1.` ` 1.1.1.3.1.1.1.1.3.( 7.P n H H H l d d n n n n H G W ( / ^ / ^ ) ^ ^ ^ ^ ^ ^ ^ ~ P ^ W W W T T T T T W W T W T T T T T T I I U I I T I I I I P I I I I P ",
"d k n k n n n m n m m m m m H m H G G G G P T T T T T T P I P P K P P I I U U U W W W W I U W W U T W T W T W T T W T W ~ W Q Q Q ^ ^ ^ ^ Q ^ / Q ^ / / ^ ^ ^ / / ` / / / ^ ^ T m n d n n n m H G T W l.` 1.` ` ` ` 1.1.1.1.1.1.1.1.1.1.1.4./ Q 1.` 1.2.4.4.4.4.7.7.7.7.5.5.7.7.7.7.5.7.7.7.7.5.7.5.7.7.7.7.7.7.7.7.7.7.q.q.7.7.7.7.7.7.7.7.5.5.5.7.( H 4.8.8.e.8.8.q.q.q.q.8.8.y.8.q.5.5.7.7.7.7.8.7.7.7.7.q.7.7.7.8.7.5.7.7.5.7.7.7.7.7.7.5.5.5.5.2.5.6.1.1.1.1.1.1.5.4.4.^ q.8.7.7.4.4.1.1.5.` 1.4.4.4.4.4.1.1.4.1.1.1.4.4.4.1.1.4.4.1.1.1.4.4.4.1.1.1.1.1.1.1.1.1.1.1.1.1.1.1.1.1.` ` ` ` 1.1.` ` ( ` 1.1.4.H G H H H m m m m m m m H G / ( / ^ ^ ^ ^ ^ ~ ^ ^ Q ^ W P Q T T T T T T I T T T U T I I I T I T U I T P P I I I I I I I I I I I ",
"d d n k n n m H n n m m m m H H H K n i n H H H G H G H l P P P P P I U U U W W U U T W W T W ^ T ~ ( ( T T T T T T W W W W ^ W T Q ^ ^ W ^ ^ ^ Q ^ / ^ ^ ^ / / / ( / ( ( / ^ L H d l m n m m b T P q.7.( ` ` ` ( 1.( ( ` ` ` 1.` ` 1.1.1.4./ Q 1.1.1.1.1.1.2.2.7.7.7.5.5.7.7.7.7.7.7.5.7.7.7.5.7.4.4.7.7.7.7.5.7.7.7.7.7.7.7.q.7.7.8.7.7.7.5.5.9.7.5.1.7.8.7.9.7.8.7.8.q.q.7.8.q.8.8.7.7.7.7.7.7.7.7.7.5.7.7.9.5.8.7.7.5.7.7.9.5.7.8.9.7.7.5.4.5.6.1.5.4.1.1.1.2.4.4.4.4.4.P ` 8.1.` ` ` ` ` 1.P 1.4.4.4.4.4.1.1.1.1.1.1.1.4.5.4.3.4.4.4.1.4.1.1.4.1.1.1.1.1.1.1.1.1.` 2.1.1.1.1.1.` ` ` ` ` T P P K P P P G W ' n m m m m n m n n n n n G P ^ ^ ^ ^ ^ Q ^ ^ ) ^ ~ ^ ~ P ^ T T T T T T T T T I I U I I I I I I I P T P J I H G T I I I T U T I ",
"f f f d d l n n f d d d d d l l l n m m G m K P P I I I I G H K K K K K P P P I I I P I P Y K P P P U W K I I I T I T T T T T T U T W W W T W T T ^ ^ T T T T T T T T T W W T W G n m m H H P ~ P ` q.^ ` / ` ` ( / ` 1./ 1.( ( ( ` 1.1.1.2./ W 1.1.1.1.1.1.1.1.4.7.7.5.5.7.7.5.5.5.5.5.5.5.5.7.7.7.4.5.7.7.7.7.7.7.7.8.7.7.7.7.7.7.7.4.4.5.7.5.9.7.7.y.9.9.9.9.7.7.7.7.7.8.5.7.7.7.7.8.7.9.7.7.7.7.7.7.5.5.5.7.4.5.7.7.5.9.7.7.5.7.7.5.4.4.4.4.1.1.1.2.4.1.4.1.1.1.1.2.4.4.W H P m m m G K I m I 1.1.1.1.1.1.1.3.4.3.3.4.1.4.4.1.4.4.4.4.1.1.1.1.1.1.1.1.` 1.1.1.1.1.` ^ 1.1.1.1.` 1.( 1.` ` ) ( ( ( ;.;.;.3.( q.T n m n m n n n n n n d n G G P P P I P I T I P P P P G P I T I U U T T T T U G P I P I P P P P P P I T P P P P P K P P P P P ",
"= = < 4 < < < f 2 = = = 4 = = = 3 i i H ^ ) W W ) ( ( ) I m d f d f f i f f m K P P n m G G m m m n m H l K G G K L P P P P P P P P I P P P P P P P I P T G H J J J P P P T G d d f f i f 3 H ^ I q./ / ` ` ` 1.` ( ( 1.( ` 1.( 1.1.1.1.( ` ^ W 1.1.1.` 2.4.1.1.4.7.5.5.4.4.7.5.4.4.4.4.4.4.4.5.5.4.5.5.5.4.5.7.7.7.7.7.7.5.8.7.7.7.7.4.5.5.5.6.5.5.9.9.9.8.9.7.7.7.7.7.7.8.7.7.7.7.7.9.7.5.7.7.7.7.7.e.9.7.7.5.4.2.4.2.1.5.9.5.6.5.5.1.1.4.5.1.1.1.1.1.1.4.1.1.1.` 1.1.1.1.4.^ G P I P I T T ^ 4.1.1.1.1.1.1.1.3.1.1.1.1.1.1.1.1.1.1.1.1.1.1.1.` 1.` 1.1.` ` ' ' 1.` ` ^ 1.( 1.` ( ( / ` ` ` 5.8.8.8.e.e.i.y.y.y.y.H m n n n b b b n d d d H G T Q T P P P G G T P P P P P T T ) ) / ) ~ ) ^ T K P K K K K H m H H H H H H H H H H H H H m m n ",
"= = = = 2 4 = 3 = = < < 2 2 < 2 i f f d G P P I I I I I K m f 3 3 f f i f d m P K I H n H m m n m m m f n I P P I P I I I T T I W W T T T T T T T I P T ^ Q / ` ` ( ` ( 1.W f f f i i i i f T G 5.( ^ ^ P L P P G G G K K K P P P P / ` ` 1.^ T 1.( ` 1.1.1.1.1.1.4.4.5.4.4.7.7.4.4.4.4.4.2.4.4.4.4.4.4.5.1.4.7.4.5.5.7.7.4.7.7.4.7.7.5.4.5.5.4.5.9.5.5.7.7.7.5.5.7.5.7.7.7.7.7.7.7.7.7.7.4.7.7.5.5.5.5.5.7.7.5.4.1.4.1.4.5.9.5.6.5.9.5.2.4.5.1.6.1.1.1.1.2.1.1.1.4.1.1.1.1.4.5.5.5.5.5.4.1.1.4.2.1.1.1.1.1.1.1.1.1.1.1.1.1.1.1.1.1.1.1.1.1.1.1.` 1.1.1.1.` ' ` ' ` ` ` 1.( ( ( ` ( ( ( ( ` ( T I U I I U T P P P T ^ n n n b b d d b d f d f H G ^ ^ W W W T I P G K P P W I H n H H P I T P K K K K K K K G G 3 f K G G H G G G H G H H H m n ",
"= = = = 3 < $ 4 $ = < 2 3 i i i i f f m G G K I Y Y Y P K H n i 3 f f i i d G K K P P < 3 f f l f i i d P P P I I P T I I I I P T ^ I T I T T T T T P I I I T W T W W W I d f d f f f f 3 ^ P ` 4.^ / ^ d s s s s a s a i f d d k d Q ` ` 1.Q T / ^ ( ` 1.1.1.1.1.1.5.4.1.4.7.5.4.4.1.1.1.4.1.4.5.4.1.1.1.5.1.1.4.7.5.5.7.5.7.7.7.7.4.7.5.1.4.1.1.( 5.5.5.7.5.5.5.7.9.7.7.7.5.7.8.7.7.7.7.5.4.7.7.5.5.5.7.5.5.4.4.1.4.5.1.5.9.3.5.5.7.5.1.1.1.1.1.1.1.1.1.1.2.1.1.1.1.4.4.1.1.1.1.1.1.1.1.1.1.1.2.1.1.1.1.1.1.1.3.4.1.1.1.1.1.1.1.1.1.1.4.1.1.1.1.1.` 1.1.` 1.` ` / ' ' ^ / / / / / ( ( ` 1.` Y K K Y P I Y Y I U Y ` ^ f l d l d f f f f f f f H P ^ W T T I I b i f n m G I f 3 i 3 f i n G G G G G G G G G G G J H H H H H H H H G m H m n n ",
"= = = < < 4 = 4 $ = 2 2 3 i i i i f f m G P P P Y P K Y G H K G H H G K G G G G K G ~ ^ P I I U P G K P P P P L P P P P L P P I G P I I I I I I U I I U T P P P P P P K G G n d f f i 3 P ^ ^ y.^ / / / 4.9.6.9.9.8.y.e.8.e.e.e.y.8.1.( ( 1.^ T / ^ 1.1.1.1.1.1.1.4.4.4.4.1.4.4.1.1.1.1.1.1.1.1.` 4.1.1.4.4.4.1.4.4.4.4.4.4.4.5.4.7.4.Q ` 1.1.1.^ 3.5.5.4.5.7.5.5.4.7.7.7.7.7.4.1.7.5.5.4.4.4.4.7.4.4.4.5.4.4.1.1.1.1.4.6.6.6.1.4.5.5.1.1.1.1.1.1.1.1.1.1.1.1.1.1.1.1.1.1.1.1.1.1.1.1.1.1.1.1.1.1.1.1.1.1.1.1.1./ ( 1.1.3.1.1.1.1.1.1.4.1.1.1.1.( 1.` ` ` 1.( / / / / / / / / / / ) ( ( ` ( ( ` 1.4.4.1.3.;.;.3.1.( / 5.J l d d f f f f f f f f b H P W T I P P H f f n m n m f i i 3 3 3 b H n m G H G G H H H l f m H H m H H m H m H m m n l ",
"= = = < 4 < < < = 2 2 3 3 3 i i i f d m G T ^ P K K G K G m m m m m m m G G H G G G K I I P I I I P P P P P P P P P K P K P P P I J P I I P I I I I I I I P P P I I P K Y Y K m n n H P T P l.( ) / ^ ^ 4.4.3.1.5.7.7.7.7.7.7.7.7.7.1.( ` ( W T ` ( ` ` 1.1.` ` 1.1.1.4.4.4.4.4.1.1.1.1.1.1.1.` ^ ` 1.1.4.4.4.1.1.1.1.4.1.1.1.4.4.4.1.^ / 1.1.4.9.5.5.1.1.4.5.5.4.5.7.7.7.5.7.1.^ 4.5.5.5.6.4.6.5.4.4.5.4.4.4.4.4.1.T ' 5.6.5.` 1.5.4.1.1.5.4.1.1.1.1.1.` ` 1.` ` 1.1.1.1.1.1.` 1.1.1.1.2.4.1.1.1.1.4.7.1.1.1.1.` / 1.1.1.1.1.1.1.1.1.1.1.` 1.1.` 1.` ( ` ( ( / ^ ^ ^ ^ ^ ^ ^ / / ) ;.1.` / / ) / / / / ) / ^ ^ ^ ^ ^ / 1.n f d d f d f f f f f f m m I I K K K n f f n H n l d i 3 3 2 4 i n n n H H G G H H n 2 f n m m b n m n n m m m m n n ",
"= = = < 2 2 < 3 3 3 3 3 3 3 i i i f d m G T U m G G G K G n d d d f f f m G H G G K G K P P P P P K P P P P P P I P P P P P P P P P P I I P I I I I I I I I I U I I I P I P I U K G W / m 4.1.~ / / / ) k u u u u u i u u 1 u 1 i 1 W ( / ( Q I / / / ` 1.` ` ` ` 1.1.1.4.1.1.4.1.1.1.1.1.1.1.7.XX7.1.4.1.1.1.1.1.1.` 1.1.1.1.1.1.1.7.x.y.1.1.1.1.3.1.1.1.1.4.7.7.7.7.7.7.7.5.k.XXq.4.4.4.4.3.7.6.4.4.5.4.1.6.1.1.1.+X}.1.5.6.1.1.5.4.1.1.1.1.1.1.` ( 1./ ` 1.( ` ` ( ( 1.( ` ` 1.1.1.1.4.1.1.1.1.1.1.1.1.1.1.1.1.4.1.1.1.1.1.` 1.( ` 1.1.( ;.` ` ` ( ( ( / ( / T b G H n b P ^ / / / ( / / / ^ ^ ^ / ) / ^ Q ^ ^ ^ ^ W 1.^ f b b l n n d l l d b b H H G H H G H f d l f 2 2 2 3 3 < 4 = 2 H G G G G G H H m m m m H d 3 3 d H m n m m m n m m ",
"o @ @ @ $ $ $ 3 1 < < 1 3 1 3 3 3 i i f f i i i f d d n f f i 3 3 3 3 s n n b n m M m m H G G G H H H H H H H m G G G H m m H G G G G G G K K K K K K K K G K K K s u a u u u u 1 t d b ` 5.I ~ ^ ^ ^ ^ ~ ~ ~ ~ ~ ~ ) ^ ^ ^ ^ ~ ) ^ ^ ^ / ( Q I / ^ / ` ` ( ` ` ` ` 1.1.1.1.1.1.1.1.1.` ` 1.1.1.( 1.1.1.1.1.1.1.1.1.` 1.1.1.1.1.1.1.1.( ;.3.1.1.3.1.1.` 4.4.1.4.7.5.7.7.7.7.4.4.1.4.4.4.1.4.1.5.5.4.1.6.1.1.4.1.1.1.1.1.5.5.1.1.1.4.1.1.` 1.1.1.` ` ^ ^ / ( ` ` ` 1.( ( 1.` ( ( ( ( 1.1.1.1.1.1.1.1.1./ ` 1.1.` 1.1.1.3.1.1.( ( ( ( ( 1.1.1.( ( ` ( ( ( ` / ( ) ~ ' v.}.v.] ^ ^ / ^ ^ ) ^ ^ ^ ^ ^ ^ ^ / ^ ^ W W W W ^ ^ T 4.T ; > : ; : > ; 1 1 1 ; i f t i i u 1 > > > < =       X + = ; X i d d d d d d f s f d d l $     3 f i i s s f f f i ",
"5.5.5.w.5.] 5.' 5.7.9.q.q.q.q.q.q.y.q.q.l.q.q.q.q.k.l.v.x.}.}.v.v.l.k.l.k.q.l.v.x.|.|.}.}.|.|.}.x.v.v.v.}.|.|.|.|.|.c.c.l.v.v.v.c.v.v.v.x.}.c.}.|.|.|.|.c.c.|.@X1X}.h.h.w.w.q.w.w.w.w.u.0.W W Q ~ ~ ~ ^ / ( ( 1.;.1.1.` ` 1.1.1.` ( ^ ^ / / Q I / ^ ^ / / / / ( ` ' 1.1.1.` 1.1.( ` ` ` ` ` ` ` 1.1.1.1.1.1.1.( ( ` ` 1.1.` 1.` ` 1.1.3.3.1.1.1.1.( 1.1.1.1.4.4.6.4.4.5.4.4.4.4.4.4.1.1.1.1.1.4.1.4.4.1.1.1.4.1.1.1.4.4.1.1.4.1.1.1.1.1.` 1.` ` 1.1.( ^ ^ / ( ( ` ( / ( 1.( ( ( ( ( ( ` ` ` 1.1.1.1.1.1.` 1.` ` 1.` 1.1.` ` ( ( 1.( ( ` 1.( ` ` ` ( ( ( ( / ( ` 7.k.y.q.7.q.9.` ^ ^ ^ ^ ^ Q ^ ^ Q ^ ^ ^ W ^ W W T W T T W Q 1.q.}.v.v.l.l.q.q.q.q.q.5.l.|.|.|. X X X X X}. X}.}.|.|.|.}.}.v.v.}.}.c.v.v.l.l.l.l.v.v. X X.X.Xh.q.q.w.q.q.w.w.q.w.",
"H H H G G G J G P P P P P P P P P P I P I T T T T T T T T W W T W W W W T T T W W ~ W W ~ ^ ~ ^ ^ W W W W ^ ^ ^ / / ^ ^ ^ ^ ^ ^ / ^ / / ( ' / ( ' ` 1.1.` ` ` ` 1.q.q.q.q.q.q.q.7.7.7.` T W ~ W ^ ^ ^ ^ ~ ^ ^ ^ ^ ^ Q ^ ^ / ^ ^ ^ ^ ^ ^ / ` W P / ^ ^ / / ^ / / ` ' ` 1.1.1.` ` ( / / ` ` ` ` ` 1.1.1.1.1.` ( ` ` ` 1.1.` ( ( ` ` 1.1.1.1.1.1.1.1.1.1.1.1.1.1.1.4.4.7.7.4.5.4.4.4.1.4.4.1.1.1.1.4.4.1.1.1.1.4.1.1.1.1.1.1.4.1.1.1.4.1.1.1.1.` ( ` ( ^ ^ ( ( ( 1.1.( ( / ( ( ( ( ( ( ( ( 1.( ` ` 1.1.1.1.( ( ( ` ` ` 1.( ( ` ( ` ( ( ) / ( / / ( ` ( / / ) / ^ ) 1.~ W W T W ' ^ ^ ^ ^ ^ ^ Q Q ^ ^ Q W W W Q T T T T T P T W W 7.|.v.l.l.q.y.y.y.y.y.7.7.7.7.7.4.7.7.7.5.2.2.5.4.5.4.4.1.1.1.' ' ' ^ ^ ^ ^ ^ ^ ^ ^ ^ / ^ ` 5.' ^ ^ ^ T T T R R R ",
"1 1 2 3 1 i f i f n n k d d d d d l n k l l l n m m m G G G G G G G m G G G G K G K G G K K K K K G K K K K K K K K K K K L P P P P P T I I I I T T U U W U U T P P I K I I I P Y P P I W W T I Q ~ ^ ^ ~ ^ ^ ^ ^ ^ ^ ^ ^ ^ ^ ^ ^ ^ ^ ^ ^ / W P ^ ~ ^ ^ / ^ ^ ^ ) / / 1.( ( ( ` ` / / / / ` ` ( ` ` ( ` ` ` ` ` ` ` ` ` ` ` ( / ` 1.1.;.1.1.1.1.1.1.1.1.1.1.1.1.1.1.4.1.1.7.4.1.4.1.1.1.1.1.1.1.1.1.1.1.1.` 1.1.1.1.1.1.1.1.1.1.3.1.1.( ` ` ` ` ( / ^ ^ ( ) ( ( / / / ( ;./ ( ( ( / ) ( ( ( ` ( ` ( ` / / ( ( ( 1.` ( ( ` ( ` 1.( / ) ) ) / ^ / / / ) ^ ^ ^ ^ ^ W ^ ^ ^ Q ^ W W ~ W W Q Q Q Q W W W W W W W T T T T T P I W W I G K G K K P I P K K K I Y Y P P I I I I I Y K G m G m d K G K L P P L P L K K P P P L K K G K K G G G G G H H m ",
"3 i 3 i i f d f l H n n n n n n n n n n n m m H H H H n G K K G G K K G G G K K G P P K K Y K K Y K K K P P P P L P P P K P I I P I I T I I I T T T T W W W U U T U I U W W T T U I I W T T I I W Q ^ ^ ^ ~ W W Q W Q W Q Q W W W ~ ^ ^ Q ^ T P Q ^ W ^ ^ ^ ^ ^ ) ) ) ( / / ` ( ) ` ( / / / ( / / ( ( ( ( ` ` ` ( ( ` ` ( ( ( / ( ( ( ( ` 1.1.1.1.` ` 1.1.1.1.1.1.1.1.1.1.4.4.1.1.1.1.1.;.` ` 1.1.` 1.( ` ` ` ` ` ` ` ` 1.( ` 1.1.1.1.1.( ( ( ( / ` ( ^ / ^ / ( / / ^ ^ ) ) / / / / ( ( ( / / ) ( / ^ ) ^ ^ ^ / ` ( ( ( ` ( ( 1.( / ) ^ ) / ) ^ ^ ^ ^ Q ^ ^ W Q ^ ^ W ^ W W W Q W W W W W W W W T T T T T T T T T T I I P W T T P K I U T W W T ^ ' H T T T T T W W T T T T I P P P K T P L P P P P P P P P P I P P P P P P P P L G G K G G G H ",
"2 1 3 i 3 i f i 3 3 b n l d d k n n n n n n m n H n H J d G m G m G G G G G G G K L K K K K K K Y Y K K G K G G G K G G K K K K P H n P P P P I I I T T U P P I I I U I T T T T P P P H I T I P W W W W Q W W W W W W W W W T T W ^ W Q Q W I L Q W W Q ^ W ^ ^ ) ^ ~ ( ( ^ ( ( / ( ( ^ ^ ^ ^ ^ / / ( / ( ( ( ` / / / ( ( ( ) ) ) ) / ( ( ( ` 1.1.1.( 1.1.1.1.;.1.` 1.1.1.4.2.1.` ` 1.` ( ` 1.` ` ` 1.( / / ` / / / ( / / ( 1.1.` 1.` / ) ( / ( ( / T ^ ) ^ ^ ( ` ( ^ ^ ^ ^ ^ Q ^ ^ ^ ^ ^ ) ^ ^ ^ ^ ^ ^ ^ ) / / ( / / / / ( ( ( / ) ^ ^ ^ ^ ^ ^ ^ Q ^ ^ W W W W W W W W W W W W W W W W W W T T I I I T I I T T U I P I I I I P P T T I I P T T T P P I I I I T I H I T P n G K K G K P P P P P J f P P P P P P d H P P G m G K G H H G G H H m ",
"< 2 2 3 i i f f n R d d d d d d k n n n n n n m n P ' ` R n m H H m H G H H G H G K G G G K K K K K K Y b H H H H G G G H f 3 b n T ^ K P P P P P P P P P K Y P P P I K H H H H H G P ^ T P P P W W W W W T T T T T W T T T T T T T W W W Q I G W T T W W W W W W W W ^ / / ) / / ( / ^ ^ Q W W ^ ^ ^ ^ / / / ` ` / / ^ ) ^ ~ ) / ( ^ ^ / ( ( ( ;.1.` ` ` ( 1.1.1.1.1.` 1.1.1.1.` ` ` ` ( / ` 1.1.( ( ( ( T W / ^ / ^ / / / ` ( ` 1.( / / / / ( ( ^ ` ~ ^ ^ ^ / ^ / ^ ~ ^ W W W W W W Q ^ ~ Q W T ~ Q Q ^ ^ ^ / / / / ^ / / / ) ^ ^ W Q ^ ^ W ^ ~ W W ^ Q T W W T T T T T W T T W T T T T T I I P I I P I I I T I P P G H I P P P I I I P W T I I T P I P P I I P W I I T P P K G G G H G P G G G P P P L P P G ' ^ H J G H H G H H m H H H H m ",
"4 4 < 2 3 i f d P P d f f d d d d n n n n n n m m m l f d n n m H m m m m H H G G G G G H H m m m m m K I H m m n m m n P 9.k.' T P H G L L P P P P P P P P K G K K P K K P G G K G G U P P P P T T W T T U I I U U T T T W T I P T T T Q Q I G I I T T T W W T W T T ^ ^ ^ ^ ^ / / / ^ ^ ^ Q W W ^ ~ ^ ^ / / ( ( / / / ^ W W Q Q ^ ^ Q ^ / ( ( ( ( ( ` ( ( ( ` ` ` ` ` ` ` 1.1.` ` 1.` ( / ( ` ( / / ` ` ` / ^ ^ Q Q Q / ( / / / / ` / / / ( ` ( / 7.^ ^ Q ^ ^ ^ ^ ^ Q W W W T T U I U U W W K K I P W ~ ^ / ^ ^ / / / ^ / ^ ^ ^ ^ Q Q Q Q Q Q W W Q Q W Q P G P P P I T T T I T T I I I I I I P P P P P L P I P P P P R I P P P P P P P P P P P P L I P P I P I U K K P P P G G H H H G G L L G G K P L P P P P G G G K P G m H m m H H m m m "
};
