/* XPM */
static char *c8cc4774577343a1aca454b6782c2175d5Kw41jS2LeFRWGg[] = {
/* columns rows colors chars-per-pixel */
"360 360 256 2 ",
"   c #000001",
".  c #05040C",
"X  c #08070E",
"o  c #09080F",
"O  c #0A0703",
"+  c #040313",
"@  c #090711",
"#  c #0B0914",
"$  c #03021B",
"%  c #09061A",
"&  c #0D0C1B",
"*  c #070815",
"=  c #100F1D",
"-  c #100E16",
";  c #0F101D",
":  c #0C1115",
">  c #12111D",
",  c #141318",
"<  c #141208",
"1  c #020123",
"2  c #0E0E21",
"3  c #01012C",
"4  c #0D0D2A",
"5  c #080726",
"6  c #100F22",
"7  c #100F2A",
"8  c #0F1023",
"9  c #0E112B",
"0  c #121224",
"q  c #181724",
"w  c #171826",
"e  c #1A1925",
"r  c #14142B",
"t  c #18172B",
"y  c #17182C",
"u  c #1B1B2C",
"i  c #010033",
"p  c #01013B",
"a  c #0A0936",
"s  c #091236",
"d  c #151631",
"f  c #171832",
"g  c #1B1C33",
"h  c #1C1D3A",
"j  c #171637",
"k  c #140A38",
"l  c #201F2E",
"z  c #201F32",
"x  c #221E3C",
"c  c #20043F",
"v  c #1F202E",
"b  c #1F2033",
"n  c #1E213C",
"m  c #1A273B",
"M  c #00263D",
"N  c #22222D",
"B  c #222225",
"V  c #232334",
"C  c #25253A",
"Z  c #28273B",
"A  c #27283B",
"S  c #2A2A3D",
"D  c #292936",
"F  c #30313D",
"G  c #24241A",
"H  c #000043",
"J  c #030549",
"K  c #191B46",
"L  c #010256",
"P  c #11114F",
"I  c #241B48",
"U  c #271452",
"Y  c #1E2142",
"T  c #1B254C",
"R  c #192B53",
"E  c #232443",
"W  c #262943",
"Q  c #2D2D42",
"!  c #23254A",
"~  c #26294B",
"^  c #2B2D4B",
"/  c #292545",
"(  c #302F44",
")  c #312D4B",
"_  c #2F3045",
"`  c #2E314B",
"'  c #263341",
"]  c #313146",
"[  c #34354B",
"{  c #38374E",
"}  c #37384E",
"|  c #39394E",
" . c #393A46",
".. c #2B2D53",
"X. c #272756",
"o. c #322D57",
"O. c #2D3154",
"+. c #2D325A",
"@. c #343552",
"#. c #373952",
"$. c #393951",
"%. c #3B3B53",
"&. c #32345B",
"*. c #35395B",
"=. c #3E3E59",
"-. c #393654",
";. c #07126B",
":. c #3A3D64",
">. c #363964",
",. c #2F3469",
"<. c #14256C",
"1. c #403F56",
"2. c #403F59",
"3. c #423E6A",
"4. c #3F4056",
"5. c #3F4059",
"6. c #35435A",
"7. c #2F425B",
"8. c #3D4262",
"9. c #3D426A",
"0. c #3D4475",
"q. c #414156",
"w. c #42435C",
"e. c #46485D",
"r. c #494A5D",
"t. c #4B4C52",
"y. c #464661",
"u. c #474862",
"i. c #4A4B64",
"p. c #43456C",
"a. c #4D4E69",
"s. c #464968",
"d. c #504F6A",
"f. c #4E516B",
"g. c #4D5165",
"h. c #52526D",
"j. c #545569",
"k. c #484A74",
"l. c #4D5276",
"z. c #555571",
"x. c #565974",
"c. c #595A75",
"v. c #53547B",
"b. c #5C5D7A",
"n. c #585777",
"m. c #524E76",
"M. c #5E617C",
"N. c #5C6477",
"B. c #526376",
"V. c #61627D",
"C. c #696A79",
"Z. c #76767D",
"A. c #666870",
"S. c #615E7B",
"D. c #1F3589",
"F. c #595A85",
"G. c #4D548C",
"H. c #5D6284",
"J. c #5C708E",
"K. c #636482",
"L. c #6A6B85",
"P. c #6B6C8B",
"I. c #656788",
"U. c #6B748C",
"Y. c #787988",
"T. c #6A6A95",
"R. c #6D7295",
"E. c #7B7D9C",
"W. c #757796",
"Q. c #716E97",
"!. c #797BA5",
"~. c #7175B1",
"^. c #5D6099",
"/. c #4454A3",
"(. c #817EA7",
"). c #817F8C",
"_. c #7A869A",
"`. c #728994",
"'. c #7D83A6",
"]. c #7C86B3",
"[. c #7A89D9",
"{. c #83838C",
"}. c #888998",
"|. c #93939C",
" X c #8F909B",
".X c #8284A4",
"XX c #8484AB",
"oX c #8A8CAC",
"OX c #888AA7",
"+X c #8D92A8",
"@X c #9697A6",
"#X c #8C8DB3",
"$X c #8687B6",
"%X c #8D92B6",
"&X c #9697B8",
"*X c #918EAE",
"=X c #9AA3B7",
"-X c #A4A5AC",
";X c #A8A9B7",
":X c #B2B1BC",
">X c #A19CBB",
",X c #898AC6",
"<X c #9899C7",
"1X c #989AD7",
"2X c #8D91CD",
"3X c #A19ED3",
"4X c #9CA6C6",
"5X c #9BABD4",
"6X c #A6A8C6",
"7X c #ACB3C7",
"8X c #B7B8C9",
"9X c #A7A7D9",
"0X c #B5B8D7",
"qX c #ADB2D5",
"wX c #9CA3E5",
"eX c #A9AAE5",
"rX c #B6B7E8",
"tX c #B9BBF5",
"yX c #ACB4E8",
"uX c #969DE2",
"iX c #C1BDDB",
"pX c #BBC4D6",
"aX c #ABC4D3",
"sX c #BBC7F5",
"dX c #B9D0EB",
"fX c #ADD2E1",
"gX c #C6C7D6",
"hX c #D6D6DE",
"jX c #C5C6D2",
"kX c #C8C8E9",
"lX c #C8D7EB",
"zX c #DDDCE2",
"xX c #D7D7E8",
"cX c #C8C9F6",
"vX c #CBD5F9",
"bX c #D6D8F8",
"nX c #D1CDEC",
"mX c #E1DFE8",
"MX c #D9E3E8",
"NX c #DAE4F9",
"BX c #D8FDFF",
"VX c #C8E4F2",
"CX c #E2E2E4",
"ZX c #E4E4EC",
"AX c #EBEBF4",
"SX c #E4E5FC",
"DX c #EBECFD",
"FX c #E5E8F7",
"GX c #EEF1FC",
"HX c #EBFEFF",
"JX c #E7F9FD",
"KX c #F3F4FC",
"LX c #F4FDFF",
"PX c #FDFDFF",
"IX c #F8F5FC",
"UX c #F1EEF8",
/* pixels */
"w.6 C Q Q Q _ Q A A A A A A A C V V V D A A C A A A A A A A A A A A A A A A S S Q S S S S Q Q S A A A A S S S Q _ _ _ [ | Q [ _ ] Q Q ( ] _ _ _ Q Q Q Q Q Q Q Q ] ] S Q Q Q Q Q _ A e Q ] ] ] A ] [ D N ] [ [ { [ | F A ] [ [ [ [ [ ] ] ] ] [ [ [ ] ] ] ] ] Q Q Q ] ] ] Q S A [ [ [ [ } } } } } } } } } } } | | } } } } } } | | | | | $.$.$.$.$.| $.$.$.$.$.$.$.$.| $.| $.$.$.| } $.$.$.$.$.$.$.$.$.$.$.$.$.$.| | } } $.$.} } } } } } } } | } } } } } $.$.$.| } } } | } } } } } } } } $.$.$.$.} } } } } } } } } } } [ ] ] [ [ [ [ ] ] [ [ [ [ [ [ } } [ [ [ [ [ [ ] [ [ [ { ] Q ] [ [ [ [ ] Q Q ] ] ] ] _ ] ] ] ] ] ] ] ] Q Q Q Q V q A Q Q Q Q Q Q Q S Q S Q S S A S S A S S Q Q Q Q Q Q A A A C C S V V C V V V V V V V V V V V V V V V V V u ",
"e.Q 0 A A Q Q V A u V A A A V Z V V V V V A A A A A A A A A A D A A A A A A S S S S S S S Q S Q A A A S S S S Q Q ] ] A = S e.C V A A V Q ] _ Q Q Q Q Q Q A A S A V Q Q Q Q Q Q ] V A Q ] ] ] A } } } } [ ] [ [ [ } | } [ ] ] ] ] [ [ ] ] ] ] [ [ ] ] ] ] Q Q Q A A Q Q S V w ( ] [ [ } } } { } { } } { { { { | } | } | } } | | $.$.$.$.| $.$.$.$.$.$.$.$.$.$.$.$.| | $.$.$.$.$.$.$.$.$.$.$.$.$.$.$.$.$.$.$.$.$.| | | $.| } | } $.| $.} | | | | } } { | $.$.$.| } } | } } } } $.$.$.| $.$.$.$.| } } } } } | | | | | } } } } { } } } [ [ [ } [ [ [ [ } [ [ } [ [ [ [ [ [ } [ { ] ] ] [ [ [ ] [ [ ] [ [ ] ] ] ] ] ] ] ] ] Q Q _ Q Q Q Q Q Q Q Q Q Q Q Q Q S S Q Q Q Q Q Q Q Q Q Q Q A A A C C C C C A Q C C C V V V V V V V V V V V V V V V V V V ",
"] q.0 V A Q A V C u V A A V u Z V V V V V C V V V V A C A A A A A A A A A A S S S S S S S Q Q S & w A u u S S Q Q _ ] [ [ S ( S N A V q S Q Q Q Q S Q S Q Q S ] S v Q Q Q ] Q _ Q ( ] [ ] ] ] A [ ] ] ] ] [ [ [ [ [ ] [ [ [ [ [ [ ] ] ] ] ] ] ] ] ] Q Q ] Q Q A C A A S Q C Z ( ( ] [ } } { { } } } } } { { { { } } { } } | $.$.$.| | $.$.| $.$.$.$.$.$.$.$.$.$.$.$.$.$.$.| | | $.$.$.$.$.$.$.$.$.$.$.| $.$.$.$.| | | | | | | #.$.$.$.| | | | | } } | { | | | $.} } $.} } } | ] | $.$.$.$.$.$.| | } | | | | | | | { } } } { } [ } } } } [ [ [ [ [ } [ [ } } } [ [ [ [ [ [ [ ] ] ] [ [ [ [ ] ] ] ] ] ] ] ] ] ] ] ] ] ] ] ] Q Q A C Q Q Q ( Q Q Q Q S Q Q Q S S S A S A S S S S Q S A A V V C C C C V u C V V V C V V V V V V V > > V V V V V u A ",
"C w.Q t A C C V V V V V A A C V V V V V V V V V V V V V C A Z A V A A A A A S S S S S S S S S ] D V S ] A S S S Q Q _ Q ] Q Q Q Q S ] ] [ Q Q Q Q S S S Q Q S ] q.} Q Q Q ] Q Q Q Q Q Q ] ] ] A ] ] ] ] ] ] ] [ ] ] ] ] ] [ [ [ [ [ [ ] ] ] ] [ ] ] Q Q ] ] ] Q S A A S A C Q Q ] [ [ } { | | { } } { | | | | { { } { } | | $.$.$.$.$.$.$.| | $.$.$.$.$.$.$.$.$.$.$.$.$.$.$.$.} $.$.$.#.$.$.$.$.$.$.$.$.$.$.$.$.$.$.| $.$.| { $.$.$.$.$.} | $.$.| } } | | | | } } } | | } $.Q @ S $.$.$.$.$.$.$.$.$.$.$.$.| | $.$.} } [ } } } [ [ [ } } } [ [ [ [ [ [ } } } } } [ [ [ [ ] ] ] ] ] ] ] ] ] ] ] ] ] ] ] ] ] ] ] ] ] ] ] Q Q Q A A A Q Q Q ( Q Q Q S Q S S S S A A A A A S S Q S Q Q Q Q A N V C C C A e N N V C C V V V V V V V D V V V V V z b Q ",
"C [ q.u V V V V V V V V V V V V V V V V V V V V V V V V V C A A C C A A A A A S S S S S S Q Q Q Q S S ] ( S S S Q Q Q Q Q Q Z C A A A A A A A A S S S S S S S A A A Q Q Q ] ( Q Q Q Q _ ] ] [ C ] ] [ [ ] [ [ [ [ ] ] ] ] ] [ [ [ [ [ ] ] ] [ [ [ ] ] ] N w w w q q q q > & V ] } } } { | | | | | } | | | | { { { { } | | $.$.$.$.$.$.$.$.$.$.$.$.$.$.$.$.$.$.$.$.| $.$.$.$.$.$.} { $.$.$.$.$.$.$.$.$.$.$.$.$.$.$.$.$.$.$.$.| $.| $.$.$.| $.| $.| | } $.$.$.$.} } $.} | | $.} e.%.#.$.$.$.$.$.$.| $.$.$.$.#.} } { | } } } } } } } } } } } [ [ [ [ [ [ } } } } } [ ] [ [ [ ] ] ] ] ] ] ] ] ] ] ] ] ] ] ] ] ] ] ] ] ] Q S Q Q ] ] ] ] Q Q Q Q Q Q S Q S S Q S S S A S A S Q Q Q Q Q Q A Q _ V C V V A A A A A A Z C V V V V V V V V V V V V u V ] ",
"C C %.A u V V V V V V V V A V V V V V V V V V V V V V V C C A A C A A A A A S S S S S S S S S S A A S A S S S S S S Q Q Q Q Z A A A S A A A A A S S S S S S S Q Q Q Q Q ] ] Q Q Q Q Q ] ] ] [ C ] [ [ [ [ [ [ [ [ ] ] ] ] ] [ [ } } [ ] ] ] ] ] ] ] ] A                     q } } [ [ { | | $.} #.#.$.$.$.$.{ -.| | { { | | $.$.$.$.| $.$.$.$.$.$.$.$.$.$.$.$.$.$.$.$.$.$.$.$.| { { $.$.$.$.$.$.$.| $.$.$.$.$.$.$.$.$.$.$.$.$.$.$.$.$.$.$.$.$.$.$.| | $.$.$.| } } | $.$.} } $.w.-.$.$.$.$.$.$.| | $.$.$.$.} } } { { { } } { { { } } } } } } } } } } } } [ [ [ } [ } [ [ } [ ] ] [ ] ] ] ] [ ] ] ] ] ] ] ] ] ] ] ] ] ] Q Q ] ] ] ] ] ] Q _ Q Q Q Q Q S S Q S S S A S A A S A Q Q Q A A C C A C V V V C C C A A A A C V V V V V V V V V V V V Q ] ",
"u V Q [ 0 V V V V V V V V A b u u b g g u b u u u u V v u u u u g l V V A S Q Q S S S S S S S S S S S S S S S S S S S S S S Q S S S S A C C C C A A A A A A A A A A A A Q Q Q Q Q Q ] ] ] ] [ C ] [ [ } [ [ [ [ ] ] ] ] ] ] [ ] [ } [ [ ] ] ] ] ] ] ] ] Q { -.-.{ } { { w.] Q { } } [ } { | $.$.$.| | | | | { { | | { { | $.$.$.$.$.$.$.| $.$.$.$.$.$.$.$.| $.$.$.$.$.$.$.| | | | $.$.$.$.$.$.$.$.$.$.$.$.$.$.$.$.$.$.$.$.$.$.$.$.$.$.$.$.$.$.$.$.$.$.| $.$.$.| } $.$.$.| } } [ } $.$.$.| | | { { | | $.| } } } } } } } } } | { } } } } } } } } } } } } [ } [ } } [ } } } } [ [ [ ] ] [ ] ] ] ] ] ] ] ] ] ] ] ] ] ] Q A V ] ] [ ] [ [ ] ] ] ] ] ] Q Q Q Q Q Q Q Q Q Q S Q S Q Q Q Q S A A A C V C C C A D Z C Z A C V V V V V V V v V V u C { ] ",
"t V C %.A t C V V V V C C V V V V C C C C A C C C A S A C C C A A A A A S Q Q Q Q Q A S S S S S S S S S S S S S S S S S S S S S S S S A C V C A A V C V V V V V V V A | A C Q Q Q _ ] ] ] [ } S [ [ } } [ [ [ [ ] ] ] ] [ [ [ [ [ [ [ [ ] ] ] ] ] ] Q [ %.%.%.%.%.%.%.%.-.$.{ { { } } } } $.$.$.$.| $.| | | | $.| | $.| | $.$.$.$.$.$.$.$.$.$.$.$.$.$.$.$.$.$.$.$.$.$.$.$.$.$.$.$.$.| | | | $.$.$.$.$.| $.$.$.$.$.$.$.$.$.$.| | $.$.$.$.$.$.$.$.$.$.$.$.$.$.$.$.$.$.$.$.| { | $.$.$.$.| | | | } { | | | | { } } } } } } } } } { { { } } } } { { } } } } } } } } } } } } } } } [ [ [ [ [ [ [ } [ ] ] ] ] ] ] ] ] ] ] ] Q Q Q ] ] ] ] Q Q Q Q S S S S S S S S A A A A A Z A A A A A A A A A A A Z C C C A A Z Z Z A A V V V V V V V V V V u Q ] C ",
"V u C [ %.0 V V V V V V C C C C C A C A A A C C Z A A A A A A A A A A S S S S S S S S S S S S S S S S S S S S S S S S S S S Q Q Q Q } } Q Q ] } [ ] [ ] } } [ [ [ ] ] u.} Q Q _ ] ] ] [ [ [ } A [ [ [ } [ [ [ [ [ ] [ [ [ [ } [ [ ] ] ] ] ] ] ] ] ] ] S                     q { { { { } } $.$.$.$.$.$.$.| | $.$.| | { $.$.$.$.$.$.$.$.$.$.$.| | $.$.$.$.$.$.$.$.$.$.$.$.$.$.$.$.$.| $.$.$.$.$.$.$.$.$.$.%.%.$.$.$.$.%.%.$.$.$.$.$.$.$.$.$.$.$.$.$.$.$.$.$.$.$.$.$.$.$.$.| | $.| $.$.$.$.| | | | { | | | | { { } } } } } { { | { { | { | | { { } } } [ } } } } } } [ } } } } } } } [ [ [ } [ V Q [ ] ] ] [ ] ] ] ] ] ] ] A q @ . .                                             . X X # & V Z Z Z A A A A C Z Z A A A C C V V V g g g V u V Q A u ",
"C u C Q w.C t V V V V C A A C V V V A A V C C V Z A A A A A A A A A A S S S S S S S Q S S S S S S S S S S S S S S S Q S S S S S Q Q Q Q ] ] ] Q A A A A Q Q Q ] ] ( Q V C Q Q _ ] ] [ [ [ [ } A ] [ [ [ [ [ [ [ ] ] [ } [ [ [ [ [ ] ] ] ] ] ] ] ] ( ] S > V Z Z A A A A A N N { } { } | } | $.$.$.$.$.$.$.| | | | $.$.| | $.$.$.$.$.$.$.| $.| $.$.$.$.$.$.$.$.$.$.$.$.$.$.$.$.| | $.$.$.$.$.$.$.$.$.$.$.%.$.$.-.$.$.$.-.$.$.$.$.$.$.$.$.%.$.%.%.%.$.$.| $.$.$.$.$.$.$.$.$.$.$.$.$.$.$.$.$.| $.| $.| | | | { { { { } } } } } | | { | | | | } } } } } } [ [ } $.} } [ [ [ } } } [ [ } } } } ] q Q ] ] ] [ ] ] ] ] ] ] ] S V C u 0 0 8 0 > 0 0 0 0 0 q q 0 0 0 0 q 0 0 0 0 > ; ; ; & & & 0 0 V Z Z A Z A A C Z C Z A C V V V u u b b g g u V Q V 0 ",
"Q b V C $.| & V V C C A q # ; = > > 0 0 u u C A A A A A A A A A A A S S S S S S S Q Q S S A A S S S S S S S S S S S S Q S S Q Q Q Q Q ] ] [ b 0 0 ; > > 0 q 0 w w 0 q u Q ] ] ] ] [ [ [ } [ } A ] [ [ [ [ [ [ [ ] ] ] [ [ [ [ [ [ [ [ ] ] ] ] ] ] ] Q ] ] } } } } -.-.{ { } { } } { | | $.$.$.$.$.$.$.$.$.| | | | $.$.$.| | $.$.$.$.$.$.$.$.$.$.$.%.$.$.$.$.%.%.%.$.%.%.%.$.$.$.| $.$.$.$.$.$.$.$.$.$.$.$.%.%.$.$.$.$.$.$.$.$.$.$.$.%.%.%.%.%.%.%.%.$.| | $.$.$.$.$.$.$.$.$.$.$.$.$.$.$.$.$.$.$.$.$.$.| $.$.| | | | } } | -.| | | | | $.$.| } } } } } } ] | $.#.} } [ } } } } [ } } } } } } | } Q ] } [ [ ] ] ] ] [ ] w.w.Q V g g g g u V V V V V V V C A A A Z C C A C V V V C V V V q.w.A A A Z Z C C C V V V V V u u u u V V b g u u C A u = ",
"Q A u C ] w.u u V V C A C V V V V V V V V C C A A A A A A A A A A A A S S S S S S S Q Q S S S S S S S Q S S S S S S S S S S Q Q Q Q ] ] ] ] Q Q Q Q Q Q Q Q ] ] ] ] ] ] [ } [ [ [ [ [ } [ [ } A ] ] ] Q ] [ [ [ ] ] ] [ [ [ [ [ _ V g S ] ] ] ] ] ] ] ] ] A A V V A A A A S [ } | $.| } $.$.$.$.$.$.$.$.$.| | | $.$.$.$.$.$.$.$.$.$.$.$.$.$.$.$.$.%.$.$.$.$.%.%.%.%.%.%.%.%.%.%.$.$.%.$.%.%.%.$.$.$.%.%.%.%.%.%.%.$.$.%.%.$.$.$.$.$.%.%.%.%.%.%.%.%.$.$.$.$.$.$.$.$.$.$.$.$.$.$.$.$.$.$.$.$.$.$.$.$.$.$.$.$.| $.$.| | | | $.| | | | | $.$.| { { { $.$.#.$.$.$.$.{ } } } } } } } } } } } [ ] ] ] ] ] [ [ [ [ ] ] ] [ } $.e.u.w.w.y.u.i.u.u.u.y.u.e.y.e.e.e.e.e.e.e.w.e.w.e.e.w.e.w.w.w.e.} A A A A A C C C V V V V V V V V C V V V v u V A u > & ",
"Q A u V Q %.] t V V V V C C C C V V V V V V C A A A A A A A A A A A A S S S S S S S S S S S S S S Q Q Q Q S Q S S S Q Q S Q Q _ Q Q ] ] ] ] ] ] ] ] ] ] ] ] [ } } } } } } } } [ } } $.] f.c.z.z.j.g.a.i.C [ [ } [ ] ] ] [ [ [ ] C g u t Q ] ] ] ] ] [ D                     V $.| $.{ | $.$.$.$.$.$.$.$.%.$.$.$.$.$.$.$.$.$.$.$.$.$.$.$.%.$.$.$.%.%.%.%.%.%.%.%.%.%.%.%.%.%.%.%.$.%.%.$.%.%.%.%.$.%.%.%.%.%.%.%.%.%.%.%.%.%.%.$.%.%.%.%.%.%.%.%.%.%.%.$.$.%.%.$.$.$.$.$.$.$.$.%.%.$.$.$.$.$.$.$.$.| | $.| | | | $.$.$.| $.$.| $.$.| $.$.$.$.| | $.$.$.$.$.$.$.$.| } } } } } } } } } } } [ [ ] ] ] [ } } [ [ ] ] [ [ } } ] $.$.$.$.$.-.$.-.$.$.$.} $.| #.} #.} } } } } } } } [ ] ] ] ] Q A A A A A A C C V V V V V V V V V V V V V u u S S u & u ",
"Q Q V u A _ | u g V V V C V V C C V V V V C A A A A A A A A A A A A A A S S S S S S S S Q Q Q Q Q Q Q Q Q Q Q Q S S u V Q Q Q _ Q Q ( ] ] ] ] ( ( ] ] ] ] ] ] [ [ } [ } [ } { [ } } $.[ e.w.w.-.$.#.[ ] g ] ] [ ] ] ] [ [ [ [ Q A Q A b Q ] ] ] ] ] [ Q V V C A A A A A S ] %.%.$.$.| | | $.$.$.$.$.$.$.%.%.$.$.-.$.%.%.$.$.$.$.$.$.$.$.%.%.$.$.%.%.%.%.%.%.%.%.%.%.%.%.%.%.%.%.%.%.%.%.%.$.$.%.$.%.$.%.%.%.%.%.%.%.%.%.%.%.%.%.%.%.%.%.%.%.%.%.%.%.%.%.%.%.$.$.$.-.$.$.$.%.%.%.%.%.$.$.$.$.$.$.$.$.$.$.$.$.| $.$.$.$.$.$.$.$.$.$.$.$.$.$.$.| $.$.$.$.$.$.$.$.$.} } } } } } } } } } } } } } [ [ [ [ } } } } [ [ [ [ } } } } ] ] ] ] ] Q ( ( Q Q Q Q Q Q Q Q Q Q Q _ Q Q Q ( Q Q Q Q ( Q Q S A A A A C V V V V V V V V V V C C V V 0 V Q C 0 0 V ",
"Q Q A u V A | S t C C C C V C V V V N u V C A A A A A A A A A A A A A S S S S S S S S S S Q Q Q Q Q Q Q Q Q Q Q Q S N A Q Q Q ( Q Q Q Q _ ] ] ] ] ] ] ] ] Q [ [ [ [ [ [ [ [ [ [ } [ } Q ] %.%.$.} #.] C V [ ] ] ] ] ] ] [ [ [ Q C V b g _ [ ] ] ] ] ] ] #.=.w.y.y.i.i.i.i.i.e.$.$.$.$.$.$.$.$.$.$.%.$.$.%.$.$.$.%.%.%.%.-.$.$.$.$.$.$.%.%.%.$.$.$.%.%.%.%.%.%.%.%.%.%.%.%.%.%.%.%.%.%.%.$.$.$.$.%.%.$.%.%.%.%.%.%.%.$.%.%.%.%.%.%.%.%.%.%.%.%.%.%.%.%.%.%.%.%.%.$.%.%.$.%.%.%.%.%.%.$.$.$.$.%.$.$.$.$.$.%.$.$.$.$.$.$.$.$.$.$.$.$.$.$.$.$.$.$.$.$.$.$.$.$.$.$.$.#.#.} } { } } } } } } } } | | } | } } } } } [ ] ] [ } [ } [ [ [ ] ] ] ] ] ] ] ] ] ] ] ] ] ] ( ] ( ] ] ] _ ] Q Q Q Q Q S S S S A A A V D V V V V V V V V V V V V b t S S u & u V ",
"S S A b u C Q q.g V A C C S v           # A A A A A A A A A A A A A S S S S S S S S S S Q Q Q Q ( Q Q Q Q Q Q Q S Q [ [ Q Q ( ( Q Q Q _ _ ] ] ] ] ] ] _ u & V [ [ [ [ [ ] ] [ [ [ [ [ [ V S S C C C g g Q ] ] ] ] ] [ [ [ [ [ Q C V h g _ [ ] ] ] ] ] Q A g C C A Q Z Q $.$.$.$.$.$.$.$.} $.$.$.$.%.%.%.%.-.%.%.%.%.%.%.%.$.$.$.$.$.-.%.%.%.$.$.$.%.%.%.%.%.%.%.%.%.%.%.%.%.%.%.%.%.%.$.$.%.$.$.$.$.$.%.%.%.%.%.%.%.%.$.%.%.%.%.%.%.%.%.%.%.%.%.%.%.%.%.%.%.%.%.%.%.%.%.%.%.%.%.%.%.$.$.$.-.%.%.$.$.$.%.%.%.$.$.%.%.$.$.$.$.$.$.$.$.$.$.| $.$.$.$.$.$.$.$.$.$.$.#.#.} { { { { | { { { | } ] A [ | } } } } } [ ] ] ] } } } [ [ [ ] ] Q V Q ] ] ] ] ] ] ] ] ] ] ( ] ] _ Q Q Q S A S S A A S S Q A S A Z A w e N w > . # V V V V C u V ] A 0 & g V ",
"A A A V 0 V C } S u C A C ] e.C _ Q _ _ ] S A A A A A A A A A A A S S S S S S S S S Q Q Q Q Q Q ( Q Q Q Q Q Q Q Q Q Q Q Q Q ] _ Q Q Q ] ] ] ] ] ] ] ] ] Q S ] } [ [ [ [ [ } [ [ } [ [ Q Q u V # e V V ] ] ] [ [ [ [ [ [ } | Q A A V V h Q } [ [ [ [ ] ] v   > & # l & A %.$.$.$.$.$.$.$.$.$.$.$.%.%.%.%.%.%.%.%.%.%.%.%.$.%.$.$.%.%.%.%.%.%.%.%.%.%.%.%.%.%.%.%.%.%.%.%.%.%.%.%.%.%.%.%.$.%.$.$.%.$.$.%.%.%.%.%.%.%.=.%.%.%.%.%.%.%.=.%.%.%.%.%.%.%.%.%.%.%.%.%.%.%.%.%.%.%.%.%.%.%.%.%.%.%.%.%.$.$.%.$.%.$.$.$.%.$.%.%.%.$.$.$.$.$.$.| | $.$.$.$.$.$.$.$.$.$.$.$.$.| | | | | | | | $.| | q.] } } } } } } } } } [ [ [ } } [ } ] [ } V > u ] ] ] ] ] ] ] ] ] ] ] ( Q Q Q Q Q A A A Q C A Q Q Q A S A A A A Q Q Q S A { ] V C C V u Q ] V & u V V ",
"C C C V w 0 C _ [ 0 V A A A ] ] Q Q Q Q S A S A A A A A A S S A S S Q S S S S Q Q Q Q Q Q Q _ Q Q Q Q ( Q Q Q Q Q ] _ ] ] ] ] ] _ Q _ ] ] ] ] ] ] ] ] ] ] | $.} [ [ [ [ } [ } } [ [ [ ] [ ] } A w.w.$.} [ } } } { { } } | | Q ] _ Q ] C ] | } } } [ [ { ] e q l V A ] $.$.$.$.$.$.$.| | $.$.$.$.%.%.%.%.%.%.%.%.%.%.%.%.$.$.$.$.%.%.%.%.%.%.%.$.%.%.%.%.%.%.%.%.%.%.%.%.%.%.%.%.%.$.%.%.$.%.$.$.$.$.$.%.%.%.%.%.%.%.%.%.%.%.%.%.%.1.2.%.%.%.%.%.%.%.%.%.q.1.%.%.%.%.%.%.%.%.%.%.%.%.%.%.%.%.%.%.$.%.%.%.%.%.%.$.$.$.$.%.%.%.%.$.$.$.$.$.%.$.$.$.$.$.$.$.$.$.$.$.$.$.$.$.$.$.$.$.| | | | { $.%.#.} } } } } [ [ [ [ [ [ [ } [ [ } } [ | | Q ] ] ] ] ] ] ] ] ] ] ] ] _ Q ( ( Q Q Q Q Q S A Q Q Q A A A A A A A A A Q Q ] Q A A A g V [ ] u > V V V ",
"C C V V b > C W $.V u A A A A A A A A A S S A A A A A A A S S A S Q S S S S S Q Q Q Q ( ] ] _ _ ] ( ( Q Q Q Q Q ] Q _ ] ] ] ] ] ] ] ] ] ] ] ] ] ] ] ] ] ] ( ] [ [ [ } } } } } } } [ [ ] [ ] [ A ] } } } } #.#.$.{ { $.| | } Q ] _ Q _ C ] $.| } } | { $.%.%.%.%.$.$.$.$.$.$.$.$.$.$.$.$.$.$.$.$.$.%.%.%.%.%.%.%.%.%.%.%.$.$.%.%.%.%.%.%.%.%.%.%.%.%.%.%.%.%.%.%.%.%.%.%.%.%.%.%.%.%.%.%.%.$.%.%.$.%.%.%.%.%.%.%.%.%.%.%.%.%.%.%.1.1.2.1.q.w.%.%.%.%.%.%.w.q.%.%.%.%.%.%.%.%.%.%.%.%.%.%.%.%.%.%.%.%.%.%.%.%.%.%.%.%.%.%.%.%.%.%.$.$.$.%.%.%.%.$.$.$.$.$.$.$.$.$.$.$.$.$.$.$.$.$.$.$.| | { } } } } } } } } } [ [ [ [ [ [ [ } [ [ [ [ } [ [ ] ] ] ] ] ] ] ] ] ] ] _ _ ] ( ( ( Q Q Q Q Q Q Q Q S A A A A A A A S S S S S A A A V g Q [ A 0 w V V V ",
"C V V V V 0 u C ] } 0 A A A A A A S A A S A S A A A A A A A S A S S S S S S S Q Q Q Q _ ] ] _ _ ] Q Q _ Q Q Q Q ] ] ] ] ] ] ] ] ] ] ] ] ] ] ] ] ] ] ] ] ] ] [ [ [ } [ [ [ } } } } } [ A [ } } S [ $.| | | $.#.#.| { | } [ Q A ] Q Q Q Q [ $.} | { | | $.$.%.$.$.} | #.$.$.$.$.$.$.$.$.$.$.$.$.$.$.$.%.%.%.%.%.%.%.%.%.%.$.$.%.%.%.%.%.%.%.%.%.%.%.%.%.%.%.%.%.%.%.%.%.%.%.%.%.%.%.%.%.%.$.$.%.%.%.%.%.%.%.%.%.%.%.%.%.%.1.1.%.%.5.w.w.w.4.5.w.5.4.%.=.5.w.w.1.%.%.%.%.%.%.%.%.%.%.%.%.%.%.%.%.%.%.%.%.%.%.%.%.%.%.%.%.%.%.%.%.$.$.$.$.%.%.$.%.$.$.$.$.$.%.%.%.$.$.$.$.$.$.$.$.$.$.$.$.{ { } } } } } } } } } } [ [ } } } } [ [ [ } [ [ [ ] ] ] ] ] ] ] ] ] ] ] Q Q _ _ ( _ _ _ _ Q Q Q Q Q Q Q A A A A A S S S S S Q Q S A A g V _ [ V > V V V V ",
"V V V b b u & g C $.V V Q A A A S S S S S S S S S A A A A A A A S S S S S S S Q Q Q ] ] _ _ ] ] ( ] ( Q ( Q Q ( ] ] ] ] ] ] ] ] ] ] ] ] ] ] ] ] ] ] ] ] ] ] [ [ [ [ } } } } } } } } } } } [ | Q } $.| $.$.$.$.$.| } } ] Q Q Q ] ] Q Q Q } %.} $.[ ] $.| $.$.$.$.$.$.$.$.$.$.$.$.$.$.$.$.$.$.$.$.$.$.%.%.%.$.%.%.$.$.$.$.-.%.%.%.%.%.%.%.%.%.%.%.%.%.%.%.%.%.%.%.%.%.%.%.%.%.%.%.%.$.$.$.%.%.%.%.%.%.%.%.%.%.%.%.%.%.%.%.%.%.%.%.1.q.q.4.q.w.w.w.w.%.%.=.%.1.%.%.%.2.w.5.%.%.%.%.%.%.%.%.%.%.%.%.%.%.%.%.%.%.%.%.%.%.%.%.%.%.%.%.$.$.%.%.%.%.%.$.$.$.%.%.%.%.%.%.%.%.%.$.$.$.$.$.$.$.$.} } } } } } } } } } } } } } } } } [ [ [ } } } [ ] ] ] ] ] ] ] ] ] ] ] ] ( Q Q Q ( ] _ ] ] Q ] Q Q Q Q Q A Q S A A A A S S A A S S A A u A Q A u 0 V V V V ",
"V V V b b b > 0 C ] [ u A A A A S S S S S S S S S A A A A A A A S S S S S S Q Q Q ( ] ] Q Q Q ] ( ( ( ] ] ] ] ( ] ] ] ] ] ] ] ] ] ] ] ] ] ] ] ] ] ] ] ] ] ] [ [ [ } } } } } } [ [ [ [ [ [ [ | Q } $.$.$.$.$.$.$.$.| ] Q Q Q Q ] ] ] ] } %.%.%.$.$.| $.$.$.$.$.$.$.$.$.$.$.$.$.$.$.$.$.$.$.$.$.$.$.$.$.$.$.$.%.$.$.$.$.$.$.%.%.%.%.%.%.%.%.%.%.%.%.%.%.%.%.%.%.%.%.%.%.%.%.%.%.%.%.%.$.%.$.-.%.-.%.%.%.%.%.%.%.%.%.%.%.%.%.%.%.%.q.q.q.1.w.w.w.w.w.w.w.q.1.4.%.%.5.w.q.w.%.%.%.%.%.%.%.%.%.%.%.%.%.%.%.%.%.%.%.%.%.%.%.%.%.%.%.%.%.%.%.%.%.%.%.%.%.$.%.%.%.%.%.%.%.%.%.%.%.%.%.%.$.$.$.} [ [ [ } } } } } [ [ } } [ } [ [ [ } } } } } [ ] ] ] ] ] ] ] ] ] ] ] ] ) Q Q Q ( ] ] ] ] ] ( Q Q Q Q Q Q Q Q A A A A S S A A A A A V V ] [ C & u V V V V ",
"V b b b b b u # x A $.z V Q S A A Q S S S S S S S A A A A A A S S S S S Q Q Q Q Q Q ] ] _ ] Q ( ] ( ] ] ] ] ] ] ] ] ] ] ] ] ] ] ] ] ] ] ] ] ] ] ] [ ] ] ] ] ] [ [ } } } } } } [ [ [ [ [ } } $.Q | $.$.$.$.$.$.$.$.$.} } | ] ] ] Q Q ] $.%.$.$.$.$.$.$.$.| $.$.$.$.$.$.$.$.| $.| $.$.| $.$.$.$.$.$.$.$.$.$.$.$.$.$.$.$.$.$.%.%.%.%.%.%.%.%.%.%.%.%.%.%.%.%.%.%.%.%.%.%.%.%.$.$.%.%.%.%.%.%.%.%.%.%.%.%.%.%.%.%.%.%.%.q.2.w.w.2.2.w.w.w.w.w.w.w.w.w.w.w.w.w.w.w.4.%.%.w.q.%.%.1.4.%.%.5.%.%.%.%.%.%.%.%.%.%.%.%.%.%.%.%.%.%.%.%.$.$.$.%.%.%.%.%.%.%.%.%.%.%.%.%.%.%.%.%.%.%.%.%.%.$.%.%.$.$.} } } } } } } [ [ } [ [ [ [ [ [ [ [ [ [ ] ] ] ] ] ] ] ] ] ] ] ] ] ] ] ( Q Q ( ] ] ] ] ] Q Q Q Q Q S S Q Q S S A A A A A Q A A A u A [ [ g q u V V V V ",
"V b g V b g V > t C | [ u Q Q A A Q S Q Q S ( Q S S A A A S S A S S S S Q A Q Q ] ] ] ] ] ] ] ( ( ] ] ] ] ] ] ] ] ] ] ] ] ] ] ] ] ] ] ] ] ] ] ] [ [ [ [ [ ] [ [ [ [ [ [ } } } } [ } } } | { $.Q | $.$.%.%.%.%.%.%.| $.%.%.%.%.%.$.$.[ } $.$.$.$.$.$.$.$.| $.$.$.$.$.$.$.$.| } } | | } | $.$.$.$.$.$.$.$.$.$.$.$.$.$.$.$.%.%.%.%.%.%.%.%.%.%.%.%.%.%.%.%.%.%.%.%.%.%.%.%.%.%.%.%.%.%.%.%.%.%.%.%.%.%.%.%.%.%.%.%.%.%.q.w.w.w.w.w.w.w.w.w.w.w.w.w.w.w.w.w.w.w.q.q.%.%.%.1.w.w.w.w.w.w.w.w.w.%.%.%.%.%.q.q.w.%.%.4.w.w.%.%.%.%.%.%.%.$.$.%.%.%.%.%.%.%.%.%.%.%.%.%.%.%.%.%.%.%.%.%.$.%.%.$.$.} #.#.} } } } [ [ } } } } [ [ } [ [ ] ] ] ] ] ] ] ] ] ] ] ] ] ] ] ] ] ] Q ( ( Q Q ] ] Q Q Q Q Q Q Q A A S S Q A A S A u A Q S C V ] [ Q 0 w u V V V V ",
"C V g b b V V u & V ] %.u A Q A A ] Q ] ] ] ] Q Q S A A S Q Q A Q ] Q Q Q A S Q Q ] _ Q Q Q ] ] _ ] ] ] [ ] ] ] ] ] ] ] ] ] ] ] ] ] ] ] ] ] ] ] ] [ [ [ [ [ [ [ [ [ [ } } } } } } } } } $.} $._ $.$.$.$.%.%.%.%.%.%.%.4.%.} %.%.| %.$.$.$.$.$.$.#.#.#.} } } } } $.} | } } | } } } { | $.$.$.$.$.$.$.$.$.$.$.$.$.$.$.$.$.$.$.%.-.%.%.%.%.%.%.%.%.%.%.%.%.%.%.%.%.%.%.%.%.%.%.%.$.%.%.%.%.%.$.%.%.%.%.%.%.%.%.%.%.%.%.w.w.w.w.w.w.w.w.w.w.w.w.w.w.w.w.w.w.w.w.w.w.w.%.%.5.=.%.=.%.%.%.%.%.%.%.%.%.%.%.q.q.q.%.%.%.%.%.%.%.$.%.%.%.%.$.%.%.%.%.%.%.%.%.%.%.%.%.%.$.$.$.$.$.$.$.%.%.$.-.$.%.$.$.$.} } [ ] ] [ } } } } } [ [ [ ] ] ] ] ] ] ] ] ] ] ] ] ] ] ] ] ] ] ] ] ] ] ] ] ] ] ] ] _ Q Q _ Q Q Q Q Q Q Q Q Q S V S S A S V Q | q.V 0 u g g V V V ",
"C V g b V V V V 0 u Q | C g ] ] ] Q S S S S A A A V V V A A V V V v C C C A Q Q Q _ ] Q Q Q Q Q Q ] ] ] ] ] [ ] ] ] ] ] ] ] ] ] ] ] ] ] ] ] ] ] ] ] [ [ [ [ [ } [ [ } } } } } [ } } } | $.$.%.] | $.$.$.%.$.%.%.%.%.q.4.q.%.%.%.$.%.%.$.| | } } } } } [ } } } [ [ [ } } } } } } } } [ } } | } { { } $.$.| | | } $.$.} $.| $.$.$.$.$.$.%.%.%.%.%.$.%.%.%.%.$.$.%.%.%.$.$.$.$.$.$.$.$.%.%.$.$.$.$.$.%.%.%.$.$.%.%.%.%.%.w.w.w.w.w.w.w.e.w.w.w.w.w.w.w.w.w.w.w.w.w.w.4.w.2.e.u.u.i.u.u.u.y.u.e.e.e.e.e.e.u.e.e.e.w.u.h.a.i.a.e.%.5.4.%.$.$.%.%.%.%.%.%.%.%.w.e.e.e.e.e.w.%.e.e.$.$.%.%.$.%.%.$.#.} } ] [ } } } } } } [ [ [ [ ] ] ] ] ] ] ] ] ] ] ] ] ] ] ] ] ] ] ] ] S A ] A C C A V V V V V V V b V V V V V C A A S A A V V ] $.[ u u b b V V V V ",
"V V b V V V V C b u Q ] %.z ] ] ] ] ] A V g b u l l u V V C V u u > . * + u Q Q Q Q Q Q Q Q Q Q Q ( ( ] ] ] [ [ ] [ ] ] ] ( ] ] ] ] ] ] ] ] ] ] ] ] ] [ [ [ [ } } } } } } } } } } } | %.%.%.%.] } $.$.$.%.$.%.%.%.q.%.%.%.%.%.%.%.%.%.%.%.%.$.$.| | | | %.$.$.| | | $.$.| | | $.$.| | | | | | | | | %.%.%.%.%.$.%.$.$.$.$.$.-.%.%.%.%.%.%.1.%.%.%.w.w.%.%.%.%.%.%.%.%.%.%.%.%.%.%.%.%.%.%.%.%.%.%.%.%.%.%.%.%.%.%.1.w.e.w.w.w.w.w.w.w.w.w.w.w.w.w.w.w.w.w.w.w.w.w.w.w.w.e.y.y.y.w.w.w.w.w.%.%.%.$.$.} $.} } [ Q q.h.a.a.h.] & > &   D e._ [ [ { | | | | a.h.h.h.z.i.& . e.a.q.} [ } } } [ | %.} ] ] } } } } } } [ [ [ ] ] ] ] ] ] ] ] ] ] ] ] ] ( ] ] ] ] ] ] ] Q A A V > > V V u e u e e u u u u v u g 0 A S C C A A u A } -.A 0 u g V V V V V ",
"V V u g C V C C A u C Q $.A A ] ] [ S u 4.%.#.} } } } | %.5.5.} $.%.C | w.C A Q Q Q Q ( Q Q Q Q Q ] ] ] ] [ } } { S Q ] ] ] ] ] ] ] ] ] ] ] ] ] ( A ] ] ] [ [ [ } } } } } } } } } } $.S ( %.%._ } $.%.} } %.%.w.w.w.w.%.%.%.[ C g u u t 0 q q 0 0 0 w u u u u u u u 0 0 u u u u u u 6 u u u w w q w u e u V V N V V V V V V V V C C A A A A A A S ( ] ( S A A V V V V V V l V V V V V V V w u u u u g u u g z z V u V z ] e.w.e.e.e.e.w.w.w.w.w.w.w.w.w.w.w.w.w.w.w.w.w.w.=.=.=.=.%.%.5.%.%.w.%.%.%.%.%.%.%.%.u.u.w.w.w.y.a.j.z.j.c.V.a.%.5.=.2.2.%.=.%.u.u.y.e.y.e.1.e.e.w.w.e.e.u.y.y.e.w.%.$.$.#.} } } } } } [ [ ] [ ] ] ] ] [ [ [ [ ] ] ] ] ] ] ] ] ] ] ] ] [ [ ] ] | [ e.a.y.w.=.%.-.$.$.#.} } } } ] q.[ A Q Q V V ] $.$.C V V b V V V V V ",
"V V q & V C C C A V g Q ] ] V _ A u #   A ] S V V V V V S _ Q A Q A u V S u 0 q u V V V V V V V V C Z A A A Q Q ] Q A ] ] ] ] ] ] ] ] ] ] ] ] ] ] A ] ] [ [ [ [ [ } } } } } } } } } %.] { ] $.A } $.| e e $.%.S $.w.%.%.%.} A h.z.c.c.c.c.z.j.j.j.h.h.h.j.h.h.f.f.z.z.c.j.h.a.u.e.u.c.h.f.i.a.z.z.z.z.f.f.i.i.a.a.a.a.y.w.e.y.u.y.%.#.-.=.y.y.y.5.5.w.e.y.y.y.%.-.w.e.u.u.u.a.u.u.i.y.s.m.K.b.b.b.c.z.j.j.j.j.h.f.f.a.h.u Q e.e.e.e.e.w.w.w.w.w.w.w.w.w.w.w.w.w.w.w.w.w.=.=.=.5.5.5.w.w.w.w.w.w.w.w.w.w.w.w.w.w.w.w.5.%.%.w.y.y.y.y.w.#.-.$.$.} | } } } ] ] ] Q Q Q #.-.[ ] Q A } } } } } [ [ } } } } } } } } } [ [ ] ] ] ] V V Z Z Z Z C C V V C C V V C C C C C C C C Z A ] [ [ ] _ Q Q Q Q S A Q Q Q _ V u u V V u A [ h.$.C A C V V V V V V ",
"V V v # C A C Z A A u $.i.$.Q 4.%.V u q                       X # # .     @ # @ * % & > ; # # & 0 u u 0 0 w u u u u A Q Q ] Q Q Q ( ] _ Q ] ( ( ] ] ] ] ] ] [ [ [ } } } } } } } } } %.w.w.%.$.A { $.%.| [ %.5.A %.e.%.%.%.h %.h.i.a.a.a.a.a.i.a.i.u.u.i.a.i.i.u.u.i.a.a.i.u.w.$.[ C x.E.y.y.=.y.y.w.=.%.$.-.#.$.y.w.%.#.w.w.=.} Q V g V C A Q { ( A Q [ -.[ ] %.h / [ { -.$.%.%.$.Q E *.OXl.s.a.a.a.u.u.u.u.u.a.u.u.w.u.a.r | u.e.e.w.w.w.w.w.w.w.w.w.w.w.w.w.w.q.w.=.5.=.=.=.=.%.5.5.%.4.q.w.w.w.w.w.w.w.w.w.w.w.w.w.%.w.w.w.w.w.=.%.%.%.%.$.} $.} { | [ | } ] [ ] _ ] ] $._ Q -.#.$.} } } } { [ } } } } } } [ [ ] Q Q Q u .   & 0 0 q 0 q > # > 0 > & & & > & & & & & # @                           0 u u N q V ] V Q } w.Q A S A V V V V V V ",
"C C C u A A C A A Q A %.w.%.[ C Q Q g 0 & 0 9.@.C g X & 0 u u V V V V V V V V u u u u V z u u u u C _ Q _ ] [ } ] y V A S S ] ] ] ] ] ] ] ] ] ] ] ] ] ] ] [ [ } } } } | } { { | | $.%.%.%.=.=.A } $.$.%.%.=.w.w.e.w.=.w.A Q y.-.$.$.$.$.$.$.$.%.%.$.%.%.%.%.%.%.%.%.%.%.%.%.[ C w   V c.Q C x C V C C C V V Q = u C C Q -.]   T.2X,X,X,X,X,X2X2X2X,X,X,X2X1XQ.  t 4 Z [ ] ] ] A | S   / V.h C A ] } [ { | $.$.{ [ ] Q Q 5.a.y q.y.w.w.w.w.w.w.w.q.w.w.w.1.%.2.%.4.5.%.=.=.%.%.=.%.5.=.%.%.4.w.w.w.w.5.w.w.w.w.w.w.w.5.%.%.5.w.w.w.w.w.w.=.=.%.%.%.$.%.%.$.$.$.| } } } $.$.-.-.%.-.$.$.$.} $.#.} } } } } } } } } [ Q ] ] A u V t A _ ] ] [ [ Q u V C V V V V C V V V V V V V V g g u u u w u V C g q.[ t V g ] ] g C Q ] w.=.g Q ] Q A C C V V V ",
"A A A A A A A A 0 u Q x #.#.[ C h f 0 & w C G.*.0 h % & 0 t u u u u u u u u u u w w 0 0 0 0 0 0 0 0 Z A Q _ [ %.g 0 t V C A A S S A A S S S S S S Q Q Q Q ] ] ] ] ] ] ] ] [ [ [ [ | $.%.%.=.w.A { %.%.%.%.%.w.w.=.%.w.] t e.%.-.%.%.q.%.%.%.%.%.%.%.1.%.q.q.q.1.q.w.q.w.| D V u X .     % u 0     > u V 0 X #     u t u ] [   F.2X,X,X2X2X2X2X1X2X2X2X2X2XuX,X  0 . 0 V 0 0 #   q >   r       . > A Q ( ] ] Q } %.%.| $.%.h.u.t e.y.e.w.w.w.w.w.q.w.w.w.%.%.q.%.4.5.%.%.%.%.%.5.=.=.%.%.w.w.w.w.w.w.w.w.w.w.w.w.w.w.%.%.%.w.w.w.w.w.| } | | } } } } } [ [ [ [ ] ] Q ( ] ] ] ] ] ] [ [ [ [ [ [ ] ] ] ] ] ( Q Q Q S A S Q V C V 0 A Q Q ] ] ] C 0 t t u u u u u u u u g u g g u u u u u u w b g g u e.S r g g t ] C g [ -.u.Q V u u S A A A C V V ",
"A A C C C A C A V S C C _ w.[ Q 0 # # # # X         @ # & > 0 0 q 0 0 0 0 0 0 > > > & & & & ; & &   r.4.] } %.( + * .   . . . .         . . . . .             & * * * * * * * % % 8 0 u V V C u A Q ] [ | } | | } } ] 2 y.w.#.%.w.w.%.| %.%.%.%.%.%.%.%.q.q.q.%.q.q.w.e.| D r.u     F }.  # C V w # u u &       { w             &.:.:.:.:.p.k.k.k.v.F.F.F.T.v.  #   q A C C V u ] e   h n   > . 0 b V C C C V C | %.%.4.w.w.b.4.C w.%.%.%.%.$.$.$.%.$.$.%.$.| | | | } | | [ $.$.$.$.$.$.%.%.%.%.%.%.%.$.$.} } } | | } } } $.%.%.} 6 0 V 2 0 r t u y t t 2 0 t t t & % 6 0 0 2 2 2 2 2 %                                 * r 0 & S $.%.} [ [ V & q w w u u u w u u u u u u u u u u u u u w #           # 0 u 0 t g Q =.e.e.h ] ] D Q A A A V V V ",
"A A A A A A A A Q S A Q W M.-.C .       . .   X . # 0 0 u u V V V V V V V u u u u u u u u u u u u u V A A ] q.| V V V A S Q [ [ [ } } } [ [ } [ | %.%.w.e.a.i.* V u u w 0 0 0 0 u q . q A Q Q A % * 0 u u A A A A S A z.h.$.%.%.] w.5.w.5.%.%.%.%.%.%.4.q.w.w.w.w.e.e.w.e.e.h.e.$.] %.U.| [ %.%.%.] [ ] C u & q a._ # > V [ } D                               # *   A =.5.w.w.w.c.N.A [ 8.w.| Q Q _ Q Q Q Q Q Q Q %.w.%.Q y.y.M.%.S [ [ ] ] ] ] ] ] ] ( Q Q ( ] ] ] Q _ Q S Q Q Q ( Q ( ] ( _ ] ] ] Q S S S S S ] ] ] _ S S F V S e.V.W.K.K.K.I.L.L.L.P.P.P.U.U.U.U.U.U.W.W.R.P.L.K.I.c.> D A A S S V V V V V V A A S S S A A D D S | w.$.Q [ b u z l V b V V V V V V V V V V V V V V V V u # # # & & # & & & & & u ] L.q.u S ] ] S A A Z A V V ",
"A A A A A A A A A A A ] C %.A + @   . + + + * * % 0 0 0 u g V z u u g u u u u 0 0 0 t u u g V V V S z A ( A Q q.q.q.w.u.i.a.f.f.h.h.z.z.h.z.z.a.a.z.z.c.b.V.V.S + + .       . . *       u C C ] $.[ | A h.K.b.b.c.b.b.c.w.e.e.e.%.w.w.w.5.%.%.%.%.%.%.5.w.w.w.w.5.w.e.e.e.w.%.w.y.e.w.^ %.%.%.%.%.5.w.w.w.%.| %.%.=.%.%.} %.w.e.| A V A S V V A A A S %.$.] A A A A ] $.$.-.%.w.i.u.%.5.i.c.e.] ^ ] ] Q Q Q ] ] _ } =.w.] ] s.s.b.K.K.I.I.I.L.L.K.K.V.V.b.V.K.K.K.K.V.V.b.b.b.M.b.b.b.b.V.V.V.K.V.b.c.z.b.V.K.K.I.K.K.K.V.V.V.j.b.c.w.y.i.u.i.a.i.i.a.a.a.a.a.a.a.a.a.a.a.h.e.e.u.u.a.h.L.V.b.b.M.c.c.c.c.z.z.j.j.j.j.z.z.h.h.h.e.A w.%.] e g *   + + + $ % + * % 2 8 0 & & & 8 0 0 0 0 u u u g g t 0 0 0 8 $   # * @ ] v V V V A A A A C Z A C ",
"A A A A A A A A A A Q Q 0   X V h V | | $.w.e.u.u.i.a.a.h.h.h.h.j.j.h.h.f.h.h.a.a.a.h.h.h.h.h.j.c.c.h.1.{ Q [ [ Q Q ] [ { | | | | { | $.%.%.%.$.] -.5.5.y.y.a.c.h.h.h.h.h.h.h.h.h.z.x.z.i.u.w.u.a.i.y.y.w.%.=.%.%.%.=.w.e.u.u.e.e.w.w.5.5.%.%.%.%.%.%.%.w.w.w.w.5.w.e.e.e.e.e.e.e.} %.w.%.q.w.w.w.w.5.w.%.%.%.$.-.=.=.%.] -.%.w.w.w.%.w.w.%.[ ] | %.%.=.=.=.=.5.5.w.=.w.w.w.w.%.w.=.} s.s.} A _ ] ] _ ^ _ ] ] ] ] ] %.=.w.u 5.a.y.y.y.y.i.s.y.y.w.w.w.=.} w.y.e.u.u.i.u.y.y.u.u.u.y.y.y.y.y.y.y.e.w.w.w.w.w.e.e.e.w.w.w.=.%.$.%.%.%.%.e.e.w.e.u.y.y.y.y.y.y.y.y.y.y.u.i.y.i.] [ w.q.w.e.u.e.%.%.| } } [ } $.} } } #.} $.$.$.$.} ] Q %.w.i.u.w.w.h.h.h.g.g.a.a.h.a.a.a.i.h.a.a.u.y.u.u.u.u.u.i.h.h.i.w.%.e.u.h.| + u 0   . u V C A A A A C A A A ",
"A A A A A A A Q A Q A 0 @ 0 > 0 t V A A ] $.%.5.4.q.w.w.w.w.e.e.e.e.e.e.w.w.w.w.w.w.w.e.y.u.u.u.f.h.1.Q Q A } %.} [ | | %.%.%.%.%.%.%.%.%.=.=.w.5.w.w.w.a.c.x.b.K.H.H.V.H.M.M.b.b.b.b.n.z.h.h.f.z.z.a.a.e.w.w.w.w.w.e.u.w.e.e.e.w.4.5.5.=.=.%.%.w.4.%.w.%.w.w.w.w.w.e.e.e.e.w.e.e.w.e.w.w.w.w.w.w.e.w.5.[ $.w.w.%.=.w.%.} w.w.w.w.w.%.$.$.| } $.$.$.%.%.%.%.5.w.w.w.w.y.y.y.e.w.2.w.=.5.%.C Q Q Q Q Q Q Q Q Q _ ] ] ] w.i.4.; e.a.i.i.i.a.a.i.u.y.e.y.u.%.w.u.u.i.a.i.i.u.u.u.u.u.u.u.u.u.u.u.u.u.y.e.y.u.e.u.u.e.e.e.e.w.w.w.w.w.e.e.y.y.y.y.y.u.u.u.y.y.y.y.u.y.y.y.y.y.i.u.e.w.4.q.e.e.w.%.w.%.%.%.%.%.%.%.%.%.%.%.%.4.%.%.%.| ] ] ] ] -.-.} w.w.e.e.e.e.e.e.e.e.e.e.y.e.e.e.e.e.e.w.w.w.w.%.%.%.} ] [ %.%.[ > 0 0 u 0 X u A Z A C C C C C Z ",
"A A A A A A A A Q Q q @ 0 0 u 0 u V V V q z Q Q Q Q Q A Q Q Q S S Q Q Q Q S S Q Q ] ] ] [ } | %.A u ] Q ] Q [ %.%.%.| { %.%.%.%.%.%.%.%.%.%.%.4.=.5.w.w.5.%.%.$.} { { | $.$.$.%.$.] [ [ | %.%.%.%.%.w.w.w.w.w.w.w.| %.e.e.e.e.e.e.w.w.w.w.1.%.5.w.w.w.w.w.w.4.q.%.w.e.w.w.w.w.w.w.e.w.w.w.w.w.w.w.w.w.w.w.4.w.w.| %.w.%.$.w.w.e.e.$.Q C A Q C ] 5.%.w.w.w.w.w.w.w.w.e.u.u.u.u.e.w.w.=.%.%.} ] [ ] [ } #.} $.$.$.$.$.$.w.u.f.] = a.a.i.i.i.u.4.%.w.5.w.e.u.u.y.y.y.u.y.u.u.y.u.u.e.u.u.u.u.u.u.u.u.y.y.u.y.e.y.u.u.e.e.w.w.w.w.$.2.w.e.e.e.y.y.u.u.u.y.y.y.e.y.y.y.e.y.y.y.y.e.w.w.w.w.w.q.q.%.%.%.$.$.$.$.%.%.$.%.%.%.%.4.| %.{ $.[ $.| [ Q } C [ ] ] Q ] Q Q Q Q Q _ ] Q Q ] [ ] ] ] ] ] ] ] ] ] _ Q C q Z Q Q g t u u u 0 # V Z C Z Z C C C C ",
"A A A Z C A Q Q Q 0 . 0 0 u u u C V A A e V _ _ ] ] ] ] ] S ] ] ] [ [ [ [ ] ] ] [ [ [ | $.$.%.%.%.$.$.] [ Q } %.%.%.%.| %.%.%.%.%.%.%.%.%.%.%.%.%.5.5.w.w.w.%.4.w.w.w.w.e.e.w.w.w.w.w.w.w.w.w.w.w.w.w.w.w.w.w.w.w.A { e.w.w.e.q.| u %.w.=.2.w.w.w.w.w.w.w.w.w.[   V e.w.w.e.w.w.w.w.w.e.e.e.e.w.w.w.w.w.w.| q.i.w [ e.%.$.w.w.y.w.V ] | $.%.| $.w.w.e.e.e.e.e.y.y.u.u.u.i.i.i.u.i.i.i.i.i.u.y.u.u.i.i.i.i.i.a.a.a.a.a.a.u.y.h.A [ h.i.a.u.w.w.w.e.e.e.y.u.i.u.u.u.u.u.u.u.u.u.u.u.u.u.u.u.u.u.u.u.y.y.u.e.e.e.w.%.e.w.q.] %.w.[ %.e.e.e.e.y.y.y.y.y.y.y.e.e.e.e.e.e.e.e.e.e.e.w.w.w.w.w.e.q.%.%.%.%.$.$.%.$.%.%.%.%.%.%.%.%.q.e.w.%.$.$.q.u.i.%.| | | } [ [ [ [ [ [ [ [ [ [ } | | | [ [ [ [ [ [ ] ] ] A S ] ] Q Q g t u u u > & V Z C C C C C C ",
"A A Z C C A A Q u * 0 t u 0 u A A C A Q A Q Q Q ] ] ] ] ] # V ] ] ] [ [ [ [ ] ] [ [ [ } } $.$.| | | | [ [ A ] ] [ 4.%.%.%.%.%.%.%.%.%.%.$.$.%.%.%.%.%.5.=.5.%.%.%.%.%.%.w.w.4.4.5.w.w.w.w.w.w.w.w.w.w.w.w.w.w.w.w.w.e.w.w.w.%.V q.| q.4.%.q.w.4.q.q.q.w.%.%.5.q.A [ e.w.w.w.w.w.w.w.w.w.w.e.w.w.w.w.w.w.e.y.u.i.q.e.u.w.%.e.y.y.u.e.u.u.u.u.u.u.e.y.y.y.y.y.u.u.u.u.u.u.i.i.i.u.u.u.i.u.u.u.y.u.i.i.u.i.i.i.a.a.a.a.a.f.a.e.i.b.g e.f.a.a.a.i.a.i.u.u.i.u.u.u.u.u.u.u.u.e.u.u.u.u.u.u.u.u.u.u.y.y.y.y.y.e.e.u.[ Q e.w.%.{ u.u.u.u.e.e.e.e.e.e.e.e.e.e.e.e.e.e.e.e.w.e.e.e.e.e.w.} w.w.w.w.5.4.%.%.%.%.%.%.%.%.$.$.$.%.%.%.| } | $.[ } { q.w.$.{ [ } } [ [ [ ] ] ] ] ] ] ] [ ] [ [ ] [ ] Q [ [ ] ] ] ] ] ] ] Q Q Q S u 0 u u u & & V Z C C C C V ",
"A C C C C C A b @ t 0 t u u A C A Q Q S Q Q Q Q ] ] ] ] ] Q $.[ A [ [ [ [ [ ] ] [ [ [ [ } } } } [ [ } ] ] C S Q { %.[ $.$.| %.%.%.%.%.%.$.%.$.%.%.%.%.%.%.%.%.%.%.%.%.%.%.4.w.w.%.5.w.w.w.w.w.%.4.w.w.w.w.w.w.w.w.w.%.%.w.w.w.w.e.w.q.%.%.q.q.q.q.w.w.q.%.%.%.%.5.w.w.w.w.w.w.w.w.w.w.w.w.w.w.w.e.w.e.e.e.w.w.w.e.e.e.w.%.e.e.u.y.y.u.e.e.e.y.u.y.e.y.u.u.u.u.u.u.u.u.i.i.i.i.i.i.i.i.i.i.u.u.u.i.i.i.u.i.a.a.a.a.a.a.a.i.a.y.b.x.Z a.a.a.u.i.a.a.u.u.u.u.u.u.u.u.u.u.u.e.e.u.u.u.u.y.u.u.u.u.y.e.e.e.e.e.e.e.w.e.e.e.%.] e.e.e.e.e.e.e.e.e.e.e.e.e.e.e.e.e.e.w.w.w.e.e.e.e.e.w.%.w.$.w.w.w.5.%.%.%.%.%.$.$.$.$.| | $.%.$.] [ } } A } } [ } $.$.} } } [ ] ] ] [ [ ] ] ] ] ] ] ] A C } [ [ [ ] ] ] ] ] ] ] _ Q Q Q Q S w u u u u # > Z Z C C C C ",
"A C C C C A u * 0 t u u 0 C C C A Q Q Q Q Q Q Q ] _ ] ] ] ] ^ ] ] [ [ [ [ [ [ [ [ [ [ [ } [ [ [ [ } { [ ] A Q ] %.%.%.%.$.$.%.$.%.%.%.%.%.$.$.$.%.%.%.%.%.%.%.%.%.%.%.%.4.5.5.w.w.w.5.w.w.w.w.w.w.4.w.w.w.w.w.w.w.w.%.w.q.w.w.w.w.w.w.4.%.%.q.w.w.w.w.w.%.%.%.%.%.4.w.w.w.w.w.w.w.w.w.w.w.w.w.w.e.w.e.w.e.w.e.e.e.e.y.w.%.e.u.u.u.u.u.u.u.u.u.u.u.u.u.u.u.i.u.u.u.i.u.i.i.i.i.i.i.i.i.i.i.u.i.i.i.i.i.u.i.i.a.a.a.a.a.a.i.i.i.y.H.i.( f.a.a.a.i.i.a.i.u.u.u.u.u.u.u.u.u.e.u.e.u.u.u.y.u.u.u.y.u.e.y.e.y.e.e.e.w.e.w.e.e.e.e.e.y.e.e.e.e.e.e.e.e.e.e.e.e.e.e.w.e.w.w.e.w.e.e.e.w.w.w.w.w.w.w.5.4.%.%.%.%.$.$.$.| $.$.$.$.$.$.$.$.$.] } $.$.$.$.$.} } } [ ] ] ] [ ] ] ] [ ] ] ] ] [ } } } } } ] ] ] ] ] ] ] ] ( Q Q Q S A u u u V u . q Z C C C C ",
"C C C C Z V * 0 u u u u C C C V A S Q Q Q Q Q _ ] _ _ ] ] ] ] ] ] [ } [ [ [ [ [ } } } | | %.%.| | $.$.$.$.A [ } 4.4.q.%.%.%.4.q.q.q.q.1.%.%.%.%.%.%.5.w.w.5.4.w.w.w.w.w.w.w.w.w.w.w.w.w.e.w.w.w.w.w.w.w.w.w.w.e.w.w.w.w.w.w.w.e.e.w.w.w.w.w.w.e.w.w.w.w.w.w.q.4.w.w.w.e.e.e.e.e.e.e.e.e.e.e.e.e.e.e.e.e.e.e.e.y.u.u.i.y.w.a.a.a.a.a.a.a.a.a.a.a.a.a.a.a.a.a.a.a.a.a.a.h.h.h.h.h.f.h.h.f.h.f.h.h.h.h.h.h.f.f.h.h.h.h.h.h.f.a.a.a.a.b.%.$.z.h.h.f.f.a.a.a.a.a.a.a.a.a.u.u.u.u.u.i.i.u.u.u.u.i.u.u.u.u.y.y.y.e.e.e.e.e.e.e.e.e.y.y.y.u.u.u.u.y.e.e.e.y.y.e.e.e.e.e.e.e.e.e.e.e.e.e.e.y.y.y.e.w.w.w.w.w.q.q.%.%.%.%.%.%.%.%.%.$.$.$.$.[ -.%.%.%.%.%.-.$.$.} } } [ } [ } } } [ [ } } } } } } } } [ ] ] ] ] ] ] ] ] Q ( S S A S u u u z u . w C C C V ",
"C C C C N # ; u u u u A A V V & V Q S Q Q Q _ _ ] _ ] Q ] ] ] ] ( V S A A A A A A A D D A S Q A C C V A ] & 2 t g S t z V C A A A A A A A A A A A Q ] ] Q Q ( ] ] ( Q Q ] ] ] ] ] ] ] [ ] ] ] ] [ [ ] ] ] ] ] ] [ [ [ [ [ [ [ [ [ [ [ ] ] ( ] ] ] ( ( ( ] ] Q Q Q Q Q Q ( ( ( ( ( Q Q Q Q ( ( ( ( ( ] [ ( ( ( ( ( ( Q Z x / / / x x C C Q Q Q Q Q Q / x j d j g g d 7 4 a i 3 3 i k h h k 3 a h C E E / Q ) ] ] ( Q ( ] ] ( ] [ } { V.V C Q Q Q Q C C Q ] [ } } { | | { } | | %.%.%.| { | %.$.$.%.%.%.%.| { { | | $.| | { { { { | | | { | { [ [ [ { { { [ [ [ [ [ ] ] ] [ [ [ ] [ } { } ] ] ] ] ] Q A A C Z C C C C C C V V V V V V C Z Z A A A A A Q A A A A A A A A A A S A A [ } } } } [ ] ] ] ] ] ] ] ] _ ] A > S A Q A 0 u g u w   u C V V ",
"A C C V # 0 u t u w V Q V & [ Q A Q Q Q ] ] _ _ ] ] Q ] ] ] [ ] D M.b.j.z.x.z.z.c.c.c.c.c.M.V.V.M.b.M.b.b.M.K.L.P.M.R.I.b.V.K.K.I.K.V.K.V.V.V.b.b.V.K.V.V.M.V.K.K.I.V.V.K.K.K.V.b.M.V.M.V.V.M.V.K.K.K.V.b.M.b.b.K.V.V.K.K.K.I.K.K.K.I.L.L.L.P.L.U.U.P.P.P.L.I.I.I.L.P.L.P.P.P.U.U.W.W.W.W.E.E.E.E._.E.W.E.W.W.W.E.E.E..X.XoXoX*X*XoXoX*X*X*X*X*X*X*X&X*X*X*X*X&X&X&X&X&X&X&X=X&X&X&X&X&X&X*X*X&X&X&X&X*X*X&X%X%X%X%X%X#X#X#XOXOX.X'..XE.W.E._.}.}.E.E..X.X.XOX.X.X.X.X.X.XE..X'..X.X.X_.E.Q.P.R.W.W.W.Q.U.U.P.L.I.I.P.P.P.R.U.U.W.W._..X_.}._.E.E.E.W.E.E.W.W.R.R.R.U.U.P.K.P.P.P.U.U.P.P.P.U.U.U.U.P.P.L.P.L.L.K.V.V.K.K.K.K.K.M.b.b.b.b.M.b.b.M.b.M.b.b.n.x.x.x.b.b.n.x.z.x.x.b ] } [ [ ] [ [ [ [ [ ] ] ] ] ] ] ] ] Q S Q A 0 u u u q   u A Z ",
"A A C ; 0 u u u u V A A Q Q ] Q Q Q Q ] ] ] ] ] ] ] _ ] ] ] ] V ] $._ _ [ } } $.%.%.%.%.%.w.e.u.i.i.i.i.i.f.c.b.c.f.'.K.z.z.z.x.x.z.h.h.z.h.h.f.a.a.a.f.f.f.f.f.h.h.h.h.h.h.h.h.h.f.h.f.h.h.f.f.a.i.u.w.w.w.w.y.i.i.i.a.a.i.i.i.f.h.z.z.j.h.h.h.h.h.h.h.z.z.z.z.z.z.x.x.x.c.c.b.M.K.K.K.K.I.I.P.P.P.I.I.I.P.P.P.P.P.P.R.Q.W.E.'.'.'.E.E.E.'.'.'.'..XXXoXoX#X#X%X%X%X%X%X&X&X4X6X4X&X&X%X&X&X&X%X%X%X%X%XoXXXXX$X$XXXXX'.'.XXXX'.W.R.P.P.R.R.R.R.U.P.I.I.K.K.K.b.c.b.c.c.z.u.w.$.#.} ] S A C Q ] Q A A C Q Q Q Q Q Q [ } ] ] Q _ ] ] } $.%.5.=.=.w.w.y.y.i.u.u.u.i.i.y.y.w.y.i.i.i.i.u.u.u.u.u.i.i.f.h.h.h.h.h.h.a.i.u.u.i.i.a.i.i.a.a.a.a.f.f.f.z.z.f.f.a.u.e.w.e.y.y.w.%.| %.a.W g Q [ ] ] ] ] ] } [ [ ] ] ] ] ] ] ] ] Q ] ] A 0 u u u > . A ( ",
"A A 0 0 u u u u V A A A A Q Q Q Q Q ] ] ] ] ] ] Q _ ] ] _ ] V V > + 0 t 0 t u u V V D A A S ( ] [ { [ Q Q [ $.%.w.w./ Q Q S S S A S ( ] [ [ [ | [ [ [ } | | } [ [ | q.q.%.%.| | { [ [ [ { | | [ ] Q A V V Z A S [ | | } [ ] ] [ 4.u.u.e.q.$.] Q Q Q ] ] [ [ } $.%.| } } } %.4.w.w.w.w.e.w.e.w.w.y.u.y.e.w.u.i.i.i.i.y.i.a.a.a.a.i.a.a.s.y.y.i.a.s.y.w.w.y.s.a.a.i.y.w.y.y.y.y.z.x.f.s.y.y.a.a.a.s.s.s.i.w.%.%.e.i.a.i.y.e.u.a.i.e.w.5.=.w.%.%.%.$.| $.%.%.%.$.| %.q.w.w.w.q.%.} [ ] [ [ [ [ } %.%.} Q A A Q ] ] [ [ [ { ] A C V V C S ] ] [ { | | | [ [ { [ [ [ [ [ [ [ ] ] [ } } ] ] Q ] ] ( S S ] q.e.w.q.q.%.%.| ] S S S S S Q Q Q ] ] ] ] ] } %.| { [ ] S S A A C V u u 2 . u C u A ] Q _ Q ] ] ] Q ] ] ] ] ] ] ] ] ] ] ] ] V 0 g u u > > #.",
"Q u 0 u u u 0 V S A A S Q Q Q S Q _ ] ] ] ] ] ] A S ] ] ] g u u b b u 0 > > > > > q w w w w e e l l e u e u N V V V V N e e e e e e e u N N N N u v u u V V N v u V D V D V V V V N V N V V V V v u e u u e u u V V V V V V N N A _ Q S A V V V V V V V V V V V V V V V V V V V V V V V V V V V V C C V V A A S Q Q S S S Q Q Q Q Q Q S S S S Q S S S S _ ] ] ] ] S S S _ _ ] ] ] [ [ ] ] ] ] ] _ _ _ _ S S A S Q Q S S S S Q Q _ Q S S S A A A A A V A A D D D A S S S _ S S A D C A A A A S _ _ A V V V V V V V V A A D V u e u l N V V D D D V V V V V V V N V V V N u e u N N v e e u N l e w u V D V V V V N N e e w w w w w w w e e u u u e N N v e e e e w e w q w b C C u g C q Q ] _ ] ] ] ] ] ] ] ] ] ] ] ] ] ] ] ] Q Q V 0 V V V q q ",
"g 0 u u g 0 u A A A S A S Q Q Q Q Q Q ] ] ] ] ] ] ] ] ] V t g Q C &                                                                                                                                                                                                             .       . X . X X @ # # # # # # # @ @ X . .           . . .                                                 . X . . . . .           @ + . . + .         .                                                                                                                                                                                                                                   . u Q V C A 0 Q ] ] ] ] ] ] ] ] ] ] _ ] ] ] ] Q Q Q A Q V u V z V q ",
"& u u g 0 b A V A A S S Q Q Q Q Q ] ] ] ] ] ] ] ] Q ] C t g @.^ &   . . @ @ @ # # # # & 0 0 0 0 0 0 t t u u t t t t u u u V V V C C C C C C A S A V V V V V C A S A A C V V b V V V C C A C C V V V C V V V C C V V z u u C C A A A A Q Q Q A A Q Q ] ] ] [ } { | [ [ } } } #.#.$.$.$.$.$.$.$.$.} $.%.5.w.4.4.%.$.%.%.%.%.$.$.%.%.%.%.%.$.%.%.%.$.%.%.%.$.$.$.$.$.| | %.%.w.w.w.w.w.%.w.w.e.y.i.i.a.a.a.e.%.| $.| } %.$.-.%.%.$.} } } } ] ] Q ] } } } ] Q ] ] ] ] ] ] ] _ Q Q Q Q Q ] ] ] } $.} } ] Q Q Q A C A A Q Q Q Q V u V C C C C A A C V V g g g u g x V V z g g g g C V V V V C V g V V C C C C C C C C V V u u u t u u u u g z g u t t t 0 0 0 0 0 ; & % % # * @ . .   g _ V b g > Q ] ] ] ] [ ] ] _ Q ] ] ] ] Q Q Q Q S S Q V 0 V b g ",
"u u g t V S C A A S S Q Q Q ] ( ] A V A ] ] ] ] ] ] A u 0 @.:.u       % & * @ & X .   X X X # # @ X @ * @ @ # # # # # & > > > q q q q q q 0 w u w > > > > > q w e e w w > > q 0 q q w w u w w w q w w q q q q q q q > & & q 0 w w w e V N e q w u w u e e u N N N e e v v v v v V V V N v v N V u v V V A V V V V V V V V V V A A V V V V A V V V V V V V N u u V V v V V A A S A V V C A A A S Q ] ] ] A N N V v N V V V V V V N V N u u e e u N V N e e u N u u u u u u u w u u u N N V V A A V u w u e u u w w u u u u > & q w w u u u u e u 0 0 0 0 > > q 0 w q > > > 0 u w 0 0 0 w 0 q > 0 q q q q q q q w q q & & & & = = = > > q q & # # @ @ # # # # X X X @ % 2 % @ X .   V } Q V t u ] ] ] ] [ ] [ ] 0 V Q _ ] Q Q Q Q S S S ( u 0 V u ",
"g g u b Q A A A S Q Q Q Q ] ( ] ] Q v S [ [ [ Q [ Q u g =.p./     0 Z & *   # X         . * @ @ @ @ # # & > . . & 0 0 & @ @ # # & @ . & = > X     & > 0 > # = u u g 0 & 0 ; > q 0 0 q > q     & u t u = @ & = & # % & > > 0 > & q q u u # 0 u t u t & 0 u g u 0 & 0 0 > > & % & * = = & 0 0 0 u 0 0 u u u b u q w u u w 0 u V C V 0 6 u x V 0 % 6 & & * @ & u u g V e 0 u u C C V C V V g u t 0 0 0 u 0 & 0 > # & & 0 0 u g 0 0 0 0 u 6 # 0 0 8 t t 8 t 0 t t t 0 u u V z & q 0 0 0 0 % 0 0 u t # & & % t u > u u g u X X 0 # & > & u u u u 0 # 0 0 q u u u u 0 t t & u u 0 u V g g u t V g 0 0 = & = # & 0 8 0 q @ % > 0 0 0 q w 0 u 0 & & 0 0 & #   X # # X . .     @ # * # X .   Q w.#.C t u ] } } [ ] ] } A @ Q ] ] ( Q Q Q Q Q Q Q ] u u g ",
"g u u S A A S S Q Q Q Q Q Q ] ] ] } #.#.} } } [ A u C k.v.`     w } { u V F D q & 0 u f u V W C C C C Q Q Q Z A } $.-.#.} #.-.$.-.[ ( ] ] ] Q Q ( } -.} ] Q #.=.5.=.-.@.#.$.$.$.$.$.} [ ] Q Q w.s.i.y.[ Q [ #.} [ ] ] } #.#.} } %.=.=.-.-.=.=.=.=.=.=.y.y.y.w.-.#.-.-.-.#.} } #.@.=.=.-.=.=.=.=.-.-.=.=.*.%.} [ -.-.#.-.-.=.5.w.=.#.-.=.8.*.[ ^ ^ ^ Q C u u A ] Q ) #.*.=.=.=.=.=.-.y.y.5.=.*.*.@.@.=.=.*.@.#.] -.=.=.=.=.=.=.8.p.p.:.=.*.*.*.-.=.=.=.*.=.=.*.y.y.s.s.s.y.w.y.y.w.[ [ #.=.=.=.=.-.#.#.*.=.=.=.s.s.s.y.-.-.=.=.-.=.=.w.y.w.=.-.=.y.y.y.y.y.y.=.=.=.y.p.p.y.y.y.y.y.p.y.y.y.y.w.=.-.-.} [ =.@.[ [ Q E #.-.Q ^ [ [ [ [ Q / W W ^ ^ A V V C C C u 0 w u V N ; % 0 % @ .   Q y.=.h % t [ #.} ] ] ] [ _ _ ] ] ( Q Q Q Q Q Q Q Q Q u u ",
"g u S S Q Q Q Q Q Q Q Q ( ] ] ] ] ] [ } } [ } A w w 8.F.@.  o t ] Q = ( q.S V A C V u u l > w u u q 0 V V l u u V V z l V V V V l l z z l u e u z V Z V u u V V V V V V V V V V V V V l e e u V A Z V u u g z l u u u g u u w u u V V z z V V V V z V V C C V u u V V l u u u V z z z V V z g u u u z z z u u u V g u u u V V V z u u V C V u u u g u u q = u l 0 = 0 g V V V z g V A C z g V V z g h g g z g u z A C C V V V C Z Q A C V C C V V V V C C V V z V A Z Z V V C C C u u V V V V V z V V z l t V A A Z V V V z g g z V V V V V V V C Z Z C V V V V C V C C C Z C C Z Z Z C C V V C z u w u V z u u 0 0 g u 0 u u u u u u w u u u u 0 > u u w u u z A S A S [ l * 0 t %     [ s.*.u & V #.} } [ ] ] ] ] ] ] ] ] Q Q Q Q Q Q Q Q S u ",
"u A Q Q ] _ Q ] Q Q Q ] ] ] ] ] ] ] } [ ] } Q u V p.v.@.  . u } Q @ [ 2.Q V V u & .               .             X               X . . .                 X                     X     .                             . .     . . .                                       . . .   .                 .           . .     X .                     X . .   . . X X .   X # X .                     . .             . X X                                                                 X X   .           . . X X .                   X                     .       o #           e ,                   . .         . X X     .                     O X X .     . . o w A ( A [ a.u   C h &     [ y.@.u 0 C } } } ] [ [ [ ] ] ] ] ] Q Q Q Q Q Q Q Q Q ",
"C A Q ] ] ] _ Q ( ( ] ] ] ] ] ] ] } } [ [ Q u u k.F.*.    0 y.#.> u.y.Q ] w     . X o o o o o o o # X > # # # o & & & # # # # # # # # # # # # # # # & # # # # # 0 = # & # # # # # # # # # # # # & # # # # # # & # # = # # # # # # & & # # # # # # # # # # & # # # & # # # # # # & # # # # # # # # # # #   @ # # & & # # # & # # # # # # & # = # # # # = # > & # # # # # # @ # # # & & # # & # # # = w # # = > # # & # & # # # # q = # # # & # # # & # & & # # # # # & # # # # # # & # & # # # # # & & & # # & & & # # # & # & # # # # # # 0 > X # & # @ # # # o X # # # #   N e . & # & # # # & # # # # # # # # o # # # # # # # # # w # # X > > X # # # q # o X     # e A w.z.N + ^ C &     @.s.@.g 0 C #.} } [ ] [ ] ] ] ] ] ] ( Q Q Q Q Q Q Q ",
"A A Q ] ] ] ] _ ( ( ] ] ] ] [ } [ [ } } ] t u =.F.p.    0 a.y.V w.s.[ V . X # o X X X X X X o X . X X > o o o o X o o o o o # & # # # # o o X X X o # o o o o X # # # X o o # o @ # # # # # # # & X # o o o # # & # - o # # # # # # # # o o # # o # # # # # # o # # # # # # # # # o o o o o # # X w = . V > X # # & # # # # # # # # # # & # # # o # o = # > & # # # # # # > # # @ # # # # # # # # # # # # # & # # # # # X > - X # # o # # X = > # # # # # # # # @ # # # # # # # & # # # # # # # # # # # # # # # # # # # # o # # # # o o X & # # & X # l   . X X o X & o X #     o # o # o # X # o o # # o X o o # o o o o X # # o o w X X X & & X o X # # X o X # # X . - Q h.i.: u [ A &     =.m.=.u 0 Q $.} } } ] ] ] ] ] ] ] Q Q Q Q Q Q Q Q ",
"A A _ ] ] _ ] ] ] ] ] ] ] [ } } } } -.} V V y.F.p.+   0 x.a.Q w.2./ q   o # o X # o X X X X X o - X X . o o # o o X X # # o # # o # # # o X X o X o o # o X # # X # X o o # o X @ X o # # # o o # q # # # # # # e & X # # # o o # o o o # o # X # # # # # X o # # # # # # o o # o o # # o X X o @ # #   F q . # o X o # @ # # # # # # # # # # = = X # X X . X # # # # # @ q o X X X o # # X # # # o & # # o o # # # # # # # # @ X X @ # # # # o   # # # # # # & & # # # # # # # # # # # # # # # X X X # # # # # # @ # # o X X o # # o #   V N   # X # w e > . X X X @ X X o # X X # X # # X X X X X X X # o X o o o o o X X # & X o   # X X X X o X X X # X X # X X # # X   ] a.c.N V $.Q 0   # p.v.*.h u ] $.} } [ ] ] ] ] ] ] Q Q Q Q Q Q Q Q ",
"Q Q ] ] ] ] ] ] ] ] ] ] ] [ [ [ [ } [ b t s.T.p.#   + z.z.h e.y.Q >   # o X X X X X X X X X . & > . o o o o # o X o X X # o o # o o # # o X X X o # o # # X o # X # o o o # # # # o o o o o # o # > # # # # # # # # = # # o o o # o # o # # # # # X X X # # X # # # # # # o o # # # # # o # # # # X o #   . # # o # # # # # o o # # > # # # @ # q # X # # o # # # # X X # . # # X # # # @ # X X # o > # # # # # # # # # # # 0 # X # # # # # X & S @ # # # # # - & # # # # # # & # # # # # # # # # X o # # # & # # @ @ # # X X # X X # #   V N   # X >   > & . X X X X X o X # X X X # # . > > . o X X X X o X X X o o X > # X X o X # > X o o o # # o X # o X X @ X o @ # #   Q a.f.q V =.Q &   6 k.F.*.t t Q } } [ ] ] ] ] ] ] ] Q Q Q Q Q Q Q ",
"_ V ] ] ] ] ] ] ] ] ] ] [ ] ] ] [ ] u 0 ] v.k.u     s.x.h 1.a.[ 0   # X X X X X X X X o X X X X . o o o o o X X o X o X X X o X # # # o o X o o o # o # X X X X X X X # o X X X X X # o o o # # # . # X # # # # # # > # o o o o o o # # # # # o # X X X o X # @ # # # # # # # X X # # # X X X # @ # o X & & X # o o # # # # # # # # @ # # # # X e = # # X o o o # X ; w . o & & X # o # # # & # o # @ # # # # # # # # # # & # @ o o # # # # @ # N @ # # # # # # # # # # # # # # # # # # # # # # X X # # o # # # # # # # X X @ X X X X X #     # X X o #   . X X X X X X # & @ & # & X o X X o X o o X X X . & & X o o X & # X o X o # X X X X X X X o X X o # # # # # # # # &   Q s.h.N C -.C &   r k.v.@.r u ] } [ ] ] ] ] ] ] _ _ ( Q Q ] V u ",
"] A ] ] ] ] ] ] ] ] ] ] ] [ ] [ [ b u #.k.:.&   6 w.a.V w.a.-.u   # X o X X X X X X X X X X X X o o X o o o o o o o X X X X o & # o o o X o o o o # # # X X X o X X # # X o # # # o # o # # # # # # o o # # # #   o X # # o # # # X o o # # o # # X X X # # # @ @ # # # # # o o X o X # X & 0 X # # o o # # X # o # # # # # # & & # # # # # # # X X & ; @ # # # # X & > . o X @ # # # @ # # & # # # & # # # # # # # # # @ 0 & @ # # # # # # # # @ # # # # & # # # # # # o # # # # # # & # # # # @ X # # # # # # # # # o o # # # @ X @ # o # # @ o X o # X X X X X X # X # > X # X X # X # # # # # X X X X X # # X o X # X X o o o X o o o X o o o X X X X o o # X o # # # X # #   C h.L.# V *.E 2   6 s.m.[ 0 h ] } [ ] ] ] ] ] ] ] _ ] ] ] _ Q ",
"] ] Q ] ] ] ] ] ] ] ] ] [ [ [ [ C u *.F.k.2   % 5.z.C u.b.-.0 . & o o X X X X X X o X o o X X X o o o o # # o o o X & o X o o & # # o o # # o o o o # o X X o X # # @ # @ o o o # # # # # o # # o # o # . X & # w # X o # # # # # # # # # # # # # # X # # # o # # # = # # # # # # # o # # # & X # # o X X # # @ # # # # # # # > # # # & # # # # # # @ # # o # o # # X X # o # # # # @ q = # # # # # # # # # # # # # # # # X # # o # o & # # # & # o # # # & # # # o # # # # # # # # # # # # # # # # # # # # # # # & & # # # # # # X @ # o # # # X X o @ X X X X # X X X X X o o X X # # # # @ # # # X X X X X X X X # > X o X o o o o o # o X X o X X o X X X X X o # X o # o # #   x b.z.  Q =.C *   6 s.v./ u g [ } [ [ [ ] ] ] ] ] ] ] ] Q Z ",
"_ Q V ] ] ] ] ] ] ] ] ] [ [ | A t #.F.F.C   + [ z.Q e.K.p.t   & # # # # X X X o X X X X o X X o X o o o # # o o o X = & o o o X # & X # # # o o X o & X o o o o # & X # X X X X X o # # # o # # o # # @ u # #   } S * # o # o o o & # # # # # & # # # X # # # # o # # # # # # # # & & # # # X # # # X w & # # & # # # # # # # @ # @ @ @ # # # # # @ # # & # # # # o # # X # # # # # # & # @ @ & # o # # # # # # # @ # # # # # # # # # # # # # X # # # # # # # # & # @ # # # # # # # # # # # # # # # # X o # # # # # # # X o # X X # X X # @ # X # # # & X X X X X X X X X o X X X X X o # X X X X X X X X # X X X X # X o X X X X o # # o # X X X X X X # X X X X X o X X X X . X #   Q k.w.> [ #.u .   u v.F.^ 0 V } } [ [ [ ] ] ] ] ] ] ] Q S ",
"Q Q _ ] ] ] ] ] ] ] ] [ [ } ( g ^ F.F.Q   * [ a.[ 2.b.p.u   & o o # o o X X X o o X X X X > o X o o o # # # o # o # # X # o o o o X o # # X X X X X # X o o o X X # # . X X X X X # # # # X # # o # # @ q # @ #   = # & X # # o o # # # o # .   & # X o # # o # o # # # # & > # # # # # # # # # @ # # & # # # # # # # # # # # # # # @ # # # # # # & # # # # # # # # # # # # @ # # # # @ @ # # # & X # # # # # # # # # # # # # # # # # # # @ # > X # # & 0 & # # # & > # # # # # # # # # & # # # # # # # # o # o # # o & & @ # # X # # X # # @ X # # o X # # o X o X X o o o o # X # # X # # # X X X X X X @ X X X o X # o o X o o X # @ X # # X X o X X X X X X X X o X X X X # X X #   ] n.h.N Q #.f .   Z H.F.W f C } } } } [ ] ] ] ] ] ] ] _ ",
"Q Q Q Q ] ] ] ] ] ] ] ] { ] u C v.F.)   + } a.Q $.F.k./   & # # o > # o o X o o o X o X X X X X o o o o # # # o # # # X o o # # # # X o o o X o o @ # # & X o o o X   0 # X @ X X X # % & # & o # & & & . & @ # # X # # o # # # o # # # #   u _   X q # # @ # # # # # & # > ; & # # # # # # # # # @ # # # # # # # # # # # # # # # # @ # # # # # # # # # # # & & # # # # # # # # # # # # # # # & # # # # # # # # # # # # # # # # # # # # @ # = # # #   g u # # # # # > & X e e . # # # # # # # # # @ @ # # # # # # # o # # # # # # # # @ X @ @ # # o o # # = & X # o X o o o X X X o X X X # @ X @ X X X o > X X . X o o o o X o o o o & # X X X X X X @ X X X X X X X X X X & X X X # #   Q n.h.# / =.t .   @.K.k.h t Z } } } [ ] [ [ ] ] ] ] ] ",
"Q Q Q Q ] ] ] ] ] ] ] [ ] g t k.F.#.  % ) a.Q V n.k.Q   # o o o o o # # X X # # X X X # X . X X o > X # # # # # & # # o o o # # # # o o o o # # # # o # # # o o X & } = # X @ X # @ # @ # # # o & > X # # q # # # # # # X # # # # # X # # X w V S N . # @ # # # # # # & & # # & # # # # # # # # & # # # # # # # # # # # # # # # # # # # # # # & & X # # # # & & # # # # # # # # # # & # # # # # # # # & @ # # # # # # # # # # # # # & # . N {   & # & * * & # & # # # # # # & # # # # # # # # # # 0 0 @ # # # # # # # @ # # # # # @ # # @ @ @ # # # # # # # # # # # # # # # & X @ # X X @ @ @ # @ X # X o #   u D > # # # o o o o o X = # X X X X X X X X X X X X X o # X # 0 . X X X X &   Q n.b.  Q [ 2     -.b.y.u 0 A } [ } [ [ [ [ ] ] ] ] ",
"Q _ ] ] ] ] ] ] ] ] ] ] V 0 y.F.*.  8 ^ y.Z %.F.k./   - o o o o o o # & # o # # o o X # X . X X O     # # # & = & # # # # X # # # # # # o o # # # @ o o X # # . X # S . @ X X X X X & 0 # # # # o X o # # X # # & # # # # # o # # # # o # & X   = 0 X @ @ # # @ # # # # # # # # # # # # # # @ # # # # # # # # # # # # % # # # # # # # # # # @ > & # # # # # & # # # # # # & # # # # # # # # # # # # > 0 > @ # # # # & & # # 0 & @ # # # # # & # # & X u 0 # & & & # # # # # # & & # # # # # # # # & & # # # # # # # # # # # # # # > X @ @ @ # # # # # o # # # # o o # o # # & @ # # # # # # # # X X X X @ # @ # & # # & # # # # o o # = o X # X X # @ X X X X X X # o # @ X # # X o & X # #   Q I.n.  Q ` %     =.n.-.2 u ] } } [ [ [ [ ] ] ] ] ",
"Q Q A ] ] ] ] ] ] ] ] V y =.F.s.  # C p.Q A T.T.C   & # # # o o o X X X # X X X X X # X X X . . 2 k.u   # @ # h d @ # X X X # # # # # o # # # # # # o # # X & e X >   X & & X o X X & ; # # # # # o o # # # # # # # # # # # # # # # # # # # # # X @ # @ # # # @ @ # # # # # # # # # # # # # & #   # # & # # # # # # # # # # # # # # # # # # # q # @ & & # # # # # # # # # & # # # & # # # # # & # & # q 0 @ # # # # & & # # # & & @ # # &   %.|   >   W A   & # # # # # # # # # & # # # # & # # # # # # # # # # # # # # # # # # # q & @ # # # X o # # # # o # o # o X # # o @ # # # o # # X # # X X @ # o # # # @ # # X o # # # o X & e   # X X X @ X X X X X X X o # # # . t & . X # X X o &   ^ I.f.  *.@.. X @ y.n.$.0 V [ | | [ A [ [ ] ] ] ",
"Q C w ] ] ] ] ] ] Q u 2 [ F.m.2 X h y.=.Q n.T.%.  - o & o o # o o o X X X X X o o X & & # # X   4 H.V   # >   H.$X  > X X X # # # # # o o # # # # # # o o o # & @ u & X # & & o # # # X # # # o o o o # # # # # # # # # # # # # # o # @ # # # # X # & # # @ @ @ @ @ # # # # # # # # # # # % % > Q > 0 # & 0 # # # # # # # # & # # # # # # & - X q > & & # # # # # # # & & @ # @ # # % # = = #   @ & # X @ # # & # # # # @ # # & & @ # # # # = > # @ # . * & # # & & # # & & # # # & & & # # & # # # # # # # # # # # # # . X o # X & # # # # # # o # # # # o # X X # X # # X # # @ o # # # # X X @ X X X # # # o # o # X X # # X o # . > u . # # # X # # # # X X X X @ X X X   . X X X X # # & #   [ F.w.$ w.C +   0 z.K.[ u A %.$.| [ [ [ ] ] ] ",
"Q Q Q ] ] ] ] ] Q } g   ] p.f   g %.i.C b.F.n.  = , . N & X o o o o X X X X X X o o o X X X X X .   . & @ #   C &.. # X X X # o # # # # # # # # X # # X X # X X @ X # @ @ & > X # X X # # # # # o # # # # # # # # # # # # X # # # # # # # X # 0 0 & @ # # @ # # @ X # # # # # # # # # # # # X & u . & & # # # # & # & # # # & # # # # # # & & X > > # 0 @ # # # # # & & & # # # # # # & > >   D w   @ # # # # # & # # # Q & @ # # # # # # # # @ # # # & & & % # @ # & & & % # # # # & & # # # # # # # # # # # & > # & @ w # # # # & # # # # @ q & @ # # X # # o o X X @ X # # # # # # # # # X   @ X # # # # # # # X # # # # X o # #   0 V   # @ # # # # # X X X X X X X X X X X X X # # o o # # #   %.b.] ] i.t @   A z.%.. V %.%.| [ [ [ ] ] ] ",
"Q Q Q ] ] ] ] ( Q $.u p.*.+   0 C w.Z w.H.F.V   & & o X o o # # o X X X X . X o o o X X X # # X X > # & # X #     # # # X # # # # # # # # # @ @ # # # # X X X # # # X # # # # # X # # # = # & # # # # # # # # # # # # # # @ u #.  & # # @ @ @ # # # X X # # # % # @ # # # # # # # # # # # & # # . # # # @ & & # # # # @ @ = # & @ @ # # & # # # @ @ # # # # # & # & # # # # # # # # & # # # @ e > q > @ # # > # # # # . q =   { V . # # # # # & # # & & & # & @ q = @ & & * # & # # # # > # # # # & & # # # # # > > # @ w # @ # # X # # # & # # # # # # # # # o o o # @ # # .   # # # # @ X # u @ X X X # # # # # @ X # @ X X X # # # X   # # # # # # . # # # X o X # # X X X X X X X X X o # # #   l y.z.0 h g   .   % y.n.) %.$.| [ ] ] ] [ ] ",
"Q Q Q ] ] ] V Q Q } 6 ^.^.@   # Q Q C Q.T.i.  > o # # o X # # o # o o X X . X o # o o X X # # X X @ # # @ # # # & # # # # # # # # # # # # # # # @ # X > # X X # X # # # # # # # & # # =     & # & # # # # # # # # # # # # & & # # # # @ # # # # # @ 0 & X # @ # # # # # # # # # % % # # > & # # # # # # # # & # # > . A V . & & 0 t & & & 0 # # & # & # # & & % & # # & # # # # # # # # # & # * @ V q @ # # # # # # # u @ & 0 = & & # & & # # & # & & # & & # @ u 0 @ & & # # # # & # # V @ # & # # & & # # # # # # & # X > # # # # # # # # # # # X # # # # # # # o # # #   u Q   # # @ @ @ @ _ & X # X # # @ & # & & X @ X o # @ # # # # # #   # # & w & # # # o X # # X X X X X X X X # X o # o #   ] s.=.  *   0   Q ~.!.h $.$.| ] ] ] A A ] ",
"Q Q _ ] ] ] * u _ } 6 ~.~.u + x { u ^ F.Q.w   # # # o X X o o X X X X o . X X X # # X o o X # X # @ X # # # # X # # # # # # # & # # # # # # # # # # # # & # # # # o # # # # # & # & q   %.V   # # # # @ # # # # # # # # # # > @ # # # @ # @ # & # # > 0 # # # # # # # # & & & # % # # # # & # # # # # # # # # # &     0 # 0 & 0 t u & 0 2 0 & & > # # # # # # & & # # & # # & # # # # # # # # & = + * & # # # # # # & V & # 0 > & & # # & # 0 & % # # # & & & & @ 0 & # # & & & # & @ # # # # & # # # & # # # # # # # # # > # # # # # # # # # # # # @ # # # # # # # # # # # > u X # # @ # @ #   . # # # # # # # # # # # X # o X q > X # # o % O.0   w D   # # X o # X X X X X o o X # X # X # # X #   w =.=.+ & A Z   :.,X!.r $.%.A & A ] Q S ] ",
"S Q Q ] [ } ] %.] } 0 ~.~.  / k.h.0 @.*.y.  & # # o X X X X X X X X X X X . X X @ X X o o # # X # # # # # # @ # # # # # # @ @ # # X X X X X X # # # # X & & @ # # # # # # # # & # X ,   E.s.  = & # # # # # # # # # # # # # # # X # & # # # # & # # @ & & # 0 > @ # # # # # # # & # # # # # # # # # # # & # # >   p.s.  > # # @ X # & # & # & # # & # # # & # & & # # # # # % % # & & # # & & = & & # & & 0 * & & & & . # # & & # & # # # # & % # # # # & & & & & & & & # # & & # # 0 & + # # # # # # q & # # # & # # # # @ # # # # # # # # # # # # @ @ # # # # # # # # # & @ . # # # # @ #   @.u . # @ # # # # # # # # X # X # # # # # o & & E 0 # X   # X X o X X X X X X X X X X X o o # # # o # o . [ m.u.  [ Q t y.<X!.$ $.%.q.l ( ] ] ] ] ",
"S S Q ] ] [ } } [ | h 2X,X  %.(.S.Q n.k.(   # # o o o X X X X X X X X X X . X X @ X X X X X # # o # # # X # # # X # # & X # X X X # # X # # # # # # # # # # # # # # # o # # # & # # X = + $ & @ # # # @ # # # # # # # # # # # # & # & # # # # # # # # & & # @ # # & & % # % & # # # % & & # # & # # # # # # # & + W ^   & & # & # # @ # # & & # # # # # # # & & # # # % # # % & # & & & & 0 & # & # # # . u V @ & # # # & # # # # & & # # # # # # # & # & & & & + & = & & # # # # # t t V & # # & & # > & @ # & # # # # # # # # # & # & # # # # # & # 0 # # # # # # # # # # # # # # # # # #   ` u   # # # # # # # # # @ @ # # X X # # # & & #   X # # # @ # X X # o X X X X o X X o X o X o X X o X #   ) T..X+ %.#.0 y.1X!.$ %.{ e.| [ ] ] ] ] ",
"S Q A Q ] [ [ ] [ | C 2X1X@ ) &Xj.s.!.F.u . # o o o X o X X X X X X X X X X X X X X X # # # # # X # o # # X X # o @ #     & # o @ # # # # X # # # # # # # # # # # # # # # # # & & . q h # & # & & # & # # # # & # # # # # # # # & # # @ # # & # # & # & & & # # # & 0 % % # # # & = # # # # # & # # & & # # & 0 &     & # # # & % % & # & .   # @ # # # @ u u 0 & # # # & & & & # & & & & & & # # # # & + V _   & & > # 0 & # # & & & & # & # # # # & & # & & # u q = & # @ # & & @ u V & & # # # # # # # # # & & # # # # # # # # # #   # # # & # # # & # # # # # # # # # # # # # # # # # # #   X # # # # # # o # # . & # @ # # # X # # # # # # # # @ # # X X o     o X X X # o X o o o X X o X . X &   [ T.%X] %.=.  s.1X!.+ $.{ ] [ ] ] ] ] ] ",
"Q Q A Q [ [ [ [ [ { C 2X1Xq 3 6XC.K.6XT.  - o o X o # o X X X X X X X X X X X X # X #     # # X # # o X # # X # X #   F D   # # # # # # @ # # # o X # # # # & # # # # # # @ @ @ X & = > @ # # & & # # & # & # & # @ # & # # & & # # # # # # # # & & & & # # # # & # # # # # # & & # # # # # # # # # # # # & & & & & 0 & > & # # & % # # . V V t u X & & & = & + & # # # % & & & & & & & & & # & & # # & & @ . & & & & & & & & # & & & % % & & & & % & & & & & + ] V @ 0 & 0 & & & & # @ #   . & # # # & & # # & & # # % & # # & # # # C & # # # # # # # # # # # # # # # # # # # # # # # # # @ # # # # X # # # # o # 0 # = X # # # # & & # # # # # # # # X # >   V q   X o o X o # X @ X X X X X X X -   ( ~.,Xq { 2.  s.1X~.  $.[ [ [ [ ] ] ] ] ",
"Q Q A Q ] ] [ [ } $.C 1X1Xe 1 7XC.Q.9XI.  > # X X X # # o X o X # X X o X X @ X X &   5.s.  & # o # o # # @ @ @ X -   g.q.  & # # @ # # # # & # # = @ # # # # # # # # # X u u X > > # @ # # # # # # # # # & ; & # & # # & # & # # & & # & # & & & # # % # # # & & # & & & # # & & # & # # & & # # & # # & & # = & # = = & & # ; # & & >   _ $.  0 # & & 0 # 0 A * & # & & % & & & & & & & & & & & & % q 0 & > # & & > & # & & % & & & % % & & & # % % & & 0 & & + 0 & & 0 & & 0 # V t &   ` V   & # # # # # # # # # # # # & # # # # & w.0 @ # # # # # # # # # # # # # # # # % # # # # # # # # # # # q > X # # # # X 0 & % . . 0 0 & # # # # # # # # # # X q V   w & . o o # # X # X X X X X X X X # =   ] ,X<X: | 2.  s.wX!.  $.} [ [ [ ] ] ] [ ",
"Q Q A _ [ [ [ [ } $.C 1X1XN $ 8XC.T.<Xm.  > # X X X X # o # X X X X X X X X X X X X . 0 t X # # # X # # X X o # X # N     & @ # # @ # # # # # # # q # # # # # # # # # # # & & @ # & # # # # # # & # # > 0     0 r # # & & & & # # & # # & # 0 & # & # & # # # & & & & & & # & # # & & # # & & % # # > 2 & & & & & 0 & 0 & & & & % & 2 & 0 0   & & & & & # & > u & & & & & & # # # # & & & & & & # 0 & u u * 0 & & & & # # # & & # & & & & & & # & % & & & & & & & & 0 & 0 # # 0 & # & = + A u . > & & & # & & & & # # # # # # # # & &   # # # # # # # # # X t q @ # # # # # & # # # # # X X # # # # # & & # # # # X # . V >   > > X # # # # # # # X & # # X X & . . # # X # o o X > # X X X # X # # -   [ 2XeX] | w.  s.eX~.  $.{ [ [ ] [ [ ] [ ",
"Q Q A ] } } [ [ } $.h 1X1Xe $ 8XC.F.,Xm.  = X # X X X X # # @ X X X X X X X X X # > . X   # X > # # & u X # o #   u z.. & @ X @ # @ # # # # # . . X # # # # # # # # # & # @ @ # X # @ @ # # # # # # # &   9.k.  > & # # # # # # & # & # # # # # # & # & & # # # # & & & # & # & & # # # # & & 2 & # = & # 0 & # & & # & & & & & % # & + V Q * = 0 # & # # & & @ & & > 0 2 & & # # # & # & % = > & & & @ @ & & & & & & # 0 & & & & 0 & 0 & & # & % # & & & & & & & & % & # & # # # & # 0 C   @ & # # & & & & & & & # & # & > # # & # # = # & # # # # # # # & = # # # & & @ > & # # # # X q q X # # # # # = # # # X # 0 . u & X X . # # @ # # & # # # o # # & & @ # X o X X # o # # & # o o X X X X X &   ] 2XrX] %.y.  s.wX~.  %.$.} [ [ [ [ [ [ ",
"Q Q C Q } [ } [ } | j wXuXB 1 jXC.Q.9Xm.  > X X X X X o X # o X X X X # X X X X # # . & # X o @ # > X @ # # o # # X   X X # X X # # @ # # #   g u   # # & # # # # & # # # # # # @ # # # # # # # # # # 0   ^.R.  q # # # & # # # # # # & # @ & & & & # # # # & # # & & & # # & & # # & & & & # & # & & & & > & & # # & & & & 0 & # # % & % * # # u & 0 & # # & & & & & & & % & & & # % & * t 0 # & & % & & & & & & & & @ & & # @ & & & & & & # & & # # & & & 0 0 & & & & # # # # # & 2 & & ; # # # # & & 0 & & & # & & & & & # & & # # & # & # > & # # # X w V . & # # # & & # % # & & * q 0 @ # & # # # @ # X   > & . @ > X # @ # X & & . q q X # # @ # # & # # & X X # # # o o # # X = & X X X X X -   ] <X0X] %.y.  s.eX$X  %.$.#.} [ ] [ ] ] ",
"Q Q A Q [ [ } } } | r wXeXB 1 gXC.W.rXn.  V   o X X X X X X X X X X X # # X o o # # X X X o X # X # o > # o # # # # & X X # @ X # @ @ # # # X > > # # # # # # # # # # # # # # & # # # # # # # # & # & & >     > # # & # # # # & = & & X & u # & @ # > & # & & # > & & # # # & & 0 & & & & & 0 0 @ # % # & # # & % & & & & & & & & & & & % 0 & # u & & & & & & & & & & & % % % & & & & & & # # & % * & & & & & & & & * w u @ & t 0 = & @ & & & & & & # & 2 & & & & & & 0 & & & & # & & # & & & # # & 0 0 & # # & & & # & # 0 & & & # # & & & & # # # @ # # # @ # @ & & # & # & & * 0 8 # @ X # # @ # # # # X > q @ & # @ ] = . # # # # # X = 0 X # # X # & X X # # # & @ o X # o # # # X X X X X X X &   $.3XrX{ | y.  s.eX].  %.$.{ } } [ ] Q ] ",
"] _ Q ] [ [ } | | | r uXwXl 3 gXC.T.rXI.  > X X X X X X X X # X # o o X o o o o o o X # o # # # X X # & # # # # X & & # # @ # # # # # # # # # @ X # # # # # # # # # # & # & # # # # # # # # # # # # & & & > > # = # & # # & # 0 & 0 0 0 b t & # w > & & # & & & 0 % 0 0 # & 0 & 0 & & & & # 0 6 # & & & & & & & # & & & # 0 = & 8 8 8 & & & 0 > * & & = 0 2 & % & & & & # % & # & # & & * 0 0 * 0 u % & & & % 0 0 0 % 0 u % 2 0 0 = 0 u & & & & % & 2 0 & & 2 & & & 0 0 & & # & & & & & # # & & & 0 0 & & & & # t & # # & & # # & & # # & = # & & X u = @ # # & w & & # @ 0 0 # = # # % # # # @ # # & # # @ q e @ & @ #   @ @ 2 # # # & # # # # # # # # & X # # o o X o # # X # # o # o X # X X X X >   2.yXkXS | y.  y.eX].  %.$.} } } } ] ( ] ",
"_ ] Q ] } } } | $.$.r 1X1X, i hXZ.T.9XH.  > o X o X X X X o # o o o X X X o o o o o o X o o # @ & # # @ # # # # # # X @ # # # # # # # # # # # # # # # # # # # # # # # # # # # # # # # # # # @ # & & # & & & & > & 0 = # # & # & 0 # # A 0   u u u 0 2 & > & # & % & & & & & & & # & & & & & & & & & & & & & & & & # 0 0 # & & 0 & & & & & & 0 & & & % % 0 t % 2 & & = 6 & & & & & 0 & & 0 C & % u D & & & & 0 0 & 2 u u + * g b * 0 6 u u & & % & & & & # # 6 & & ; t & & & & & & & & & & & & & & = 0 & & & 0 & & & & & & & # & # 0 & & * * & # & # > & > & 0 & V & # & # ; & & & % & & # # > > # # # # @ # X . # @ # @ & # @ # # # # # # X > > X # # .   # # # X & w X # # # # # # # o o X X X . X >   y.rXkXA | y.  u.wX~.  %.$.} } } } [ ] [ ",
"] ] Q [ } { $.$.$.$.f 1X1XO i xXY.T.3Xv.  > # X # X # o & # # X o o X X X o # o o X # # X o # X & & @ @ @ # # # & # & X & # * # # # & # # # # # # # # # # # # # # # # # # # # # # # # # # # # # & & # # # # # > & 0   * & > # & & > u [ @ & # u * 0 = & & & & & & & # 8 & 0 = & & & & & & & & & & & & & = & & & & # & & # & & % & & & & % & 0 0 & & 8 0 r & 0 & & & & & & # & & & & & h 6 0 & + V ] + ; & & # y 2 * 0 0 # % & 0 0 0 6 & & & 2 & & & & & & & & & & & # # & & & # & & # # & # # & = > > & & # & 0 # # # & & & # & # # # % t 0 & 0 & # @ & u # & & . & & & # # % & & & 0 # # @ q w @ # # # # @ & & @ # # @ # # & X # # # # # & # @ & @ X > u   # o # = & # # o # X # # # X X X X X X X =   y.rXkX[ | y.  *.wX~.  =.$.-.} } } [ ] } ",
"[ [ ] [ { { | $.$.$.x 1X2X  p xXY.T.<Xm.  > # # # #   # q # o # & X X X # # & # # # # > o # # # @ # @ # # # # # # # # # # & & # # # # # # # # # # # # # # # # & # # # # # # & & # # # & # # # % & # # # & & # & #   _ u * & # & . V A   & # & > & 0 2 % # 0 0 # # # & & % 0 0 0 & 0 & r & # & & & & & & & & & # # & & # 8 0 & % % & & & & & 0 * . & & & 0 2 0 & & & & & > & & & & & 6 0 & * & 0 % . & & % & # 0 % & & # & % 6 t 0 & & & b % 0 & # & 2 t & & & & & & & & & & & & & & & # 0 0 & % &   @ & % # # & # = & & & & & & # # # @ u u @ & 0 & 0 q X # & 0 & # & & & # & 8 & # # & & # > @ # & # # # @ & # # & # # @ # & @ # # # # X # X & w X   b %.  & X # & X # o o = & # # # # # # X X @ X =   =.eXkX-.| y.  o.uX$X  %.$.$.| | { } } } ",
"} [ ] [ | | $.$.$.%.x uX1X  P zXY.E.9Xv.  = @ @ # # e . X & X o o X X # @ # 0 # # > & . o # # # X # # # # # # # # # # # & & # # # & # # # & # # # # # # # # # # # # # # # # & # # # @ * # # % # # # # # > > & & #   $.u @ & & % & & # & # & & # & & & & & 2 & 0 & & & & & 0 & & & & & & & & & & & & & & & & & & # & & % > 0 % % % % % # & & 0 u V % & 8 & & & & & & & & & & & & & & *   = & y u # t 0 # t & # 8 & % & & & & & & & & & 0 b & . + & 0 & % & & & & & & & & # # & & & & & & & & & & $ [ q * 0 * u u . = & % & & & % & # # 0 % * & # u 0 & & # & & & 0 & & 0 & & & @ # & # & & # # # # # # @ 0 # @ # @ # # # X q D . # # # & X & # X   X o     # # # # 0 # # # o o > & X o # # o X X # @ >   y.eXkX$.| w.  o.wX$X  =.$.| | | { { } } ",
"| } [ } } $.$.$.%.%.E wX1X< K mX{.E.9XF.  0 o # # # e e X   # X X o X X X # @ X # # & # # # & # o # # # # # # # # # # # # # # = & & # & # # # # & & # # # # & # # # # # # & & # # # > 0 @ # # # # # & # @ >     V 0   # & % & % & & > # & # & & & & & & & & # 2 8 & & & & & # & & & r & & & & & & & & & = & & & & & & & % & & % & % @ 0 0 #   %.i.  0 2 & & & & & & & & 6 & & & & * y s.& & & & # t 0 # 0 2 % 0 8 2 2 & & 0 & & & 2 & t %   Q V % & & & & & & & & & t & & & & 2 2 & & & # & & > & Q q @ 0 & & 0 & u 0 % & & 8 & % & & & & & & = # & & & & & & & 0 h u u 2 r & # # 0 & # & & # & # # # & 0 # # # & X # # # & & @ # # # @ X 0 # X # X X & w @ # o # X @ # o X o o o o # # # X X o X # >   s.eXkX%.$.y.  3.eX,X  w.$.$.| $.$.| } } ",
"| | [ { | $.$.$.%.%./ wXwXw ..ZX{.!.9XF.  > # # # o   @ u %.. & X # X X # # X o X X @ # # & & # # @ # # # # # # # # # # # # & = & & # # # # & & & # # # # # & # # # # # # & & % q # > 0 # & & # # # # # &   | ]   e q * & & & & & = & & & # & & & & & & & & & 2 0 & & & 2 & & & & 0 2 2 & & & & & & & & 0 & & & & & & & & 8 2 & & & & & & & 0 2 $ & & 2 2 2 & & & & 0 0 & 0 2 & 0 . n l.# > 0 0 & & & & # h r % r 2 & & 2 & & & & & & 0 & % C g * & & & 8 & & & = & & & 2 0 & % 0 0 & 0 & % 0   $ 5.S . & 6 6 0 u & & & 8 & & 2 % 2 & & % # & & & & & & > & = 0 = E <.L f & & & # # # # # # & # & # & & @ # # # & # # # # # # # # # # # # . X @ X @ # # A & X # o # # X o X # # o o # # # # X # X # q   a.eXkX%.%.s.  m.tX<X  w.%.%.$.$.$.| } } ",
"| | | | $.$.$.$.%.%.C wXwX> o.ZX{.E.9XF.  w # X o o #   e a.    & X X X X X X X o # @ # @ & # # # # # # # # & # & # & & # & & # # # & & # # & & & & # # # # & # # & # # # & 0 # 0 & @ & > * w = # = & & >   r.4.  q & & # & = & 6 & & 0 & & & & & % & & & & & # 2 y & 0 & 0 & & 0 0 & & & & & & & & & & & & & & 0 = & 0 & f r = & & & & & & 6 0 g 0 0 & 0 0 & & 0 & 2 0 & & & 2 u 0 *   % . > & & & & = & 0 & & & 2 & & & & & & 0 & & 0 2 t + * 0 0 & & 0 & & 0 0 2 & & & & & & & t t t . >   g.r.  # 0 & 6 0 # # 0 = = 0 & & & 0 & & 2 & & & & & # & & & = 0 0 C L 2X<XL n 0 2 = & & & & & & & t & # & & # # # # # # # # # & # # # # # # # # X & & o # . # # # # # # # X X # o o X # # o # @ # # X >   a.eXrX4.%.s.  v.tX<X  w.%.%.%.$.$.$.| | ",
"| | | | $.$.$.$.-.%.C uX9X, ..zX{.Q.9XF.  V # # X = = # X   f.}   # . X X X X o X @ @ # @ #   # # # # o # # & # # # & & # & & # # X # # # # # # # & # # # # # & # 0 & # = & > # @ & # @ . 0 > # X u u #   &     & . 0 0 @ # & & & & & r & & & & & # # & # & & # # t y & 0 0 & 2 0 & # & & & 0 & & 0 & & & & & = . * & & & 0 2   % & & & & & & & 0 0 & & & & & 0 0 # % & & & 2 # & & & & V _ . t 6 & & * * # 0 & & % 0 & & & & 2 & 2 0 0 * 0 & & & 6 & & 2 & & & 2 & & & & & & & 2 & # . ] u   { F 6 b . & & 0 & = & e & & & & & & % & 0 & % & & = # & & & = 6 0 h P ~.].;.Y y 0 0 0 r & 0 0 & # # & # & # & & # # # # # # # # # # # # &   e > . & & &   8.A   # o # # o # X X o o o o # # X o X X X =   2.9XrXw.%.s.  p.tX<X  e.=.%.$.$.$.$.$.| ",
"[ { $.| $.$.$.$.$.%./ 9X9X, o.zX).T.<XF.  & o # X X X X -   u.|   # 0 X X X X # X @ # X # @ z = o # # # # # # & 0 # q > & 2 @ # # # @ # # # # # # # & # # # # # # & > & u & # # # # * & u & = & @ # =   =.Q . & q > X @ & # & & & # & % # # # & & # # & & & & & & & r f 0 u r r & & & & 0 > & ; 0 & & & 0 & & & C u % & 2 & 0 c.0 % & & & & & & & t 6 0 & 2 0 & & & & & & & % & & & & 0 u A + 0 & & * V g . & # 2 & & & & 2 & & & & 0 0 0 & 2 & & & & & & & 2 & & & & & & & & & 2 % t 2 e & 0     _ @.  0 & % & & q & q 0 & & & % & # & % w & # 0 & & & # # & & f h J J f 2 & & & & # & & & & # # = & & & = q # # # # # & # # # # # # > & X > # # # # X & # X # o # X X X X o o X # X # # # # # # > >   =.9XkXw.$.s.  9.tX<X  e.w.=.%.$.$.$.| } ",
"[ } | | | $.$.$.$.%.x uXeX, o.zX).T.3XI.  > X   o # X # o >     - # & X X X X X @ X X @ &   x.l   # # # # & # # & t   1 0 # # # # # @ # & # & & & & # # & # & # & & & # # # # # # & @ q S + & # 0 0 @ % g 0 @ & & & # % & & & & & @ t 0 @ 0 & & & % & & & & & 0 & & 2 C P L h 4 8 & & & & & & = 0 6 & & & & 0   y.A   0 0 2 & Q t % & & 2 & & 8 & t 6 0 0 & 0 2 2 2 2 & & % t & & & u u + + > & 2 & & u u % 0 & % 0 0 0 & 2 2 r 2 & 0 0 0 & & & 0 & 0 0 6 2 & & 6 & & 6 & 0 0 & 0 # 0 & . & & & > t + & 0 0 & & & q > 0 0 % 2 & & & 0 & & > > & % & & & & & 6 t y 6 g n d r = & & & & & & & # # & # & & = &     & # # # # # # # # & # & 0 X > # # # # # X # # o o # X # X # # # # X o X o # # o & = >   y.eXkXw.$.s.  k.sX4X$ e.w.=.%.$.$.| $.| ",
"} | | | | $.$.$.%.%.g 1XeX, ..zX)..XrXT.  > > S . & o o X = q o X & . X @ # X @ # @ @ # X #   # & & & # # & # & > J W.s.+ > # & # @ # # & # # & & & # & # & # # # & & & & # # # # & 0 & . & & # > & @ f & @ # & & & # & & & & & & # & & # & & & & 2 & 0 2 & 8 8 8 r h i $X5XL n d 0 0 0 0 0 2 2 = = 0 0 2 0 & 0 4 % g % 0 r & + y r 2 0 0 2 2 & & 0 0 0 0 0 & & & & & 2 & u 0 & 0 t u & & & 0 0 0 6 & % % & 2 & y C + & u 2 & 2 2 & t 0 & & 2 2 8 0 6 & 0 0 0 & 2 & & r & 0 0 % 8 & 2 0 % u t # 0 C & & & & & & & 0 q * & & 0 & & & & & & # > = & & 0 0 & & 6 0 & 0 t r 2 y 2 & & & & & # # # # & # & & =   A _   & # # # # # # # # # # @ # # # # # # # & & # X # # # # # # # X o X X X o # # X X X >   a.tXnXi.w.k.  k.vXqXi e.w.w.%.%.$.$.$.| ",
"{ | | | $.$.$.$.%.%.x 1XwX: &.mX{.(.yXQ.  > > ]   # # o o X X # > X # # # X > # # & # @ # & 0 & & # # # # & & 0 e L qXW.. w & & & # % % & # # # # # # & & & # & & & # # # # & # % & 0 & & & & & # # # & & # & & # & & & & % & & & = & & & # & & & 6 & & & & & 2 2 0 u J T.].P h r r 0 0 0 0 0 t & = 0 t 0 & & = 0 & 0 0 & & 0 = 2 0 2 r r & & 2 & 0 g 0 0 y & 8 2 & 0 2 & u ; & 6 0 0 y & & 0 t & & & & 2 2 0 # & % } 0   0 6 2 & & 0 & 2 2 2 & 0 0 2 & t 0 & & 0 2 2 2 h t & 0 2 2 & & & # # & & * # 8 & 0 & & 0 0 0 & = & 0 0 2 & & & # & %   > + * & & y 0 * 0 0 0 y & & 0 0 & & & & & & # # # # & # 0   ] %.  = @ > & # # # # & # # # # # # # # # X t 0 @ # @ # # # # # X # X X X o # # # X @ X >   a.tXbXi.u.v.  v.vXqXi u.w.w.=.%.$.$.$.$.",
"| $.[ { $.$.$.$.-.=.x 1XuXo &.mX{.E.eXT.  = #   o X o o # o # # # # # # # # # # # @ @ & # * u & # # # & # # & # = f L K 0 & & & % % # & # & & & & > # # # > # # & & # & & & & # & 0 # & & # # # & & # # = & # # # & & & & 0 % = & & & 2 & = & & & & & & & & 0 & 2 & 0 n p i h f 2 0 6 & & & 0 u = 0 & & 6 0 2 # t u # 8 & 2 2 & 2 0 2 6 0 2 2 & & 0 u 0 6 2 2 0 2 2 0 & y & & 0 & 0 u 0 & & 0 0 & & & & & 2 & t 0 2 u u e.& u 2 & & n 0 & 2 2 & 8 2 & & 0 b 2 & 0 & & 0 b t & f & 0 & & 0 & & & 2 2 & & # t & 2 0 & & > & & # & 0 0 2 & # . u ] . A V * 0 & & & & & 0 0 & & & 0 2 & & & & & # & # # & # # = 2   # # # # # # # # # # # @ # # # # # # # # * X # # # @ # # X X X # X X X # & # o o X # q   i.tXbXi.i.v.  m.vXqX3 u.w.=.%.%.%.$.$.$.",
"$.%.$.$.$.%.%.$.%.q./ wX1X  &.ZX}.!.eXI.  l X # X # # # # # # # # # # # # # X o # # X & & g . & # & # & # # & # 0 & w 0 & & & & & & # # # # & & # = & > # # # # # & & # & & & & 0 0 * & # # # # & # > & & & ; & # & > > & & & & 0 = > & #   % & & & & & & & 0 & & 6 r 2 y g 2 y y 0 0 0 = & % % & & & & 0 2 & & = 0 & & & 2 & r & & 0 & & 0 0 0 2 & & f & & 8 & 2 2 2 y 6 2 & & & 0 0 2 & & & 2 6 & & & & & & 0 & & * t %.& & & 6 t h % & 2 8 & & & 6 0 0 u & & 0 0 2 0 @ r y % 0 0 % 0 u % & & & & & & & & # & & 0 0 & 0 & % 0 = t > . = 0 w ] + V u @ & # 6 & 2 & & & & 0 & & & 2 & # # # # & # # # # # # 0 > > & # # # # # & # @ @ @ @ # # # # X # @ # # # # # # X # o # o X # # X X # o # X # # >   y.rXnXa.i.v.  p.vX9X1 y.w.w.%.%.%.%.%.$.",
"%.%.$.%.%.%.%.%.%.w.Q wXuX  &.ZX XXXyXT.  V . @ # # o # # # # # # @ # # # # # # o X # # # # # @ # # # = & # & 0 # # 0 & # & 2 & # @ # # & # # & & & # > > 0 # # # # & & & q & 0 % # & & & & # & & & > & & & t & & & & & & 0 & 0 0 6 0 0   h.V + & & & & & & & & 0 0 & & 2 r & 2 y t 0 = 0 & & * u C @ & 2 2 & & & & u & 2 2 % & 8 % 0 2 2 r 0 & 8 0 & u u % 2 2 & & 0 r & 2 & 0 & % & 6 & & 0 0 2 6 0 & & 0 & & & y 0 2 . 2 _ W   Q _   * & & & 2 & 0 0 0 6 & & 2 2 & 0 & 6 0 2 t t 0 6 % & & & & & % # 2 0 % 2 & 0 8 # & % & & & % 0 C @ u * . 0 + % & & 0 & & & & 0 0 & 0 0 # # & & & & # # # # # # # & &     q.q # & # # # & # # # @ # # # & # # q # # # # X # # # # o # X #     o # # X # X X X =   i.rXnXf.y.h.  p.vX6X3 u.w.w.=.%.%.%.%.%.",
"%.%.| %.%.%.%.%.%.q./ wX9X< &.ZX XXXrXT.  = # @ # o # # # & # # # & # # # # # # # & . X # & # # & & # # # & 0 & & # & & & & & & & & # & # # # & & > & # . > = # # # @ & .   0 # # & & & & & & & & & # & & & # = 0 # & & 6 & & = & = 0 0 % } 0 % & & & & & = & 0 t & 0 & 0 0 0 0 6 0 0 = 0 0 & & & 0 0 2 2 0 & & & 6 0 0 & & 2 6 0 & 2 0 0 0 & & 2 0 2 r h 8 2 0 & r 8 & & 2 r 6 & & 0 f 0 0 t & & 6 0 & & = 2 0 & 6 0 6 t t 0 y 2 C h + [ t % 2 & & & & 0 0 2 & & & 0 0 & & & & t 0 u & 2 & 0 & & & & 2 0 2 & 2 & & 0 & 0 0 # 2 0 . > t % # & 0 & 0 0 & & = & & & & 0 0 & & & & & # & & # # # # & # # # #   i.|   & & & # # # # * # @ X # # # % # # & # # # # # o # # o o # &   #._   & # # # X X # >   i.rXkXe.5.s.  k.vXqX3 e.w.1.%.%.%.%.$.$.",
"%.%.} $.%.%.=.=.=.%./ wXeX- *.ZX XoXrXT.  > # # # # # # # # # # @ & # # @ # # X # @ 0 0 @ # # # # # # # # = # # & & & & 0 & # & & & & # & & & & @   & u | 6 g @ > & & + O.R.h & & & & & 2 & & & & & & & & & 0 & # & & & & & & & 0 0 0 2 2 . & & & 2 & & & > 0 y & & 6 & 6 0 6 6 r & 6 0 6 & 8 & & & & & 2 2 % & 8 0 0 0 & 2 d 2 & 2 2 2 r r 2 2 0 0 r 0 f u 0 t r r 2 2 2 0 r 0 2 2 0 y r 0 & & 0 & 0 0 2 2 0 y & & & 0 0 r 2 r 2 @.E 2 f r r 8 2 & & 0 2 2 2 2 & & 0 0 2 & & 2 y 0 & 0 2 0 0 & & & & & & & 0 & & 2 0 0 $ & 8 0 0 V # & & & 6 & & & 2 & & & & # & & 6 & & & & = & # w > * % # # # # = X u w A V . & & & & # # & 0 # # @ # # # # # # # # # # # # # # # # # # #   b V @ # # o X X @ # >   i.tXnX%.%.s.  v.NX0X3 e.w.w.%.%.%.%.$.$.",
"%.$.} $.%.%.%.=.=.=.x 1XwXO :.ZX|.$XyXT.  q # # # o # # # # o # # X X # @ # # @ #   0 t X # & # # # # # & 0 & # # # & & # & & & & & & & & # & @ g [   0 C @ . # 0 & & % ~ v.j & & = & & & & & & & & & & & & = 0 & & & & & 2 & & 0 > % t b % > & & & & 0 & = y 0 0 0 & & 0 0 6 6 y 0 0 & 0 & & & 2 % 0 t & 2 & & 0 0 t y 2 8 0 2 0 2 0 2 8 r r 2 r 0 0 0 0 C T R Y r 0 2 2 2 0 6 0 r 0 t y f 0 & & & & & 0 g 6 h 2 0 C 0 2 0 2 2 % C 0 8 2 8 r 8 2 2 & 0 2 2 0 2 & & t 0 0 0 0 2 y 0 0 0 2 0 0 2 & & & & & % 0 & 2 & & d *.f r 2 0 V % 2 & & & & 6 & & 0 & & & & & & 0 0 & & & = & & & & & & # # # # # . u u   @ & & # # & & & & & # # @ % # # # # # # # # # # & & # # & & # # #     0 # # # # X o X >   a.tXnX%.5.a.  H.NX0X3 e.w.w.=.%.%.%.%.%.",
"%.%.} $.%.%.1.%.=.w.x 1X1X  *.ZX|.$XeXT.  >     # # X o # # o @ # # X X # @   #   @ @ . # # # # # # # > @ # & # & # & & & & & 0 # & & # & & > * l |   & & @ 0 0 & 0 # = *   0 0 & & & & & & & & # & & & & & & & & & = = & & 6 = & & $ V | . 0 & & & & & y 0 & & & 0 0 0 0 0 6 0 & t 2 & & 0 & & & & & & & & 0 & & & 2 0 r r % r y 0 2 r & 0 & & 2 0 r y g + '.2XJ A f t r r r r 0 0 r r 0 0 2 2 0 & t 0 > b & & 6 6 u 8 2 0 r 0 0 h 2 0 2 2 0 2 2 8 & 0 2 & 2 & 0 & & & 0 t 6 0 y & & & 0 0 & 2 2 & % & & 0 % 2 2 & w 1 '.l.  0 % % & & & 0 = 0 t # # & & & & & 0 = # 0 & # & & & # # # # & # # & # # # . @ = = & # # # & # # # # # # # # # # & # # # # # # # # #   # & X # & # # & & # X # # # @ # >   a.rXnX%.w.s.  H.NXqX+ e.w.w.1.%.%.%.%.%.",
"%.%.} | %.%.%.%.=.w.x 1X2X  *.ZX|.$XeXT.  - A C   # # o # # # X @ # X # X # u . t & # # # > X # # X > t @ # @ # # # & & & & # & & & & & # # & > .   C [   # u t # & & # & t & 0 8 & & & & & 0 & & & & & = & & & = & & & & & & 0 & & * A 0 % & > 0 & & 6 0 0 & 0 0 0 2 0 0 & 0 0 & t & u 0 & & & & & & & & & & 0 2 0 0 & 2 2 2 2 8 & 2 0 & & 0 2 & 0 t & 8   9.G.s u t 0 0 r r r r y f r 2 & & 2 8 % g 0 2 % 2 2 g 0 * % y y 0 & 0 h % 0 y r y r & 0 8 r 2 r 0 6 t * . 0 & 2 0 t 2 0 & & & & 0 t & & & & & 6 2 & # t u   0.G.. 0 & & & & & 2 6 & & & 0 # & & 0 & 0 & # & # # 2 & & & # # # # > & # & # # & & & # # & # # & # # % % & # # # # & # # @ # & @ # # @ # u # X # # X # # @ X X X o X # # X >   u.rXnX%.w.s.  H.JX7X  e.w.2.1.%.%.%.%.%.",
"%.%.] } %.%.%.%.=.w.x 9X9X  *.ZX X$XrXQ.  , g u   # # o # # # # X X o # @ & A   0 # X X # @ @ @ # % # X # & # # # & & # 8 & & & & # # # # # # @ & & % & # # # & & 2 > & = & & & 8 0 & & & & # & & 0 & & & & & = # & 0 0 & & = & & 2 % b 0 0 & 2 & & 0 A & 0 0 0 0 6 & 0 & & 0 0 0 6 & u 0 & 0 & & & 0 2 2 & & 6 2 & & 0 & 2 r 0 2 % & 2 r 0 0 2 & 2 0 2 2 y 4 $ 0 0 & 0 & & & 2 & 2 0 r r 2 2 & t g & 2 2 0 & 8 2 2 8 2 2 2 & & y h % r f r 0 t 0 r y 2 2 2 t 0 6 u _ % 0 & y / % t y % h t 0 0 0 0 & & & % & # & % & f ! h 0 0 6 & 2 & & & & & & & 0 & & & & & & & & & & # & # & & # & & # > & & # # # & # # # & # # # # @ % # % & & # & # & # & & # # # & # # # V # # # # # # # # @ # # o # # # # >   i.rXnX$.w.a.  J.HX7X  e.w.w.1.%.%.%.%.%.",
"%.%.] #.%.%.=.=.2.e.I rXsXV *.ZX X$XrXQ.  =     # X X o # # # X X X X # # .   # . @ X t & X # X > 0 @ # # & # & # # & # & # & & & & & & # & # & # # = # # & & & # & & & & 0 > & # 2 0 = = & & & & & 0 & & & 0 & 0 & b 0 6 & 0 & & & 0 2 & 0 & 2 0 + % % % t 0 0 & = 2 n t 0 & 0 & g 0 2 y h + & & & & & & & & 0 & r 2 & & & 2 r r & 0 & 2 0 & & r 2 & r r 0 0 C 2 t 0 6 y t 0 0 & 0 y 0 & & 0 0 0 t 2 2 8 2 2 2 2 & 2 2 2 0 0 . C C % 0 2 f 0 t r 2 2 2 2 Q & 2 4 [ b.. 0 0 2 2 6 & & 0 6 6 2 & & & & 2 0 % & 0 6 & f u 0 # & & & & & 2 2 0 > & & & & 0 & & & 0 0 # & & & & # # # & # # # # @ # . = & # # & & # > # & t * # % # % & # # # # & # & & & # > # # # & . & # # # # # # # # # # # # # @ @ >   d.tXnX} w.a.  U.HX8X  e.w.w.%.%.%.%.%.%.",
"$.$.} $.%.%.%.=.w.e./ yXsX] >.ZX X#XrXQ.  D e   # # o o o # # X X X X # # # # X # # # # # & # X 0 & # # # # # # # & & & # & # & & # & % # & # # # # & & # # # & & & & & & & & & & & > & & & & & 6 0 0 2 0 & 0 0 6 0 % t 6 & 6 0 & & t 0 & 2 & & . [ V q b t & 0 0 0 6 2 0 0 0 t 0 6 & u 4 $.%.  0 0 & & & & & u 0 0 & 0 0 8 r r 2 2 2 2 & 2 2 0 0 & r 0 & 2 & b y 0 y r 0 r 2 0 0 0 y y f 0 0 t 0 2 8 2 2 2 0 2 2 2 r 0 2 2 0   W W 2 0 r 0 0 0 r 2 r 2 % h Q #.$ 5 . 0 2 2 0 t 2 & 0 0 & 2 & 0 & 2 & & & 8 & 0 % y t 0 u 2 & & 0 % 2 2 0 1 $ > * & & & & & & & & = & & # # # # & # & & # & # X Q 0 # & # # & & # & # % # & % % % % # # # # & #   u 0 # > # & & & # # & # # # # # # # # # # # # @ # q   h.tXnX] u.h.  U.HX7X  e.w.w.=.%.%.%.%.%.",
"%.%.| %.%.%.%.%.w.e.I yXsXQ +.ZX X$XeXQ.  e = X @ # # # # # # X X X # # # # # # # # @ # # # > > # # # # # & & # # # & # # & # & # & # & & # # & # > 0 # # & & & & & & 0 & & & & & ; = = & & % V u & 0 0 0 0 & 6 & & & 0 = = & 6 & & 0 & & 2 0 t * V 0 A A % 0 t 0 2 r & & t 0 0 0 & 0 0 * V ] t & 0 0 0 & & & & 0 y & 2 0 2 & & 6 2 & 2 & 0 2 r 0 0 & r 2 0 6 0 C & r 7 2 0 0 r r 0 0 2 r 0 6 u 0 2 0 6 & 2 0 0 2 8 r r y % u 2 A y % f d 2 6 r r 2 2 r W % u C 2 0 0 0 0 0 r h h & 2 0 0 t = 0 0 0 0 & & & & & 0 g 0 = 0 & & & & 2 & w   T.U.  A & & & # & & 0 0 & & & # % & # & # & & # # # & q @ & & & & & & # & # # # # # # & & @ # # # & & $.6 @ # @ # & & # # # # & # o # # # # # . # # # X @ >   j.cXnX[ i.z.  U.HX7X  e.w.w.%.%.%.%.%.%.",
"%.%.%.%.%.%.%.%.%.w.I yXsXV X.ZX}.XX9XT.  #   # # X # o # o o # # X # o # # # # = & # & X >     > # # & # # # # & # & # # # & # % % # & # # # & & & & # # # & & & 0 # ; & & > u % & & & 0 & = = u & % & 0 0 & & & # & & # u 0 & & & 0 & & & & & . * t & * = 0 t 0 0 & 6 6 0 0 = 0 = 2 0 0   5.] . 0 6 & 2 6 & 0 t 0 t 2 & 0 0 2 & 2 & r r 2 0 & t t & 2 r y 0 % C y 6 C t f 2 W h 0 0 & 0 t 0 0 y t t y 2 8 2 0 8 2 0 0 t & g t ] f y 0 y r y t 0 0 C y h 0 & 2 & 6 0 2 & & r f 2 0 0 0 0 2 0 0 0 0 0 @ 0 8 @ u u 0 0 & 0 & & & & 6 % & + _ [ + Z = & = # = u % & # # & # # # & # & # & & @ 0 & g Q # 0 # & & & # # # & # & # # # & = & & & 6 6 A & 0 @ # # # # # # @ X # # o # # # # # w # # # # # >   z.kXxX=.h.x.  B.BX4X  e.w.w.%.%.%.%.%.$.",
"%.%.%.%.%.%.%.%.=.w.I yXsXl X.mX}.#XrXQ.  V q . # # # # # # # # # # # # # # # . > >     >   H.v.  > @ # # # & & # & & # # # & # # % # # # & & & # # # # # # @ & & & & & & & & & & 0 & & 0 0 0 & n 0 u t % & & & & & 6 & & & & & & & 0 & # u 0 0 A % & 0 0 6 0 0 0 0 & t 0 & 0 & 0 0 0 0 0 t . . 0 0 & & & & & & t & 0 y & 0 0 2 & 0 6 r 0 0 2 & & & 2 2 r 0 0 * f C + _ y 2 8 y r r 0 0 0 r t 0 0 r 0 6 f r 0 & 2 0 r 6 y 0 & 5 r r 2 & & + r 0 % 0 b 2 % 2 2 8 2 2 0 2 0 2 & % 0 t & 2 & u t 0 0 0 & g & @ 0 t 0 & & & 0 0 0 & * & & 6 t     0 + > = # > % & & & & & & & # & & # # # 0 0 # & @ 0 0 & > & & & # # # & 0 > > # & % u u . # & & #   & & # # # # # # # # # # # # # # & # # u   # @ # # >   h.kXbX=.j.x.  l.BX4X. y.e.w.w.5.%.%.%.%.",
"%.%.$.$.$.%.%.%.=.w.I yXsXN ! mX}.#XrXT.  F e # # o # # # # # # # # # # # # # # #   A %..   H.v.  > & # # & # y # # & & # # & # # # # & & & & # = & # & & & w # & & & # & 8 & & & & & @ + 0 & & > 0 = 0 & & & & & & & & & & & r 0 & 0 & 2 0   5.H.  0 0 0 0 & & & 6 0 & & & t t 0 & 0 & t 0 u V @ 0 f & 6 & & = & & & t f % 2 2 2 2 y y 2 0 0 2 r r C 0 & & 2 & u C * + 8 0 r r 2 0 y t % $ 0 0 y 0 r 2 0 0 0 2 0 0 2 2 2 t + 4.Y.  u t 2 i.f u V 2 y 0 0 0 2 2 2 r 2 2 0 2 0 r r 2 & 2 0 f u + %.] . W & % y 0 & 0 0 & 0 0 & 0 u 2 & t 0 >   [ z.  q 2 q 0 # & 0 & & 0 2 & % # # & & & & # # & % @ # # & & # & & & & & > > @ & & & & & & & # # & # # # # # # # # # # # # # # # # & &   V $.  # @ # >   c.cXxX-.h.z.  B.BX5X$ u.e.w.w.=.%.%.%.%.",
"%.} $.$.$.$.%.%.=.w.I fXdXD o.mX XOXrX^.  >   w # # # > # # # # @ # # # # # # # #   ] i.  q     0 * . # # & # & # % & # # # & # & & # & & = & > & & & % u & u & > > & & & # & & & 0 + [ `   = & & & & % & & & & & 2 0 & & & & 2 0 0 u 2 0 2 0 & + 0 % 6 0 0 t & 0 0 2 & 2 & 2 0 t 0 & t 0 = t f t 0 u 0 y 6 0 2 0 0 y & W W 2 y 2 2 2 0 0 0 0 2 8 0 g 2 2 2 8 0 * -.C 2 2 8 2 r r 0 r r u ] 2 h f r r 0 0 0 0 0 2 8 0 0 8 r * A w.+ y r d Q r V Q 2 r 0 2 0 2 r r r 8 r 2 0 0 0 r r & 0 u u & t t 0 & . & g y % & & 2 0 r 0 % g C % 2 0 0 y t & 0 % h u     > # & & & 2 & & % # # & & & # t 0   Q g # & # & & & & % 0 & 0 # # g & & & 0 & # # # & & # # # & & > # & # # # # # # # # # 0 q v . # # # w   c.cXnX[ h.z.  B.BXqX3 u.w.w.w.%.%.%.%.%.",
"%.$.%.$.$.$.%.%.=.y.c fXdXA &.ZX XoXyXF.  > # . # # & & # # # # # # @ # # X X & 0 &     > X > >   A |   & = > # # # & # # # & # & & # & 0 & & > & & % 0 S V V . # # > & @ & & = 0 & % q 0 # & & & > + ] u * 0 6 & & & & & & & # r 4   6 0 t 0 = 0 6 0 & & 6 0 & & & 6 2 0 & & & 2 0 & 0 y t 6 6 h y & 6 2 6 & t 0 0 0 2 0 h t & r 8 2 0 2 r 8 h 0 0 8 0 r t 0 t + _ @.2 8 8 r 2 r 8 0 5 S g.$ f t r r 0 0 0 0 r 2 0 2 r r 0 r r Y 6 u 2 4 9 r 2 2 h y 0 6 0 r & 8 2 2 r 0 r 2 t 0 2 r 2 u C 0 C 2 0 & 2 g t = u & 2 0 & r 0 & & * y r & & t 0 0 % 0 w   W.x.  u & & & & & 0 2 & & # # % % # # & y & # # & & & & & & # & & # & & & # & 2 2 # # # # # # # # # # & & * # # # # # # # # # > .   # # @ @ q   c.kXkX[ h.z.  J.BX7X3 u.e.w.w.%.%.w.1.1.",
"%.%.%.%.%.%.%.%.=.e.c fXdXh o.mX}.oXeXF.  > o # # # o & # # # # # X @ # X & > # ; @ & > # # & & @ = 0 & @ u q # > # & & # # # # # # & & & & & # & 2 2 & & > q # & & @ q b * & & & & & @ & & & & & & = 0 = & & 0 0 & 6 & 2 0 2 r 5 ,.R.&.2 0 = 2 = 0 2 0 0 & 0 & 6 2 6 0 & & & 0 0 r 0 0 r g & t 0 2 6 C n & y % 0 & 0 0 6 0 C t 2 0 0 % b f 2 g 0 0 g & 0 0 & 8 0 & C 2 & 8 r r 8 r 0 0 2 + 0 n 2 u g r 0 2 r r 8 8 f r r r y y E 2   C ^ 2 y f f 7 y 6 2 r r 2 0 2 0 y 2 0 y d 2 0 r 0 2 % 6 0 & u % C E 2 0 g & 0 r 8 0 0 & & & 0 2 t 0 & 0 6 2 & w   c.t.  t % & & & & & & & % & e > % # & & f & & # # # & & # # & & 0 # & & 0 & & # & & # # & & & % % & # # & = # & & # & # # # # # # # @ @ @ # >   h.rXkX^ z.z.  J.BXaXp u.e.w.w.2.2.w.w.w.",
"%.%.$.$.$.%.%.%.=.e.c fXdXt o.mX}.oXeXF.  > = & & & X X #     # X X # X & 0 q . X # # # # # # # & # @ & # @ & # & # # # # # & # # & & # # & # # & 0 & # & # % & & & X 0 C @ & & & & & 0 8 # & % 8 ; & 6 & & & 0 & 6 t 0 6 0 0 f $ G.dXl.1 y 0 0 & r 0 & & & & 0 0 0 0 & & & & 0 0 0 2 0 0 & y 0 0 0 2 0 y 0 0 C 0 & 0 0 0 2 r r & 2 t t t g t t y d 2 0 0 2 r t 0 0 h y 2 8 8 0 0 0 8 0 r y 0 t 2 y y y t 0 6 6 2 r f f 2 g 0 u y 0 f.E C $ y r 2 { h 2 t 0 2 0 2 2 6 0 8 2 2 8 2 0 t 2 8 0 2 2 & 0 y E 0 2 0 % 2 & & & & & 2 & & & & 6 0 2 t 0 % % _ q     0 & 0 & & & # t 0 & & >     > % & # & & & 0 # & # & & # # & & # & & & & & # & & # # # & & # # # & # & & # & & # # # # # # # # # @ @ @ # =   -.3X0X/ h.z.  J.BXaXH u.w.w.w.w.w.w.w.w.",
"$.%.$.$.%.%.%.%.=.e.U fXdXg X.zX_.oX9Xm.  - u 0 X # o X   u b   # X # @ > & . # # # # # & & # # & # # & & & 0 & = & & & & # & & # & & # & & & & 0 % & # & # 0 > & # & @ + 0 & & & 6 % & & & & & & & & & & & & % # 0 = & & & & % 0 K <.T 0 0 8 2 & 2 2 & 0 r 0 & & 2 2 2 & 6 = & 0 0 y 0 r 0 y 0 f t C C 2 g & C 0 & 0 & u 0 0 C 2 r 2 r r t t 0 u y r 0 r r r 6 0 0 d g 2 2 0 0 r r r r 2 r 0 0 r r 0 r r f y t t 0 0 g 0 t % E E * [ + } Q $ r 2 w.h 2 0 2 & 2 2 2 0 r 8 8 2 8 2 0 y 0 0 2 2 2 0 2 C y & & 2 0 2 2 & & & 2 0 & % 2 & 0 & % u Q . u w + q u 2 0 0 # # & & & & & - i XXw.  & & @ 0 0 & 0 & % # & # & 0 & & & & & & & = & & # # # X   0 % @ # & & 0 # # & & & # # # # # # # # # X @ @ =   / $XqX~ a.z.  N.BXaXH u.w.w.w.w.w.w.w.w.",
"$.$.%.%.%.$.%.%.=.u.U fXVXV X.xXY.Q.$X3.  e . @ # # o >   A Q   # @ & & X # # # # # # # # # # # 0 # @ u 0 # @ = > & & & & # = & & # & # & & & > # & & # & & # & & & & = 0 r & & & 6 & 0 & * 0 0 & & & 0 & 0 0 2 0 & & 0 0 & & 0 y 0 u t f y 0 r 2 r & & r y 0 & 0 t 2 6 & 0 2 0 0 2 y 0 0 0 & 6 y t W C & y 0 % 0 0 0 0 0 0 0 C d g h $ d 0 r 0 & n g 0 0 r 2 y y 0 0 h r 2 8 2 r y r y 8 y r r r r 6 r 0 0 r y C 6 r 2 0 0 0 C $ i._ $ C g 2 0 0 $ 2 g 0 0 & 2 0 0 2 8 r 8 9 0 & % 2 2 0 2 r 0 % C y r 2 u 0 y 2 6 & & 6 t 2 6 & & & 0 0 0 6 2 & g b & V > 0 t & & & & 0 0 & 2 # a XX%.  & & & 2 & & # & & & & & & & . & & # = # & 0 & & # # # 0 V @ # & & 0 & # # # & # & % # # # # & # # # # & # >   Q !.$Xj h.z.  B.BXaXp u.y.%.$.e.w.w.w.w.",
"} $._ Q %.$.-.%.5.u.U dXVXQ o.xX{.U v.2.  - # # # # # & #     # o # & & # # # # # # # # # # # # # & & & # & # & & & & & > # & & & & > # & # = & & & & & & & & & & & & & & & & 0 = & & & & 0 & & & 6 & 0 0 0 t 2 0 & & & & 0 0 r 0 0 y 0 y u 0 r 0 2 0 & t 0 0 0 0 0 & 0 2 2 6 0 f f u 2 0 0 6 0 0 u % % 0 0 0 0 t 0 & 0 0 0 0 + n C $ [ V 2 r 0 u C y h y r r 0 0 r 0 f f r y h 0 r y r r y r r r d 9 8 r 0 y r r f 0 0 0 0 & f W h d r * d 6 h t f r 0 r r r r r 2 r r r 0 2 2 2 t 0 * & t g * n h 6 r r y r 0 r 0 & 2 0 0 8 f % & & & 0 & 2 0 f * % % A u * & 0 2 2 2 & & & & %       ; & & & 0 % & & & & & 0 r * t u # & = # 0 6 0 & w > # . g #.  & & & # & % & # & # # % # # # & # . # & @ # # #   Q I.I.  c.x.  B.BX5Xi u.w.w.w.y.w.w.%.%.",
"} $.A S %.[ V -.=.u.U dXVXQ o.xX}.>.T.2.  & # # # # # # X # # @ @ X > 0 X # # # # # # # # # & # # 0 & # & q # & & & & & # & & & & & + & & # & & & & & & & # + 8 8 & & = & 0 & 0 0 0 & @ u g 0 0 & & 0 & 0 u 0 2 % & & 2 0 r 0 0 0 & r 0 6 y f & r 8 & 8 t 0 0 0 2 f t 6 2 t 0 6 0 t u 0 0 0 2 y 0 6 0 y r & 0 0 & & & 0 2 & g g & h + z.| $ f C t 0 y r r f g 2 0 r 0 2 y f 6 u r r r 0 r g r y 2 2 9 r y 0 r 0 r r 0 r 0 0 0 C 5.h 4 d 6 r 0 0 r f r r h r 2 2 0 r r 2 r 2 2 0 2 0 t h % 0 0 h n % 0 t t 2 0 0 0 0 2 & 0 0 & 0 u & 0 0 r 0 0 2 2 & & 0 * r & & 6 0 & 0 6 0 % 2 0 V u 0 & & & & & & & # & 2 8 # = # 0 t & 0 & & u & % q     >   [ ]   & & # # # # # # # # # # # # X 0 ] i.  & # # @ # < $ #XgX9 c.b.  B.BX5Xi u.e.%.%.y.w.e.] [ ",
"} | } } $.| Q $.%.w.I dXdXA &.mX XQ.yXI.  q # @ # # # # # #   u 0 X @ @ # # # # # # # # # # # # @ # # 8 & # # # # & & & 0 & # # . > D + & # # & & & & & * t W . & & > & & 0 & 0 > & & > 0 w   . 0 & 0 & * u u & u & & & 0 & t 2 0 & 2 & y t y 2 0 r r 0 0 0 & & 2 y t 0 0 & 0 0 t 0 % u r 2 0 0 8 0 0 & 0 0 0 y 2 % & t y 0 0 0 0 0 Q + 5 0 t C 0 r y r y h y r t 0 r t y g 0 2 2 0 r 0 r 0 0 y 2 2 f d n 0 W r r r t t 7 6 t h 1 j j y 6 y 2 r f r 0 0 8 2 r y 0 r 0 0 & V r 0 0 % b %.% % h C u t 2 h 0 2 y 6 6 & 0 2 & & & 0 u & & 6 0 2 & & 0 0 y & y y 0 & & & 2 0 2 & & # 0 C # & & & & & # # & & & & % % & & % 0 r & & & % & w   Y.j.  > u u @ & # % & # & & # % # # & # # # # & q @ # # @ o & O p rXDX&.c.M.  J.BX7Xi i.u.[ S y.w.w.w.w.",
"} } } [ } $.-.-.-.w.U dXdXC >.ZX|.!.tX!.  q # # @ # # # # @ @ # # # # # # # # # # # # # @ & # X @ & # # % # # # # & & & > & 0 2 e D w # # # & # & & > & # 0 t % & & & & 2 & 0 0 g t 0   +   U.{ . t # & & & $ V q.. 0 0 0 g & 0 0 & 6 6 2 0 r y y & 2 0 0 t t % 0 & 2 0 2 & = 0 6 0 2 0 0 r 0 & & y 2 2 r r 0 0 8 h 0 t 0 0 r 0 y r C h t C 0 2 0 t 0 0 r h 0 y y r f y r g y r 0 r r r 8 2 2 2 r r f d h r y r 2 0 r 0 y % C C Y E 7 f r 6 0 r g g 0 0 0 2 r d r 0 0 r 2 . 0 % 0 r * + % t ^ & 2 2 2 2 & & 2 0 0 & & 0 & & 2 & & 2 0 0 & 0 & & 0 & r 0 0 & & 2 & & 0 0 & & 0 &     > & & & 0 0 & y & % & % 2 2 # & & % t u @ & & & >   j.q.  q . . & # # # # # # # # & # # # # # # # & X # & # = # &   T kXFX:.c.K.+ U.BXaXp i.e.w.w.w.w.w.w.w.",
"| } [ ] ] } $.$.%.e.U dXVXh >.ZX|.].cX(.  e > @ @ # # # # @ # @ @ # # # # # 0 # # # # & # # @ # % @ # & & & # # & & & & & 0 > % V S . 0 & & 0 & & &   * & & & & & & # & & & 0 6 0 0 . w._   A.] $ 0 & & = & C t   % & 2 0 u & & 0 t t & 2 0 0 y f 8 # & y 0 2 % 0 0 6 2 0 0 t r y r 0 r 0 r r 0 r 0 y 2 t 0 & f 8 f r y 0 r n 2 0 8 2 0 h h t f t 0 6 r f y r r r 2 g r 2 y 1 + 0 t n r r y 0 r 0 r y y t r r d h r r r [ % x f 8 d g f f r 0 t t r 0 y 8 2 4 r r 2 2 2 y I.g * $ 2 0 0 0 -.y & & h u 0 2 8 & r n t & & 2 y & 0 r 8 8 t & 2 6 t y & 0 0 0 & & 6 2 2 r t & 0 0   *._   = & # & 0 0 0 % % & & & & % 0 & % 0 t X & & # & >   . > q # # # & & # # # # # % # * & & & # # # & # # # # & # >   ..kXDX9.c.K.+ U.BXaXp f.w.w.5.=.%.%.w.w.",
"] ] Q Q ] $.} ] $.%.U dXVXh :.ZX+X$XcXXX  q # # & # & # @ X # # # # # # # # & # # # # @ X 0 & # % # & # & & # # & & & & & & # 0 t . = # % & & * # $ k.b @ & & & & 0 % & 2 6 t 2 & q   M.w.    . S u % u 0 = 0 + ] %.$ 0 & & 6 & 6 0 0 r 0 y 2 & 0 u t 0 % 2 0 A 0 r 2 r 6 y 6 y h 2 y 0 0 r d r y r y 2 r r 8 8 0 2 0 0 0 y r r 0 0 0 0 f h d r 0 r r 0 r r r f t C 5 5 h $ a.} $ y h r y y d 0 0 h f $ + h r y h r r r r % ` n r f f 2 0 r r r r t r f r 2 r 2 2 r n f y w.y y ` % t % Q h 9 y y h f 2 r r 8 0 g f 8 2 2 0 2 0 r & 0 g & 2 2 6 & 2 t 0 0 2 2 & & 0 0 2 2 2 0   #.S . & 0 0 g 0 & & & 2 & & & & 2 8 & 0 & * 0 & & & & % q = # u & & & & & & & 8 # % & & & X 0 V * # & & # @ & # @ # e   :.cXDXu.j.M.  U.BXaXi 4.} [ %.4.%.%.w.%.",
"#.%.C ] ] %.| ] =.w.U dXVXd p.ZX+X$XvXoX  w # # # # 0 & @ # # # # # # # # # # # # & & 0 @ # X . & % & # # & 0 & # & & & > & & = > & 0 & 0 0 @ u q * ' t & t & & 0 2 & 8 2 6 & 0 6 & u   . 0 u 2 } V 2 0 0 0 r 0 t t % % 0 2 0 0 t 0 & 0 & 2 f 0 0 2 g 2 A C + u 0 2 6 t 0 t g 6 2 r 0 0 0 t y 0 0 8 2 Y h f 2 2 0 0 0 r r 2 r r r 0 2 f f r C y r y r f d r r h u ^ *.Q 7 $ #.[ 1 y f r t r r r r f 1 e.i.1 f $ 5 y _ 4 g 6 ~ h 2 y d t r r 0 y y r y 0 r r 2 g h + h y 2 + 2 y W 0 * V ( + r r 0 % 0 y 8 2 2 0 f t 0 0 2 0 f r r 2 2 0 2 y r & 2 0 0 0 & 8 2 8 2 y 2 2 0 r # g 2   = 0 u t & & t & & & & & 2 & 0 8 & 0 & & 0 0 & & & % 2 & 0 & & 6 0 & # & & & # % & & & # & g Q   & # # & & # # # q   9.cXDX8.h.M.. U.BXaX3 g.h.w.%.y.w.w.w.q.",
"$.$.] Q Q } A ] 5.w.U dXVX1 p.ZX+XXXcXXX  w # # # @ > & X X @ @ # # # # # # # # & # # & # * 0 0 @ # # # # # 0 0 & # & # 0 & & & & & & & # & & u 0 %   # & 0 & & 6 t + 0 0 & 2 2 & 0 0 0 0 & & 0 . % 6 h 0 h y & & * u A t 0 0 u = 0 & t t 2 t 0 0 0 6 2 V V r 0 & t & A C u Q 2 0 0 y t 0 r r 0 0 y y s.t t r 0 r r 0 0 0 f r d 0 0 0 t d r h h y 2 r r r r y y t + #.A r t . n y 2 y r y r 0 2 f C $ { | 1 y ^ C 5.j j 1 2 s.h r 5 y 8 t r 0 0 0 y t y 0 r 2 r ] 4.5 t y y r 2 $ 2 0 Q [ n 2 y 2 E h t 0 0 0 6 y d 2 0 0 0 y t 2 2 2 r 0 0 0 & V u & 0 0 2 y 2 6 & 6 2 & r a % & # g h 6 2 & & & 2 & 0 0 & & 2 & & & & & & & 0 & & & % & & & 0 & & & # & # # # & & & @ # @ u = & # # # # 0 & # # # =   >.kXDX*.h.b.+ U.BX7X1 u.w.A C =.%.$.$.$.",
"%.%.w.%.$.=.2.2.=.e.U dXVX. k.ZX+XXXcXXX  N X # & @ @ . 0 u . # # # # # # # # # # # # @ &   *.*.  & # # & # # & & # & & # & 8 # & # # 0 0 * & @ & 0 & = & & 0 & & 0 W & 0 % & & & & & n 0 & & & 0 0 0 r t 0 6 6 & 0 u u u 0 & * 6 y 0 t 0 & y r 0 0 & / h $ g u 0 f 0 2 r 0 2 0 r 2 f b r y f 0 & 0 $ 2 0 y W 0 0 0 8 r 6 f r 4 2 0 2 r g f r d h y d y 2 0 r 0 y h + 2 y r t y b y g r r 0 0 y f C r 1 $ t r W g Q 4 h 5.7 V.C f u.$ y r 2 0 r 8 r r n r 2 y 2 V | 5 r h 0 g 6 0 & [ u 2 r 2 0 r h y 0 0 0 r r f r 2 2 0 y y r & & y 0 2 0 & 6 + & 0 y 0 & t t & 2 % C 0 f }., . ` h . * r r & 0 & & 0 0 & & 2 2 & & & & & & & r & % & & & 0 0 & & & & & & # # & # # # # # X % u # . 0 X X # # # @ =   X.kXAX*.g.x.+ U.BX5X$ w.w.w.w.=.%.%.%.$.",
"%.%.$.$.%.%.=.=.5.u.U dXVX. k.ZX+X$XcXXX  e & # 0 X # # # 0 @ # & # & # # # & # # # # # @ # . + & > & # & # # & 0 # & & & 0 & # # & & & & t & 0 t & 0 & % t t & & = u & & & & & & 6 & 0 8 0 & 0 2 0 0 0 6 6 6 0 & t t . V S + u & 2 2 2 h r 0 r 0 & & 0 r 0 & & t g 0 2 t 0 y 0 y 0 2 2 8 0 h 8 u + *.*.$ t r y 8 8 2 0 r 0 2 A g * 4.g d d g y h d r r 8 r d r r r y y f r r % n n d r r 2 2 f r 2 r y y t f $ 2 4 d f 4.C E 5 f W r d f 8 y 2 r f r r r r t t 2 r r r 2 2 % u * } } $ 0 0 0 r C r 0 y 2 0 r t y 2 8 0 0 y 0 r 2 0 t r 0 & 0 $ 5.V . 0 & % t 0 2 8 % u & #  .f r 0 6 & & 0 & % 0 0 0 & & 2 2 & & & 2 & & & & & & r % w & 0 0 # & & # & & & & # 8 & # # # # # & 0 > V 6 0 = @ # # # =   ~ kXAX*.a.x.. J.BX7X$ y.w.w.=.%.%.%.$.$.",
"$.$.$.%.%.%.%.%.w.i.U dXVX1 m.ZX X$XcXXX  N @ & X @ # # @ @ # @ # & # & # # # # # # # # # . V u . & & # & & # # & 0 % & 0 & # & & & & & & 0 & 0 = & ; q q & & 0 & & & & & & & & 8 0 y & & & 0 2 0 6 & 0 0 0 0 6 & 0 f y 0 u q g 0 6 0 6 2 0 2 0 0 r 6 0 C 2 h 0 0 t f y r 0 0 t 0 t 0 0 0 r 0 0 u 2 n n 0 0 r r d r r t d W . L.i.  C f g r d y 2 y 2 0 r r d d 0 0 r r 0 0 8 8 y C 2 r f 0 g r r d d r y t t f y d n g . ^ Q f r E h d r y r r r r r r r y y r t r y r r r f + V [ $ y 2 t f f r y 0 0 r 0 t 0 0 & 0 r 6 6 0 r r 2 & 0 6 u 0 + *.g b & W ` + 2 6 & & % & h 3 r 0 & 2 2 C C @ u & 0 0 0 & & 2 & % 2 0 2 2 & & & & 0 y $ 4 0 & & % & # & & & & & 0 & & & # & # = 0 % > # & # # & # # >   >.nXAX5.i.c.  U.BXaX1 u.w.w.4.%.%.%.-.$.",
"$.$.%.%.%.%.%.%.w.a.X.dXNXm m.ZX XXXcXXX  q & # & # . @ # # # # # # # # # # & & # # # # # X w 0 # & & # & & # & & r T h & # % % & & & & = 0 & 0 & & > 1   q % % & & t g 0 0 & & 0 & g 0 6 0 0 0 0 2 0 & & t t 0 & 8 0 0 % 0 u 2 y r 0 r 2 r 0 0 0 y 0 6 g g 6 y 0 0 0 y g g t t t f y 0 0 8 0 r t 0 + $ r y r y r r r r g r t 4 r y 2 f y r f r 0 y n 2 2 0 r d h g $ d r 8 f 8 t C 8 r d r r r 0 d h t 0 t h y g y y n 4 #.^ 5 f d r y d d r r r r r r r h y y y 8 0 r r 0 2 r @.f 2 t f 6 0 2 y r y f 6 0 0 2 0 2 2 0 2 6 0 h 0 0 0 r r h r [ $ 2 W t u g % 0 r % & u W g & 6 0 & C t * 0 0 g *   0 0 0 y 2 & & & 0 & 2 2 0 0 y d +.!.:.1 r 8 & & & & 0 t & # # & & & & & # # # # X # # # # # # # >   9.bXGX5.i.b.+ `.BXaX1 u.w.w.%.2.%.%.%.$.",
"$.} S $.$.%.%.=.w.a.U dXNXW v.AX+X$XcXXX  w & # # X w w @ & # & # # # # # # # # # & # # # & . & & # & & & & & 2 u i &XH.  0 2 & & & & & = > & 6 0 0   b.&X+ q & * 6 6 & t u & & 2 & & 0 6 u 0 0 & t 0 & 0 0 t u & 0 2 r 2 0 0 0 0 2 2 r & 0 2 t & t u & g C 2 y r 0 2 2 2 h h 2 r 2 8 r r 0 r r f $ [ W 5 y y r r 0 r r 6 r y r f f r g r y d n r 0 h [ f y E y f E @.h d r d 9 2 g E 4 f r r r r d h r u f y r d g f g r @.C r d d d r r d f r y y f r f y y y t 0 t y r y * y.W $ y y r 0 y 0 2 2 y n d 6 2 0 y d r 0 r 8 2 0 8 r 0 d d % 0 b 6 h h 2 0 % 2 % % u E h 2 & % = 0 = g h & g t + V _ + 0 + & & & % & & & & 0 0 0 f h ,.4XG.p f t 0 0 t 2 & 0 & & & & & & # # # % # # # # # # # # # # 0   s.bXDXw.h.M.$ `.BXaX1 u.w.w.w.2.=.%.V | ",
"$.} A $.%.%.=.=.w.g.U dXNXs n.AX+XXXtX(.  u & X # . w N . & # @ # # # % # & # > & & # & & & & & # & # & # & & # & f 8...2 & & & & & 0 0 0 u & & & > + w.I.3 0 + D A + 0 % u 0 & 0 & & 6 & 2 0 0 0 0 0 2 0 & 2 0 r 0 = 0 0 2 2 0 y 2 + 0 r 0 0 & Q u 0 0 & % 0 r y & 0 t 6 & 2 ` f h r 0 t 0 0 6 0 2 _ C 2 r f f y r h r r 2 g 5.2 r y t y g r y 7 C 2 C #.5 n g f f E h O.f y g g 2 8.f r y r r d n 0 r C d f y t d f r y s.r f f r d r r f y r y d g r d h d y f r t f 0 * C ^ $ ^ f d d 6 t 2 C f 2 2 h r r 0 0 y 0 6 r r r & 8 r & f r + h W * 0 6 6 t 0 % t C h 0 2 0 & u > 0 0 0 C @ 0 u   %.h.  u Q t % & & & 0 8 & 0 = = 0 g K L s y 2 & & & & & & # & & u & & & # # # # # # # # # # # # # # >   8.bXGXu.c.M.  `.BXaX1 u.w.w.2.2.w.%.V %.",
"$.%.%.%.%.=.=.%.w.i.P dXNX1 n.AX+X].rXXX  > # @ @ # . @ # # # # # . u A   & # > & # # & # # @ & # & # & & & & & 0 & $ * t 0 # & = & 0 u & & & & & 2 0     = & % b u + 0 & & 0 & & & t 0 2 6 & 0 0 6 0 0 0 2 b t h r 0 6 y & 8 & 2 0 W 6 y 0 r 0 u 2 6 6 0 t 0 0 y 8 0 0 0 6 2 t t C h 6 0 0 0 g g V r 5 f y r f y 0 y r 0 r y h r u t f g 0 r d y t r % n C % r 0 2 W t 2 y $ $.%.  @.*.  u r y 0 r 9 y y t r n r f f y g f.r d r y f y y r r d d f h f j J.~ & 8 r r h . Q w.+ r h 0 r g % y r f y 2 0 0 y f 6 t r 0 t 0 6 d 2 2 r 8 2 * n y * 0 2 y & & 2 C W g # & 0 2 & 0 6 & & & % t 0 0 0 +   C % %.  & & & & & & 0 0 6 & t y 0 b 0 8 0 2 = & 0 & & # # & & & & # # & 0 & % & # & # # # # # . #   *.cXKXs.c.K.  J.BXaX1 u.w.w.w.w.w.w.w.2.",
"%.%.$.-.%.=.=.=.w.u.P dXVX$ n.AX+X%XcXXX  ] = @ # # # # # # # # # # & & # @ # # > # # # # 0 0 & & # & & & # & u & & 0 & & 2 2 = 0 @ u u * & & 0 y 0 & 0 w % 0 0 r % u & 0 0 0 & 0 0 & 6 & 0 6 & 0 0 2 y 0 0 0 0 0 0 & n h & & & & 0 _ 0 6 0 0 2 0 0 0 0 6 t r & & 0 r 0 0 6 0 0 2 0 f E h r 0 g g 6 t r r t 0 0 y r 0 y r n y C f A C r f r d y r r r 2 4 ~ f 5 y y y y y f f d 2 t 2 *.W r u g r f d 2 h h E g r y f 5 _ y.5 h E r f y f g r r f g d r y Y f 0 y r y 5 h 2.w.f h f r 0 0 8 y f 6 0 r r 0 0 h t r t 6 C f 6 y 2 r r r 2 2 t 0 6 0 & 0 2 b E f & 0 0 2 0 0 0 & 0 0 t 0 0 t 0 & 0 0 0 ` * Y n.  > # % & & = = r g 0 = 0 y 8 & 6 0 & # & & # & & & # & = # & & & & # # # # # # # # . w N   8.vXGXf.c.K.  J.BXaX3 u.e.w.w.w.w.w.=.%.",
"%.%.$.%.%.=.=.=.w.i.P lXVX+ n.AX+X&XcX#X  D & # # # @ @ # # @ # & # # @ # & # & & & # @ 0 0 & @ & & & & & t 0 & & & 0 & & & 0 0 0 & > t 0 0 # = * C V * 0 & u 0 % V w.+ 0 0 0 & = 0 0 2 0 & & & 0 0 6 0 6 0 0 0 t 0 r t y r % 0 u 6 % r t W 6 V t 2 6 r r 0 t 2 0 0 y r r 0 r r r y 2 g E ! f % t f r f y f t t h f r y d h d g h 2 r f d r f f r d y g C 6 @.C r r r r f f r y r f t W :.h p H ! j 9 8 2 y h r f d [ E 5.z.+ h g ^ h 2 f r n #.d g y f f r d t r y 5 r i.f $ g d r r y y g y y r 0 f r r 0 0 r f n 0 2 r y 6 0 r r 0 r r r & 0 % % h W C y 2 2 0 0 0 0 0 r 0 r 0 6 r 0 r 0 6 0 0 0 * % E a.+ = & & & 6 0 0 0 r 2 & 2 0 & 0 & & 2 & & = & & & & & & # # & & # # # # # # # # # # . N D   s.bXKXz.z.K.  J.BXaX1 i.e.w.w.w.w.1.1.%.",
"%.%.%.%.%.=.=.=.w.u.U lXVX$ n.AX+X&XvX%X  > # # # # # @ > > @ # # & # # # & & # & 2 & & # # # & & & 0 @ u 0 & & & & 0 & 6 0 & & & & & 0 0 2 t 0 & & & & 2 0 & 0 0 & + 0 = t u 0 0 & 0 0 0 2 & 6 6 r 0 0 & 0 t 0 t 0 f 0 6 g u 0 V 6 r 2 r t $ } C r 0 r 2 r 0 0 0 0 r 0 0 0 0 0 0 0 r y 6 t E h W C r d g h f y d r C h r r r d 0 t 0 h h r d g E 4 f h W 2 h E 2 0 r g r y d r f g h n z.3 $X<XL E j d f h r ^ E -.d 4 s.s.1 h y d %.W f 2 E W 7 f y r r d 6 u u t 5 z.] 1 g h 2 r r r f f 2 r r r r r y 2 t y $ #.[ $ t r 0 r r & 8 d r r % + g ` W t & 0 r r 0 0 0 0 0 f 0 2 0 2 r 0 0 6 0 0 0 0 6 0 @   0 2 0 & 0 6 t g & & 2 0 2 0 0 = & & & & = # & & & & # 0 0 & & & # # # # & & # @ # # # . q   h.NXKXh.x.K.  U.BXaX3 i.y.y.w.w.w.1.1.1.",
"%.%.%.%.%.%.%.2.w.a.U lXVX$ b.AX@X&XvX%X  w # # # # # # # @ # # # # & # & # # # & & # # # & & # # & > = 0 = # & & & 0 & & & 8 0 & & & 6 0 & 0 0 & 0 t & & & g u & t & A g % 6 6 & & t 2 & t & r 6 6 6 = 0 0 0 t t 6 C f 6 t t 0 0 6 6 t r r 6 % r f r g g r 6 2 0 r y 2 r 2 r r f n 0 b t 6 2 g C h r h y y f r f y r 0 t d r g d t 0 h Y g y r / / h n 2 f % C E $ d d r y h y h n f 5 #.>.oX'.J E f f f g d f f r Q   +XV.1 C r n ^ f f h C h n f r y r r h g V   u.e.$ u r f r y f y y y r f y r f y r r y h y 0 0 y y r 0 r y 0 y t &   V [ W u % d 6 0 r r r r 2 y r 0 0 8 r 2 0 0 0 & r 0 0 y 2 0 0 u 6 & 0 0 0 0 & 0 & & & 6 0 0 2 0 0 & & 0 0 # & # # & & > > & # # # # # # # # # # # # @ # q   f.NXKXh.N.L.+ U.BX5X3 i.y.y.w.w.w.w.w.w.",
"=.=.%.=.%.%.=.2.w.h.X.lXVX. b.AX+X&XcX#X  w # # & # # # # # # # # # # # # & # & # # # # # & & # & # 0 0 @ & & # = 0 = & # & & 2 & & & = & & # & & & 0 % g 0 & 6 & & & & 6 2 6 0 V & 2 r t 0 0 2 r 6 t 0 & & 6 = & 6 & 0 0 0 r y 0 6 6 y r 0 h 0 t y 5 S C 4 d 0 6 2 0 2 y f 2 d f h r 0 t t Q + Q y.n y r 0 0 r y y r y y h r d r y y d d r r r f n d f g d r f @.Q r n y r y r r d d Y 5 a.3 $ n r d d ~ h E d r r V   ;XY.  n r ^ O.1 d n d r C f r r r y 0 t   r.c.1 y 2 r f 0 y d r t h f 2 y r r 0 r d r g 0 r r & g f > n r 0 r % b @.Q h r 8 6 r 6 6 6 2 0 y y r 0 0 2 0 & 8 r 2 2 & % y 2 r 0 & t % E u & & u 0 % 2 2 0 0 & t r = 0 & t # & & & & & & & & & & # & # # # # # # # # & # @ @ # >   *.lXKXz.L.R.1 J.BX5X3 i.y.e.w.w.w.w.w.w.",
"=.=.%.=.=.=.=.w.y.h.>.VXMX  b.UX+X%XcX$X  > # # # # # V # # # # # # # & # & # & # & # # # & 0 & 0 # # # & & & # 0 = > = # & & & & 8 & & & & & & & & & & 0 = & & & & 6 & 0 2 0 & b 0 2 r 2 & & 6 & & u 0 = 0 6 2 & 6 0 t 0 0 0 f r t 0 2 6 r y 0 t y C 2 y r r 2 & 0 f r 0 r r r 4 y y y 2 y C 6 6 % f E h & r t 2 r r d g d d r 8 2 8 y r h g h r d f d n E r d g #.C y 4 9 f y r d h h   u.U.3 n d d r Y h f r r 0 b 1 &Xh.1 h h W 4 h W d h f r y r h f r h + V N.C h r y y r r r W Q 4 h f 0 r r r 8 r r f f y g y y d E H H q . y *.8.W . & r r 6 2 2 y r r r 0 r 0 & 0 r 0 0 & 0 0 & t V 2 0 6 & 2 g 6 r 2 & 0 6 & & & & 0 = 6 t 0 0 6 & 0 u 0 0 % & & & # # & & # 0 & # & # # # # # # # @ # # =   ~ kXKXf.U.W.1 J.BX5Xi i.e.e.w.w.w.w.w.w.",
"=.w.%.=.=.1.w.w.y.h.>.VXMX+ n.AX}.#XcX$X  D X # # # # = = @ # & # # & # # # # # # & # @ # # # & 0 # # & # # # & = & & = & & & & 0 & & & & & & & & 0 0 0 2 & 0 & & 0 6 & t 2 0 & 0 0 % g s.% 0 = g y y = 0 t 6 0 & 0 0 t 6 0 0 0 r @.r r 0 6 r 0 0 0 Q r t y r r 0 f y t 0 6 8 g Q r r t g r 2 f f y 0 f n n y 0 t y y y f r d d r y y r E h r r f f r h f t f g d C s.$ b y r y r g d g f 5 P.d h d h d d Y y h y f 5 [ @X  g 0 f n y n C h d f h d h d d f 5 D C.4 s y y f n 0 t r h f d d g y d r d r r f y 0 y r y f b p ,X&XJ 8.*.^ 0 y r r t r y 0 f y 0 t r 0 2 0 r r 6 & & & r 6 & t C 2 0 & 0 t 2 0 0 2 % C 0 & & & & & & 6 r = 0 & & & u & & & & & & # 0 0 # & # & . @ # # # & # @ @ # # @ >   ~ lXGXu.V.W.$ J.JXaXJ a.y.e.e.e.w.w.w.2.",
"w.w.w.w.=.w.w.w.y.h.o.VXMX$ z.ZX}.#XcX$X  |   & # # # & > = # & # # 0 # & # # & & 0 & & & # & & # # # # & & & & & & & & & & & & & & # & & & & & & 0 t 2 & 0 & 0 & 0 6 2 2 2 & 2 2 2 & t C 2 0 0 y y f 0 0 y 0 0 0 0 r r 6 0 0 % C Q r r $ 0 0 u y 0 2 0 y r 6 y y h 0 r t r   %.c.  g t f r y r h n r y t f C h 0 0 y y t t f r r r r r y 2 9 r r d y f r r d f n 5 ^ @._ A 4 y r j h g n   b.I.  n f h h g g f g h   g.@X  b d Y d r d g h f f r y r y f y . L.4.$ g h g r r r y W r r f d d f d j r f y r 0 0 f r 0 0 u   R.$X,.W r 2 y 0 r y 0 r r r 0 2 0 r r 0 2 0 r r 2 & 0 & 2 2 & 2 * y 0 0   + t +   y 6 & & > & & 0 & & 6 t & & & & t & & & & & & & & 2 0 2 # & @ C q @ # # # @ # # # # # >   &.bXAX*.j.P.+ `.HXaXP a.i.y.e.w.w.w.w.w.",
"w.w.w.w.w.w.w.w.u.h.&.lXVX$ n.ZX}.oXcXXX  # & # # # = # & V @ # # # X # & # & = & X & 0 # # & & & & & # & & 0 & & & & & = & & & & & = & & & 0 & & % 2 0 0 2 & 0 & & 0 & 2 & & 2 & 0 t & & 6 0 t r d 0 t 6 r r r 0 y 0 0 2 6 0 & h C 2 g Q 2 0 5 y r y 0 r r r y r 0 0 t 0 b 5.k T h r r y y d y y r h h y d 6 h W h t 0 y t g y y r r C h f r y r f g f d y h d f f r.s._ + y d r d g f g 5 %..X$ h d y f h h Y y C   L.OX  C E j j d f r h h K h y f r g   I.e.  h f f f r d d y g f y h h h h f f r y r r r y 0 t r & 2 *.9.p & 2 y r f f 0 r 0 f 2 d r r y y r 0 0 r 2 2 2 & & & 0 2 2 0 & 6 0   g.4.  w.h.. h & & & & & 0 & 0 2 0 & 6 & & & & & & & 2 6 & 0 & % g & # & u = # # # # & @ # # # # >   *.VXAX` j.I.+ `.HXaXU g.i.u.y.w.w.w.w.w.",
"w.w.w.w.w.w.w.w.e.h.o.lXVX. n.AX}.!.rX!.  w & # & 0 & # # @ # # # = 0 @ & # # # # # u u X = & # # & & # # & 0 & & & > # & & & & & & & 0 & & 0 & & & & & r 0 & = 0 2 2 2 & 2 2 2 & & 0 0 0 0 0 r y y 0 0 0 0 y 0 0 0 6 6 0 0 0 0 & % 2 b #.r f 8.O.r 0 t t 0 d r r 0 r r 2 C y.4 Y h 2 u f 0 y y 0 f n h f h r r r E O.C 2 $ h f 5 4 h b 2 f f d f f f y f d h f g f ] f y.b 5 d y y r h g n   R.s.+ h d f h E Y h `   OXN.  n g ~ h j g f h Y d f d r b   Y.V.  V y f y d 0 r y d f d 0 d d d g d f r r r 0 0 r t . t W @.` t > 0 0 r y 0 6 r y r f y r 0 0 t y t 0 0 t 2 6 0 & 0 6 t 6 0 2 2 & > $ ] A   Q %.. 0 6 0 & & 6 & 0 0 0 0 & 0 & # & 0 2 & & & & & & & # # & # > = @ & = # & 0 @ # # # # >   O.VXAX~ V.P.  `.HXaXP a.i.y.e.w.w.w.w.w.",
"w.w.w.w.w.w.w.w.y.a.o.lXVX  n.AX}.W.9XW.  q   @ # # @ # # # # # # & = 6 = # # # = C & # . & & % = & & # 0 8 # # & & & & & 0 & & & # & & & & & & & & & 0 & 0 & & 0 & % 2 2 2 2 8 r 0 t 0 0 t & u E r t & 0 t 2 t 0 0 0 % 2 0 2 h 0 6 6 0 + w H <XH.  u y y r f r r y f r t 6 + y 6 2 0 C f 0 t y y r t y y r h r 8 r n ^ @.[ % $ Q / h W d g r C h r h y f g 5 5 h y 4 r f w.h r f W r h d n d y.P.  n E g d h h h W 1 ;Xi.$ g h ~ f h j h h Y f h d V   _.+X  V + 1 f g y r r 5 r y d n f 2 r 0 r r 0 y y 2 r % 2 Q 5.O.t + t y 0 0 y y 0 2 y f r r 6 y r 6 0 y y r r t 0 & 2 2 0 2 & & & & 2 & 0 t   + 0 +     0 6 & & & & & 0 t 0 0 # & & & # & & 2 & & & & # % & # # # @ 0 # & > u V   # # # # # >   R vXAXR P.R.  `.HXaXU d.u.y.e.w.w.w.w.w.",
"w.w.w.w.w.w.w.w.y.a.&.lXVX  n.AX}.!.9XW.  q F > @ # # # # # & % # # # # # # # # & X     w.N . & & = * & & & 2 & & & & & & r % # & & & & & & & & & & 0 2 & 0 & 0 & & & & 2 0 0 & 2 f h 2 & 0 t 6 r y 0 & = 6 0 r 0 0 2 C f 2 y y 2 0 0 2 Q [ 4 Y n y 0 0 2 r r 0 2 r t t t 0 g h r r r 2 8 % y d r r f r ` W 0 [ r n h 8 h $.*.! { [ 1 d h r h f r y n f h h 5.#.7 y y h 5 } a.+ r r f g r r y   '.4.1 8.` g h E f h C %XW r Y *.r f j h j h h n j C   N.@X$ f + g.e.1 f & 0 2 p.n 2 2 y d y r r 0 r g g r . + C *.%.f % 0 r 0 t g r y & h y 6 r 0 0 y h n f f 2 6 0 0 0 6 & 2 2 & 0 & 2 0 & 0 & & & & & r . ] %.  0 & & & 0 2 0 & & & & & & 2 & & & & & & & & & 0 2 2 0 # & % & # @ &   . # # # # # >   R VXAXR L.R.  `.HXaXU a.u.y.e.e.w.w.w.w.",
"w.w.w.w.w.w.e.w.y.a.&.lXVX  m.AX}.!.eXW.  w F q > @ # & # # & % # # & & # # & &   w z.% u 0 0 & & + _ u . & & 0 & & & & # & & & & & & & & = = & & & 8 & & & 0 & 2 2 & & & t r 2 0 n 2 f h & 0 0 0 0 y h 0 g 6 t 0 0 2 / C 2 r 0 0 t t r g C 0 u f y f f 0 t 0 2 0 t y t 2 u u g r g y & g O.r g g f f y g y y g y h h g r 4 h O...d 7 y h f d h h g g j f 7 [ ` 4 y h g h 5 4.z.9 f g g h f g h W.M.  n h ~ E Y h   C.8X3 / E O.9 a :.h h E f d b . %.pXw.1 V 5 4.} 5 h 0 0 r ^ g h r 2 h f 0 g y r f + $ E 5.s.C 5 9 y y f r 0 6 y f y f E r r r g h r 6 g r Y h 0 r y 2 2 0 8 & f 0 % 2 & 2 2 0 t % 2 0 % Q ] $ 0 r r 6 & 2 0 0 0 2 & & & 2 r & & & 0 & & 2 & & 8 8 0 & & # # & & + V.N   # # # # >   O.NXAXR L.U.  `.HXaXX.a.i.e.e.e.w.w.w.w.",
"w.w.w.w.w.w.w.w.e.a.&.lXVX  m.AX}.XXrX(.  q   # # # # # # # # # & # & & # & X u A # ] &   t W . & & 0 & & & & & & & w > & & & & & 6 0 & & 0 & 0 0 & & & & & & & 0 8 & & t r 2 t t t & y g & r 0 r 0 % u t t 0 t 0 0 h [ $ y 0 2 y y y t 2 2 f h r W f f y h 0 6 0 t 0 r u u u b r r y 2 ~ O.r y h h h d h f g d y d d f d h r y C *.^ 5 y f y g h f f n y y 4 9 g f h f n C 1 h.V.+ f d h h E j f..X  C h h ! ..C   {.7X<.^ j 5 W z.E h h h g h 4 4 =XN.1 / g C Y 5 f d r y y 4 r y r y y r r f y r + C 8.8.C $ 2 y t y f y f h f t y f y r 0 0 0 r d f 0 y 0 C h r r y 6 0 r 2 0 0 y f & 0 0 2 & & & 6 % g f . r 2 r r r 2 0 & & 0 & 2 & r 2 & & & & & 2 2 0 & & & # # & & & # # & % q.w 0 = # # # q   7.NXAXR L.U.  `.HXaXo.a.i.u.y.e.e.w.w.w.",
"w.w.w.w.w.w.w.w.e.h.>.lXMX  n.AX+X%XcXXX  D l . # # # # # # & # # # & 0 # & # 0 0 &   u = 0 b # & & & 0 & & & & % u   + 0 & & & & & 0 & & & & 0 0 & 0 6 t 2 & u u & 2 % u u 2 & f 0 & 0 f 0 t y 2 g #.2 r r r 0 t t h W & 0 t 0 0 0 r 6 y f f C 6 C E d y 6 r y r u y r f y y r d r y t 6 4 r 0 f g h g d y y h y y h Y g j f h r f 5.O.n 5 d r h f / h r h h f d n ` 4 h ! g   h.u.s ` d h h E d R.^ E E n h :.@.  +X+X  ` ` 5 *.M.a n Y h n d   +Xg.  E h E n h y d r d r y h f 2 y d d y r 2 + h s.s.C % 6 f r r r y f 2 u g g y y t f f h r y r t g 0 t t   2 f 0 r n y t b y 0 t f 0 r 2 & & t & 0 u 2 0 0 r 6 2 2 2 & 2 & & 2 & & & & r & 2 & 6 & 2 6 6 0 2 0 % % & 0 # # & & 0   . & & & 0 = 0   7.NXAXT L.R.  `.HXaXX.a.i.u.y.e.e.w.w.w.",
"w.w.w.w.w.q.w.w.e.z.p.lXMX  K.AX@X&XcXoX  N e X # # # @ & & & # # # & & # # # * 0 = & 0 0 # * & & & & 0 & 0 & = q   }.h.  0 & 0 t & 6 & 0 & & & 0 + [ b & 0 0 6 0 & 0 % b g % 0 & t t & t g r + t u h 0 6 t 0 0 0 t 6 + 0 0 g 6 g t t C 0 0 y f y y g y t t t y 0 0 f g r r y d r y r r 6 r r r y g W d f d d f r y d d h h y r f h C E *.~ r y r y h E f f h h f g h _ g d ^ / 2 s.!   d g f ^ 1 i.i.5 h ! h *.k.  =XW.1 @.*.h h + h f f f b   ;XW.  V :.@.h h y y f d f g d f f y y r g d $ C *.*.[ + . 0 r r r f r 2 2 y 2 % t f 6 0 u 0 y t n r r C 0 g 4 r.V y 0 y t 0 y t r 0 & & 6 0 & & 6 0 . Q [ + t 2 y 2 r 0 0 r # & 0 2 2 & 6 & & & & & 6 2 & 0 0 0 & & = 0 * # 0 & t 0 = q % & # # # # > O +.VXAXT Y.W.  U.HXaXU a.i.u.y.y.e.w.w.w.",
"=.w.w.5.=.w.w.w.y.z.k.MXMX  I.UX@X&XcX%X  > # # # # # % & % # # # # > & # & # & u 0 # % & % 2 & & & & & & 2 0 & u h.V.%.$ t 0 0 & & 0 t 6 6 2 & 0 2 & 2 & 0 0 2 0 2 2 0 & 2 0 0 0 0 & 0 0 6 +.:.j f 2 0 t f 0 0 0 & & 0 u t g 0 t u y 0 0 y 0 r y 1 8._ 2 f y Q C f 0 0 n g r y r y r r r d d h d f ~ g g C d 8 C n y 0 y y y y d y 9 h f ^ &.n W C g h f r h h y Y h #.h d @.C . d ^.'.@.4 h h 3 w.P.  E ! n ^ *.  &X0...h 5 d ` W d h / V   +X}.  Q h C E h h E d d r r y r f d r g 2 2 h ` *.^ $ + y t 0 r y 8 2 2 0 r 2 h x 6 t 6 g h r 0 0 r r 6 h u t + }.| + t 6 6 0 h g f r 0 0 6 2 0 u 2 % 6 & 2 2 0 0 & 0 r 0 0 & & 0 6 2 0 0 = 0 & & & & 0 & 2 & & % 0 0 & u t 6 0 & @ # & A & & @ # # # >   R VXAXR W._.  J.JX5XX.i.i.y.y.y.e.w.w.w.",
"w.5.w.4.=.=.w.w.y.h.G.NXMX. I.UX@X&XcX&X  e & # # # % @ 2 f @ # # # # & # # . V V @ & # 0 & 2 & & 2 2 6 & & 0 & t 5.  + q 0 0 0 0 & 0 0 & 6 2 & & 0 0 6 0 6 t 0 0 0 2 r 0 r 0 0 & 0 t y u   ^.5XH w r 0 0 2 0 t f % y 0 t y y t & n n t r d y d t r g d r f t t g f h f f r $ r y 2 2 f 9 4 y g f y r h f ` g y h h h r r r r d d r y y f r h E :.^ 2 9 4 d j h f h h 4 f h y s.f K v.%Xi r g n n E R.Q j ! W ~ ^.D.pX0Xp A g h ! h ^ Y S   +X}.  Q n C f h h f n j y y 0 g t r f 2 . b *.*.C 4 $ y f y t r f r r 0 0 $ 0 2 y g y y y r r r f r f g 0 t & 6 g   5 t g C y t y y 0 0 r r t 0 2 $ g C 6 t y 0 & f y ^ 0 0 0 & 2 0 0 0 0   % g 0 & & & 6 & 2 2 & & & 0 0 0 g & & & & 2 h > & + # & # # q   +.vXAXR W._.  J.HXaX,.a.i.y.y.y.w.w.w.w.",
"w.w.q.%.=.2.w.w.u.z.F.NXZX5 P.UX+X&XvX&X  e # # # # # # & y & # & & # # > Q & 6 & & & & 6 2 0 & 2 0 & & & 6 & 0 6   w q q 0 0 0 0 0 0 & 6 & 0 6 & 6 6 0 0 0 0 0 2 0 6 y 0 2 2 r 0 h t t 0 0 T 0.h 0 y 0 0 0 0 0 2 0 u r t f t h h 5 r y r y r f t g r C C r Q u 0 f C g 4 W [ r d C C $ [ / 7 y r f y g f d h d g d f f Y d y h f W y f g h r d E K +...W h h g h h Y C g d g *.h ! h 3 b.C ^ W W 3 h.R.i ! y 0.2X[.dX%Xp C &.E d h Y _    XpXL / C h n C h g f r C d y r y f r . C y.u._ 5 4 h r r f f t 0 r r r r 2 W g 2 f d r y r f t r r y r h h 0 h t 4 y f y g r y 7 g 2 0 2 g d 2 % b Q x [ + 6 y r 2 y 0 6 r 0 y 2 0 t r t % c.C + 2 & & 6 & & & 6 & 0 6 w V + % 6 6 2 & 6 & * 0 } # # # & 0   7.VXAXT E..X  J.HXpX3.a.i.u.y.y.e.w.w.w.",
"w.w.w.=.=.2.w.w.s.z.I.NXZXs T.UX+X%XvX&X  e # # # & # # & & & # 2 & & & & > & = & & & & 0 0 & & 6 & & & & & 0 0 = C > q 0 0 t 0 & 0 u & 0 0 0 0 = 0 0 0 6 0 0 0 6 r 0 r 8 6 & r y 0 0 t 0 f 0 @ h 0 u t $ t 0 0 f 0 r t u h 0 f 2 } V d y t r y r Q d Q Q 7 d g h f r h 1 %.h.1 f g y $ *./ r y h g y h r d h h y h f f C d y r y h h g E f f n . b.b.^ x.! $ g Y i w.h.. %.5.$ h Y ! E 4.P.K E W ^ ! W.k W h G.yX1XqXX.E E W ^ E j _   Y.lX,.j E n C E g h g f d x.E d h 2 $ g 5.n.-.4 4 g h 0 h g f g g r y r r r 6 A g u h 0 y y g g r t r y 0 y y t g $ z.] 1 y y y 2 _ g f y h C 2 r % C _ 5 2 t 2 f y 0 r 2 2 f 2 0 2 0 y $ %.A } u & & & 6 & & & 0 0 0 t 0 & % 0 0 0 = & & & 0 0 # 0 # & # & 0   8.VXAXT }..X  `.LXdXm.a.i.u.y.e.e.w.w.w.",
"w.w.w.w.w.w.w.e.s.z.T.FXZXs Q.UX+X#XcX&X  l = @ # # 0 & & & & q # & 0 & & # & & & & & & # e & 0 & & & & & 0 6 0 & 0 > 0 q > 0 t 0 u C & 2 t r 0 0 0 0 0 6 = 6 0 0 0 0 6 r 0 0 t 0 0 y n r 0 8 r 2 t 2 g [ 2 y 0 0 r y r 0 h t y y _ g d r t y E f 2 C C 7 d f r f h f d n 1 j C t g C r 1 7 y r C h d g h C h n f h f g f Y y f g d g h _ h h C 4 5._ $ W I.z.3 i n W h r h h g d g E E C b.W.3 / ` 3 &XW.p [ 0.sX9X6XP W O.E *.^ w.  }.lXF.$ Q E ^ ~ n h h n g h n C $ 5 C s.F.*.d + h g d g y f h d g E d 0 y y r y 0 4 $ h r t d r r 0 0 y C h t y r d 5 ] Q g r t r 7 g r f 4 Q #.+ t 0 2 r 0 r r y 6 r y & & r r y % C t t t 0 0   & 2 & 8 2 & & 2 6 6 2 2 % & & u u # = % u 0 0 0 # * 0 & & # q   6.VXAXT }.OX  `.LXkXF.i.i.u.y.y.e.w.w.w.",
"w.w.w.w.w.w.w.y.s.d.R.FXZX3 Q.UX+X%XvX&X  u = & # # # & & # # # # @ & & # * & # & & 0 6 & = 0 0 0 0 u 6 0 & & & & 0 0 & 0 = & 6 0 0 % r 0 & & 0 6 & & & & & 0 6 t t 0 & y r Q 0 0 6 0 t 0 2 2 0 0 0 % h *.2 r y h 6 r C C d r y f 4 y u u 0 y E d d x C f f y *.y t d r E g t g f h C C [ 6 y y r r h h / Q r g f h h y f h f f n h ! g d h E h h 4 s h g t z.I.5.. W W h j d d Y h Y h x.s E.n.i =.p }.}.  W G.cXsX4X3 _ ~ ~ E h 1 &XlXk.i ^ h ~ ^ E n h h E n Q     *.H.I.s.C Q 0 f n d f f g f g h h g h d 0 0 g g + | Y.1 5 + u 0 r y f d C C 2 t y r y 1 y h y & h ` 6 r W t C % r 0 0 u 0 8 8 r r 6 2 r 0 & y 0 = 2 u C 0 & 0 6 0 0 & & 0 & 2 0 0 6 0 b & y r & # # & & & 0 & # # % & # # & & 0   7.VXAXO.+XoX  J.HXlXF.u.i.i.y.y.e.w.w.w.",
"y.w.w.w.w.w.w.w.i.a.!.DXZX3 Q.KX+X%XvX4X  S > & # # @ & % # # # # # & & & 0 # & & & & & & 0 0 6 & & t 0 r & & & 0 0 t u & 0 t & & 0 0 & 2 & & r f 0 r & 0 # y 8 0 0 2 2 0 0 r 6 0 0 y t & 0 & 0 0 y y &   6 r f u V 6 u 2 C h 0 r y y t t 0 t r r y y r f f y C g d h t y d y C g f r h / y y $ e.} j ~ r W f f y h h r r f g d f h ~ 8.^ n g h f f E h E f + =.P.P.[   3 W n n Y *.^ E j h . E.I.1 @.3 W.+X3 ~.cXyX%Xp @.O.O.` k..XMXv.  W Y &.! C n g ! / g     C.+Xv.u.$ L.[ n.C 4 + y f y r y g h f f r y h g d y $ A i.1 } | 1 t 6 f y h h y f y r d d y f h f t y g h t 6 2 6 r 6 r r C t 8 & & t r f 0 y % r r 2 0 0 E 0 & t 6 0 0 & 2 2 & & 0 2 0 0 0 6 t 0 & & # % & % % & & & # % % % & # q   6.VXAX>.*X%X  J.HXlXT.e.a.i.u.y.e.w.w.w.",
"y.y.e.w.w.w.w.e.i.a.!.GXZX3 W.KX+X&XbX6X  g.V . & # # & 0 # # > & # # = 0 0 # & & & & 0 0 & 0 r 0 & 0 y & = & 0 0 0 & 0 0 0 0 & 6 0 2 0 0 0 & & y 0 0 2 r 0 0 8 0 2 r r 2 f t t f 0 0 0 0 r 0 0 2 y y 2 0 g g 6 t u 6 C y h y r t f y f 0 u y g f h t y d f y r y h h y f g f g d g f r d E y g f t d h y C ^ y C t h E r Y h f g r E ^ h g h h f h Y n n f W g 1 a.%X;Xr.  3 C h E ^ E ^ *.~ %.W.s.j a R.7X1 ,XvXyX'.T :.*.Q ;.rXGXXXi [ E ..>.n g r Q ` +   N.=XpX+X  $ h 1 d 5 4 h u.r f r n y C C 6 r r E x.j y y y r $   c.c.. u g C d ! ~ d f y g d d y y d f 2 f n t f 0 y y r 0 t t & 0 0 y t & y C t & & y r 0 g y * 0 2 r r 2 & 0 r 8 2 & u b t 6 0 0 & & & 2 & & & & & & & & # & % # % & 0   6.NXAX>.+X%X  J.HXbXR.u.a.u.u.y.e.e.w.w.",
"e.y.w.w.w.w.e.e.i.i.XXKXZXs E.KX*X&XbX6X  > # # # & & > u 0 & & & # 0 & # & & # # & & & 0 0 t y & y y & 0 & 0 0 0 & V u & 2 8 & t 0 2 C u $ 0 & 2 d r 0 2 2 & r r r r y 0 r t g t 0 0 t 6 t 0 0 0 f 0 t 0 u t r r 0 0 t y 2 C b 6 C g y y y f f f f f y f f g f g g f C y h g g h C r f h h h h f h y h ] y h f g f n h r h g f f g h K E h h h f h h n E E ~ E / j p =XxX;Xy.  1 W ^ ! ^ :.@.! K OXz.3 M.qXG.uXvXsX~.G.k.&.H &XFX.XH [ ! O.! h W y.s.  $ U.&X=X_.p   W h d E O.d ~ / f.r E ^ Q 4 Q ^ h _ d f 6 d d d y C C h $ $ t h C h E ! E r d r r y y h r g y b y f u f y f r 0 y 0 2 0 r t f t 0 & 2 h y % n r y f 0 6 0 0 6 t 0 0 0 r 0 6 2 u u u 0 0 0 6 & & & & # & & 2 & 0 & q & % % & 0 q   u.NXUX8.*X&X  J.HXbX!.w.a.i.u.y.e.e.w.w.",
"e.e.e.w.w.w.e.y.i.i.$XLXCX3 .XIX&X<XNX<X  V % & # # & # % b & & & # & & t & & & & & & & 0 g W C f h 0 & 0 0 = & u g u u 2 2 r & 0 0 t $ Q } + 2 V }.C 2 0 0 2 r 0 0 & 0 r r t r 0 2 t t y 0 6 y y C 0 0 0 d r t 0 r f t r y y t f f y t y y f h d d h r f g y h E d h C y ~ h h E E f h u d &.~ r f f h h f d f f f r ~ ^ d y h d h C O.~ Y Y g h j E Y ~ ~ g W n C ^   P.pXlX4XX.1 3 8.@.^ O.&...:.OXo.k.nXuXyXvXsX~.~.^.,.qXnXH.H 8.:.:.O.@.W   3 {.@XxXqXF.    n W h K E 3 a h E h 1 g d n 4 *.E 7 f h d d C y C g g g g g g C g g E h W / g r d y d d d f y y r u y f r r f t g r 0 r r f n 0 y 0 r r 0 6 Y K ! ! Y 9 r 0 0 0 0 0 0 0 r 2 0 6 0 2 2 t r 0 & & 0 0 & & 0 0 & & & & & & & & & # & q   i.NXGX9.&X=X. U.HXbXXXw.a.i.y.y.e.w.w.w.",
"w.w.w.w.w.w.w.y.a.s.&XPXzX$ %XPX&X&XbX&X  w * & & & & & & @ % & & & & # 0 V 0 0 2 & 2 2 r ~ ;.<.~ 2 2 0 = 0 > = 0 0 h 6 0 & 2 & 6 0 2 0 t g 6 0 0 [ 7 r 6 6 2 0 r 0 6 r f t t r g C & 0 t r 0 t y r 0 0 0 t y y t 0 t r u 0 f t u t h f f t y h d d h d f d g f g h K f y g g ~ k 1 f x h h v.E r f g E ! f g E h f r W $.E E y g g g ^ *.Y ^ ^ ~ ^ E Y E ~ E W C n ! @.i H =XNXSX7XF.a + K *.*.:.! I.&XL &XrXwXNXdX~.^./.rXdXk.J :.&.:...1   K  XgXgXxXkXL j C C y g g n K z.f.1 u y u g g h r s.W 4 / E f g ^ E @.g d h C f f h f r ~ h 6 y h y y f y 6 r g h y y 0 t 2 [ C r y f r y f 9 5 y 0 f d d d y g T ,.G.,.h d 8 0 0 0 0 0 6 r r 6 & 2 0 0 6 0 6 6 0 0 0 0 6 & 0 u & 2 & & & & & & & # & q   5.NXGXs.6X7Xp `.HXxX!.w.a.i.y.e.e.e.e.e.",
"w.w.w.w.w.w.e.y.a.s.6XPXhX  &XPX;X&XbX&X  A u * & & & & & & # # # & & # 0 V 0 0 0 0 y y ^ ;.yX5XL C y t t 0 0 0 0 0 n 6 & & / 0 & 0 2 0 2 0 0 0 2 $ W 0 0 & 2 0 2 r r 6 C u t $ %.f.  t 6 0 & 2 r t 0 0 6 0 t r t r y n 0 0 t t g 0 t y n C r b f n W y t g g g t g E h h h f 1 u.i.j ..! h &.E g h h g n h y C n h g d r C h g f h ! h E Y E ~ ~ s.....Y ~ &.n h C h h ^ ~ $ h.pXGXcXqXOXc.p ,.k.p.G.&X=XD.kXuXvXcX~./.0XqX<.>.s.k.~   J L.=XkXvX].i J ;.! C ! n h y y h $ x.x.$ C f r E Y h C y 8 y f f r f h h g h g h d f g t y u t r d d h r 6 f h r r y y t f h f $ *.Q $ 0 t % 2 2 Q Q d y y d d d h ..R ~.kXG.X.! h g f y f f r & 0 2 & 2 r t & 6 0 % g g @ 0 6 0 0 0 % & & & 0 = & & & & # >   6.vXKXl.;X0XL _.HXbX'.w.a.i.y.e.e.e.e.e.",
"w.w.w.w.w.w.y.y.a.p.6XPXzX. %XPX;X&XbX&X  S N @ = & & # & 8 % w # # % & t @ & & 6 & 2 0 n ;.4X2XL C d y r y 0 y 0 t 2 6 & & t 0 0 0 & r t 6 2 ; t 0 u 0 r & u t r 2 2 6 r y 0 0 4 1 y 2 f 0 y f 0 0 r 0 0 y f f 0 t y n r t 0 t t r f f t f y W h h W y u y y g h f h g Y E b 1 c.z.i E h h d f d C h *.E f h d ` ~ K E d 4 h h d h ..! ^ E ! E ..~ &.&.+.O.Y p.^ ~ ~ ~ ..+.` i p XXNXNX,X6X%XF.X.,.G.0.6XqXqXsXNXsX[.dX4XG.0.0.L +.f.OXlXNXLXDX5XL ^ [ ^ ^ E Y E ~ h h h C 3 a C f d h g h n h n r y f y 2 / #.j h g g d r d f r n C 2 f r y y t g f f 0 y 0 f f 0 y y f $ 2 y 0 % A Q   z.h.+ t r & 0 0 t f K 0.~.0.T K j r d r f y 8 % t g & 0 0 0 2 0 t . [ V + & & 6 & % & # & & 6 & & & & & = u   6.vXKXk.;XpXL _.LXNXoX5.a.i.y.e.w.w.e.e.",
"w.w.w.w.w.w.y.y.f.k.qXPXMX1 oXIX@X&XbX&X  w * = & & & & & & & # # # & & % & & 0 0 & 6 & f E L ;.E 0 0 2 0 2 & 0 0 0 0 0 t 0 y t t > 2 0 u u 0 r y 0 & 0 0 0 r r 0 2 h y r n y r f r f y g 0 d g 0 0 t y t y h g r y r 0 r r h h t h n f f y y y y 6 6 g f f h h g f E f f n 5./ 3 a C d E g @.C e.n 1 3 E g h C E E E K *.5.d E n h C h h E n h h E ! ^ >.0.p.k.~ ..O.! ~ ^ ^ @.-.p T.9XyX<XqXrX6X'.G.G.[.sXvXvXJXsXsXyX/.^.9.'.6XpX0XyX4XG.R.R.G.0.p.&.O.! ~ ~ g h ..g h n ! ! E h *.&.E h Y h y f h g d h g r h y C f g d h h h h u t f h t g t h d d r t 0 r t t C 6 y y y f y f ^ Q 2 $ $ 0 0 0 0 6 f y h Y j J K Y r 0 0 r 2 = & u y 0 0 2 6 & & 0 & 2 t 2 6 & y 0 # & & & & & 0 & 2 & & & & > w   6.bXKX9.7XjXH _.LXSX#X=.a.i.y.e.e.w.w.w.",
"w.w.w.w.w.y.y.y.h.v.0XPXMXi oXIX+X%XbX&X  l & & # & & & & 0 = # & % & & & 0 & & & = 0 r f r C V g f 0 0 & 8 & 6 8 2 0 & 0 8 0 0 > 0 t & t y 0 0 0 0 r 0 A t y 0 y W r y r y f 6 y r h *.2 r y 0 r 0 y y g r g y 0 h 0 0 6 r h f f n f y u t h g g h d E d h h g h g h h f h h d g E C h h h x C Q 1 h.L.i E ! E E E W E 8.*.d ~ E ~ h E ..*.W ^ ^ E &.! O.O.&.*.:.&.&.:.^ O.*.@.@.5...J _.qXrXsXrX9XrX5XuXyXNXHXLXLXvX[.uX2X,X9XrXcXsX~.L &.K K +.>.:.9.:.+...~ ..^ K ~ ..~ E E Y ! E h h E Y Y h g h h d g g g y C E g h r C W t h t f h d t y h g y d y y y 0 0 r g r y f h 0 0 y 5 $ t t y 0 r y 0 t 6 g Y r y C d h h 2 r f y h 2 C b 2 0 0 0 & 0 0 6 0 r & & & 0 0 & & % u 0 & & & & & & & % % q   5.VXGX9.8XgXi _.LXZX%X=.f.i.y.e.w.w.w.w.",
"w.w.w.e.e.y.u.i.h.m.0XPXMX3 #XIX@XoXbX&X  e & # # # & & & = & # = % & & 0 & 0 & 0 & t y & 2 0 r 0 r 0 r 2 0 & & & & r r 0 2 t t & 0 t r 0 0 0 t r y 0 0 u 0 d t y 6 C } 5 y y d g h 1 u.C r f r y 0 6 r 0 0 f t t g 0 V C Q r C h h C g h h g d d y y h y ~ E 0 h E d g h f 1 ] #.1 [ ^ d E f y f k e.h.3 C E E d ^ / C =.j @.^ d ^ h h h a $ 3 s K K ..h j a 3 j K a P p K P 3 h ! &.k.,.i F.4XsX3X$XkXvXNXJXPXPXPXGXNXvXuX~.~.2X2X~.^.0.:.*.*.:.^ ..&.....+.^ O...:.&.E C ~ ~ E ^ ! ^ E E h K h h f h h h y f f @.! r f n d f h E t f f f g C f g t t d y y t t g g d g r f r y f r t y 0 0 0 0 t 0 2 E f 0 r 0 y r 0 r f 2 2 t r 0 % y 7   0 2 & & 0 0 2 t 6 = & & & 0 0 & & & & & 0 & # & % # & q   5.NXGX>.8XjXi _.LXFX%X=.h.i.u.e.w.w.w.w.",
"w.e.w.e.y.u.u.i.h.k.8XPXMX1 %XPX@XoXbX&X  e % & & # & # # & & # # & & & 6 & & & & t & & & & 0 0 & g y r 8 & 2 2 r & 0 0 8 2 0 t 0 0 0 0 2 0 0 0 0 y & 0 r 0 t 0 0 r t Q y r 6 f r r r V t 0 g 0 h 0 6 r y f t r t 0 6 y C C r h f t h g g h d f f y h d h h h f f h E h n ! Y s.z.! ! ^ &.&.O.O.^ O.:...*.&.~ ~ ^ ` ^ ~ ! Y ! @.W @.&.@.@.h.U.c.5.b.x.y.5.8.s.s.y.h.z.M.K.K.E.W.H.!.!.#XqX4X4XqX9XlXFXNXDXLXPXPXPXPXLXNXtXuX~.^.G.L G.kXF.+.9.+.~ s.:...&.&...^ h E :.~ h ! ! h h h ^ &.g d g Y E ! g h C h h d g f d y y h d h C h f g r A C r y r h h h y r y y r d y d r 2 y h 0 r t 6 t 0 0 h 2 u y g 8 t y 0 y 0 0 & 2 r r t 0 r & . W 5.+ t 0 0 t 2 6 2 & & 6 0 2 8 0 & & & & & & & & & & # & >   6.bXUX,.8XgXi _.LXFX&X=.h.i.u.y.e.w.w.w.",
"w.e.e.e.y.u.i.i.h.p.8XPXMX1 #XPX@X%XbX4X  V w * & # # & 0 & # # # # # & & & & & & & # % & 0 0 8 & t r 0 2 2 % & 2 & 0 t % 0 0 & 0 0 0 0 t & 8 & & 0 2 0 0 0 & 0 0 y y g 0 0 t t 6 t r b _ 2 t 0 2 0 r 0 0 0 r g f y r f r 2 0 t f f d y y E y f h 4 [ *.h ! C h f n *.C n n ^ K k E ~ g E C C ^ ^ h ^ ^ ~ 8.h E E / ^ ~ ^ ~ :.&.~ &.@.@.@.F.W.g.5.z.z.*.*.*.8.h.k.z.z.c.M.c.P.L.v.b.v.F.R.l.v.F.G.^.%X~.[.sXJXLXLXLXGXNXvXyXwXwX~.^.F.qXT.T ! K j ^ &...>.:.^ ....,...O.! ~ h f E +.E d h h n h W @.d h g y y h g C h y g E C C r f f f f r r 0 t y y r f h r t f r d r r y 6 0 0 0 6 y y r 0 = % f E f 2 0 r r 2 0 2 % 0 t 0 0 0 0 0 2 b n Q & 0 0 0 0 0 0 n & & & & 0 % % & & & & & % # & % % # ; w   6.vXUX,.8XgXp _.LXDX&X*.h.i.i.y.e.w.w.w.",
"w.w.w.e.e.y.u.i.h.p.8XPXMX$ #XPX@X%XbX6X  A e . & & # = 0 # = # # # & & & & & & & % % # 8 0 8 2 t & & & 0 f & & & & 0 g & f 0 r 0 & 0 0 0 & 2 0 0 2 0 0 6 0 0 y 0 0 0 r r y r r 0 t y y g r f h C 2 h r r h t y y r r y y y g d d t d f r E u r g j 5.4.1 t y t f d g f y g r Y h Y O.^ ^ ~ ! ! ~ ! ~ ~ E -.C h E r Y ! E g ! K r Y Y ! h K P i j 3 $ h ..h Y T 3 i p i i J i H K K +.P 0.>.+.,.,.k.D.~.9XsXvXvXNXNXNXyXuX1Xk.v.F.^.I.F.F.v.H.s.a.^ ~ K K k i ,.&.9.9.! ~ h n O.E E h h ! Y h 5 5 E ! h h g f h h h n d g C 3 i x r h d d d h 6 u y g d h E t y g r y y r 0 f y 0 0 y d y 0 f 0 C n & 2 y r r r 8 f r 0 y y 0 0 0 0 2 2 f r * 0 0 0 0 r t 0 0 0 & u b % & & & & & % & & % & # # # # q   6.NXUX,.:XjXp _.LXDX4X-.h.a.i.y.e.w.w.w.",
"=.2.w.e.e.y.i.i.h.:.8XPXMX+ oXLX@X%XbX6X  u * # # # > = & # & % & & & & & & # & 8 & & & & 2 & & & & 0 0 & 6 0 0 6 6 0 6 0 0 2 h t 0 & 6 6 6 0 & 0 6 0 r 6 0 0 f 2 t 0 6 t y 0 6 h 0 f y y r 0 t f d r t y n f r y 2 [ W d d f r g t g g y y r [ / g 5 1 f g h d n d d h h g g ~ h ....O...+.E E E ! h E E g E ! E ^ ~ E E ! h E g g E E +.&.E ~ ^ &.O.^ ! ..~ ....E ! ..O.^ &.^ O.&.>.:.,.&.+.l.,.G.].<X].wXdXyXeXkXrXvX9X'.!.v.T k.+.T 9.*.s.h.H.v.I.H.K.M.g.z.*.J K 1 K Y n ..E Y Y h h ! j y.*.K ! E h h f f h n r d x   !.'.1 C E g g y d y t y h f 0 r f y y t 0 y f r g f r h f d 2 0 y 8 C f 2 0 0 0 r r y y r 2 0 8 t f 2 r 0 % + 0 2 0 0 u 0 6 0 2 & 2 y t t & & & 2 2 u & & & # % % # # & w   8.NXKX>.:XjX3 _.LXKX6X*.h.a.i.y.e.w.w.w.",
"%.2.[ V e.| [ y.h.p.8XPXzX$ oXPX@X&XbX6X  e & # # # & # # # # & & & & & & & 0 & & % % & & 0 & & & & & 0 t & 6 0 & 0 8 g u & 0 y 0 0 0 0 & & 0 0 6 2 y y 6 0 6 6 r r y 6 0 0 t 0 t t 0 0 t y 6 y h y u t f r 0 y t t C 0 h f t u t y f y f g 1 W.$.4 h h d y h d & E E g y f h ! ~ ^ E h h ~ E W h h g h n C E C h n t h ! E h E @.^ h O.! ~ K Y O.h +.+.h E ..! Y ! ..~ Y ..,.O.p +.l.G.>.>.+.l.OX&XT.<.F.kX^.5X[.<XqX2XpXT.^.$XH.P +.*.*.O.+.X.P 9.+.*.s.b.U.}.OXR.b.s.[ #.V.$ 3 1 r r d ! j 5.*.4 n &.h h Y h g h E h C i R.W.i g f h E h h g 0 g h t f y t r r y & f g r d 0 E h r r 8 8 t r & 0 y 0 r 0 r 0 6 0 2 n 0 & 0 0 2 r * g A $ @.y 2 0 0 t 0 r 2 0 y 0 8 & & & 2 & 0 & & 8 # & & # # & w   s.NXIX9.:XpX1 _.LXGX6X:.j.u.] w.w.w.w.w.",
"%.w.{ Q e.w.| i.h.p.8XPXMX$ oXPX@X#XbX6X  e V . # # & & # 0 & % & & & & & & & & & & t & & & 2 & & & 6 & & & 6 t u 0 0 t & 0 0 0 0 0 6 2 2 & 0 0 0 & t t 2 0 0 0 r 0 0 r 0 u f 0 t f t y y h r y E r y t t u 0 0 t y t 0 g y y C g d g C t $ v.E 4 y g y n g g y 0 h h h h f E d @.^ n h g y f E ^ h Y y E h +...g h g g E E h h ^ ~ f ^ h K ! @.E h g ..! E +.,.+.E ~ ! k.&.K i T.F.+.9.,.+.b.OX.Xk.,.p.6XR.0.4X^.^.4XD.4X$XxX6X!.f.&.K ^ ^ +.&.X.l.>.X.K T J H 9.n.w.s.z.f.b.M.l.i.W A W E j 1 j n y E ! h E n h d h ! O.C 3 1 ~ h f f h h d f E t d r g y g h r h $ y r t y 0 u t h r 0 0 f t 0 0 t t r 0 r 0 6 t y y 0 2 & 8 2 0 2 u b & b n 2 6 6 u y 0 2 r 6 % & 2 & # & & & 6 & & & & & # # # >   5.NXIXp.8XjX+ `.LXDX4X:.h.M.5.w.e.w.w.w.",
"=.=.w.w.w.y.i.a.j.p.8XPXCX1 XXPX@XXXvX6X  e = g # # # # & u & & & & & % & & * 0 2 & t 2 & & & & & 6 & & & y 0 4   4 t 2 2 0 0 6 6 0 0 & 0 & & 6 6 t u u.% 0 0 & C b & u 0 0 0 t t y 6 r y V g 6 r r 6 0 t %.g f y h f 6 r f y y f 0 y f r y C y E C f r g d f g y 0 y g g r Q h j f g h y y r ^ @.j E f E E ~ Y h h f y y h h h h h g h h ^ b.h.K ! Y E O.E E ~ ~ h ~ ! >.*.X.%XvX].P +.:.%X_.p.J &.:.&XR.;.F.$X^.~.#XF.k.<XzX7XL s.E.V.3 ..>.+.K H.p.j ..X.&.X.v.G.G.j s j h @.y.w.=.8.k.=.n.@.! C n n h d y n G.Y g E E h E n C W h f r f g f ! y h g g g y d r h C g h y 0 t t 0 r r 0 6 & 2 0 r 0 2 0 2 2 2 0 & t % 8 0 & t 0 0 t & & 0 2 b 2 0 & 6 0 0 0 0 r f y & & # & & & % * & & # # # # # >   ..vXKXl.8XgX+ U.HXSX&X:.h.n.a.y.e.w.w.w.",
"%.%.%.$.w.y.y.i.h.k.8XPXCX1 XXPX@XXXvX6X  w = } # & # & .   & # # # # & & & = + C V & 0 u & & 0 # & & & & 2 * ,.'.>.2 0 & 0 8 2 0 0 & & 6 & 6 0 t 6 0 g & u t 2 f f # 0 0 0 t 6 y y 6 0 0 % A y f r 0 0 u t y 5 f y r y y t r h y y t 0 r f % d E h r t r d d d g f h h 4 ^ ] 4 n f y g h E g f Y h h Y h E E g h h E C f 4 i.Q j g f g h h E K ! Y ! h h E Y Y ! ! ..E d 8.>.2XsX2X<.W.W.-.a >.k.i _.'.<.F.!.F.l.^.R.'.L R.4XJ 9.X.l.OXE.*.P ..! k.9.K &.H.K ~ h ,.l.~ C n h ~ s 4 r d j g C s.^ ^ *.&.^ W C h ` n d d r n t 8 2 y C y C h f t t f t 0 0 u t d + *.'.1 t t h 0 t r & 0 0 r 8 r 0 r 0 8 0 0 0 & & & & 2 0 0 & 2 0 2 y 0 0 0 6 * 0 & 2 & y t & 2 % r r & & # & & * u u * & # # # # # >   R vXIXk.8XgX  U.JXSX&X*.h.y.y.e.e.e.w.w.",
"%.%.%.} =.e.y.i.h.p.8XPXCX$ (.IX+X!.cX6X  e &   # # #   V A   & # & > @ + & & & 0 0 & 0 & # & & & & & 0 % 0 $ >.6Xp.1 t 0 0 & 0 6 0 0 r t 0 0 & & y 0 2 0 0 0 0 y r y t g y 2 0 2 0 y y 0 0 y f & 0 f 0 y 0 0 } g 0 y f g f 0 y t 2 W h y f g n d y y y h h y r h f y h r _ [ d g h f y g Y h h h f g h h h Y h y y g n h d C h g n ~ 4 @.s.a E Y Y h h h Y ! h n E h h h h @.;.dXSXpXH...s >.*.X.W.'.P 9.+.oXH.+.O.E !.F.0.I.%XP ..:.P x..Xz.i ~ E ~ +...:.! ..! ~ ! @...E ! ~ ~ ~ n n E h d C f r E g E W ~ ^ l.O.! ~ h ^ n g r f f % f 0 0 = t y g r 0 & 0 h g j h r t 0 0 0 6 0 0 8 y r r r 0 0 8 t 0 * & % & & 0 r 2 & & 8 2 2 2 2 6 y 0 2 & & & & t 2 & 2 # q g @ & & # 2 * u 0 # & # # # @ # >   7.FXIXp.>XqX  U.HXSX&X=.f.i.y.e.e.e.w.w.",
"%.%.%.] w.e.u.i.h.p.8XPXMX$ .XIX X!.vX6X  e # & # # #   C _ . & # &   A Q   Q g . & = & & 0 t # 0 & & & 2 2 0 2   d 0 & 2 r 2 0 0 & 0 2 6 & 0 2 6 0 y u 0 6 2 0 r 2 r & 0 f E & t t 0 0 0 r t y y 0 f 0 0 0 y ] f 0 f y g d y f h r h y g g d d d d f t y j d r g y f h g 1 r h y y r f C r f y g h g f f j f f f h g g g f d g h f h h C W h h Y ! h Y f h h E n f h Y n @.3 0.qXpXU.H O.+.k.1 H.%Xk.&.*.O.W.>.>.9.j K.I.*.P &X&X1 &.O.p @.R.x.k 3 ~ ! h 4 E E Y E ~ E ! ! ~ C E ! n h h h h j h h h g y y g n 5 h f g h Y ~ W W E ^ n n h y f 0 0 u 0 0 y f 1 f t 2 0 y r 0 t 0 & 0 & r 2 2 6 6 0 0 6 t C % u y 0 0 r 8 & 2 0 & 0 & & & & % 2 2 & & & 0 & & & & = > & & & & & u % % & & # # # # # q   s.JXIXs.}.&X  `.HXDX&X&.h.a.y.w.e.w.w.w.",
"%.%.%.%.w.e.u.i.h.:.7XPXMX+ .XIX+X!.cX6X  w & # # @ & &   2 0 & & & & 0 t * & & & #   0 & & 0 # 0 & & & 0 2 0 2 e 6 h 0 * t 0 & & % & & 6 & & 0 0 6 y 6 & r 0 2 0 0 0 t r 0 t & 0 r 0 0 0 t 0 f f y h r 0 h h $ y 0 t r r y r t y 2 W C 2 E y r r d y g g g d r r r 2 h h [ r g d f y t f d h f h g h d n ^ 2 g n h h f W r d f h r f f Y d ! Y d h h ! Y E h h f h 4 W j   _.0XK.p P O.Y ^ J _.%XG.k...+.F.F.K >.:.@.y.I.K :.:.oXP.1 ! E K K '.'.z.  g C @.h h C ! ..g E E h Y K ! h h h h h h y g f n d f h h j O.h d y 2 E y r E C h C E E E C n ~ C C h r [ u 0 t t t 0 0 y 0 0 0 & r r 2 0 r 0 % r 0 u & V 0 0 & 6 0 6 & 0 & 2 & & & 0 g & & & 2 0 % & & & = # # & 0 0 & & 0 # & 2 & = # # # # q   g.GXIX8.}.&X  `.LXDX&X-.h.i.y.w.w.e.w.w.",
"%.w.w.e.w.w.w.y.h.>.7XPXZX1 (.IX X!.vX6X  q = & & # & & & & # & & # # * * # & t * u _ # 0 & & & & & & & t 0 & & 0 8 & 0 u & t t 0 q q & & & 2 & & & & 0 0 & 0 t 6 0 & t t & 0 0 & & & 0 2 t 0 0 g f E r f d 6 d r t y 2 r g f y 0 f 2 0 y n r h h 6 6 h f 2 r y 2 f W r u W r d d t y f E r f y g f y y Y E r f E h f f h r 8 r j f h f r n Y h h h h h E h d h h h ` . *.7X7Xh   [ +.9.@.s O.NXSX,X<.*.^ v.k.T *.:.^ C I.k y.&.+.R.y.3 / K F.qXl.W.P./   C E n f h h h ~ ~ h h g h n y d 8.E d g f t r g r f r r h g d y y 2 0 0 g u f h C h W ` / E ! C y 6 C f 6 g y % 2 & f t r r t 0 t t 2 f 0 A 0 & % 0 % & y t # 2 6 & 0 & g 0 & & 0 u 2 & & & & & & & & & & & & & & # & & # # & # 0 & # # # >   s.FXKX8.+X&X  `.HXSX%X=.f.a.e.w.e.e.e.w.",
"=.w.w.w.w.w.w.y.f.&.7XPXZX3 !.IX+X!.vX4X  e > # & & @ # . . & # & % # & & @ 0 C @ 0 V % 0 % % & 0 & t t & & & & & & % t [ @   u t V b % & 6 0 # 0 0 & 0 6 & = 0 0 0 = 6 & 2 0 0 f y 0 r 0 r 0 0 h <.;.K h 2 0 6 0 r 0 r r r r 0 y d y t C f 5 W W % y 0 0 r y r V h W y t 2 $ r f r y g n r d t y d f y f 2 g h n ^ y y h r 2 8 r d h r h h n h h 4 f h Q C n h C h + I.7X+XT.~ C d G.G.P a 0X%XG.0.~ O.3 k.*.>.&.0.O.+ c.U.R.8.K 1 OXz.. h T R K 3 h.W.V.  ! ~ f n Y h E E h f f h h h y E h g h E r d y r t f 7 ^ C 2 0 r g y 2 r 8 8 0 0 & 0   2 E C E g h j g h f r 0 0 u 2 t & 2 y 2 h n 5 2 % 2 0 0 & & & 0 & 8 0 & r 2 6 & f 0 0 0 & % & % & & & & & & # & & & & # # # & # & # & # 0 0 # # # >   5.bXGX8.@X&X  J.HXSXoX=.f.i.u.y.y.e.e.w.",
"=.2.w.w.w.w.w.y.a.+.7XPXZXs Q.KX XXXbX6X  q > # # & # . u V . # & & & # # # # . & * + & # & % & & 0 0 & % & 6 0 & & & % . % [ t % % & t 0 6 0 % u t & 0 & & 0 & 0 & & & 2 0 2 2 f h 6 d y f f E H ].lX,.K Y h g g f h h y y 0 r 0 0 u $ b y g & 2 t d f 0 d 2 C K.d 4 r 0 r ^ r y y y f 2 y y f y d E r g r r r f E 2 2 2 f f r r r j d f f h f f O.f n d r n ` + $ }.+Xh   ..@.h C P ].^.<X%X  s K Y X.8.P.i +.O.:.9.p z.E.  *.E ^ p.Q.s.:.Y ^ E ! 3 W W.K.| i h n E h h C y h j h f n h C h y y W d d y g f r h C h 2 y r 6 r 0 r 0 0 r y t ! W.9.4 & & & C u t u y f f t r f h r t r f % C z.$ f w.% % & & & 0 & + & 0 & 2 t 0 # & 6 0 2 & & & & & & & & & & # & & # # & & & # # @ & # @ @ # # # >   e.NXAX8.+X&X  J.HXSXoX*.f.i.u.y.e.e.e.w.",
"%.1.w.w.w.w.w.y.f.+.;XPXZXs T.UX}.oXbX6X  S . # & > @ . e V . # # # # & & # & & & & = & # & @ 0 0 # & & & % & & 0 & 2 & > * %.t * 0 & 0 0 r 2 6 0 0 0 0 0 6 h 6 t 6 0 & 0 0 r 0 & 0 0 0 0 2 r u i ^.<X,.h h g f y y h f 0 0 0 r t 0 & y.0 r f 0 y t d r 6 n f g r 2 y y r 0 ` r y y r f 8 f y d g y n d h f 8 r 8 r r g E d h d r r r g r f h E d ~ h f d V t 3 w.}.U.$ n W E Y E _   4XbX~.1 ` E Y h a u.pX^.T ..>.k.&.T &Xc.i E E 1 ` '.9.5 h E Y E E $ c.P.i.C C h g f y y h h g r g g W C r g C g f y d g r g y d 0 f r g 6 4 6 r r 0 d t P 4XF.3 h t 0 n y 0 0 & V u 6 0 & 0 & 0 0 0 & = g 6 u f.8.W . t & + * W g 6 6 & t 0 & & & % & & & & & 6 # & & & & # # # q # & & t & & 0 0 @ # # # # # >   j.SXGXs.OX%X$ `.HXSXXX*.f.i.u.y.e.e.e.w.",
"| ( =.5.w.w.w.y.a.&.;XPXZX4 Q.UX}.oXbX6X  e @ # # # & # * & # # # > & & & # # # # & & 6 = & 0 & % % & = * u u 2 & & 8 & & &   =.& t 0 0 & 2 & 0 t 0 2 Q *.  0 = % & 0 2 0 0 0 0 0 & t 0 y 0 0 f ~ p H j h y 0 0 y r 0 2 t y 2 r 0 0 u C 0 y W 2 d d C / 4 d r r 0 y r r r 0 $ 0 y y d y r O.g d h y Y f r 9 y r 0 h n y h r y y r d r r d d g d 4 g h f C   3 I.W.%.  C n h h h ~ W   T.'.p C Y h n h i w.&X,.~ ~ O.>.:.p i.7Xs.#.K C $ a.b.1 ` h h E Y ^ s k c.M.3   d d h f E h j g g f h d d d 1 [ W 4 y r r r r r y h 6 6 h E % r r + r d h 3 K y 0 f y t r 8 0 0 y r 0 0 = 0 & 0 0 & & & % u g   h r & 0 2 _ 6 b t + = = & & & & & % & & & & & & & & & & & @ 0 0 > 0 = # % @ & 2 # # # # & 0 & >   c.FXGX8.OX%X1 `.HXSXXX=.a.i.u.y.e.e.e.w.",
"%.%.=.w.w.w.w.y.a.&.;XPXCX3 Q.KX}.XXvX6X  N q @ # #   @ & t # # # # & # & & & & % & # t u . u.u * & & & # > 0 * g u & & & & = u 2 2 & 0 0 & 0 & & 0 = g & & & 2 C t t 0 0 & & 0 0 0 0 0 0 r 0 h f t C 0 f f f d y r y y r f r y 2 t     C u t y 0 $ ^ %.+ 0 0 r 0 r 2 b g f g 2 y t f r y r d g n f 0 h f f r y y t h f r y r y r d r j f f 4 ] =.d @.r   Y.=Xb.3 3 C g n h g Y @.  L..X  W h n Y Y ^ $ h.K.  W E E &.:.F.3 -X;X. W C E 1 y.a.1 E h E E E C E + ~ W.f.d 5 f d d d g h y g h 9 n ^ 2 r f g r r r r r r y 0 y f r y 2 & Y v.g g 0 b y y y y r y r 0 r 0 r 2 0 u 0 0 t 0 2 0 & g u t t 0 & & & & * [ 0 + 0 V V g % 0 & & & & & & & & % & # & & % # # > & @ g 0 # # % # & # # # # & = # >   z.FXAX*.OXoX$ `.LXSX!.w.a.i.u.y.e.e.e.w.",
"=.5.5.w.w.w.w.y.a.&.=XPXZX3 Q.IX XW.cX4X  S D   & . C # & @ # & 0 # # # & @ 2 & # & & 0 u # 0 > # # > = & & 0 & 0 & & > & & * + 0 & & t r % & 0 = t & u & # 0 % V 0 & 0 & 0 h 6 0 & r r 2 d Y 2 0 u n t 0 2 K f r 2 r r 8 2 8 t C . j.| $ 0 t b 2 n r + 0 2 2 r 8 y $ -.#.+ t 0 y f r 0 y r d r t r r n f r r r 0 8 y n h r r 0 r 8 0 d h h $ $.5.2   _ L.E.i.  h g f f h f g E r w.%X! h f f h n Y ~ $ L.h.s h W h ^ &.G.,.c.jXp d u.#.d 5 c.w.i n E g Y h d n 4 *.z.s.A   g h r g h r g h f W f r d y y y d f 0 y 0 2 y 2 h y 2 y r T 7Xe.+ 0 t 0 0 y r 2 2 2 2 0 2 r 0 2 & h E r 0 0 0 & 0 y & & 2 0 & & * g % % + C c.. 0 0 & 6 # # & 0 & % & & & # # # % & & # 8 # # # # # # # # # @ @ # X X @ >   i.NXAXO.E._.+ `.LXbXR.w.a.i.y.y.e.w.w.w.",
"w.w.w.w.w.w.w.y.a.&.&XPXZXs Q.KX XE.cX<Xq F   & @ e u # 0 # # & & # # % # # # % 0 0 0 0 u # & & # # # # & & & & # & & = 0 + V A + & & 0 8 2 & & & 0 0 2 0 + z.A . 2 * & 0 0 g & @ u y & g f 0 r 0 0 t % 0 0 0 2 h C % r 0 8 2 & g + j.{   0 0 2 y n f y r 0 0 0 8 g 5 4 2 r r 0 f 0 0 & g y r f f 0 r r d 0 f f 2 f r g Y r d r r r r y d y n r .   [ U.h.  1 C d g y r f f h 4 0 +X[ 3 E f f g n h @.~ L.*.d h E E E E ..*.H +XE.1 f g h h $ K.[ 4 ^ h h f g f f 4 + [ b.$.d r 0 y r f g y d u f r r n h 0 f r 0 r r 0 y g n r 0 r 0 d ~ h 0 0 & & 0 0 2 8 & 0 8 & 0 0 2 & 2 0 t 0 6 0 t & & % 0 & 6 2 6 0 * g t 2 & & + * & & & & & & & 0 & % # # & & # # # # # & % # # # # # # # @ # @ # # @ # @ >   e.NXAXT L.W.  _.PXxXT.e.a.u.y.e.e.w.w.w.",
"w.w.w.w.w.w.e.y.a.-.&XPXZXM T.AX}.!.cX4X  N & = . [ > X # & # & 0 @ # # # # @ % 0 0 0 & * & # * # & 0 # # > u # & & & & & % 0 0 & 0 & & 0 0 0 2 & % & & t V 0 0 0 0 > 6 f y % 0 b 0 0 0 h 0 0 t t t f 2 r 0 y f u u d f y 2 2 0 2 t + 5 & g C r t 0 6 0 0 0 r 2 0 2 A y 2 C ] * t h 6 0 r f g r 0 2 2 d f 0 0 r 0 y r f h r h r r d d y h 4 ` r f H.h.4   ` C d d d h y h g V   @XY.1 C E f h f h E E %.OX3 E n n h h Y h j n 3 8Xw.s E y C + c.L.  U._ j h f h g f h 5 1 y.s./ $ r f d h y 7 Q C 2 r r y y 2 W y r y r 2 f y 2 r 2 0 y 7 f 0 0 0 0 r r 2 & & & & 0 0 & & 8 2 & 2 0 0 6 5 K g & 8 2 & & & & & % 6 & 0 & t C = & & & ; & & & t % # # & & # # # & # # % & # # # # # # @ # ; # # @ @ @ >   e.NXAXK L.W.  _.PXxXF.y.i.i.y.e.w.w.w.w.",
"w.w.w.w.w.w.e.e.a.@.OXPXZXT T.FX}..XvX4X  q & # #   * # # & = 0 @ # # # # # 2 % % * # & & # % V = = 0 # 0 0 & & # & & % & & & & & & & & 2 0 6 & & 0 0 % 2 % & 2 0 * C g 0 t 2 0 g 0 8 0 & 0 0 & 2 0 2 2 t 0 0 t 0 0 h f % r 0 8 + C _ 2 t t d r 0 t 0 0 y r f f h $ c.A $ C Q 2 0 y 0 y y d h y % C h 0 r y 0 f r r y g 2 n f 2 4 2 r r ~ E   *.h.=.5 y h g h g d f r d f V   L.U.  W f d d h h g n j a.OX  / h Y n g h n h n   oXa.3 E f h C $ n.b.$ h h h g f d d d g h $ h s.s.d $ t u t y r g d r r r r 0 n r 0 0 d r r d r 2 2 r t y E h 2 0 0 2 2 2 8 0 r 0 0 8 & 2 8 2 2 0 6 * &.:.H.F.  0 2 & & 2 6 & 0 h 0 u = + w.V + # & & 0 & & & & % & & & # # # # # # # # # # # # # # # # % # # # @ @ >   i.NXAXs U.E.  _.PXlXl.u.i.u.y.e.w.w.w.w.",
"w.w.w.w.w.w.e.y.i.@..XPXMXM T.FX}.OXvX<X  l # # # & & # @ > 0 q & % # # # % % @ & = & & = u # > & & # & = 0 % 0 & # > 0 & & & & 2 & & & & 0 & 0 & & & & & & 0 2 & = & 0 0 0 6 0 g & 0 & 2 r 2 0 y 2 C 0 6 6 = 0 0 0 0 y f r 0 2 y u u r 0 y f 6 d r n t 0 f 0 f C 2 + r r 4 2 y 2 2 r 0 g r y g 7 y h f r r r r r r y d r t g f f 2 f r r W l.*.n 1 h f y f d x [ d ^ f C   h.}.  W f g E r g C g n i z.V.. h h h E h h h f h   R.W.  b f E h h C H.^ 5 f h f d h g g g y g u + W s.s.+ . f ^ h f y 0 f d r r g r r r r r 2 d 9 0 2 C y y r r f r 0 8 2 2 8 2 2 2 0 0 & 0 2 8 0 0 t   F.G.5 n 2 2 & 0 2 & 6 & & t 0 y 0 t 6 + f C % 0 & & & & % & # & & & # & & # # # # # & # # # # # # # # # # @ # >   g.SXZXs Y.E.  _.PXkX0.u.i.i.y.e.w.w.w.w.",
"w.w.w.w.w.w.e.e.i.@._.PXMXs T.ZX}.!.cX&X  w & = # & & & # # # X # & # @ # # # 0 & & # 0 & 0 & * & & & # & & & & & # > 0 0 & = # 0 & 0 u # & & 2 & 2 0 % 0 0 6 & u f & 6 t 6 0 0 & 0 0 y 0 & 2 0 d 0 0 6 0 g % 0 8 0 0 t h t > d g 8 2 0 0 0 y 2 0 r 2 r y y 0 t t 2 t r r r r y r d 2 2 r 0 0 y r 0 3 $ y r r 8 h r r r y r f y d 0 2 5 8.h.s.r g f h f y f d y h y W h 1  .+Xx 5 h h f h d h C f g h f.y.$ h h h 5.d g d n d 1 *.%Xs n n 4 g E d r z.n 9 E g d g E 4 Q ] 1   f 1 b [ z.h.+ C g 2 y n 2 r f 2 r 0 r f 0 0 2 0 2 2 V r r y n g u r d r r 2 2 r 2 & 0 0 & 2 & 2 r 0 f 6 ^ y 2 & r 0 & 2 & & 6 0 & & 6 0 0 0 t = & 0 u t % & & & & % & # & & & 0 & # & & # & & & # # # # # # # @ @ @ # >   j.SXFXT Y.E.  _.PXgX,.i.i.i.y.e.e.w.w.w.",
"w.w.w.w.w.w.w.e.i.@.W.PXMX3 I.mX}.!.cX&X  w > q # # # & # # # # X # 0 & & # # & # # # 0 u & u w & = & & # & # # & 0 & & & & 0 & & & & & & t # & & 0 & % 0 w u 0 & 6 & 0 0 & 0 0 0 & 0 0 & 2 r 0 0 2 y f & & & 0 0 0 t 0 r X.P f r r r 2 y 0 8 0 2 r & 0 r 2 y n y 8 r 8 r 0 0 0 6 r r r r 0 r 2 t   i.z.$ h r 0 r 8 y f E 2 r d 2 + A l.@.5   y r y h g f y r y r y 2 g   &XC.  A f f f d d g f r g r *.^ 3 n *.Q 4 d ~ n r f b   W.z.  y #.^ r C $ e.c.  t h n h f h n 1 x.L.  g 2   [ c.8.W + r 8 0 r 2 0 0 y r r r r 2 A 6 u b 0 r r 0 6 2 2 r r 2 0 0 0 2 r 0 2 0 & 0 & & 0 0 t y + % 0 & & 8 2 & & & & 0 & & & & t 0 t u q @ = > # > & # # & & 0 & & & @ & & & & # # & & # # # # & @ @ @ X @ X q   j.SXFX&.U.W.  _.PXgX,.a.i.u.y.e.e.w.w.w.",
"w.w.w.w.w.w.w.w.i.-.W.PXMX3 F.xX}..XcX&X  w # @ 0 # # # # # # # # @ 0 & % % # # # & &   Q u w e @ # 6 2 # & # & & & & 0 u # & 2 & 2 & & & 0 % # # 0 % & % 0 t 2 0 & & 6 6 2 2 * h W & 0 & 0 2 2 r 0 t 6 0 0 & r 0 0 f n + T.9XJ g f y y y r 8 0 2 2 2 2 0 y t 0 0 % 2 8 8 2 8 g t 0 y y r 2 f y 0 . [ %.5 t 0 2 f t y r y h 0 2 2 *.*.u 5 y y r d t y g g y d d r r V   W.L.  b ` h r d d r g g y r y 5 t s.*.C u f E h d d h h   b.E.. C W C d g f . =.w.1 g y y r y h 1 z.P.$ C W n h   *.s.E 2 % r y r r r 0 0 y h u 0 t 2 A Q $ r 2 f r r r   g b 2 0 2 & f f & 0 & 0 2 & & 0 0 & 0 & & 0 & & + * & & & & & 0 & & u t * & u & 0 # 0   . 0 = # # & & & & = & & & # # # # # @ @ # # # @ @ # @ X # q   c.FXAX*.P.R.  _.PXpXX.a.i.u.e.e.w.w.w.w.",
"w.e.w.w.w.w.w.w.u.$.P.LXMX3 v.nX}.!.cX&X  w # # & # @ # & # = # @ # # # # # 0 & # # 0 & @ & # 0 & # 0 0 # & & 0 & & & 0 t & & t 0 0 0 & & & 0 2 0 & & & & & & & 6 0 r t + C f.. t y y & f 0 0 0 y 0 0 & t C & 0 0 & r y 4 >.F.K 0 r r 2 r 0 t 2 u u 2 y y t y 2 0 @.2 y r 8 8 r t 0 & 0 r d d d y + y.h.. n h y r 0 r 6 2 n d Y ^ n 2 4 y r h d n d d d g f d d g C   c.]..X3 C d f n E d h d f f $ W 8.f 5.4 g f f f ^ h h d h 1 z.7XJ W r j C h g y h s.~ 5 r 0 f C f f +   h r 0 f E t f 4 C @.h % 2 y 2 6 6 y r y 2 0 r 0 2 $ r f 0 r 0 2 d Q V C % 0 u t & 6 2 & & 0 2 t u & & & & & & & 0 + _ b & 0 0 0 & & 0 2 % & & 0 2 & # X g h.w * & & & & & & & & # . V u X # # @ q > @ & # @ @ @ @ # = q   C.SXZX*.K.P.  _.PXpXR a.i.y.y.e.w.w.w.w.",
"w.w.w.w.w.w.w.w.u.%.K.IXxX1 n.nXE.OXcX&X  q & X u > @ # # # # # # # & # & # & # # # & t 6 & & & & & & 0 & & & 0 & # 0 0 % & & & 2 2 2 & & & & 2 0 & 0 2 & 2 % g C + 0 0 2 0 u 0 & 2 2 & 6 2 2 6 0 % C g & 2 0 r 8 t 0 0 y 4   f y 8 0 0 & 2 C 2 h C u y r r r y f n g 2 r 2 r 0 r f 2 0 r y r r y g b C 4 6 y E r r f 2 0 g ~ h r 2 j y d y 4 h y d y d r f g y C 1 } R.Y s.g h g h h h f d g y h 1 s.l.$ d f n h Y d j g d j f n a 8Xf.1 g E E C h r 0 9 9.y 0 r g h y d y g y f f f n d d f 2 t O.~ y r 8 0 0 y r 0 0 y y 6 y r r f r C 2 2 0 j.2 2 h t g t 6 6 & t 0 2 2 0 r & 0 0 & & 0 0 2 2 V t % 2 6 0 & & & & & 0 & & 0 2 u # 1 6Xz.  > & & & # 0 = # & # # # # # &   S V @ @ * # # # @ # & q   C.DXZX*.V.I.  _.LXpXU a.i.y.y.e.w.w.w.w.",
"w.w.w.w.w.w.w.w.y.%.H.KXVX3 m.nX}.XXcX&X  e = * @ @ # @ & # # # # # & 0 # # # % # & & & & & & & & = 2 0 6 & & & & > & & & 0 & & 2 % 2 % & & & & & & y 0 w 2 0 g C ] 6 0 r & % 0 & 2 2 & & 2 0 0 8 % u t 0 t 2 0 2 t 0 r y y u 0 y 8 0 0 0 0 6 0 2 r u 0 0 y 0 h f @.*.1 r 2 r r r d r 2 r h r y y 0 r 5 h f 0 0 r 2 2 f n h r 2 r y y r r y -.g d y r d r y y f C + U.*.$ $ f n h g h h f h g d y 0 E d E E d d y K Y h f d f n C   R.H.  / h y g f h r 2 ~ @.$ r d d 2 r r r y f r 9 d h h y r 0 9 g ! E r % 0 0 y 0 r 6 r y 2 0 0 9 0 0 y 2 V $ y $ %.C $ 0 6 y 0 y 0 & t 6 0 0 & & 0 & 6 0 y 0 + & 6 & & & 2 0 & & & & 0 & & & u 0 0   6 & t & & & & & & # & # # & # # # #   X X b w . # # @ # @ q   C.SXFX*.c.K.  _.LXaXP a.i.u.e.e.w.w.w.w.",
"w.w.w.w.w.w.w.w.y.%.b.GXVX3 k.nX}.XXcX&X  q w # # # # @ # # # # # # # # & & # & 0 # & # & & % & & & 2 0 & & & & & & & & % & # & & # & r & # & & & 2 t 1   g 0 % & g % 0 r & & 2 & 0 t & 0 & 0 0 2 t 0 * b A % y 2 & 0 r t t 6 t 2 g 2 0 0 r g & f y 0 d 2 y 0 & 2 2 d y 2 8 & r r d r r r y f 0 0 y f % h g 6 0 2 f ~ Y 0 2 d y r d y C r y Q j y r d y 2 r g C   K.i.$ g f h r 8.E h h g f E E y g C f y 6 d y r r h d f f h h h 5 $.Y.$ r r y g d d n f $ _ W + r r r y r r f g r r d r r r y r r 0 2 h ~ f 2 0 2 2 r 0 0 0 6 0 6 h d 8 r 2 t t $ V C 4 E r & t 0 0 y & 2 & = 6 & & & & & 2 0 & & 6 & & & & 2 t & & & # & & 2 & @ 0 0 > # # > & & & # # & # # % # # # # # @ # # # > > @ # # # @ @ >   A.SXFX*.h.b.  _.LXaXP g.y.y.e.w.w.w.w.w.",
"w.w.w.w.w.w.w.w.y.1.l.DXNXs 3.nX}.$XbX<X  w > # # @ # # # # # # # # # # & & # > u @ % # # # & % 2 % % & & & 6 # & & # # & & # 0 & @ # & % & & & & 0   k.!.  0 0 2 * & 0 2 0 & 2 2 & 2 2 0 0 % 0 2 t 0 & 6 & t 0 & 0 f 0 & & 0 g 0 0 u 0 0 0 6 0 & & & r r r r y 2 h h h 2 2 + 0 2 8 2 h r 0 y 0 2 g C 2 0 0 t 0 h W f 2 r r 6 0 r r r r y y j f d y y r 0 t g $ w.z.$ C r y g y h h r d n E y h h C n % f f r r r 8 r d d r y 0 g h    Xr.$ y y r r r y y u 2 $.Q 5 d y r 8 2 0 0 0 r 2 f f g 2 u h r r 2 0 h W f % 8 y 8 & r 0 r 0 0 y 6 0 0 & 2 . %.%.  g y t 8 2 r 2 & & 0 & & & & & & 2 2 & 2 6 & & & & & 0 & 2 2 & # & & & & & # # & # & X & & # # & & # # # # # # # # # @ # # X X # # # & # # N   A.SXFX=.e.h.  _.LXaXP a.y.y.e.w.w.w.w.w.",
"w.w.w.w.w.w.w.w.y.1.k.FXNXm 3.nX}.#XSX4X  w @ # # # # # & # # # X > w # & # . # @ & & & & % % & & & # & & 0 & 0 & & & & & & & * & % # % & & & & & t   9.R.+ 0 2 2 & 0 & & 0 & 2 8 & 2 0 & 2 & 0 0 & 2 2 0 r 6 0 r y t & 0 0 2 g 0 0 V & 0 t 0 2 r 0 2 0 2 0 0 f 0 r & 2 2 r ` 0 0 2 0 f y 0 r 0 r 0 0 y 0 & f E ! g 2 r y r 0 r r 2 2 d d g f y y r r r r r h C y.4 f f y d y r y f W f g r y f f f f r f d y r 8 r r d r r r r g f 4 C A 9 r h C 2 d Q f d 5 S e.. t y r 2 0 y r y 0 r y d f 8 t f r r y 0 0 u E C r 2 & 2 0 0 2 0 0 y 0 0 2 % y t + $ & t f f 2 h @.2 h 2 0 & & & = & & 0 2 & 2 2 & & & & 2 & & & 2 0 & & & & # 0 & # 0 & & 0 0 & & # # # # # # # & # # # # & # @ # # # # # # # > D   C.SXSX*.%.a.  `.LXaXP a.u.y.e.w.w.w.w.w.",
"w.w.w.w.w.w.w.w.e.1.s.NXNX' 3.nX}..XbX<X  w # # # # # # # # # # # # # # # = V @ & # % & % & # # & & # & & 0 & 0 % # & 0     & y & 2 0 & & & % 2 6 & 0 +   t 2 2 2 2 0 & 2 & 2 r 2 & 0 t 2 & 2 & 2 2 0 r 0 6 r 0 0 0 2 t 0 r 0 & 0 0 0 f r 6 0 0 r 0 2 r 8 0 r r d 2 r 2 y h W r 8 r 0 0 0 f r r 0 g t 2 f h h f 2 r d 0 f d r d r r r d d r r y r r r r r r r s.d r y y f t d h r y h d g r y y 2 W h 2 r y 2 0 0 r r r r f d f g g d W #.* r y f 9 d y r h h 2 _ W y r r r r t y h 0 r r 2 8 2 2 r r 0 r 0 y & 2 h C g % & 0 0 0 2 2 2 2 2 r 2 r 0 0 y & C y & r 0 . [ l.. 0 & & & 0 & 2 & & & 2 2 & & & & & & & & 2 0 & & & & % & % # t 0 = 0 & & & # # # & # # & & # & & # # * @ # # # # # # @ @ >   C.SXSX@.4.a.  `.HX7Xp a.y.y.e.e.e.w.w.w.",
"w.w.w.w.5.5.w.w.e.1.p.NXNX' 3.nX}.E.cX&X  w # # # # > & & # # # # # # & 8 0 C X & & 0 & & # & & & 0 # & # # & & # & % . Q A . W & & & & # r 0 0 0 0 & 0 u 0 0 2 & r 2 & 2 r h & 2 & 2 0 2 2 2 & & 0 r 0 0 u r y t 6 6 0 0 & % 2 8 y t C h & f t 2 0 8 0 2 0 0 0 d d r r r r 2 r r r r 6 0 t 0 y r 0 2 E W y 8 f r 2 d r r h r ^ h 2 r r d r d r r 0 0 r t 5 *.W A h f h y g g h y y r h d y f y y $.h W r r n y r y r 0 r d f f d f r Y O.r 8 h r r r 2 C ^ 2 2 2 ^ ^ % r y f y y 2 r r 8 2 8 8 2 2 r r r 0 0 0 8 % 2 h C f % 0 0 2 8 0 2 2 2 & r r & 0 & 2 0 t 2 y y 2 9 2 & 0 u 0 u r y 0 2 & & & & & & 2 2 & & & 2 & & & & & & 2 & % & & = @ & & # # & & # & # # # # & & # # # & # # # # # # @ # w   C.SXZXW e.f.  `.HX4X3 a.u.u.y.e.e.w.w.w.",
"w.w.w.w.w.q.q.w.e.w.:.VXVXS :.nX}.E.cX%X  w # & # # > # # # # & # # # @ # #   & # & 2 0 & & & # & 0 % & # 6 & 0 & & E $ %.}   @ & & & & & 6 & & & % h t & 0 0 2 % u 0 & 0 8 y & 0 0 2 y 6 & & 2 2 0 r 2 = b C C 2 & y r 0 t g 2 0 0 & 0 u 0 0 0 6 0 0 r 0 0 0 r y d r 0 0 0 y r y r y 0 r t y r 0 h h y r 0 0 f 5 W _ 5 r r r r r y r h d r y r r r r g $ _ =.+ Q h h g d y d n r h y h h 0 W f f [ 0 n r 0 y 9 2 d f r r r f f h g h 1 %.i.+ u r 9 r y C C 5 Q C 4 E 0 r y f r r n y r 8 0 0 0 2 0 r 0 r 0 r r 6 r 2 % t C ] g 2 0 & 2 2 & 2 & 0 0 % 2 2 6 % g n y % 2 0 2 0 0 t & & 6 & & 0 2 2 2 & & 6 0 & & & 0 & & & & & & & . . & & & % & & 0 6 # & & & & # # # % @ # # # & # # # # @ # # @ # q   A.SXSX@.z.x.  `.JX=X1 f.i.u.u.y.y.e.e.w.",
"w.w.w.w.w.w.w.w.e.w.o.lXdXv :.nX}..XvX%X  q # # # # X # # & # @ q > # u # # # # # # @ 0 & & # 0 & & % & # 0 & 2 q   !.5.    & & & & # 8 0 # & & & 0 0 0 & f h & & & 0 & % 0 b % 0 & 2 0 0 & & & 0 2 2 2 & % 0 r 2 2 0 8 0 0 u 2 % r 0 r % C u & r r & t 0 2 r r 6 0 y 0 0 0 & 0 0 0 0 r f 2 n h t f r & f 8 2 f 2 C W 5 r y 2 0 0 r r f r r f n r d r d C [ $ y 4 y y r y y y f 5 #.Q 4 d r r 0 r 2 & 2 0 y r b n r f r r r y y d f h 5 A f.+ y y r f t r 0 y Q C 5 E @.+ t 2 g d h h 8 r 8 r 8 2 0 y 0 0 r r 2 2 0 2 0 & % C Q u 0 % 2 8 & 0 8 2 2 r 2 2 6 2 0 f j +.j 6 6 t 0 & & 2 & & & & 0 2 0 6 2 & & 2 & & 2 0 0 0 # & &   A ]   & # # & & 0 0 & & 0 q & & # # # # # # # # & # # # ; # @ @ @ >   z.bXSX*.I.K.  `.BX=X$ f.i.i.u.y.y.e.e.e.",
"w.w.w.w.w.w.w.w.y.w.o.dXdXy >.nX+X#XbX&X  e & & & & # # # = & # # # # q # # # & # # # % 0 @ # & # # # # # # # & 6 6 h & 0 V * & & 0 & & & # # & r & # & & = & & & 0 & & 0 0 & & & & 0 2 2 8 0 & 0 0 2 2 2 & & 2 2 0 & 0 0 0 5 | C % 2 & & t r r 0 r 0 0 0 & 0 0 2 0 r r 8 r 2 y r 2 u W 2 2 W / & 0 r 6 0 2 g t 2 2 5 0 y d 2 2 8 8 r 2 r r t 2 t y h $ =.u 2 t y y A y 8 r y r r y d g j.r f 0 h y 0 2 2 y 4 Q W r n h n 8 r d y y r f $ x.V 8 0 y f 2 r r C r 4 y 4 ~ f r f h h 2 0 r r 2 2 2 & 2 2 2 % 2 & 0 0 & 2 2 2 r % 2 t n u # % 8 & & 9 2 2 2 0 0 0 t X X.qXu.  t & 0 0 & 0 & 2 & % & & y 0 2 & & & & & & 2 & 0 0 # & 2 u V . & & # & # & = & = %   & 8 # # # @ # # # # # # # # = # @ # @ q   f.vXbX:.I.I.. `.BX=X$ f.a.i.u.y.y.y.e.e.",
"w.w.w.w.w.w.w.w.y.w.o.dXdXb >.nX+X#XNX>X  V 0 @ # # # # & % # & # # # @ # # # & = # # # & & & & # # # & & & & 0 y 2 @ & > u & 6 & 0 0 u # & & & & # t 0 & & 2 2 6 u & & 0 0 0 y & r 0 & 2 & & & & 0 2 0 & 0 0 2 0 & & 6 2 0 2 u t 2 0 0 % A u % 0 0 0 0 0 0 0 2 2 0 0 2 2 0 0 2 2 0 0 t y g y 4 0 2 r 0 y 2 _ u 9 d r 2 r d r r 8 r 2 h y y f 0 r t % s.C % t r y f f y h g 2 W C 9 8.#.u f f 2 r r r 0 r r r 5 4 r 0 r r r r y r f f b 4 s.[ + y h $ %.A 2 y r y y t r ^ y 2 r f 6 2 2 2 r 8 8 2 8 y r u A g % y u & 2 8 0 0 t & 6 g h y 6 & r r 8 2 r r 2 r 0 0 K 9.Y 2 6 & 0 6 & & & 2 2 % & t % * & & & & & & # 6 & 0 0 # & 0 @ & > % & & & & & # 0 % O.F.h # & # # # # & # # # & # # @ # # # @ q   f.vXxX*.b.F.+ `.BX4X3 f.i.i.u.y.y.y.y.e.",
"w.w.w.w.w.w.w.w.y.%.o.dXVXS 3.xX+XoXSX4X  e @ # # @ # # # # # # & & # # # & # # # # & # & & & & % & & # # & h & & & & 2 # * & t & % & & & & & 6 0 & t 0 & & & & & % & & 0 0 0 t & t 0 * & 0 0 0 & 6 b 0 2 2 2 2 2 & 2 t 6 r 0 % 0 f t 0 0 V u h 0 $ 5 t 2 8 2 r 2 y y 2 2 0 0 2 0 + 2 h n 0 t y b C r r r f 5 2 2 8 2 0 y y 0 r r r r f r r r r d % C a.9 r t h y d d d n E 4 g g 2 C V f g % g $.2 r y r r r r r 9 y 2 y d r r y j r } g h %.5 d r t y y y f y y t y f C ^ 5 0 y y r r 2 y r 8 y 2 b y _ A f 2 f n 2 0 r 2 0 0 6 6 0 t h h 2 & 2 2 2 r 8 2 2 0 f &   2 0 h 0 2 2 0 & & & & % u 0 & g = & & 2 & & & & & & & & & # & & & & & & & & & # u   T.kXX.. = & # # @ # & # # # & # # # # # # >   x.bXbXE f.n.. `.JX7Xp f.i.u.y.y.y.e.e.e.",
"=.w.w.w.w.w.e.y.y.4.) dXVX' p.xX+X*XNX4X  q # @ # # # # # q # # & & # & # # # & t & & # # # u & % # % 8 & & & 2 0 & % & & 0 % # # 6 & & & & & 0 t & % t b & & % & & & & 0 0 2 6 t 2 2 b u & & 0 & & & & 0 2 y 2 t 0 2 0 0 & & 0 0 0 2 6 0 % r v.. j.a.  0 0 2 r r 0 r 2 b 0 u 0 2 ^ 8.7 [ r g Q % y 7 d y y r r t f y 0 y 8 4 y r 2 r r d r r r $ C =.  d y y g y y h g r 9 h y 4 y W 4 t f 8 r f 0 f r y r 0 r 2 r y d r d r f d j y h r r @.f r r y r y r r d r 0 y f 2 / ^ + t r r r r r 0 2 r r C 0 5 2 y y % 2 u 6 6 2 0 & 0 = 0 & & u g t @ 0 8 2 2 2 r 0 2 & 0 & & r r & 0 t 0 2 & & = 2 2 & Q 6 & & t & & & & & & 0 0 & & # % & = & & # & & & & & K :.j & & % & # # # # # # & & # # # # # # q   n.vXxXK z.z.  _.HX7Xp h.i.i.y.y.y.y.e.y.",
"$.[ V %.%.w.[ $.w.$./ dXVXA >.xX XE.cX#X  w # # # # # X & > & # # # # & # # & & # & & # # # & & # # @ & & & = # 0 & & & # & # 8 # & & # # & & & & r & 0 0 # 0 u 2 & & & t t 2 6 0 2 $ $.C % = & & & & & & & t 0 0 0 2 0 6 2 & & & & 0 r t 0 6 2 % V u % 0 2 2 2 2 f u % C 0 % h E / W $ 2 r r 2 y 0 r r 2 0 2 6 0 r f r 2 f Q r r r r r f t 0 y y =.y h f r r r r r y y y 4 Q V $ 2 4 d 0 r 2 f y 2 r y 0 f r 0 8 0 f f 2 2 C C r h r t 0 2 C W % y r y y 0 r r y 0 r r r y [ b r g r 0 6 2 2 C g 2 2 2 r y & 0 0 0 A 2 6 & 0 0 & 0 0 0 0 0 2 f n r % 0 & u 0 & & & & & r 2 & & 0 2 0 0 = & & & & % & 0 % & & & 2 # & & & & 0 0 % # # # & & 6 # & = = & 0 @   & & # # # # # # # # # # # @ @ @ # # @ >   k.vXxXK M.n.  `.HX4Xp a.e.b $.w.w.w.w.u ",
"w.y.5.w.w.e.e.w.i.w.x dXVXv o.xX XI.eX!.  w > @ & # # X & & @ # # # # # & @ 0 # # # 0 & @ t & % # # 0 = & # # # # # # # # # & & & # # & # & & & & & & & 0 # q g % 0 & & 6 & 0 & 0 u 6 $ & & 0 0 & & 0 & & & 0 6 & 0 2 & & & & & 2 & 6 2 & 2 6 0 f * % & 0 2 & & % t 0 y 2 2 n W t + $ 0 r r 6 r 0 8 0 r d t V y y 8 d r 9 y ] y t r h f * A u . Q C 2 r r y r f r r r 0 h u % % f y r r 0 r & f r f C d 0 r t r y 0 y d _ r u f n 0 r t 2 2 g #.% r y 2 0 0 2 r 0 0 8 8 r r 0 [ f 0 y r 0 2 0 0 0 2 0 & 2 0 2 0 6 0 2 0 & & 0 0 0 0 t 0 2 & t t n u t 2 0 t 2 & % & & % 2 % 0 r 2 2 0 0 & 0 t % 0   e.{   0 & & & & & & & & # & # # & # # # & # # & = & & # > # # & # # # # @ # # @ # @ # @ @ # # @ >   :.cXxXH M.b.  `.JX5Xa M.I.j.e.i.u.a.a.f.",
"=.%.#.$.$.$.} [ %.w.h dXVXy U xX}.T.eX(.  w 0 @ # # @ # # # # # # # # # # # & # # # & & & & 2 & # @ 0 0 & & # # & & # & & # & # % & & & & & # # & & & = t # & % 2 & & & & & 0 & 0 S % t 0 6 0 t & u 0 % & & 2 & & 6 & & & & 8 2 & & 2 % & 0 & 2 r & & & 2 8 2 2 r r % t n h y % 0 r 0 8 t f 2 2 & 2 2 r r t C 2 0 r r d d 2 5 g r f y r f 2 + C ^ $ 8 9 r f r y r 9 y d h g g 2 r g r 2 2 0 8 W r y f r r d r r r y y r W y r r y f y y 6 0 % b h 2 r 2 0 8 2 & 2 2 r r 8 0 & h ^ 0 u g 0 r 2 8 y 2 0 & 2 2 2 & 2 2 t t 2 & 2 0 6 0 0 0 0 2 0 0 % & r r 2 2 & & & & & & & 2 2 0 % 0 0 0 & 0 0 * . A g + & t & & # & % # & & & & & # # # 0 & # & 0 # & & & # # & # # # & # # # @ # @ # # # @ @ X @ @ >   >.cXnXp M.b.  `.HX7Xp c.b.g.w.w.w.e.w.e.",
"$.| ] 5.%.[ A C ] } h dXVXt U nXW.OXbX*X  w @ @ @ # # @ # # & # # % # # # # # # & # @ 2 0 @ r 2 % 0 # % 0 & # # & # & 2 & & & # & & & & & & & # & & & & & & 2 0 0 0 8 r & & & 6 & % 0 0 0 & & 0 0 0 & 0 & & 0 0 = & & 2 & & 2 & 6 0 & & & & & & 0 2 & 0 & & & & & 6 g n y & y 0 r r r 8 t r r 6 8 r 2 y t 2 d r r r 0 8 r r r h d g f d h 8 r [ 2 r 8 8 r r f r r y r t t y u r t y r r r y 0 d r 0 2 r h d g 0 r 0 0 t 2 t r g 0 r f r r t 0 u h 2 0 8 2 8 2 2 0 r r 2 r r y y h h & g t C 2 r r 0 0 0 0 & & 0 2 0 2 & 0 2 & & & 2 & r 0 & 0 t 0 & 6 0 t y & & 2 & & & 0 0 & & & & & & & r % h u + & & # & t & # & & # & # & & & & # & & # @ u u # & & & # & & # & # # # # & # # # @ @ @ @ @ # @ @ >   p.cXnXp c.n.  `.HX7Xp u.=.V [ =.%.=.} S ",
"%.%.%.#.#.} ] [ #.%.I dXVXt I nXW.*XSX>X  w # @ # # # # # # # # # # # # & # # # # & & # 2 9 u u 2 0 8 & # & & & # & & & & # % & # & & 2 & & & & & % & & & 0 0 0 & & & 0 & & & 0 2 & u $ . q & 0 6 % & & 2 2 0 0 0 & & 0 r 2 2 0 & 2 & & 2 & 2 6 0 & 0 0 & 2 2 & 0 y f & 2 0 2 0 r r r r r 6 0 0 r r 0 0 r r r 0 f y r r r j d X.D.;.T f r 8 [ t 2 f 0 f r r b f r y h W f r r r r r r y y % 0 r 6 r r 0 r 8 r r y y r r / f y h f h f 0 0 0 y t A r h C y y 0 r 0 2 t f y r r 0 0 C f 2 0 0 0 0 0 2 g 0 2 0 0 0 & 0 6 0 0 2 6 & 0 0 2 6 6 0 0 & 2 2 6 0 & 0 0 & & & & & y 0 & 0 & & & 2 & 2 * Q C . 0 & % & 2 & # & & # & % & & & & & & & & @ u 0 X # & # # # # # 0 & # # # # % # # # @ @ @ @ @ @ @ >   s.cXkXi z.x.  _.HX4Xi i.w.| $.#.} } | %.",
"%.%.%.$.$.$.#.} } %.) dXdXt ! nXW.oXbX&X  q # @ # # # # # @ #   X # # % q # # # # & % # % h H H u & & & # % # & & # % % 0 & # & & # & & & & & # & & % & = 2 0 & 0 0 % & & & 0 & 2 u   R.c.  q & & & & % 0 2 0 & 0 0 0 & 2 0 2 & & & & 2 & & 0 t 0 % 0 & % # 0 y t 2 r 0 6 0 2 0 0 8 y r r r 0 0 2 r 0 r t 0 y r r r r r d f V L rXqXH V   @._ . u t 0 0 r r 0 f f r y y & r t r f r r 2 0 2 r C r 0 0 2 2 2 f h r f f h f r r h t y r r 0 0 & 2 h h y 0 0 2 0 8 0 0 y n 0 0 f 0 g f W 2 r r 2 0 r 2 6 2 % 0 0 2 & r 0 2 2 0 0 6 2 2 t f & 2 2 & & 0 0 & & & & 6 0 6 2 & & 2 6 6 2 & & & & & 6   h h & & % & # % & & & & & % # & & # % # & 0 # X # # # & & # # & & # # # # & # & # # # # @ X # @ @ @ >   s.cXkXi c.x.  _.HX4Xi i.w.%.$.%.$.} $.| ",
"=.5.=.e.%.-.-.#.#.-.-.lXdXr I nXW.XXcX#X  V > X # @ @ @ # # . u q . # # # # # # & & 2 0 b H $X].3 g 2 & & & & & = # # & & # % & & # # # % & # # # & & . + 0 0 0 & 0 & & 0 & 2 & & 0   N.z.  0 & & & & & & 6 2 & & & t & 0 & & & & & & 0 & & & Q 0 & & & & f h r & 6 r t % b n % 2 0 6 2 t y 2 y r r 2 h y t y r r 2 r r r r y X.!.R.P % ` [ 2 0 0 0 0 r 0 r 0 r f 2 2 2 2 8 0 2 f r 0 0 0 0 0 0 0 6 t r 2 r r r 2 2 y y 2 t 0 r r r r r 2 y t & g V $ r r h & 2 & 0 2 2 0 2 r 0 u 0 y y & r 2 0 r r 2 g C y t & 0 0 2 2 2 t 0 & t 2 t f & 2 & 0 2 & & & & & & & 6 0 0 & & 2 0 % & & & & & & & & 0 0 & = u & & & & & & & & % # # % & & # # # # & # # u & # # & > & # # # # # # # # # # # # @ # @ X @ >   y.cXkXp M.n.  _.HX4X3 i.w.w.=.%.1.%.$.$.",
"%.=.=.=.%.%.$.-.%.$.=.vXdXr I kXW..XcXoX  e # X @ @ X @ @ #   V 0 . # # # # # # & & & 0 V H 4X&Xi V r 6 & 6 0 & > # & # # # # # # # # % # # # # # # . C A + = & & & & & & % 0 & 6 +       0 0 & & > & & & & & 0 & & & & 0 0 & 2 & & & & 0 0 6 & % & & 0 h y 2 & & 0 0 6 & 0 0 % 2 r 2 0 2 6 2 0 8 2 r r r t r 6 r r 6 r 0 2 g C 1 . 0 2 8.b 0 t 0 r 0 r 0 2 r y 2 2 8 0 2 2 & & 8 8 0 0 & 0 0 r r r 0 y t 2 2 2 r r 2 % h g y y 2 0 2 t 2 r 0 t 2 _ h 2 0 r & & 0 0 0 8 2 2 0 8 2 0 & h g 0 2 2 & r y t u 0 r 0 0 & & & & y 0 & 0 0 # 0 2 & & & & & & & & & & & 6 & t t & 2 & & # 2 & & & & & & # & # & 6 & & & & & & % # # # # # # # # # # # # # # # # # # & = # # # # # X & # # # @ # @ # @ # @ @ >   5.cXkXK H.b.  `.HX=X1 i.w.w.2.2.%.%.%.%.",
"%.=.%.%.%.%.%.%.%.$.=.vXdXy I kXW.(.cXoX  > @ @ # # X @ # # # . . # @ # # @ # # & # # X % n p H g % 0 & # % & # & & & # # & & & & # # # % # & & # & . V A @ & & & & & & & 2 & &   E v.# 0 & 0 & & & & & & = 0 0 & & & & 6 2 2 2 8 & & & & & 0 u 8 & 0 f 2 & 2 2 0 0 & y t & 2 2 0 6 & & 2 f r 8 r 2 r r r r 6 r r 2 2 & 0 y y y g u + Q f 2 0 t u g r y r y r r r 2 0 2 8 0 0 8 8 0 0 2 2 0 8 0 r 0 r t r 8 2 8 6 2 8 r 2 % 0 g C 2 0 2 & 2 0 0 % [ C % 0 6 r 0 0 0 0 0 r 0 0 2 0 2 & 0 h 2 0 & 2 0 h 2 0 % g g r 2 & 2 * V g % = & & & & & 6 & & & & 0 & & & & 0 & 0 0 2 y & & & & & & & & & & & & % # f & # & # # & & & # # % # & # * & # # @ # # # # # & # # # # # # # @ # # # # # @ # # @ # @ X =   i.cXnXI b.n.  `.HX4X1 i.w.w.w.=.%.%.%.%.",
"%.%.%.%.%.%.%.%.=.%.=.cXdXf ! gXW.!.cXoX  F u . # # @ @ # # # # # # @ # # # # # # # & # 0 2 v e % 0 0 % % % # & # & & & & & 8 & & # # & & & % % & # # + . & 0 % & & & 0 2 & 0 2 @ h *.@ 0 & & & & & & 0 & 0 & & & & 0 0 & & 2 & & & & & 0 t   3 W % 2 0 2 2 0 2 0 2 6 r 0 8 0 2 d r 8 r 0 y d 6 r 0 8 r 0 0 0 2 r y 2 6 r t & t r % C Q % f 0 0 r r r y 0 f 0 8 0 2 0 8 0 r r 8 8 0 0 2 r y 8 0 0 0 0 8 2 8 r r 2 & 2 r 0 r 2 0 f 2 n t r y 2 t b t h & 2 0 t 0 8 8 8 0 d r t 0 2 0 & 0 h h % 2 6 0 6 0 t 0 0 0 & 0 & & % u C & = & & & & 0 g & 0 2 & 2 0 & & & & & & & V r & % & 0 & & # # & & & & & % r & & % % & % % % * 0 = # # # # % # & # * * & # # # * @ # # # # @ @ @ @ @ @ @ # .   # X X # e   j.vXnXk x.z.  `.HX6X3 i.w.w.w.=.%.%.%.%.",
"%.%.%.%.%.%.%.=.=.$.=.cXsXf ~ iXY..XcXXX  e > X X X @ @ # @ # # # # # # # # # # # # & 0 & & = 0 & & & 2 & % % & # & # & & & & & # # & & % 2 & # & & # & 0 & & # & % % & & % 6 t & 2 $ & t 0 & 0 6 & & & & & 0 8 & 0 0 & & & 2 0 & & & & 0   8.R.. q 0 0 & 6 2 & & r 0 2 2 0 2 8 @.0 0 r 6 r d 2 0 8 0 r r t h 0 2 0 6 y 6 2 6 2 2 r @.r r r y 0 r 0 0 2 6 0 8 8 0 0 r r r t r 8 2 2 0 % b C f f 6 r 8 0 8 2 2 8 r 8 y r 2 d 0 % 2 0 2 2 0 0 r 0 & t W % V 0 & 2 0 r 0 8 0 f %   0 8 2 t 0 f h 6 & 0 0 0 0 0 & t 0 2 & 2 & . _ 0 & 0 0 & 6 6 2 & 0 6 r 0 & & & & # t 0   u . & 2 & % 6 & & & # & & & & & & % & & % & % & # % > & @ # & & # # # X q e @ # # @ > q @ # # # @ @ @ @ @ # #   [ s.  & @ # e   j.vXnXi x.z.  _.HX4X$ i.e.w.w.2.%.%.1.%.",
"%.%.%.%.=.%.=.=.5.%.=.cXsXf ! 0XU.!.sX(.  > > X # X @ @ @ # @ # @ @ # # @ # # # # @ 0 8 & & & & & & & 9 2 & & * * & & # # & & & # # # & & @ # & & & # & & & & & & 2 # & & 0 0 . N 0 & & & & & 0 & & & > & 0 2 & & 0 & & & & & = & & & & g $ 8.v.  0 & & & & 0 6 & r 2 r 0 2 0 2 y & 0 0 r r 0 r y 0 0 0 2 V g 0 & 0 0 2 0 2 & 2 * ^ g 0 r r y r r r 2 0 r 6 0 8 8 r r y r y h 2 0 & 2 0 2 t % r r 0 8 0 8 0 t 2 r 0 2 2 2 2 2 & t r 2 0 y 8 2 y 0 & C t u t 0 8 y 2 g 0 0 2 W x.$ 2 . & % & n y % 0 0 6 6 6 6 6 & & & 2 % b % & & = & & & & 2 & & & 6 6 % 0 & 0 & & & C % V % & & & & 2 & & # & & # # & & # # & & % & & & % @ & & # # # # # # @ > q @ # # @ & > @ # # @ @ @ @ @ @ & # . q u . # @ @ >   j.vXnXj c.z.  _.LX4X$ i.e.w.w.w.w.1.w.1.",
"w.w.%.%.=.=.=.5.w.%.>.cXsXh h 0XP.!.tX!.  q @ # & X X X X # # X @ @ # @ # @ # @ & & # & & & # & # & # @ % % X u w * & & # # # # % # # & & # # # 0 = & > # & u & # % # @ % & &   %.N + & 8 & 0 # & & & & 0 W & & & % 0 0 & & 2 0 & % f y 0 >     t * b t % & & & & & & & & 0 r 2 r & & & & 0 0 0 r r g 2 2 2 & 2 2 0 2 2 2 & & * h E 2 0 g r 2 0 r 8 r 0 r 0 2 2 2 2 & 2 0 0 2 2 8 % r 0 8 2 0 t 2 0 2 8 . Q i.  0 6 2 2 0 2 & & 8 2 2 0 0 8 0 0 8 0 2 h % 0 8 & & & 8 & & * g e.$ t [ % u & % r & & % r 0 & 0 2 2 0 & & . #.g @ 0 0 & & & & % % # % % & # & & & 0 0 = s.& g & & & 0 & 6 & & # # & & # & # # # # # @ 0 & # # # & = # # # # @ > # @ # # # # # X @ # # # # @ # # @ @ @ X X .   # @ # # >   h.cXnXE b.z.  `.HX=X1 i.e.w.w.w.w.w.w.%.",
"w.w.%.%.=.=.5.w.w.%.&.sXcXC h 0XL..XcXXX  q # @ @ X > # @ @ @ V & @ @ @ @ @ @ @ t & & 0 0 # & & & @ # # # > @ u q & & % @ & # # & # # # @ # # # 0 * u b * 0 0 % % % . C g % & &   * & # & & % & & % & & & % 2 & 6 & & 0 & 0 # & 0 0 y & # & t 0 0 2 u 0 & 2 0 0 0 0 & 2 & & & & & & 2 y 0 2 2 2 2 2 r 2 y C b % 0 0 & & & 2   C @.  0 0 0 0 0 0 f r y 6 0 0 2 0 2 y & 0 0 2 0 % % & r % W g 0 t 2 8 8 8 0 2 r 8 % y 0 2 8 2 2 2 8 2 2 & 2 2 8 2 & 2 & f 0 2 r 0 2 & r r 2 0 @   2 t ] & % & 8 % y 0 & 2 & & 0 2 0 0 2 & & . & * 0 u % & & & & & % % 2 & % & & & & & 2   @ & = # # # # # & # & & # # # # # # # & & # # # # # # # & = @ # # & > # # # # # # @ # # # @ # # @ X X @ # # # q X # X # # @ >   h.cXnX! x.n.  `.HX=X1 i.e.w.w.w.w.w.w.=.",
"w.w.%.%.=.=.=.w.w.=.o.sXcXC E 7XC.XXcXXX  q # X # @ & # # @ @ = # @ # > @ # @ @ X @ % & @ # # & & # & & & & % @ & + . # & 0 & 0 # # # % 0 # # # # & # # g 0 * & & & 0 0 & & @ & t & & 0 & & & & & & 2 & % & & % 0 & 0 & % & 0 0 t 0 & & 2 6 0 0 = 0 % & 2 & & 2 2 0 & * 2 2 6 0 & u 0 % 0 _ & 2 & & 2 f u t t 2 2 & & 0 & 0 . h t % u b 0 0 8 2 6 r r & & & 0 0 6 0 0 2 2 2 0 & & & % 2 y % % 0 t 0 8 0 y + C _ $ g 2 2 & & 2 2 2 2 2 2 & & & 2 & 0 * h r & 0 0 2 & 2 2 2 & 2 t & y . & & & & & 0 y & & & 0 0 2 & & 6 2 & 0 6 = 0 > & & & 2 # 2 & % & & # # & & & & 0 t . u 0 # & & # # # # & # * & % # # # # # & # # # # # # & * # # # # # # # & # # # # X # # # # # @ # @ # & # # # q X # X @ @ # q   h.cXnXK z.z.  W.LX6X1 a.y.e.w.w.w.w.=.%.",
"w.5.w.=.=.=.%.%.w.w.&.sXsXC ^ 7XV.XXvXXX  w # X X # % # . @ # @ @ # # # # @ # @ # @ # # # # # # # & # # # # % &   _ u + t * # > # # # & & % # & & & & @ u _ + = A 0 0 0 & 0 b * 0 % & & & & & & 0 & & & & % 0 0 & & 0 & t t 0 t 0 % & 0 & 2 & t t & f 0 0 0 2 % & & & g & & 0 6 0 t 0 0 2 g 2 & & & & r 2 & & 0 2 2 & 2 0 + / / . f 0 2 r 0 2 8 8 & r 8 & & 0 u 2 2 0 2 2 2 & & 0 0 0 t % C A $ t 0 2 2 2 8 2 8 8 0 2 r 2 2 2 2 2 & & & & & 2 2 2 2 % y h 0 2 2 & & 0 & 2 2 2 2 & % & 2 2 & 0 & & r r & & 6 2 0 & & 0 0 2 6 0 0 0 & & & 2 & & & % # & % & # & & 0 # 0 t @ 0 0 & & & & & y & % & 0 # & # # % & # # . * & & # # # = # & = # # # # # # # # # # # # @ # # @ # # # # # # @ . # X X # @ # >   a.tXkXi f.f.  _.HX4X3 a.y.y.e.w.w.q.$.-.",
"q.q.%.=.2.=.w.w.5.5.-.rXrXC ^ 7XK.XXcXoX  u @ X # @ X # > # # # 0 # # # # @ # X @ X # # # # & # # # % % # # # & . g 0 @ @ 0 # @ # # & # # 6 & & # & & @ u S % 0 * 2 % 0 0 & & & # 0 % # & & & & & # & & 0   w.S . 0 % % y y & 0 0 & 6 0 & 6 & 0 0 & r & 6 0 % y y 6 6 u & & 0 0 @ 0 0 & 2 % 0 0 6 & 6 & 2 & t 0 & & & & & 0 ^ 0 8 0 0 0 2 8 2 2 & 2 r & & 2 2 0 0 2 & 2 6 6 & & & & 2 A g t C 0 t r 0 2 2 0 2 2 2 y 2 2 2 2 0 2 & & & & & % 0 6 0 r & 0 n r 8 8 0 & 2 0 & & & & & 0 & & & 0 0 & % % y 2 % g t 2 & & 6 0 2 & 6 % % 2 & % & % & 8 # & & % & & & & & & & # # & & 0 & # # & & & * 0 b X # # & & & & * u w * & % # @ 0 # # & # # # # # & # # # # # # # # # @ @ @ # # # # # # o # # # @ # >   i.tXrX3 f.f.  !.GX&X. i.y.e.e.e.w.1.S -.",
"w.1.$.=.2.w.w.w.=.%.-.yXrXA ^ 7XK.XXvXXX  q = @ X @ @ # q @ # X # @ X # # # @ @ @ X & # # # # & > # # # # # # @ = V . & # # # # # # # = & # & & # # & * 0   + & % & 0 % % & & # # % % & % & # & & # & & & & @ % 0 0 0 0 @ & & # % & & & & & & & & & 0 g % & * V b % 0 & & & + $ W t & & 0 2 2 2 2 % & 2 2 & 0 r & % & & @ Q r Y y 8 2 2 2 r t g % r 2 2 & & r 0 0 & 2 & 2 0 & 2 & t 0 6 2 % u u & 0 6 2 2 2 0 0 % & 2 2 & 2 & 2 2 & & & & + A g 2 2 0 * h b o & 0 & % & 0 & r 2 & & & & & 2 8 % u u * t & & & & & & & & & 2 & & & 0 % % & & & & & 0 & # & & & & & & # & & # # & g u @ & & . N V   & # # # & & # * e w * # # # # & # # @ # # # # # # # # # # # # # # # @ # # @ # # # # # X # # X @ X >   w.yXrXj f.s.  R.bX#X  u.y.w.e.e.w.w.[ %.",
"w.w.%.%.1.2.w.w.=.$.-.yXyXQ ^ 7XK.oXvXXX  > . # @ @ @ # & @ # X X # X X @ # & X # @ 0 & @ # # & & & # X @ # @ X # V > & # # @ & # & & & & % & # & # & > . r.V . & & % % & & 0 # % % % & # & # # & & & & & & & & * _ g % & & # & & # # 2 & & & & & & & 0 % 0 t * & & & & 0   F.*.6 0 & 2 0 & & 2 % & & & t 0 r & 6 2 & & g f & 0 2 & & 0 & 2 0 V t h % 0 2 & & 2 0 2 & u 0 & & 0 & 0 0 u & 0 8 % 8 0 # 8 2 2 0 2 & & & 2 & & & % & & & & 2 & 0 2 0 & t y h I k ~ & 2 & % 2 & 6 & 2 0 f & 0 # %   / C . t r & & # # & 0 # & & & 0 = @ & & & & & & & % & 0 & & 0 # & & # # # . u u * & X # & # # & # # & # & # # @ 0 % @ & # # # X # # # @ # # # # # # @ # # # # X # # # @ @ @ X @ # # # # & # & @ @ X &   #.eXtX~ g.s.  T.cXXX  y.w.w.w.w.w.2.[ %.",
"w.w.%.=.%.%.w.w.=.%.=.yXyXS ^ 7XK.oXvX#X  A e   # @ # X @ # X # X # # # @ # & # # @ # # # # # # @ 0 # @ # # X # & . * # & & # & # # # # & & # # & # # @   e.V + & 2 % # 2 % % % # % & & & & & = # # # & g & 2 2 * 0 0 # & & & & & u 2 & % & & & & & & % & 6 0 & & r 0 % & . ` n + 0 & 0 & & & & & & & % C t y 2 t u % t C 2 0 & 8 & & 2 2 0 + ] V $ 2 2 2 2 2 & 2 2 2 0 y u u % 8 & & _ 0 & 0 0 0 % 2 2 2 2 2 2 & % & 2 0 2 2 & 0 & 2 2 g 2 t & & f g y $ ^.,.a 8 8 & 2 2 & & 0 t 0 t 0 & % 0   C C + # t & > 0 % & & & & & # t u @ & & & & & # & & & t t # & & & & # & & & = & @ = C # . . & # # # # # # # # # & & # # & & # w @ # # @ # # # # # # @ @ # # # X # # % # # # # # @ # # # # # # @ # X =   -.eXrX^ i.s.  I.sXXX  e.w.w.w.w.w.=.] =.",
"q.4.%.w.%.%.%.=.w.=.*.yXyXS [ 6XV.*XvX%X  S l   X # X X # # # # # # # # # # # @ # # # # # & # # # # # # % @ X & 0 # 0 # # # # # # # # & & # # & & & & u u   * > # = % # & % & # 0 0 % & & & 0 u @ 0 u % 0 0 & & & % & & % & & & & 0 & & % & & & & & 2 2 & 6 & & & 2 & 6 & 0   % 0 0 8 & & & & & & 0 & & * + # 2 2 & 0 W & & 2 0 0 & & 8 0 & 0 $ 2 2 2 2 2 & 2 2 0 2 & 0 y C V * t 2 2 % 8 2 2 0 8 2 2 & & 2 0 2 & 2 & & . & & 6 0 % 0 6 % & & 2 2 2 2 2 1 ^.>.  & & 2 % & % & E u & % = & & % h C   = = 0 u u u * & & & & & % & & & & & & & 2 & & & & & 0 t # & & & # & & % # # # & 0   5.5.  & & # # # # # # # # # # # # * # u * . # @ # # # # # X @ # # # # & # @ # * #   X # # # @ # # # # @ . o >   w.yXrXE y.y.  T.sX'.  y.w.w.5.w.w.-.Q -.",
"%.4.%.w.q.%.%.%.2.%.*.eXeXA @.6XV.&XvX%X  > . @ X > X X # # X o # # X & u X # # @ # # # # & @ @ # @ # % r @ % # # @ u 0 o # # # # & & # # & # & # & * u u & 0 % % % & # & # # * t 0 * & & % = # % t u y & % # # & # @ & & & & & % & & % & & & 2 & 0 & & & & = 0 & % & & & 0 & & & & & 2 # 0 u % & & % * 0 u * & & * C h % 6 0 2 & 2 8 r 2 2 0 & b 0 0 2 & 8 2 & g 0 2 0 2 & % & & 2 u 0 2 2 & & & 2 & 2 2 0 & 2 & & & 2 [ 0 & 0 & 0 t 6 & & & 2 2 & % 0 & . C 2 & & % & & % r u 0 & & & & =   W *.  6 0 0 0 0 % & & & & & % & & 2 & & & & # & & & & & t 6 0 # & # & & # & & # # & & # @ 0 w @ & # & & # # # # # # # & # # & @   & g X # # # # # @ # @ > # # # > & @ @ 0 & N > X # X @ @ # # X = V . >   w.rXsXf 4.*.  R.sXXX  y.w.w.w.%.%.-.] $.",
"%.2.%.5.%.2.%.%.=.=.=.eXeXb @.7XL.#XcX#X  e = X X X X X & # # @ # X @ X X > @ & @ # # # # # 0 > # # # # & # & # # # @ & o & = # # # # # # # & # & * v C . & & & & % % & & % % & # & & 0 > & 0 & 0 u 0 0 X 0 & # & & & 0 # # % # & # & & & # & 2 & & & 2 & & = & 0 0 & 0 # & & & & & & & & & & & % + & % 0 b # & # g h 8 0 6 0 0 2 2 2 r 0 0 & 2 & 2 0 & & & & y 0 & r & & 2 & & & 0 V t % 2 2 2 2 2 & & t f & 2 & & & % Q 0 * + 0 r & 2 6 & 6 2 8 & 0 2 % 0 u 6 % & & & & & * t = & & & 6 t 2 W W . 2 & & & 6 0 & & # # & & & & # & 0 & & & # & & # # = & & & # & # # # 0 & # # # # & . V u X & # & & # # # # # # # # # # & # # # 0 # @ # # # @ # @ # @ @ @ # # # # @ & . Q u   # # @ X @ X @ # > . =   w.rXrXd $.#.  T.sXXX$ y.w.w.w.%.%.%.$.$.",
"%.%.%.%.%.=.=.w.w.w.=.eXeXu -.qXL.oXcXXX  q & X @ # X # > X # # X # X X w = X @ @ @ # # # . u > . # # % X & w X # # # @ # # & # # # & & # = # # % & t u @ & # 0 & % # & & & & 2 t % & # * & # # # @ @ # # & # & & + + & 0 # & # & & & & 0 & & & & & & & & & & t & 6 & & & & & & = 0 0 6 & & & % 0 V * & # & & # 0 h & & & & & & 0 2 % & & 2 2 r & & t 2 % & 0 6 0 & & & & & & & & 0 * 2 & & 2 2 & & 0 0 0 2 2 2 2 & 0 & . % C #.  & & 2 & & 6 % t g 2 & % % 0 0 @ # # & & . V g + & & # # & + W W . & # % & = 2 2 % & % % & & = & & > # # & & & # & 0 # & # & & & & & # # # # # @ & & . u u # & & & & 0 @ # # # # # # # # & # # & # # > # # # @ @ X X @ X # # X X # @ @ #   . # X X X X X X @ X . X =   %.eXrXt | [   I.tX!.1 y.w.w.=.%.%.$.$.| ",
"%.%.%.%.%.=.5.w.w.w.-.eXeXu =.0XP.XXcXXX  > X # # # X # X X # # X X X @ # . X 0 @ @ # # X #   . # # # # @ # # X # X # # & # X 0 & q > # # & # @ t &   . # & # % 0 & # 2 2 & 6 2 & & * % & & & & # & 0 # & # # # + u v . & # # & % % & # & & % & % & & & # & = & u t * = 0 & 0 6 & 0 u g & & & 2 t C * & & % # # u & % % & 2 & % & & & & 2 & 2 y 0 * q 0 % u 0 & 2 2 0 2 % & & * C t % & # % & % 0 0 & 6 r 6 2 & 0 % + & & 0 u A * 2 2 & & & = 2 % & & % & % & 0 # % % & % % g 0 * # & # 0 0 &   . & 0 & # & & % & # % & # 2 % C > & & # # & & 2 & & & & & # # & # # & # # * 0 > > & & # + % 0 % & & # # % # # # # # # # # # > & # # # = & X X . & X # @ # # # X X # @ # @ # # @ X X # X @ X X X @ . = o [ 1XrXy ] ]   F.sXXX1 y.w.w.1.%.-.$.$.$.",
"-.%.%.%.%.%.w.w.w.w.-.eXeXV @.6XK.XXcX(.  q @ # # X X X @ # X # @ X X X X X X X X X X X # X 0 > X # # # @ # # # # # # # # # @ @ >     > # @ & > # # # % % # # # & d 0 V d r r & # % & % 6 & & & % & q # t & # & + u u @ & # % & # & & & # & & & & & & & & & = # & & 0 & # & 0 & & & & 6 & & & & % + & & # & # u 0 % & & & & & & 2 & & 2 & 2 2 8 n * C t % & & & & 6 6 0 & & 6 & 0 & 0 0 % % % & & 2 & & 0 0 & 2 % u C % 0 & * . 2 & & & & % 0 2 % % % % & & & 6 # % & & & 0 0 % 0 & & % & & & & & & & % % & & # & & & % % & & & & # & & = # # & & # & & # & # # # % # # = & * > 0 # # # & # & 0 & # & & % # & # # # # & q # & # # & # # # > & u # . X @ q @ X X # # @ X X # # # X X X X @ @ X X X X &   [ 1XyXr } $.  F.cX$X1 y.w.w.%.%.%.$.$.$.",
"-.%.%.%.%.%.=.w.w.w.=.yXyXQ #.&Xb.E.tX!.  > @ X X X # @ @ @ # X # @ X # # X X X X # & X # # # # # # # # # @ X # # # # # X # # - . W.i.  > # & & # # # & & # % % # u P L P h 2 & & % & % & & & # % & # & # & & & & + @ 0 0 & & & & % = = # & & & & & & & & & & & & & & 0 & & & & & 0 2 6 & & & & & & & & & # 0 u & & & & & & 2 & & & & & & 2 0 % 0 2 % 2 0 0 & 0 6 & & & & & 0 0 b * & & & 2 & 0 2 & 0 0 t = 0 0 2 u V % & & 2 & & & & % & & 0 & % & & & % 2 & & & # % % & & # & 0 & % # % # & & & & & & & 2 & # # & & # % % & & & & & & = & # # # & & & & & # # # # # & & u V . # & & # & . A [ * 0 & & & % & # # & * & t # # # # & # # # # b 5.  u v   0 = X # # # # # # # # # # o X # @ # X X X X &   ) 1XrXy u.s.  Q.cXXX1 y.w.w.%.%.$.$.$.$.",
"%.%.%.%.%.=.%.=.w.w.*.eXeXQ @.&Xc.E.rX!.  q # X X o @ X X X # > X & > # # X # o X @ & & X X # # X @ o # @ # # # # # # @ # # #   $ 0XU.  > # # # # & # % % & & 8 y p ^.9XG.P y 2 & & & & & % & & & & % & & & & & # # # # & & & & & . u V + & & # & & & & & & & & & & 0 & & & & & & & & 0 & & & % & & & & & 0 t 2 & & & & & & & & & & 2 & 2 2 2 & % % 2 >   + > & & & & & & & & 0 V * & & & 0 & 2 0 0 u t t & 6 & & % + & & & & & & & & & & 0 2 & & % % % & & & & 0 # & & & & & 0 * & # # % & & & & & # % # & # # & & & & & & # & & & & & * & & & # % # & & # # # # # # 0 = > N * # % & # & & & & & & & = & # # # # % % % @ # # # & @ # 0 # X .   # # & . q > @ # # # # # # # # # # o o @ X & & X . X &   ) 1XrXr u.s.  !.cXXX$ y.w.w.%.%.$.$.$.$.",
"%.%.%.%.=.=.%.%.=.w.@.1X1Xu ` &Xj.XXrXQ.  > X X X X X X X X @ & &     > X @ X X # # X # # # @ # X # # # # @ # # # X # # # # # ] 0     - @ # @ # # & # & % # & 2 y H ^.pX^.P h r 0 2 0 & 2 & & & & & # # & # # 0 & & & # & t * 0 b * * @ & % % & & & & & & & & & & & & = & & & & & & & 0 0 0 % % % & # # & g 0 & 0 6 0 & & & & & & & & 6 2 6 & & 2 2 0   L.e.  0 & & & & & 2 % & + & 0 & & 2 & > & & & 2 t & 0 2 & 0 2 2 2 & & & & % & % % 8 2 % & % % # & & % = t & & & 2 % & 2 & & # # & & & # & & # % # & % & & & # & & & & # & & & & # & # # & # 0 & & # # # # # # & & * . # # & # & t @ # # 0 > # & & & & # # & & % # # @ # # # # # @ # X # X X # # @ @ # # # # # # # o o o o o # X # # # X # # #   Q <X0Xd s.s.  W.cX$X1 y.w.w.%.%.$.$.$.| ",
"%.%.%.%.%.=.%.%.=.%.^ 2X2X  ^ oXh.!.eXQ.  > X X @ X X X @ X @ &   l.'.+ - @ X X # # X X @ @ X X # # @ @ X # # # # o # @ & # @ u.& , > @ X # # # # # # # & # # # 2 g H ;.P r 2 & & % & & & & # # # # & # & # # & # & # # # # # # X 0 & # & % % * # # # # # # & # & & & & & & # & & # & # & & & & # # # % g 0 & & 0 6 0 0 6 0 & & & & & 2 2 & & & & & 6 + | A + 0 2 & & & 2 & & 2 & & & % & % & & % & 2 & & & 2 & & % # % & % & & & # % % % # # # % # % # > 0 0 # & & & & # & # # # # # # & # & & & # # % # & 0 0 # # # # > & # & & # @ # @ # # & # # & # # # # & & # # X # # # # @ = & & X & & # # = 0 # @ % % # @ 8 2 @ # # @ # @ @ @ X @ # X X X # & # # # X X X # # # # X o o o o # # X X X X X X #   t $X9XC s.y.  R.sX#Xk y.2.=.%.%.%.$.$.| ",
"4.%.%.%.%.%.%.%.%.-.) 2X,X  / oXi.%XyXQ.  q > X X X X . X X # #   &.v.$ # @ X X X X X @ # X & & X X # X @ # # # # # X 0 0 & w   X # # # # & # # # # # & & # # 2 0 2 > V d y & & & & & & 0 > > = & # > & & # # & & & # # % # % * 0 q * # # 2 & g & & & # # # & # & = # & & & & & & & & % % # & & # & & y 0 # % & 0 & & 0 0 & & & 2 & & & & & & & & & 0 =   + & # % % % & & 8 & & % & # 2 2 & & % % & % % & % & # % u & f 2 % # & % & % # & % # # % # # & & > 8 & & 0 & & & & % & # & # # # & % & & # # # % & 0 & @ > & @ # & # 0 & # # # & & # & # # # # # & 0 . @ # # 0 @ # # # X & & & @ > > @ # & 0 & # 2 2 * % % # # @ # @ @ @ @ # @ @ @ # @ @ X X o # X # X o # # # # X # o o o X X # @ X X X X #   C $XeX^ e.y.  T.tX#Xj y.w.=.%.%.$.$.%.%.",
"5.4.%.%.%.%.%.%.%.%.Q 2X2X0 / .X=.;XrXQ.  q # @ X X X X X X # # #     # X X # X o # # # # # & & X # # X X # # # # # # X #   %.u X # @ # # X # # # # # & # # & 0 % % & 9 2 2 0 # % % & & & = & & & > & & # # & # # & # # & # & % & & # & # & % b & # # & & @ * & & & & & & # & & & & % # # % & & # 0 t 0 # & & & & & % 2 0 & # & & & & & & & & & & & & # ; & & % & & & & # & & & & % & & & & & & & & % % 0 0 & u & 0 & t 2 % % 6 & & & & # % % % & * > 0 & & & & # 0 & # 6 & & & & & & & & & & & & & & & # & & 0 % 0 > @ # 0 0 @ # # # # # & % & # # # # & #   V u   = 0 # # # # # # # & & # & & & # % f 9 V w 9 2 * # # # # # X @ @ @ # X & 0 X X X o o X # # X X o @ X # X o o X X X X X # X X X X =   y.$XeX#.w.s.  I.tXXX4 e.w.2.%.%.%.$.%.$.",
"=.w.%.%.%.%.%.%.=.%.^ 1X1XC C E.@.&XyXQ.. # @ X X X X X X X X # X # & & # @ X X # # # # # # @ # # # X X @ # # # # # > # # #   @ # # & # @ # # & # # # # & & 0 # % % & 2 & & 2 & # & & 0 % & & & = & & & & & & # # & & # # # # # & & # & # # # X # & & @   0 u @ & & & & & & & % & % # # # & % & @ = 0 % 8 & & & & 2 # 2 0 & & & & & & & & 0 & & & & & 0 & & & & # & & & % & % % % % & & % 2 & % & & & 2 & 0 & 0 0 * & @ % & & # % % % % % % & # & & & & & & & & & t t & & # & > & & & & % & & & = & & & & & 0 & % @ @ # # # & & # & # # # # % # # # # & # % * u w . t # # # # # # @ & & & & # & % & & d X.;.;.K % % # # # @ * # @ # # # # # X # @ @ X o @ X # # X X X X X X # X X X X @ X # @ @ X X =   k.,XrX#.e.s.  K.yX!.$ y.2.2.%.%.%.$.$.$.",
"=.=.=.%.%.%.%.=.=.%.Q 2X2XA C W.$.oX9XT.> X # X X X X X X o # X X # @ X # # @ @ @ # & 0 @ # X # # @ X # @ X @ @   # # # X X # # # @ & # # # # @ # @ # @ = & X # & & # & & # % 2 & # & > % & & & & # # & # # # # # # & & & # # > & # # # & & & # # & @ u C 0 u @ & & # # & % # & # & # # # % # # & 0 # # % % & & & 2 & 6 & 0 & & & % & 2 2 8 2 & & & & & & & 2 & & % & & & % % % % & & % % 2 % % & 0 & 0 & 0 & & % 0 6 0 & & & & & & & % % % % 0 & & & & # & & & & & 0 # & & & & # # & & # & & = 0 # & & % % % # # & # # & @ # 2 & # # # # # # & # % # % # # # @ . u = & # # # # # # & & # & & & & 2 d Y D.sX1X;.w 2 # # # # @ # @ # @ # @ # @ # # # X X X X X X X X X X X X X X X X X X X # @ @ # # >   n.,X0XE e.s.  K.yXW.+ w.2.%.%.%.$.$.$.$.",
"%.%.%.%.%.%.=.=.=.%.C ,X2XC f W.} .X<X!.Q   # # X # X . X # # X X X @ @ X X X X #     X > # @ # @ @ X # @ X X # u # & X X # @ X @ # # # # # X @ @ # # # # @ 0 > * % # # & & # # & ; @ & & # & # & & # & & 0 @ & # # # # # # & & # # # 0 # & # # # &   [ s.+ @ & # # & & # & # % # % # % # % % @ 0 % # # # & & # # & 0 & & % & & # & # 0 & & % & & # & & # % & % % # # # & % % % # # & # % # & & & & & # & & % & & = & 2 % & & 0 & & # % % & & ; & & # # # & 2 & # & 6 & # # & # # # 0 > # & & # & # # # & # # & # # # # & # @ & 0 # & # # # # # # # # # # X 0 & & u = & # # # @ # # # # # # # # & & r h D.vXrXD.W y 2 & & # # # @ # @ X @ X @ @ @ # X . X o X o X # @ @ X X X X X X X X X X X X . X >   H.,XqXs q.=.  F.yXE.+ w.%.%.%.$.$.$.$.| ",
"%.%.%.%.%.%.=.=.%.%.C ,X,XV u W.%.E.<X<Xc.  > o X & & & = X # o X # X X X X X X   b v   # X # X X X X X @   V u V @ @ @ # & # X @ # @ # @ @ @ # # & # # #   V u @ # @ # & # # # & > @ & # # # # # # # # # # @ # # # & # # # # & & # # X @ & # @ 0 & & 0   # # # # # # # # # & # # # # # # # @ 0 0 @ % % # # # # # & # 6 & & & # # % # # # # & # # # & & # # % # # # # # # # # # # # # % & # # & & % & # # & & & & & * & & & 0 0 # & & & & & & # # & # & = & & & # # & % 0 u # & & # & & & & & & # & & # # # # # # # # # & # # @ = & # # # # # # # & # # X X & # > X # # # # # @ # @ # # # # * # # # & j <.D.D.K r 2 & & & & # & # # # & X @ # # # # o X     X X X @ X X @ X X X X X X X X X X X X @ o   Q.!.6X1 %.*.  v.yXQ.$ w.%.%.-.$.$.$.$.| ",
"$.%.%.%.%.%.=.=.%.=.Z ].,XV W W.e.P.$X<X+X  q X o X . # & X # # o # X X X X X #   [ _   # X X X X X X @ X . # >   @ # # X # # @ # # @ X # @ X X @ # . 0 A   X X # # # # & & # # @ # # q # # @ # & # # # > & @ & & # & # & > & # # # * 0 @ u > & # # # h = 0 # # # & & & # # # # % % @ # # # = 0 % # # # # # # # # # @ & & 0 0 # & & # % & # & # # & & & % # # & & # # # & % % % # & % & 0 % # % & & & & # # & % # # # & & & & & & # & & # # # & & & & & & & # & % # # & > q # & & & & = & & & & # # # & # @ @ % 0 # # # # @ 0 > & 0 & # @ # # @ # & # # # & # # @ # # # # # # @ # # # # # # # & # # r d % h t f 2 & & # # # @ # # # # > X # & X @ X &   %.i.  & X @ X X X X X X # X X X X X X X X &   %.!.!.%X  %.=.  v.eXE.5 w.=.%.%.$.$.| | | ",
"$.$.$.| %.%.%.%.%.%.C ~.,XW ] U.w.z.XX!.XX  - X X X X . X o X o o X X X X @ X X #     # X X # X # # X @ X # # @ # # # @ X X # 0 X @ X X # # @ > # X # # # & # # # # # # # # & # # # @ q & # # # & # = = > & 0 & @ # # & # # & # # # 0 u & % & & # # # X & 0 # # # & # % # # # # # # # # @ & t # # # # # # % # # & # t & & & & % & & & & & # % & & & & # # # % % % & & # & & % % # % # # # * & 0 # & & & # # & & % # % # # & & & & & & & # > & q w * & & & & # & % # % & # * & & # # & & # # # # # # # & # # # & & # # # # # & & # # & # # # # q @ & 0 @ # & # # # # # # # # # # # # # # @ @ # # & 0 % % 2 r 0 2 0 = 0 # # # # X X X X X # # X X X X X . = 0 . X X X X # @ # X X X X X X . . . X X &   w.Q.W.!.  y.=.  v.eX!.r y.=.%.-.$.$.| | } ",
"$.$.$.$.$.$.%.%.=.=.x ~.,XC 0 h.%.Q E.Q.!.S   # X o X X # # # X # o X @ X X @ # . # # @ X # > X # @ X X X # # X X # # @ @ @ X # @ @ @ X @ # # # # &     & w @ # # # % # # & # # # # # 0 # # # # # & = & & % # % # @ & # # # # # X > D . & # # # # & & # # # # # & # # # & & @ # # # @ % % & & % # # & # & & # & % # u 6 0 % & % & & & & & & # & % & & & # # & & 8 # % @ # & # % # % # & & # % q & & & & & % 0 6 # & & # & # & & & & # # # > = & & & & & & & # # # & % 0 0 % & # > 8 # # & & # # # # # @ # & # # # # # # # > A @ & # & # X # & & @ & ; @ # # # # # # # # # # # # # @ @ # @ # # & = & # # & 0 & # 0 & = 0 # # & # X > > X @ X X X X X # # . # # X X & X # @ # . > & . X X . . . X . >   n.T.T.z.  #.C   n.eXR.t y.=.=.%.$.$.} | } ",
"#.$.$.$.$.$.S %.%.=.u ~.$XV   h.r.  P.T.XXY.  q X   . o o # X # # X X @ X X # X X # X # # # # # X @ X # @ @ X @ # # @ @ @ # @ @ . q w . # # X # &   _ [   & # # & # # # # & # # # & # & # # # & # # # # & # # # & > . # # # # # 0 & . # # # # & # & # # # # > # # # # # # # # # & @ @ & 2 # & & & # % % & % # # # % @ # & % % & # # & & & # # & # & 0 % # # # & & % # q > # # # # # # & # # # & & & & # & >   $ & # & # & & % & & & # # & # & # % % & & & & # # # # > & & & # # & & & & # # # # # # # # # # # # % & & # & # > & # & X 0 q   ] e   X X # @ @ # # # # # # # # # # # # # @ # & * # 0 t # & # & & & # # # & # @ @ X # # X @ @ X X X @ X X X # # X o X # X X X X X # X X X X o . X X #   u !.I.Q.}   f *   v.eXI.t w.2.[ ] $.| | } [ ",
"#.} $.%.-.-.%.%.-.$.& ~.,XQ   P.oX  W.$XT.0X .  & w q X # X X X X # X X # # @ # # @ # @ X # # & . X X # X X X X @ # X @ X X @ @ # X # # # @ @ @ #   #.%.  > # X # @ # # # X # # # # # # & # # & @ # & # # # @   q u u > # & #   ] q @ # # # # # # # @ # # # # # # & % # # # # @ . # # # & # # # # # # & & # # & # & # # # % # % # # # # & # & # # # * % % # & @ & & # & # # # # # & # # # # % # & & & % & $ 9.O.. & & # & & # & & # # # # # & & # # % & % # 0 & # # # % & & # # # # & # # # # # # # # # # # # # # & # # # # @ # # # # & & @ # # @ X # # @ @ & @ @ # # # # # # # # # # # # # 0 # # & # # # # # # # # X # @ X @ @ X & ; X # X X X # X & > X o o o # X X X X X X X X X X X X . X X >   E.T.!.<Xt } b.y   s.3XK.u %.$.S ] $.| } } [ ",
"} -.] V $.%.%.%.%.%.  !.2X}   R.bXv.K.kX,XeX<X  - q & > = . X # X X # X > > # X # X X X X   ; X X @ X X @ X @ @ X X @ @ @ X # # # & > X @ @ X # # #     & . # # # o X & & # # # # # # # # # @ # # # # # C X 0 V . # e & X # @ @ . @ # # @ # # # & & # # # # # # # % # % # @ @ q u % 0 2 % # # # # # # # & # # # # # # # # # # # # # # & & & & # # # & # % # @ = 0 * # & & # # # # # # # # # & % % # % & w   4XW.  w & & # % # & > # = # # & & % # # # # & # = & # # # # # & # # # & # > @ # # # # # # # # @ 0 0 @ & # # # # # # # # # # @ # @ @ @ # @ @ X @ # # @ # X X # # # # @ # # # % & u & # # # # # # # # # @ X @ # # X @ X # # X X o @ X X X & & X o o o o X X . X X X X X X X X X X X w   Y.qX<X1X4X  oXXX1   ^ ].n.u $.} | } } } [ } [ ",
"] } Q Q $.-.%.%.$.%.+ Q.9Xh.  l.FXjXH 7XbXwXeXE.  q X X X X X o X X # # X . @ > X X X X X w     X X X # X X X @ X X @ @ @ X # % @ & # # @ X X X @ @ & & & & X # # # # # # # # & # # # # # # # # & # # # & # = q X # @ & q @ # # # 0 & X # # % % & & # # # # # & # & # # # # . 0 Q   = & @ # # # # # & & & # # # # # # # # # # # # % # & & # # # # # # # # # w & = & . w 0 @ # # @ # # # # # & # # & & % 0 r ! ~ & & & # # & & # # # # # & & * @ # # # % & # # # # # & # # % 2 @ 0 0 X & # # # # # # # # . & # # # # # # & # # # # # & ; # # & # @ @ # @ & # # # # @ @ # # # # # # # # # # # X # # # # # # # # # @ @ @ @ @ @ X X X X X X X # # X X X X > # X X X X # X . X X X X X X X X X . q   j.9X1XwXeXI.J xXkXk.  R.<X&.z $.[ } [ [ } ] ] } ",
"] ] [ -.} #.$.$.%.w.. W.vX!.  k '.DXL.p hXSX1X9XQ.  q # # # X X X o # & 0 v q e # X X X # & s.w   X X # @ X . # @ X X # X X X # # @ X # # # @ @ X @ X # # 0 # X & # # & # > # # # # # # # # # # # # # # @ & @ X & # &   & @ # & # # # # # # # & # @ # # # # # & & # # # # # . u | + # e = * # # # # # # # # # # # # # % # # # # # # # & & & # # # # # # & > w # & & > & @ & & @ # # # # # % # # % & & * 0 0   @ 0 0 & t % & & # & & # # # # # # # # # & # # & & & # & # # & %   b g . # # @ # # @ # & # w # # # # # # # & # @ @ @ @ # # # # # # & # # # ; # X # # # # # # # # # # # # # # # # # # # # # # # # # # # @ @ X X @ X X X X . . X X X o X X # # # @ X X X X X X X X X X X X X . q   1.%X~.,XyXOX3 jXDX#X#.I rXNX2.C $.[ } [ [ } ] ] [ ",
"] ] ] ] ] } $.%.$.e.z F.SXrX  G i &XZX#.p zXnX2XeXE.  e # # . X X # # &   w.[   > @ # # #   s.u   # # X X & 0 @ # X @ . X X # # # # @ # # # # # @ @ # # X X & & @ # @   # # # # # # # # # # # # # & # # # & # # & #   A 0 X # # # # # # # # # # # # # # # # # # # # # # & # & .   & # & # @ # # # # # # # # # # # # % & & @ # # # # # & & # # # # # = & # # & @ @ @ u 0 # # & # & # # # # & # % & # # 0 % % 0 & & 0 & 0 & & & & & 0 # & # # # # % # & # # # # # # # # # # * 0 & . . # @ @ & # # > @   = A @ # # # # & @ # @ # @ @ # X & & # # # # # @ # X o # X @ # # # @ @ # # # # @ # # # # # # # # X # # # # # # # # @ # # X X X X @ = X # # X X X # # # @ X X # & . X X X X X @ X . e   e.<XT.~.yX6X+ ;XPX.X    #XDXnXi %.} } } [ [ [ } ] ] ",
"] ] ] ] [ [ } $.} a.j.H 8XLX7X  F p 0XAXW   gXkX9XcXOX  N X X X X X X & o     & & . X X X #   . o X o @ X & > @ # X X 0 # X @ X # @ # @ X # @ X # # # @ X . > v . @ q S . > @ @ # # @ # X # # # # # # # # @ # # # # X b 0 # X # # # # # # # # # # & # # # # # & # # & @ # # X & & @ @ % # @ & # # @ @ # # # # # # # # % @ & % @ # # # & % # # # # X V > # # @ u u X # # # # # % # # # # # 0 # & # # # V & % & & & # & # 0 & & # # # # # & # # # # # # # # & # & # # # # & @ u 0 * # # # @ # @ & w 0 5.  # & @ # # # @ @ # # @ @ # # # & & # # # # @ @ # # o X # # X # # # # @ # # # & # # # # X # # X = & X # @ # # @ & # > # . X &   e.q.  & X X X X X X X X X X o o X X X # X X X . e   i.9X3X^.9X6X+ *XPX;Xi   z.bXLX+X1 w.] [ [ [ [ [ ] ] ] ",
"] ] ] ] [ [ [ | %.| j.] s.ZXPX8X  %.P gXZX  k ZXnXtXbX X  N X @ X # # > # # # X X X X X X X &   X . X # @ X   X X @ X w # X & # X X # @ @ @ X X X @ X X # # X X # . w  .  & # # # # # @ # # # # # # # # # & # # # # & . . & 0 X # # # # # % @ # # # & # # # # # # # & # # @ # @ @ # @ & & * # @ # # # # @ # # # # # # # # 0 * @ # # # & # & # # > X 0 q X # . u b . & # # # # # # # # # # @ # @ # & # . # 0 & # # 0 & * 0 @ # # # & @ & & # # # # # # # # # # # # # # # # # X @ # # # @ @ @ # #   > C   V u @ # # X & @ X # # @ @ # # @ # % # # # # # # # o   q > . # X @ @ @ # # # # # @ X X X # # X q & X # # X # # # # X X # X o . > > . # X X X X X X X X X X X # X X X X X # . e   V.rXrX2X0X7X  }.PX8XJ < @.dXGX7Xi %.} ] ] ] ] ] ] ] ] ] ",
"] ] ] ] [ [ [ | | | $.c.^ U.GXPX8X  [ L gXAXb x.ZXbXcXNX{.  B . X X X . X X X X # X . X X   h F.  X X X X X X X X X # . # # # # X X . X X X @ X @ @ & # & # @ # X & >   # @ # & @ @ . @ & & @ # # @ # # # # # # # # @ # # & u X # # # # X # & # & & 0 @ # # # X # # # # # @ # @ # # # w = @ @ # # # # # # @ # # # @ # # # * 0 # # # # @ # # # # # X u w @ # & .   # # # & # & # # # # # # & # & # # # # # & & # # # X 0 & @ # & # & q & @ & # @ # # # # # # # # # & # # # # # # . 0 q # # # # # @ & & @ X @ # # @ > & @ # @ # # # # # # # # # # # @ # # X # # X & X X X # @ @ & # # @ # # @ X X # X X X X # # o X @ # # # # # # X @ X # & X X X X X X # # X X X X X # X X X X X X e   V.cXcXeXrX7X  Y.IX8XL , h dXJX0XI %.%.] ] ] ] ] ] ] ] ] ] ",
"] ] ] ] [ } [ [ ] | } e.c.i }.PXPX-X  | L xXZX  c.AXNXvXNXY.  N X # X o # X X X X X # X @ . # V . X X X X @ X X X # # # # # # # X @ ; X @ @ @ # # @ # # # @ @ @ X @ # # & ; @ @ X # w # # @ # X # & # # # . 0 u . # # # # # . # # # # # # # # # # # @ # @ & & #   u 0 . # # # @ # # # @ X 0 # @ @ # # # # @ # # # # # # # & C # # # # & @ & # @ @ # X * # # # # # & # # # # # # # # # # # & & & # # # # # & & # & 0 @ & & # # # # X u & X # # # # # # # # # # # & & # # & & & # > # # # # # @ # # # # % # & @ # # = # @ @ @ @ # @ # = # # & # # # @ @ # X # # # & X @ X X # # # @ @ # X @ # # @ @ # X X X X # # @ # # # # # X X o X X X X X @ X X X X X & X X o X X X o X X X   e    .rXcXeXcX0Xi }.LX8XH N   qXNXdX>.%.w.] ] ] ] ] ] ] ] ] ] ( ",
"] ] ] Q ] } } [ } | $.[ u.V.i @XPXPX{.  1.L iXhX  S.AXSXvXNXC.  N X X o X X X X X X & @ X . .   X X X X X X X X o @ # # # # # @ > > 0 X X X @ # # # X # @ # # # # # & @ # # # . w w # # # # # # # # @ # # # X X @ # # @ # # # # # # # # # # # # # # # # @ # @ # # & # @ # # # # # & # # @ 0 & @ % # # # # # # # # # # # # .   & # # # >   ( u   # # & & # # # # # & # & & # # # # # # # # # # # # # # & # & & & # % # # # & # # # # . X X = & @ # # # # # # # # % # & # # & # # & # # # # @ # # # # # % # # # # # # # # # # X > N @ # # # # # # . X # @ @ # @ @ # @ # X @ @ . @ @ # # & # # @ @ @ * X @ X X # X @ # @ # # o o X X # X # @ X @ X # # X > X @ X @ X X # X X X   e   ( 9XtXyXbXxXT +XPXjXL D   0XJXlXk.$.s.[ ] V A ] ] ] ] ( ] ( Q ",
"] ] [ ] ] } [ [ [ [ { { ( j.c.1 @XPXIX}.  %.J gXxXi x.ZXMXvXNX_.  N @ @ @ X X X X X . # . & # # X @ X X X X X & o # # # # X # & # # X X X @ X # # @ X # X # X # # # # @ @ # X @ # # X @ # # & X X X X # # # @ X X # X > & # # # # @ # @ # # # # # X # # # @ # # # @ # # # @ . # # X # # # X @ @ # # % # # # # # & # # &   ] z.  > # @ @ # @ # @ # > # # # # # # # # # & % # # # # # & & # # # # # & # # # & > # # # # # # # # # # # # & @ # # @ # # # # @ # # # # # # # # & # # # # # @ & # # # # # # # & # # # # # # # # # # # # # # # # & # X w & @ # # @ @ @ X @ @ @ # . t # X & # # # @ # # @ & @ X X X # X X X @ & o o X X X X X # # # o X & = . > @ X X X X X # X X . B   r.rXtXeXbXxXP W.PXhX<.[   4XHXMXk.] a.} ] Q V ] ] ] ] ] ( ( ( Q ",
"[ [ [ [ } } [ [ [ [ [ [ [ Q j.g.  @XPXLX|.  %.,.xXzXp =.ZXNXbXGX X  B # @ X X X X X X X X # X X X X X X . X X # X @ X X X X # & X X X X X # @ # # X X # @ @ o # X X # # X X & # X o # X # # # # # X # # X # # @ X @ @ # # # # # # # # # # @ # # & u # & # @ @ # X & # # # & A X # # # # # @ @ @ X @ @ # @ @ @ @ @ # # # X > V . # # # # @ # # # # & # # # # # @ # # # # # # # # # # # # # # # # & # % # # & # # # # & > # # # # # # # > @ @ & # @ @ # # # # @ # @ & # # # # @ # & # & # & # # # @ # # # # # @ # # X @ X @ # # @ X @ # # # X # X q & @ @ # # @ @ @ @ X X @ . 0 # X X @ @ @ X @ @ @ # @ X . X X X X X # X X X X X X X X X X X X o . . X . X X # X X X X # . B   g.kXbXrXbXgX  L.PXhX+.Q   =XJXAXM.K a.#.} } ] [ ] ] ] ] ] Q ( ( Q ",
"[ [ [ [ [ [ [ [ [ [ [ Q ( { | g.e.  ;XPXPX X  s.m.xXxX1 s.AXSXNXKX@X  B # . X X X X X X X . X X X . X . X X X X X X X X X X X X X # & X X X X X X # #   . X X X # # @ # # @ & # # # # # # # @ # # @ # # # @ # # @ X X X X @ # X # @ # X & & # & # & # # @ # # @ X & # @ & & 0 @ # # # # # @ @ @ X X # @ @ @ @ @ # # @ @ @ @ > # # # @ @ @ @ @ # # X @ # # # @ & & @ # # # & # # . @ # # # # # # & # # # # # # # # & & # # # # # # # # X @ @ @ @ & # @ @ # # # # @ # # # # @ # # @ @ # & @ @ @ # @ # # @ @ @ @ # X @ X > # @ # # > X # X # # X # . @ # # @ # @ @ @ X X @ X X   @ @ X # . w w   # @ X X X X X . X @ . X & X @ X X X X # & q X X X X X X X o X X X X X X   N   A.bXNXcXSXhX  c.IXhXH A   =XLXKXY.i f.#.#.#.] ] ] ] ] ] ] Q ( ( ] Q ",
"[ [ [ [ [ [ } } } [ } ] Q [ | | a.q.$ jXPXPX{.  y.3.bXxX1 K.UXSXNXGX@X  B # X X X X X X X X X X # # . X X X X X X X X X X X # # X # & X X X @ # X # . 0 > . @ # @ # @ # @ @ X @ # # # # # @ # # # @ @ X @ # @ @ @ X X @ X # # o @ & # # # # # # & @ @ # # @ @ @ # @ @ &     # @ @ # # @ # # @ @ @ @ @ # @ @ @ @ # # # @ @ # w @ # # # @ @ @ @ @ @ # @ # # # # # q # # # # & &   _ u . # # # # # # # # # # # # # # # # # # # # # # # # # # # # # # # @ @ # @ # # @ # # # @ @ @ @ # @ @ @ @ @ @ @ @ @ @ # # # # @ @ @ @ # # # # X q # X # # # o X & # # @ @ X X X # @ X X X X X & & X # @ # & X @ X @ X X X . X     X     X X X X X X o # # X X X X X o X X X X X X X   N   j.bXNXbXbXhXi z.IXhXH ]   OXHXLX}.3 h.%.] ] Q Q ] ] ] ] ] ] Q Q Q ( ( ",
"[ [ [ [ [ [ [ [ } } [ } } } | $.} i.1...hXPXUXt.  [ v.bXgX$ E.KXDXSXDX@X  , , X o X X X X X X . & 0 . X X X X X X @ X X X . # # @ X X # X # # # # #   u 0   # X X o # # @ # @ X . # # # # # # # # # X X X # X @ # @ @ X o # # # # # # @ # @ # # # # # # # @ @ @ @ @ #   ] {   & @ # X X @ # # # # # # # @ @ # @ @ @ & @ @ @ . # # # # @ @ # # @ @ @ # # # # # # & # # # # @ # @ 0 & @ # # X @ # # # # # # # # # # # # # & & @ # # # # # # # # # # # > > @ # X # # # # & & @ # # # # @ # # # # @ @ @ # # # @ @ @ @ # @ @ @ @ # X # 0 X # # # # # # # # @ # X X @ @ @ X X X X # # @ # # @ @ X @ # X X X X X #   S e.  V z.  # X X X X # @ X X X X X X o X X X X X X . B   t.zXDXbXNXxXK z.KXzXJ ]   U.JXPX@Xi h.u.[ $.] Q } [ ] ] ] ] ] Q Q ( Q Q ",
"] ] ] [ [ [ [ [ [ [ [ [ [ } } | | [ j.y.=.zXPXZX]   E H.DXjXi @XIXSXbXJX=X    , . o o o X o o o X   v F   # X X X X X X X X X X @ X X X X @ @ X # X #   X X X # X # # # @ @ # @ u # @ # # # # # # @ # X # X @ @ @ @ @ o X # # # @ # @ # # # # # # # # # # @ # @ @ @ =   u.z.  > # # @ # # @ @ # @ @ # # @ # # @ @ @ X @ @ @ # @ # # @ # X > 0 X # # # # # # # # # # # # # # # # X @ # # @ = # @ # # # & # # # # # # # # # # # # # # # # # # # # # # # # @ # @ # # # X t V . # # # # # @ # # # @ @ # # # # # @ @ # @ @ # @ # # @ # @ # # # # # # # # # # @ @ @ @ & # X X X X # % X X @ X @ @ @ @ X X X X X X   > e   ; S . o X X X X @ X X X o X X X X X X X X o . N   j.ZXDXbXNXDXN.s.IXzXP $.  C.FXPX-Xp h.f.@.#.#.[ } [ ] ] ] ] ( Q Q Q V A Q ",
"] # e [ [ [ } [ [ [ [ } } | } | | } | h.^ @.MXPXMXb . i E.GX8XH @XGXbXNXLXjX    q @ # o X o X X X X X o X X X X X X X X X X X @ X X X X X # X X X X X X X @ X @ X # # # # X @ # > X X # @ # # # # X X & # # # @ # X X X X X @ X @ @ @ @ # @ # # # # # & # # @ @ X # @ &     - X @ # # @ @ @ @ @ @ X # # @ # @ @ @ # @ X @ @ # # @ X # @ # # @ # @ # # # # # # # & # # # # # # # # # # # @ w & @ # # & # # # # # # # @ & # # # @ & & @ # @ # # # # # @ @ @ @ @ @ @ @ # # @ # @ X @ @ @ X X X X @ @ @ # # # @ @ # # @ o @ @ # @ @ # @ @ # @ X # # # # # # # X X @ & # X X X # @ @ X X @ X X X X X X X X X X X X     o     X X X X X X X X X X X X X X X X X @ # . N   A.AXSXtXvXzXx.1 AXZX,.@.  j.NXPX;X3 a.h.} #.} } [ [ ] ] ] ] ] Q Q ] Q   V Q ",
"[ _ _ ] [ [ } } } [ } } } | | | $.$.} $.i.a i.MXPXhX  O 3 !.SX;Xi }.SXbXFXPXgX    > . X X X . X X X X . X X X X X X X X X X X @ @ X X @ @ X @ X & # X X X @ @ X X @ @ # X & # X . X X X @ # X # # # @ > # # # # # @ & = X # X X X @ @ @ @ X # # @ # # @ @ # @ @ X # @ X & = X @ @ X @ X @ # @ @ @ @ X @ # # @ @ @ % # @ @ @ @ X > q . # # # # @ @ # # # # # # # # # # # # # # # # # # @ @ . X # # @ @ @ @ @ @ @ @ @ @ @ @ # # @ # @ @ # # # # # @ @ X # @ @ # @ @ @ # @ # @ # # @ # @ @ X X @ @ @ @ # # # @ @ # # @ X @ @ # @ X # # X X X X X X X @ X @ X X # # X X X X @ X @ @ X X X X X X X # # & X X X X X X X . X o X . X . X X X X X X X X X X X X X X . B   Z.AXDXtXcXxXD   zXzXI E   j.MXPX8XH e.a.$.} } } } [ ] ] ] ] ] ] ] ] ] Q 4.] Q ",
"[ -.%.[ [ [ } } } } } { | $.| | ] [ $.$.%.a.3 a.MXPXgX  e 3 !.bX*X$ ).SXbXDXPXgX  - , o X . # # X X X X X X X X X X X X # @ X X X X X X X X @ @ # X X X X X X # X @ # # X & & X # X X X @ @ X # # # # @ @ # # # # # # # X # # X # @ # @ # @ X X # & # # @ @ @ @ @ X X @ @ X @ @ @ # @ X @ @ @ # @ @ @ # # @ # @ @ @ @ @ @ # @ X # # @ @ @ @ # & # # @ o # # # # # # # > # # # # # # @ @ # # @ @ # # # @ @ # X & # X # # # @ @ @ @ @ @ @ # # # # @ # @ @ @ @ @ @ @ # @ # # @ @ # # # @ @ X - # @ # > @ @ @ @ @ # # X X @ @ X @ @ # @ X X X X X X @ # X # X X & X X X X X @ X # # X X X X # X X X X # X X X X X X X . X X X X X X X X X X X X X X . X X X X . N   Z.KXDXcXcXxXq.  zXZXH d   8.MXPX8Xp w.i.$.} } } } } ] ] ] ] ] ] ] ] ] ] ] [ Q Q ",
"} [ ] } } [ [ [ [ } } } $.$.| | S } =.-.$.%.e.1 h.MXPXhX  N 3 !.bX+X+ OXDXbXDXPX8X  e , . X # # X X X X X . X X X X X X X X X X X X X X X X X X X X X X X X X # # @ o X X & # X X X X # # X @ # @ @ @ # # # o # o # o X o o # @ @ @ X @ X # # X # # @ @ @ @ @ @ @ @ @ X @ @ @ # # @ # # @ @ @ @ @ # # @ # @ @ @ @ @ @ # @ @ @ # @ & # @ # # # # @ @ # # # # # # # # # # # # # o # # # # @ @ @ # # @ # @ @ # X & # @ # @ # @ > & @ @ @ # # @ # # # @ @ @ @ @ # @ # # # # # # @ @ @ # @ @ X # # @ # # # # @ X X X @ # o X # X @ X X @ X X X X X X X X @ @ X X # & X # X X X X X X X X X # # X X X X # # X X X X X o X . X X X X X X X o X X X X X . . . X . N   t.AXDXcXcXxXA.3 hXZX*.E   E xXPXpXK w.i.-.#.#.} } } [ ] ] ] ] ] ] ] ] ] ( ( Q Q Q ",
"Z [ } } } } [ [ [ [ } } | | | | $.-.$.$.$.$.%.w.i x.ZXPXjX  D i !.bX+X  @XDXbXDXIX:X  , , . X X X X X X X . X @ . X X X X X X X X X @ X X X X X X X X X X X # # # # X # # # # X X X X X X X X X X @ X @ # # X # o # # # o # # # # X # # X # # @ 0 & @ # @ @ @ @ @ @ @ # # @ @ # # @ # # @ # @ @ @ # # @ # @ @ @ @ @ @ @ @ @ @ @ @ & # # @ # # @ @ @ # # # # # # # # # # # # @ # # @ @ @ @ @ @ # # @ # # @ X X * @ # @ @ # @ & # @ # # # # # o @ X @ @ @ @ # # # # # # # @ X & = X @ @ # @ # # @ @ @ # # @ X X # # X @ @ @ @ X X # @ X X X X X X X X X X X . & > X @ X X X X # X X X X X X X X X # # X X X X X X # # . X X X X X o X o X X X X X X . X . e   q.xXNXtXcXbXY.  gXxX:.&.> 1 gXPXpX*.e.a.$.#.#.#.} } } [ ] ] ] ] ] ] ( Q Q Q Q Q A z ",
"  V } } } } [ [ } } } | | | $.| } $.$.$.-.%.$.%.e.p V.AXPX8X  F i &XDX@X3 ;XDXrXbXPX8X    v   # X X X X X X @ & X X X X X X X X @ X @ X X X @ X X X X X X # # X X o @ # @ X X o X X X # # X X X @ X @ # @ # X o o # o # o # # # # X # # @ X # # # # @ @ @ @ @ @ X X # # # # & @ @ @ @ @ # @ @ @ @ # # @ @ @ @ @ @ @ @ @ @ @ @ @ @ @ # # # # # # @ # X @ # # # X # # # # # # @ @ @ @ @ @ @ @ @ @ # @ # # @ @ @ @ @ @ @ @ # @ @ # # # # # # @ # @ @ @ @ # # # @ @ # # # # # @ @ X @ @ @ @ # # # # @ @ @ # @ @ @ # # @ @ @ @ @ @ X # @ X X X X X X X X X X X X . X # X X X X X @ # X X X X X X X & X @ X X X X X X X @ X X X X X X X X X X X X X X X X . B   Z.xXvX1XeXnX X+ hXFX,.&.V . gXPXpX*.e.j.w.$.$.-.#.} } } [ ] ] ] ] ] ] _ Q Q Q Q Q N @ ",
"u   Q -.} { } } } } { | | | $.| $.$.$.%.%.%.%.%.y.a.3 C.GXPX7X  F H &XbXW.i 7XbX9XFXPXhXN   N @ X # X X X X X X X X X X X o o X X X X X X X X X X X X X X X X X X X # # X X X X X X X # # X X X X X X @ @ X X @ o X # X X @ @ @ @ @ X X X # @ X @ @ @ @ @ @ @ @ @ # @ # X & & X @ @ # @ @ X @ @ # # # @ # @ @ X @ @ @ @ X @ # @ @ # # # # @ # @ @ # @ @ # # # X @ # # # @ @ @ @ # # # X @ @ @ # # @ # # @ X X @ @ @ @ @ @ @ # # # # @ # # # # @ @ @ # & X X X @ @ @ @ # & @ @ X X X @ X # # @ @ @ X X X @ @ # # # @ @ @ @ X X X X X X X X X X X @ @ X @ X X X X X @ X X X X X # X X X X X X X > X X X X X X X X X # X . X X X X X X X # X X X X . - N   Y.SXbXeX1XpXY.  8XZXs.! A   qXPXgX+.5.f.e.%.%.-.$.} } } } } [ [ ] ] ] ] ] _ Q Q Q V V A ",
"u & . | %.{ [ [ } } } } { $.$.$.$.%.%.$.%.%.5.w.=.u.e.  W.DXLX;X  D + XXnXP.  7XcX9XFXPXZXt.  , q # X X X X X X X X X X X X X X X X X @ X X X X X X X X X X X X X X X # # X X X X X X X X X # X X X X X X @ X @ @ X @ # X @ X X X X @ @ X @ X @ X @ @ @ @ @ @ @ @ # @ @ @ X @ @ @ @ @ @ X # X @ # @ @ @ @ @ X # @ @ # @ @ @ @ @ # # @ # # @ @ @ @ X X # # & @ @ @ # @ @ X X @ @ # @ @ @ @ @ # X @ @ # @ # @ X @ @ X @ X @ # # # # # @ # # # @ # @ @ # # X X X @ @ @ X & # X # X X X @ @ X X @ @ # & X X @ @ # # # # @ # # X X X X X X X X @ X @ X X X X X X X X X @ @ X X X X X X X X X . # #   X X X . X X X X X X X X X X X X X X X X X X . & q     ).bXbXrX1XrXC.  -XxXO.3 N 3 6XGXgX*.%.i.w.-.%.%.%.$.| { } { [ [ [ ] ] ] ] ] ] Q Q A 0 Q _ ",
"u u & w %.| ] [ } } { } | ( } $.-.%.%.$.%.[ Q w.w.%.u.i.  _.DXGX=X  F p %XnXL.H qXyX9XSXPXbXY.    & = . X X X X X X X X X X X X X X X X X X # X X # X X X X X X # o # # # # # # # o # # # & # # # # # # # # # # # # # # # # # # # # # # # # # # # # # # # # # & & - = - - > & & # # & & & & & & # w > # # # & # # # # # & & # # # # # & & # & - & # & & & = & & - & & & # # # # # # # # & & - & & & & & & # # # # # # # # # # # # # # # & & # # # & & # # & # # & # # # # # # # # & # # # # # # & > # # # & # & & & & # & # # # # # # # # # # # # # # # # # X @ X o # # o o # # # X X # # @ X X X @ # o X X X X X X X X X X X X X X X X # & &      .;XSXcX1X2XkX X  @XxXa.1 N   6XGXgX&.%.a.5.$.-.-.[ $.$.#.} | [ [ [ [ [ ] ] ] ] Q _ C & V Q C ",
"g g Q 0 w } } } } { { { $.[ $.%.$.-.%.$.%.$.$.w.2.2.%.i.e.3 .XGXLX&X   .P &XxXi.i 9XeXrXcXrXcX9XP.    & # # & ; > > > > > > > > & & & > > > = = & > > = & & > > , > > = > & & # & & - - & & - - - & & & - - - - & > & # X @ # # - - - > , , > = - - - - - - - & # .         . o # - # o X . X X X # & & - - - > , , , > > > , , > > , - # # # # # & & & & & # X . @ @ # & - - - & # X X @ # # - - - > > > > > > > > > , , , , , , , - - # - > > - # # # # @ . . . & - - - - - - > , > > - & # # # & # X # # # @ X X # # - # # @ @ # & > , , > , , - - & & > > > > , > > > - & # & > , > = & & > > > & > > > > > > > > > > > = > > > & X       | OXyXrX9X$X(.qX+X   XxXH.~ D   &XDXnXa.%.i.5.$.$.$.$.} $.$.$.| } } [ [ } [ [ ] ] ] ] A u u C x w.",
"g.f Q g 0 u [ } [ [ } | $.$.%.%.$.-.$.$.%.%.%.=.=.=.=.*.i.u.p }.GXLXW.  { J 6XnX%.K 9XrXwX^.2XyX9X.Xe.                                                                                                                                                            0 u l e 0 $           + + $ + + .                                         . .               . - .                 . .                                                                     . # *                                     .         . .                                                                                                                   O N e.E.9X1X$X!.!.$XqX*X   XxXP.! ]   oXNXxXb.| h.w.$.-.$.$.$.$.$.$.$.} | | } [ } [ [ [ ] ] S # V Q h %.c.",
"h.%.2 C A 0 u } [ [ { | $.| $.%.$.%.$.%.%.%.%.=.%.%.=.=.5.f.a.i }.KXKXW.  %.L 0XxXy.$ %XrX9X1X9X9X9X,XI.E.$X&X<X6X9X9XqXqX0X0X0X0X0X0XqXqXqX6XqXqX0X0X0X0X0XgXnXnXgXgXkXgXkXkXgXgXhXxXxXxXxXxXzXxXxXxXxXzXzXzXzXzXzXCXCXCXCXzXzXzXzXzXzXzXzXzXzXzXzXzXzXCXCXCXCXCXZXZXZXZXZXZXCXCXCXCXCXZXZXZXCXCXCXCXCXCXCXCXCXzXzXzXCXCXCXCXzXhXhXCXCXCXCXZXZXZXZXCXCXCXCXCXZXZXCXCXCXCXCXzXzXCXCXZXZXZXCXCXCXCXCXzXMXCXMXzXzXzXzXhXhXhXhXzXzXzXzXzXzXCXzXzXCXCXCXCXCXCXCXCXCXZXzXzXzXzXzXzXzXhXhXzXzXzXzXzXzXzXzXCXCXzXzXzXCXCXCXCXCXzXCXCXzXzXzXzXzXhXhXhXhXzXzXzXzXzXhXhXhXhXgXhXhXhXxXxXxXxXxXxXhXgXgXgXgXgXgXgXkXgX0X0XqXqXqX0X0XqX6X6X9XqX4X%XQ.T.T.!.!.F.T.XX6X0X.X   XKX.Xi [   &XGXbXI.[ c.h.#.%.-.$.$.$.$.$.$.$.| $.$.$.#.$.[ [ [ [ S & u V Z Q c.w.",
"Q i.Q 0 Q Q 0 A | [ { $.$.$.$.%.%.%.%.%.%.%.%.%.%.%.%.=.w.y.b.h.$ +XLXNXR.  Q P 6XnXy.  b.<XrXeX9X,X$X!.m.K.W.(.,X$XXX!.!.!.$X$X!.!.XX$X$XXX(.XX$X$X$X$X!.$X<X9X9XeX<X9XeXeX9X3X9XeXeXeXeXeXyXrXyXyXrXyXtXcXcXcXtXtXsXcXtXcXvXvXvXvXcXvXcXvXvXbXbXbXbXbXbXbXSXSXSXSXSXSXDXSXSXSXSXDXDXGXGXDXDXIXIXGXGXDXKXIXLXPXPXPXPXPXPXPXPXPXPXPXPXPXPXPXPXPXPXPXPXPXPXPXPXPXPXPXPXPXPXPXLXLXLXIXIXLXLXLXLXLXIXIXPXPXPXPXPXLXPXLXIXIXKXKXKXGXDXDXDXSXSXSXSXSXSXNXbXbXbXbXNXNXNXSXSXNXNXNXNXbXbXbXbXbXbXbXbXbXbXbXbXvXvXvXvXcXcXcXcXcXcXcXcXtXtXtXcXtXrXyXeXeXyXyXyXyXtXrXeXeXeXeXeXeXeXeX9X9X9XeXeX9X9X3X9X3X<X$X$X9X<X,X<X%X%X<X#X$X,X%X#X<X<X$XXXQ.F.F.W.!.<XqX9X&Xe.  Y.zXOX  [   XXSXNXn.x h.h.-.%.%.-.-.$.$.$.$.| $.$.$.$.$.$.| { } } [ & u Q z u h.e.Q ",
"Q Q f.Q h _ A 0 A { } | $.$.-.%.%.%.%.%.%.%.%.%.%.-.-.=.y.y.y.z.a.$ *XDXbXW.  ] H &XqX=.    c.*X7X<X<X$X$X,X<X3X9X9X9X9X6X9X9X9X<X9XeXrXkXrXrXrXrXrX0X0XrXkXnXnXbXbXxXbXvXcXnXnXbXbXbXbXbXbXSXSXSXSXSXSXSXSXSXSXbXbXbXbXbXSXSXDXDXSXDXDXDXSXSXSXSXDXDXDXDXDXKXKXKXKXKXKXKXKXIXKXKXIXLXLXLXIXIXLXPXPXLXLXLXPXPXPXPXPXPXPXPXPXPXPXPXPXPXPXPXPXPXPXPXPXPXPXPXPXPXPXPXPXPXPXPXPXPXLXLXLXIXIXLXPXPXPXLXPXPXPXPXPXPXPXPXPXPXLXLXLXLXLXIXIXKXKXKXKXKXKXKXDXDXSXSXSXDXKXKXKXKXKXIXIXIXKXDXDXKXKXKXDXDXKXKXIXKXDXDXDXDXDXSXSXSXSXSXDXSXSXSXSXSXSXbXbXbXbXbXbXbXbXbXbXbXbXbXbXbXbXnXcXcXkXcXnXcXcXkXcXcXrX9X9X9XeX9X9X9X9X9XyX9X9XyXrXrXrX0X9X9X9X6X<X<X<X&XR.h     Y.zXE.  D $ !.bXFXH.j a.i.$.%.%.%.-.-.$.$.$.$.$.$.$.$.$.$.$.} } } } g & u C 6 e.e.Q } ",
"[ Q $.z.Z g Q A * S $.-.$.$.$.$.%.%.-.%.%.-.%.%.%.%.%.e %.y.w.w.c.a.  &XSXbXR.  S I P.!.!.i.      [ x.b.b.H.P.R.R.R.P.P.P.P.P.P.P.P.U.W.}.E.W.W.U.U.W.Y.Y.Y.{.Y.Y.Y.Y.Y.Y.Y.Y.{.{.{.).Y.{.}. X X X X X X|.|. X X{.{.{.).{.{. X X{.Y.Z.Z.Z.Z.Z.Z.Z.Z.Y.Z.Z.Z.Y.{.{.{.{.Y.{.{.{.{.Y.Y.Y.Y.Y.Y.Z.Y.Y.Y.Y.Z.Z.Z.Y.Y.Y.Y.{.{.Y.Y.Y.Y.Y.Y.Y.{.}.{.{.Y.Y.Y.Y.Y.Y.Z.Z.Y.Y.Y.Y.Z.Z.Z.C.C.C.C.C.C.C.Z.C.C.C.C.C.Z.Y.Y.Y.Y.Y.Y.Z.Z.Z.Z.Y.Y.Y.Y.Y.Y.Y.Y.{.{.{.{.{.Y.Z.Y.{.{.{.Y.Y.{.{.{.{.{.{.{.}.}.{.Y.Y.{.{.{.{.{.{.}.}.{.{.{.{.{.{. X X X|.|.|. X{.{.}.}.}.}.{.}.|. X{.{.{.{. X X}.{.{.{.{.}.}.}.}.}.}.E.W.P.R.P.P.I.K.P.Q.Q.W.W.W.W.E.E.E.W.Q.P.I.z.=.        u.n.I.b.$ B   XXbXNXP.I i.y.#.-.-.%.-.-.$.$.$.$.$.$.$.$.$.$.| | } } } g g Q u $ w.u.Q [ [ ",
"[ ] ] w.j.z V Q V   ] $.$.$.$.%.%.%.-.-.%.$.%.%.-.-.-.Q $.w.w.5.w.z.a.k 4XNXvXT.  V 9 I b.v.L.L.D .       . +           . g t g Q S S d 3 k x Q ( 5 3 1 + + i K K p i x / I K k k k p k p 3 3 3 1 i 3 p p J R K K I ^ ....I K P p i i i i K I K ~ / ) ^ ^ ^ @.-.=.=.p.y.a.a.w.^ / ^ %.r.1.%.$.%.1.1.) / ^ 1.r.r.g.y.a.i.a.w.^ ) y.c.x.i.y.i.x.c.c.h.a.c.c.c.h.y.2.y.e.q./ I ] r.r.r.| | r.g.g.r.e.r.j.A.j.e.#.=.1.w.1.E I -.1.1.[ ! ! #.1.[ ^ K ^ %.w.#.@.! -.-.@.O.~ ! ~ [ #.#.^ ..^ ) ^ *.@.#.-.-.@.K X.X.o.! K K I I ! P H H P ! K J J P I @.=.:.*.+.! K J J H i 3 i p P K X.X.H p H p K I a i j d C x I x x x x h k 3 1 1 +             N q.h.b.I.K.>.i s ,   T.vXNXR.x a.5.#.%.%.%.%.-.-.$.$.$.$.$.$.| | | | } } [ | V 0 C Q 7 q.a.Q ] ] [ ",
"] A } Q e.h.t C A u # [ $.$.| Q | %.%.%.%.%.%.-.%.-.%.%.%.5.=.=.=.w.V.d.p &XNXcXF.  o ;   7 =.E.oXoXE.R.!.XX&X6X6XqX0X0XgXkXnXxXxXxXxXxXxXxXxXZXZXxXxXzXzXmXZXZXAXAXAXAXAXAXAXAXAXAXZXAXAXAXAXAXZXAXAXUXUXAXUXUXUXKXUXKXKXKXKXKXUXAXAXKXKXKXKXKXIXIXIXIXIXIXLXPXPXLXPXPXPXPXPXLXIXLXPXPXPXPXPXPXPXPXPXIXLXPXPXPXPXPXPXPXPXPXLXIXPXPXPXPXPXPXPXPXPXPXPXPXPXPXPXPXPXPXPXPXIXIXLXPXPXPXPXPXPXPXPXPXPXPXPXPXPXPXPXPXPXPXPXIXIXPXPXPXLXIXIXPXPXPXLXLXLXPXPXPXLXLXPXPXLXIXIXIXIXLXLXLXLXLXLXLXIXLXLXPXPXPXLXIXIXLXLXIXIXIXIXIXIXKXKXKXIXIXIXUXUXKXIXIXIXIXIXIXIXKXAXAXAXAXZXZXZXAXAXDXAXZXZXZXZXAXAXZXZXZXZXZXZXzXzXxXxXxXxXxXxXxXxXxXkXnXkXgXgX0X<X$XT.k.o.9 + g O w ~.tXNX!.h h.w.@.#.Q $.%.$.$.$.$.$.$.$.$.| $.} [ [ } [ | A 0 A A r e.c.A Q ] Q ( ",
"] ] [ [ A u.a.2 Z ] C 0 | $.] > A %.%.%.%.%.%.%.%.%.%.$.%.%.%.=.w.w.i.b.h.i %XbXcX~.Q   # 0 +   d Q Q ) #.-.w.y.i.a.h.z.j.j.j.c.c.V.c.c.c.c.V.C.V.c.c.V.C.C.C.C.L.Y.Y.Y.Y.C.C.Y.Y.L.C.C.Y.Y.).Y.Y.Y.{.{.{.{.{.{.}.}.{.{.}. X X X X}. X X|. X X X|.|.|.|.|.|.@X@X@X@X-X-X-X-X@X@X@X@X@X@X@X-X-X-X-X-X-X-X-X-X-X-X-X-X;X-X-X-X-X-X-X-X-X-X-X-X;X;X-X-X-X-X-X-X-X-X-X-X-X-X-X-X-X-X;X-X-X-X-X;X-X-X-X-X:X:X-X-X-X-X-X-X;X:X:X:X:X:X:X:X;X-X-X@X|.@X@X@X@X@X|.@X@X@X|. X X|.@X|.|.@X@X@X@X@X|.|.@X@X@X@X@X@X@X@X@X@X@X@X@X@X|. X X X|.|. X}.}. X|. X}.}. X|. X}.{.Y.{.{.Y.Y.Y.Y.Y.W.Y.L.C.L.Y.Y.L.C.C.L.L.P.L.L.L.L.L.L.L.I.L.L.K.V.c.M.V.V.c.z.>.T j . . & #   a ~.vXDX.Xj h.a.*.-.#.Q $.$.$.$.$.$.$.$.$.$.$.$.V > 0 } #.A 0 C A g [ c.] Q ( ] ] ] ",
"] ] ] ] ] A i.q.6 A $.g V %.%.i.$.5.%.%.%.=.%.%.%.%.%.%.%.%.w.w.y.y.i.s.K.h.1 4XNXcX$X>.g                                                                                                                                                                                                                                                                                                                                                                                                                                                                                                                                                               r 3.<XbXDX+X3 h.i.-.%.%.=.=.-.$.$.$.$.$.$.$.$.%.%.%.%.| ] #.] u A A u ] i.A A Q Q ( ( Q ",
"] ] _ Q ] ] Q i.%.0 ] [ 0 V } } %.%.%.=.5.=.5.q.%.%.%.%.=.=.5.$.$.y.i.y.i.z.w.P 6XNXtX$XQ.^.3.&.-.*.@./ ! -.y.2.w.] . ! ..^ ! I / @.-.o.^ ..o.-.&.X.X.o.o.>.o.X.X.o.3.:...P U X.o.o.X.X.o.*.:.3.p.p.p.k.p.:.:.3.k.k.p.>.X.>.3.p.3.:.:.:.p.p.p.p.p.p.p.:.*.&.=.y.8.:.p.p.s.k.k.9.:.:.*.*.8.p.s.s.s.s.u.y.8.y.y.y.u.u.s.s.s.8.*.*.:.*.:.:.:.9.s.s.u.8.*.5.5.5.5.5.5.w.w.u.u.s.s.s.s.s.s.s.s.s.s.5.*.5.5.e.5.8.8.s.g.f.f.f.f.f.g.g.g.g.i.s.k.8.&.&.8.s.k.k.k.k.k.k.p.p.9.k.v.n.b.b.b.F.F.b.n.v.v.b.K.K.K.K.F.F.F.F.v.v.v.v.v.m.m.v.F.F.v.m.v.v.n.v.k.k.k.v.F.v.k.p.m.F.F.v.k.p.k.k.k.k.p.p.k.k.p.3.p.k.m.m.p.>.>.3.3.*.-.X.o.3.p.:.&.! @.p.y.=...! >.k.m.p.^.9XNXxXW.i a.u.-.%.$.Q } #.} $.$.$.$.$.$.$.$.$.$.%.%.$.} Q t Q ] g S a.] A Q ( ( ] ] ( ",
"] ] Q A ] ] ] ] f.%.0 A Q # u $.%.%.%.%.=.=.=.%.%.%.%.%.=.=.w.%.( w.y.y.y.e.c.b.*.K.%X9XrXrXeX9XeXyXyX9XyX9X9X0X&XQ.$X1X9X9X9X9X3X9XyXrXrXrX9XrXcXkXcXcXcXcXcXkXkXkXkXcXcXkXcXcXkXcXkXkXkXkXkXkXnXbXbXbXbXbXbXbXbXbXbXnXkXbXbXbXnXnXnXnXbXbXnXnXnXbXbXbXnXnXxXxXxXSXFXSXSXSXSXDXDXDXDXDXDXDXGXGXDXDXUXDXDXDXDXDXDXDXDXDXDXDXFXFXSXFXFXFXFXDXDXDXDXDXDXDXDXDXGXGXKXKXGXGXGXGXGXGXGXGXGXGXGXGXKXGXGXGXKXGXGXGXGXGXGXGXKXKXKXKXKXKXKXKXKXGXDXDXSXSXSXSXSXSXSXSXSXSXSXSXSXDXDXDXDXDXDXDXDXDXDXDXDXDXDXDXDXSXSXSXSXSXSXSXbXbXbXbXbXbXbXbXbXbXbXbXbXbXbXbXbXbXbXbXbXbXbXbXbXnXnXnXnXnXnXbXbXbXcXcXcXcXcXnXnXnXcXcXkXcXrXyXeXrXeX9X9XyX1X1X1XeXrXeXeXeXeXeX3X~.<X<XE.+.h f.i.-.%.%.$.V [ $.$.$.$.$.| | | | $.$.%.$.$.$.] & V Q C Q i.[ Q ] ] ] V Q ] ( ",
"] ] Q S ] ] ] [ ] a.} f Q V @ V 4.%.%.%.w.=.=.%.=.%.%.%.%.%.%.w.5.w.w.w.e.e.w.z.V.h.[ w.K.P.!.XXXX$XXX$X#XoX#X&XE.T.$X<X6X6X<X<X&X#X&X&X&X4X&X&X6X7XqXqXqXqX7X6X6X;X6X6X7X7XqX7X7X7X6X6X7X;X6X7X7X8X7X8X8X8X8X8X7X7X7X7X7X8X8X8X8X8X8X8X8X8X8X8X8X8X8X8X8X8X8X8X8X8XjXjXjXjXjXjXjXjXjXjXjXgXgXgXjXjXjXjXjX8XjXpXjXjXjXjX8XjXjXjXjXjXjXjXjXjXjXjXjXjXjXjXjXjXgXgXgXgXgXgXgXjXjXjXjXgXgXgXjXgXgXgXgXgXjXjXjXgXgXjXgXjXgXgXjXjXjXjXgXgXgXjXgXgXjX8X8X8X8X8X8X8X8X8XpXpXjXjXjXjXjXjXjXjXjXjXjXpX8X8X8X8X8X8X8XjXpX8X8X8X8X8X8X8X8X8X8X8X8X8X8X8X8X8X8X8X8X8X8X8X8X8X7X;X;X;X;X:X7X;X;X7X7X7X7X7X7X7X7X7X7X7X7X6X6X6X6X<X<X6X6X<X6X<X$X<X<X<X<X&X<X<X%X%X!.n.s.Q } e.f.y.-.%.%.%.%.-.-.-.$.$.$.$.$.{ } | %.%.| | %.| A _ Q z A a.} Q ] ( ] ] V A ( ] ",
"] ] ] ] ] ] ] ] [ [ f.Q t C C & A w.%.w.$.%.=.%.%.%.%.%.%.%.%.%.%.=.w.w.w.w.w.%.=.f.z.h.w.$.[ } %.| | [ ( [ ] } Q u.u.z.h.a.i.w.w.w.w.w.y.y.y.w.y.y.y.s.p.p.p.s.8.y.y.y.s.s.s.s.s.s.s.y.p.p.:.>.:.:.:.p.p.p.p.k.k.p.p.k.p.p.k.k.p.p.p.9.p.k.k.k.p.k.k.k.k.l.v.l.v.v.9.P >.>.>.+.X.X.X.+.>.:.:.:.8.:.>.,.&.&.>.:.>.>.>.>.>.>.>.>.>.:.:.:.>.>.:.9.9.>.,.>.9.p.p.9.9.9.9.9.:.:.:.:.9.9.:.:.:.:.:.:.>.>.>.:.:.:.:.:.:.9.9.9.9.9.9.9.:.:.9.k.v.v.l.l.l.v.v.l.k.k.k.m.v.v.v.v.v.v.v.v.v.v.v.v.m.k.k.k.k.k.k.m.m.v.v.k.p.p.p.p.k.k.k.p.p.p.9.p.p.p.p.p.p.k.k.k.p.p.9.8.:.*.>.*.>.>.>.>.>.>.>.&.&.&.&.+.X...+.&.+.&.*.*.5.w.y.y.y.y.w.w.Q ] 5.5.w.u.e.w.e.w.w.e.e.a.a.y.%.$.%.%.%.-.$.#.#.$.} $.$.#.#.} } | [ | $.$.| V Q #.Q V h.q.Q ] ] ] Q ] ] ] ( ( ",
"Q _ Q Q Q ( ] ] ] ] %.z.Q V ] ] 0 [ w.%.Q } =.%.%.%.=.%.%.%.%.%.=.=.=.5.w.w.w.w.w.w.w.e.u.i.i.i.y.u.e.e.e.w.w.a.e.a.a.z.h.h.h.a.a.a.d.h.h.z.z.z.z.c.c.b.b.b.b.b.b.b.b.b.b.b.b.b.b.b.b.b.c.c.c.c.c.c.c.b.b.c.c.b.M.b.b.M.M.V.V.V.V.V.V.M.b.b.b.M.M.V.V.V.K.I.I.K.K.L.c.e.b.c.c.z.j.j.z.c.c.c.c.c.c.c.c.c.c.c.V.V.c.c.c.c.c.c.c.c.c.M.N.c.c.c.c.c.c.c.c.c.c.c.c.c.c.c.c.c.z.z.z.c.c.c.z.j.z.z.z.z.j.j.c.j.j.j.j.z.j.z.z.z.c.c.c.c.e.c.c.c.c.c.c.c.b.M.c.c.b.b.b.b.V.V.V.K.K.K.V.K.K.V.K.K.K.K.K.V.K.K.V.K.V.V.V.V.V.V.M.b.b.b.b.c.c.c.c.c.c.b.b.b.b.V.V.V.M.M.c.c.c.c.c.c.z.z.z.z.z.n.x.z.z.z.z.z.z.j.j.j.j.h.h.h.j.h.a.a.a.a.i.a.5.w.i.i.a.a.a.a.i.i.i.y.w.2.%.%.%.%.%.$.-.$.$.$.$.$.#.#.$.$.$.$.$.} q A w.%.b Q } ( C e.e.Q ] ] ] ] ( Q Q Q Q Q ",
"Q Q S Q Q Q ( Q ] [ ] w.z.Q Q -.A 0 %.w.w.%.=.%.=.%.=.=.=.%.%.%.%.%.=.5.=.4.} $.w.w.w.e.w.w.w.w.5.1.w.w.5.%.%.e.%.%.Q w.w.%.%.%.u.y.y.u.i.i.i.i.a.a.a.a.f.h.h.h.h.h.z.h.h.h.h.h.h.h.h.h.h.a.a.a.a.a.a.a.a.a.a.a.a.a.a.h.z.z.z.z.x.c.x.z.z.z.z.z.z.z.z.c.c.c.x.x.z.a.C E #.$.$.] ] [ } [ [ ] [ } | | | | | | %.%.%.%.%.| [ } | } | | $.%.%.%.| | | } } } } } [ ] [ ] ] ] [ [ } $.| } ] [ [ | %.%.q.4.%.%.%.%.%.} Q A A Q Q Q _ [ } h.z.z.h.z.e.w.x.z.z.z.h.j.j.h.z.z.c.c.c.c.c.c.x.z.c.c.c.c.c.c.c.c.c.c.c.z.h.z.z.z.z.z.h.h.h.h.h.h.h.h.h.h.h.i.h.z.z.x.z.z.z.z.z.h.h.a.a.i.a.a.a.a.a.a.a.a.i.a.a.a.i.i.i.i.i.i.i.%.} w.$.%.w.u.w.5.w.u.i.i.e.e.e.w.w.w.w.w.%.%.$.{ %.%.-.$.$.$.$.$.$.#.| $.$.$.$.%.[ ] %.] V #.] A e.w.Q ] ] ] ] ] ( ( Q S Q S ",
"Q S S S Q Q Q Q ] ] [ ] w.f.] Q A b $.w.y.w.5.%.%.=.=.%.=.%.%.%.%.%.%.=.%.%.$.$.5.5.w.w.w.w.w.w.5.w.%.] %.%.%.e.%.w.$.e.w.w.w.w.y.u.u.u.u.i.i.a.a.a.a.a.h.h.h.h.h.h.z.z.h.j.j.h.h.h.h.h.h.f.h.a.a.a.a.a.a.a.a.a.a.f.h.h.h.j.z.z.z.a.h.h.z.z.z.z.z.z.z.u.h.b.x.x.c.Q w._.OXoXOX.X.X.XOXoXoXoX%X#X#XoXoXoXoXoXoXoXOXoXXXXXOXoX%X%X%X%X%X%X%X%X%X%X#X%X#X#X#X#X%X%X%X%X#XoX#XoX#X%X%X%X%X%X&X&X&X%X%X*XoXoXOX.XOXoXOXOX.X.X.X_.}.oXU.E z.z.z.c.h.$.a.c.c.z.z.h.h.h.z.z.z.c.c.c.z.c.z.z.z.z.c.c.c.c.c.c.c.c.c.z.z.z.z.z.z.z.h.h.h.h.h.h.h.a.h.h.h.a.z.h.h.c.x.z.z.z.z.z.h.f.a.a.i.u.a.a.i.a.a.a.i.a.i.i.i.i.i.u.u.u.u.w.w.y.%.w.e.u.5.$.%.i.a.i.w.w.e.e.w.w.w.w.%.%.$.| %.%.-.$.$.$.$.$.$.$.$.$.| $.$.$.=.%.%.A V ] Q w.u.( [ ] ] ] ] ] ] ( Q Q Q Q ",
"Q S S Q Q Q Q ] ] ] [ } ] u.i.V Q V } w.=.5.5.=.%.%.%.%.%.%.%.%.%.%.%.%.%.%.w.=.%.%.5.5.5.w.w.5.q.w.| w [ 5.%.e.=.y.e.e.y.y.u.y.e.y.y.u.u.u.u.u.u.i.i.i.u.e.u.a.a.h.h.a.i.h.h.h.h.a.a.h.h.a.a.a.a.i.i.a.a.a.a.a.a.a.a.h.h.h.a.h.a.} w.w.a.z.h.h.h.z.u.%.h.x.z.c.w.%.K.x.n.b.b.H.H.H.b.M.K.I.I.K.K.K.I.I.I.K.K.K.K.K.K.H.H.K.K.I.I.K.K.I.I.I.I.I.I.P.I.I.I.I.P.P.P.I.I.I.I.I.I.I.K.I.P.P.I.I.I.P.P.P.P.P.I.I.K.H.K.K.K.K.K.K.b.b.I.h.$.b.z.z.b.h.e.z.z.z.c.$.w.j.h.z.z.z.z.z.z.z.f.a.i.d.z.z.z.z.z.z.c.c.x.j.e.j.z.j.j.h.h.a.a.a.a.a.a.a.a.a.h.h.z.z.z.z.z.u.f.h.h.e.=.i.i.i.i.u.a.a.i.i.a.i.i.i.i.u.y.y.y.e.y.e.e.y.y.y.y.y.y.y.w.i.u.u.y.a.u.w.w.w.w.w.w.w.%.1.2.w.%.%.-.$.$.$.$.$.$.$.$.$.$.$.} $.| | $.C V V | u.] [ [ [ [ ] ] ] ] ] ( Q Q Q ",
"S Q V V Q Q S Q ] ] ] [ [ | %.C Q u [ w.w.w.w.2.%.%.%.%.%.%.%.%.%.%.%.%.%.%.%.%.%.%.=.%.%.%.4.%.%.%.e.%.$.%.%.e.%.w.w.e.e.e.e.e.e.e.y.y.y.u.u.u.u.u.i.i.u.u.a.a.a.a.a.h.i.a.a.h.h.i.u.a.a.a.a.i.y.u.i.i.i.i.i.a.a.a.a.h.h.h.h.h.h.h.c.h.h.h.h.h.h.h.z.z.f.h.z.a.} K.x.h.z.z.c.b.b.b.n.b.b.b.b.b.b.b.M.b.b.b.b.b.b.b.b.b.b.b.b.b.b.b.b.F.M.K.V.V.V.V.V.V.b.M.K.K.K.V.V.K.K.M.V.b.b.V.K.K.K.K.I.P.R.W.R.R.W.R.M.b.b.b.M.b.b.M.b.b.c.L.e.y.c.z.h.h.a.j.z.z.z.h.h.h.h.h.h.j.j.j.h.h.h.f.a.h.h.j.z.z.h.z.z.z.z.j.[ y.h.h.h.h.h.a.a.a.a.i.i.i.i.a.a.h.h.z.z.j.j.u.i.i.h.w.w.i.y.u.i.i.i.i.i.i.i.i.i.i.i.y.y.w.e.w.w.w.w.w.w.w.w.w.e.y.=.w.e.i.h.u.w.w.w.e.w.w.q.w.%.1.%.1.%.%.$.$.$.$.| $.$.| $.$.$.$.{ | $.$.%.C V V ] | ] [ [ [ [ ] ] ] ] ] A S ( Q ",
"Q Q V V S S Q ( ] ] ] ] ] $.w.A Q u ] w.w.w.w.w.w.w.w.=.%.1.q.q.%.w.%.%.%.%.%.%.%.%.%.%.%.5.w.w.4.%.-.=.=.5.%.i.%.w.w.e.e.e.y.y.y.y.y.y.u.u.u.u.u.u.u.u.u.u.i.i.i.i.i.a.i.a.a.a.a.a.i.i.i.i.i.i.y.y.u.u.u.i.i.i.i.a.a.a.h.h.f.a.a.a.a.a.f.h.h.h.h.h.f.h.h.z.z.] c.M.h.z.z.z.h.n.n.c.n.x.c.c.n.c.c.c.b.b.b.c.c.c.c.c.c.x.x.c.c.c.x.c.c.n.n.n.c.c.c.x.c.c.x.x.x.c.c.b.c.b.b.b.b.n.c.c.c.c.x.x.z.x.x.c.z.z.h.z.c.b.b.b.b.b.b.b.b.b.b.b.P.-.a.c.h.h.h.h.h.h.h.h.h.a.h.h.h.h.h.h.h.h.h.h.a.a.h.h.h.h.h.h.h.h.z.z.a.a.a.a.h.h.h.a.a.a.a.a.a.i.a.a.a.h.z.c.c.c.b.z.z.z.c.c.h.f.i.i.i.a.i.a.a.a.a.a.a.i.i.i.y.y.y.y.e.e.e.e.e.y.y.y.y.y.-.w.e.u.i.y.w.e.y.y.e.w.w.w.w.w.w.w.%.%.%.%.%.%.%.%.%.%.%.%.%.%.%.%.%.%.%.u A V ] $.] [ [ [ [ [ ] ] ] ] C A Q Q ",
"Q Q Q Q S S Q ( Q S ] Q ] [ w.Q ] V   & & w % * * 0 0 + * + + + . . .     + w q e u e e e u v u v u u u u V A [ Q %.%.%.%.%.%.=.w.w.w.w.w.e.e.w.w.e.e.u.u.u.u.i.i.i.i.i.i.a.h.z.z.h.a.a.a.a.a.a.i.i.i.a.a.a.a.a.a.d.h.h.z.j.h.h.h.h.h.h.h.h.z.z.z.z.h.z.z.b.=.e.b.h.z.x.z.z.z.c.c.c.c.x.c.c.c.c.c.c.c.b.b.c.c.c.x.z.x.z.x.c.c.c.x.c.c.c.c.x.x.x.z.z.z.z.z.z.x.c.c.c.n.c.b.b.b.n.c.c.c.c.c.c.c.c.c.c.c.n.c.n.n.b.b.b.b.b.b.b.b.b.b.n.K.L.[ h.z.h.h.h.h.j.z.j.h.h.h.z.z.z.j.h.j.z.j.h.h.h.z.z.j.j.h.h.z.z.z.h.a.h.h.d.i.y.e.w.w.w.w.w.=.=.=.=.%.w.w.e.e.w.5.%.%.#.=.C C w.%.%.%.-.$.$.-.%.$.-.-.$.$.$.} [ [ [ } #.#.#.#.-.-.%.-.%.Q u A V V V C A V V V V V V V N N N N w .     . . @ + .     @       .     . ] C [ $.Q [ ] ] [ ] ] ] ] ] ( Q Q Q ",
"Q Q Q S S Q Q ] V 0 ] Q Q [ e.( ] u V ] [ v q.e.e.| | h.i.g.g.g.g.i.e.e.g.F   > &   . X X . . # # & @ .         * q.%.] ] ] _ _ ] ] _ _ _ Q A V V V N V N u u e u e u u V S A ] ] A C C A C C C Q Q Q ] _ [ } } } } #.%.w.%.%.%.%.%.-.%.%.=.w.w.w.w.%.w.a.i.%.z.a.z.z.x.x.z.x.c.c.n.x.x.z.z.c.x.x.x.c.c.c.x.c.c.z.z.x.c.c.n.c.c.c.c.c.c.n.x.z.z.z.z.z.z.z.z.z.c.x.c.c.n.b.b.n.n.c.c.c.c.c.c.c.c.c.c.c.c.c.c.c.n.b.b.b.b.b.b.b.b.b.b.n.P.N.Q w.w.=.%.%.4.q.%.%.$.$.%.%.%.$.} $.$.$.{ } } $.%.%.%.-.-.%.%.%.$.%.2.w.q.e.e.e.e.e.i.g.f.g.a.a.f.h.j.z.c.c.V.V.S F  .{ g.r.q.q.q.q.q.q.q.q.q.q.e.e.e.e.e.e.e.e.q.q.w.e.e.q.4.q.e.r.e.S   & u @ @ + . w w 0 * # % 0 u X     V c.f.i.e.e.u.i.a.g.i.q.g.g.N.r.z.h.[ ) A } $.Q ] ] C Q ] ] ] ] Q Q Q Q Q ",
"Q Q Q S S Q Q Q Q ] q.A Q } y.( Q t _ $.$.] 5.w.w.=.y.f.a.f.a.f.f.a.u.u.a.w.C A A V C C C C A Q Q Q A Q A A C C -.V.b.b.F.H.I.K.K.K.K.I.I.I.K.K.I.P.P.U.L.L.P.L.L.L.L.L.K.P.V.f.h.a.g.g.i.a.a.i.i.u.e.e.r.i.g.g.i.g.j.j.g.g.g.i.i.i.i.i.g.h.j.h.g.g.h.j.j.j.h.a.h.z.z.z.z.z.z.z.z.z.z.z.z.z.z.z.z.x.x.x.z.h.z.z.x.z.z.z.z.z.z.z.z.z.z.z.z.z.z.z.z.z.z.z.z.z.z.z.x.c.c.c.c.c.c.c.c.c.z.x.x.x.c.c.c.n.n.c.c.c.n.n.n.n.c.b.b.b.b.b.b.c.b.c.L.c.e.u.u.i.i.g.h.g.g.g.j.j.j.g.i.i.i.i.i.i.i.i.g.g.g.g.g.g.a.i.g.e.e.i.e.L.P.U.U.R.W.W.W.W.R.R.R.R.Q.W.W.!.'.'.OXW.E._._.oXOX.XE.E.E.E._.'..X'.'..X.XXXXXOX.X.X.X'.E.W.E.E.W.W.R.R.W.W.R.%._ [ C C C C Q Q Q Q Q Q _ ] V 0 & q.c.h.a.i.i.i.i.i.i.e.w.a.a.j.e.f.f.} Q C } $.Q ] ] _ [ ] ] ] Q Q Q Q Q Q ",
"Q Q Q S S Q Q Q ] ] ] Q V [ w.V [ V C A C A C C ] Q [ } $.$.$.$.{ { } [ [ $.e.i.a.i.u.e.u.u.f.a.u.u.i.h.h.a.z.z.s.-.$.$.] #.=.=.=.2.w.w.w.w.w.y.y.y.y.y.y.i.i.s.s.a.a.a.a.a.z.x.n.n.b.b.b.b.b.n.n.c.c.n.n.b.b.V.K.I.b.b.b.b.M.M.V.V.V.V.V.V.V.V.V.V.V.V.V.K.h.a.h.z.z.z.z.z.z.z.f.f.f.f.a.f.f.z.z.z.h.h.z.z.z.z.z.z.z.z.h.z.z.z.z.z.z.z.z.z.z.z.z.z.h.z.h.h.z.z.h.z.x.c.c.c.c.x.c.z.z.z.z.z.z.z.z.z.z.x.x.x.x.x.x.c.c.c.b.c.c.x.c.f.z.c.x.K.K.K.K.K.K.K.I.K.I.I.L.P.P.L.K.K.b.M.V.V.K.K.I.I.I.I.I.K.I.K.K.V.b.V.z.i.i.i.i.i.y.i.y.y.y.y.y.w.5.%.C / E I E *.%.=.w.=.*.w.y.y.w.=.=.w.2.=.=.=.=.-.-.-.-.-.=.=.=.-.-.-.-.=.#.[ Q ] -.u.w.a.f.a.a.u.u.u.u.h.j.h.i.i.u.e.i.e.| | | [ [ ] ] ] Q Q V Q A Q } -.=.C A V } $.] A Q ] ( ] ] ] Q Q Q Q Q Q ",
"Q Q Q S S S S Q Q ( ] Q D [ =.V A e C A C V ] A ] ] | %.%.4.$.%.%.%.%.%.%.| %.$.4.4.%.%.%.%.w.%.%.%.%.q.w.w.5.w.%.5.=.5.] #.e.w.w.w.e.w.e.y.e.e.e.w.w.w.w.w.w.w.w.w.w.w.w.w.w.2.%.%.%.%.1.1.2.%.%.w.w.w.w.w.w.w.w.2.} Q [ -.e.y.e.e.w.e.w.w.w.y.y.y.y.y.s.i.a.z.z.z.x.x.x.z.z.h.f.f.h.f.f.h.h.u.=.e.a.h.h.z.z.z.z.z.z.z.z.z.z.z.z.z.z.z.z.h.h.h.h.h.h.h.h.h.z.z.z.z.z.z.x.c.x.z.z.z.z.z.z.z.z.z.z.z.z.z.z.x.z.x.c.c.c.c.c.c.c.x.c.c.c.x.z.h.i.i.i.i.u.y.y.y.y.y.y.y.y.e.e.e.e.w.w.w.w.w.w.w.w.w.w.w.w.w.w.w.y.y.i.a.d.d.h.h.h.i.u.h.d.h.a.a.a.a.w.y.i.[ S q.| w.a.a.a.a.f.h.a.i.i.a.a.a.i.i.i.i.u.u.u.u.i.i.i.u.y.u.u.i.w.w.w.w.%.%.5.i.u.e.u.e.w.w.e.i.g.i.e.e.e.e.e.%.w.q.%.%.%.] S [ [ [ ] ] ] } } Q %.V q V } $.Q V Q Q ( Q ] Q Q Q Q Q Q Q ",
"Q Q S S S S Q Q Q Q ( ] ] [ y.[ ] 0 C V A A } ] Q %.%.%.$.5.4.4.%.%.%.%.%.%.%.A A A A A S S Q Q Q Q S A A Q Q $.%.%.%.%.$.%.w.w.w.w.w.w.w.w.w.e.%.=.w.w.w.w.w.w.w.w.e.e.e.y.e.e.w.e.e.e.y.e.y.y.u.u.u.u.u.i.i.a.i.u.a.w.] w.i.a.a.a.h.a.| M.b.h.i.h.a.h.h.h.h.h.h.z.z.z.z.z.h.h.h.h.z.h.h.h.y.%.j.c.j.h.z.z.h.z.c.z.c.z.z.z.z.z.z.z.z.z.z.h.h.h.h.h.h.z.z.z.z.x.x.c.c.z.z.z.c.x.z.z.z.z.z.z.x.z.z.z.z.z.x.c.x.x.z.z.x.z.c.c.z.z.x.x.z.z.z.h.h.h.h.h.h.h.h.h.h.h.h.a.f.d.a.d.a.a.a.a.a.i.i.i.a.a.a.i.i.a.a.i.a.a.a.a.a.a.a.a.f.f.i.a.a.a.a.a.i.i.a.i.s.u.u.f.f.a.a.a.a.a.a.a.i.i.u.i.i.i.u.u.u.u.u.y.y.y.u.i.u.y.y.e.e.u.u.=.%.%.w.w.w.%.C C Q Q Q A Q ] ] [ [ ] ] [ } %.4.%.%.$.%.$.| } A ] } [ [ } } Q #.A C C [ } Q ] ] ] ] ( ( ( Q Q Q Q Q Q ",
"S S A S Q Q Q Q Q Q ( ] ] } y.] ] 0 C C ] Q ] Q ] %.%.4.$.4.%.%.5.%.%.%.%.%.=.%.] _ Q Q ] [ [ [ [ } [ [ } [ %.w.%.%.%.%.-.] =.5.=.=.w.w.w.w.w.w.V ] w.w.w.w.w.w.w.w.w.e.e.e.e.w.w.e.e.e.e.e.y.y.u.u.u.i.u.u.i.a.a.a.a.h.z.h.a.a.a.a.a.a.a.x.z.a.i.h.h.z.z.z.h.a.a.h.a.f.z.z.h.h.h.h.z.z.h.i.f i.M.V.z.c.c.c.c.z.c.c.c.c.z.c.c.c.c.c.h.} i.z.z.z.j.j.z.z.z.z.z.z.x.c.n.x.h.%.e.z.z.z.z.x.x.c.z.c.x.z.n.x.c.c.c.x.%.%.z.z.z.z.z.z.z.z.z.z.j.h.h.h.h.h.h.h.h.h.d.e.e.a.a.a.a.a.a.a.i.a.a.i.i.i.i.i.i.i.i.a.i.i.i.a.a.a.a.a.a.a.w.a.h.a.a.a.a.a.i.i.i.i.a.a.a.a.a.a.a.a.a.a.a.a.i.i.i.i.i.i.i.u.u.u.u.u.i.u.y.u.i.u.y.y.y.i.%.] w.%.%.e.w.w.w.} ] [ ] ] ] ] ] } } [ } { 4.$.%.%.%.$.$.$.$.$.Q ] } } ] } [ %.x.$.Q C [ } Q ] ] ] ] ] Q ( ( Q Q Q Q Q ",
"A A S S Q Q Q Q Q Q Q ] ] [ y.C 0 0 A S ] Q [ } %.%.%.%.%.4.] } =.%.%.%.%.%.%.%.w.s.a.a.f.h.h.h.z.x.z.h.h.u.w.w.=.%.%.=.2.%.=.=.=.%.=.w.w.w.w.w.5.e.=.2.w.w.w.w.w.w.w.w.w.e.w.w.y.e.e.y.y.w.e.y.u.u.i.i.i.i.i.i.i.a.a.f.z.b.b.b.b.b.b.b.K.H.K.K.K.H.K.b.h.h.h.i.i.z.z.z.z.z.h.h.h.h.z.z.z.f.5.f.b.c.c.x.x.c.b.c.c.c.c.c.x.c.c.c.n.c.c.u.u.z.x.z.z.z.z.z.x.c.x.x.x.c.n.c.M.V.z.z.c.c.c.c.c.c.c.c.c.c.c.c.c.n.n.b.b.z.x.x.z.z.z.z.z.z.z.z.z.h.h.h.h.h.h.h.h.z.h.u.u.a.a.a.a.a.a.h.f.f.a.a.a.a.i.a.i.i.i.i.i.i.i.a.a.a.a.a.a.a.i.i.a.a.a.a.a.i.i.i.i.a.i.a.a.a.a.a.i.i.i.i.i.i.i.i.i.i.i.i.i.i.u.u.u.u.u.y.u.i.i.u.y.y.y.u.u.y.i.y.y.y.e.w.h.a.s.h.f.f.a.f.h.f.z.z.f.w.-.%.%.%.%.$.$.$.$.$.%.$.} } [ } [ 4.f.] C C [ } Q ] ] ] ] ] Q Q Q Q Q Q Q Q ",
"S A A S Q Q Q Q Q Q Q Q Q [ =.Z A w A u V ] $.} $.$.%.%.%.%.%.%.%.%.%.%.%.%.%.%.$.%.=.5.w.w.w.w.=.=.=.=.=.=.w.=.%.%.%.%.=.=.=.=.%.%.%.=.=.=.=.=.=.=.=.2.w.w.w.w.w.e.e.w.w.w.w.w.w.e.e.y.y.e.y.y.u.u.u.i.i.i.i.i.i.a.a.a.f.z.z.z.z.z.z.z.z.x.x.x.x.z.x.z.h.h.h.h.h.h.z.z.f.a.a.a.h.h.h.h.h.z.z.x.z.z.z.z.z.z.j.z.z.z.j.z.z.z.z.z.z.z.x.b.x.h.z.z.h.h.h.z.z.z.z.z.z.x.x.x.x.n.z.z.z.z.z.z.z.z.z.z.z.z.z.z.z.z.n.x.n.x.z.z.z.z.z.z.z.z.z.j.j.h.h.h.h.h.h.h.h.z.z.z.h.a.a.a.d.a.a.a.a.a.a.a.a.a.a.a.a.i.a.a.i.a.a.a.a.a.a.a.a.a.a.a.a.a.a.a.a.i.i.i.i.i.i.i.i.a.a.i.i.i.i.i.u.u.u.u.i.i.i.i.i.u.y.y.y.y.u.u.u.u.u.y.y.y.y.y.y.y.y.y.y.e.w.e.w.=.w.5.w.w.w.w.w.w.w.2.=.%.%.%.%.%.$.$.$.$.$.| [ } } } [ } $.u C C C C [ } Q ] ] ] ] ] Q Q Q Q Q Q Q Q ",
"S A A S S Q Q Q Q Q Q Q Q ] $.Z A u C Q ] ] $.} $.$.$.$.$.$.$.$.-.-.%.%.%.%.%.%.%.%.%.%.%.%.%.%.%.%.%.%.w.1.=.=.w.=.=.%.%.%.%.%.%.%.%.=.=.=.=.=.%.%.w.w.w.w.w.w.w.e.e.e.w.w.w.w.w.w.e.e.e.e.e.y.u.u.u.u.u.i.u.i.i.i.a.a.a.a.a.a.a.a.a.a.a.a.a.a.a.a.d.a.a.a.a.a.a.f.f.f.f.a.f.h.h.h.h.h.h.h.h.f.h.h.h.z.h.z.z.z.z.z.z.z.z.z.z.z.z.z.z.h.h.z.z.j.j.z.h.z.z.z.z.z.z.x.x.x.z.z.z.z.z.z.x.x.x.x.z.z.z.z.z.x.z.z.z.z.z.z.z.z.z.z.z.z.z.z.j.h.h.h.z.z.h.h.h.h.h.h.h.h.a.a.a.a.a.a.a.a.a.a.a.a.a.a.a.a.a.a.a.a.a.a.a.a.a.i.a.a.a.a.i.a.a.a.a.a.a.i.i.i.i.i.i.i.i.i.i.i.i.i.u.u.u.u.y.y.u.u.u.u.u.u.y.y.y.y.y.y.y.y.y.y.y.y.y.y.w.w.w.w.w.e.w.w.w.w.=.=.%.w.w.w.w.w.q.1.%.%.%.%.%.$.$.$.$.$.$.} [ } } [ [ } %.%.$.V A C ] [ ( ] ] ] ] ( Q Q Q Q Q Q Q Q ",
"S S S A Q Q Q Q Q Q Q Q Q ] %.Z A u C Q ( ] %.[ $.$.$.$.$.$.$.$.$.-.-.%.%.%.%.%.%.%.%.%.%.%.%.%.%.%.%.%.%.%.=.=.=.=.=.%.%.%.%.%.%.%.%.=.=.%.%.%.%.%.=.=.=.w.5.w.w.w.e.w.w.e.w.w.w.w.e.e.e.w.w.e.y.u.u.i.u.i.i.i.i.a.i.a.a.a.a.a.a.a.a.a.a.a.a.f.a.a.a.a.a.a.a.a.a.a.f.h.a.a.a.f.h.h.h.h.h.h.h.h.h.h.h.z.h.j.z.z.z.z.z.z.z.z.z.z.z.z.z.h.h.z.h.j.h.h.z.z.z.z.z.z.z.z.x.z.z.z.z.z.z.z.x.z.x.z.z.z.z.z.z.z.z.z.z.z.z.z.z.z.z.z.z.j.z.z.z.h.h.h.h.h.h.h.h.h.h.h.h.h.f.a.d.a.a.a.a.a.a.a.a.a.a.a.a.a.a.a.a.a.a.a.a.a.i.i.a.a.a.a.a.a.a.a.a.i.i.i.i.i.i.i.i.i.i.i.i.i.i.i.u.u.y.y.y.y.u.u.u.u.u.u.y.y.y.y.y.y.y.y.y.y.y.y.e.e.e.e.w.w.w.w.w.w.w.w.5.5.=.w.5.w.w.w.q.%.%.%.%.%.%.$.$.$.$.$.$.-.} } } } [ | %.$.$.C A C ] [ ( ] ] ] ] Q Q Q Q Q Q Q Q Q ",
"S S S A S S Q Q Q Q Q Q Q ] %.S Q u C _ ( ] %.} $.$.$.$.$.$.| | $.$.%.$.%.$.%.%.%.%.%.%.%.%.%.%.%.%.%.%.%.%.%.%.%.%.=.=.%.%.=.%.%.%.%.%.%.%.%.%.%.%.%.%.%.%.%.%.w.w.w.w.w.w.w.w.w.w.w.w.w.w.w.w.y.u.u.u.i.i.i.i.i.i.i.a.a.a.a.a.a.a.a.a.a.a.a.i.a.a.a.a.a.a.a.a.d.a.a.a.a.d.d.h.h.f.h.h.h.h.h.h.h.h.h.h.h.h.h.j.h.h.j.h.z.z.z.z.z.z.h.h.z.h.h.h.h.h.h.z.z.z.z.z.z.z.x.x.z.z.x.x.z.z.z.z.z.z.z.z.z.z.z.z.z.z.z.z.z.z.z.z.z.h.h.h.h.h.h.h.h.h.h.h.h.h.h.h.h.h.h.h.h.h.h.h.f.f.f.f.a.a.a.a.a.a.a.a.a.a.a.a.a.a.a.a.a.a.a.a.a.a.a.a.a.a.a.a.a.i.i.i.i.i.i.i.i.i.i.i.i.u.u.u.y.u.y.y.u.u.u.u.u.u.y.y.y.y.y.y.y.y.y.y.e.e.e.e.e.w.w.w.w.w.w.w.w.w.5.=.=.w.w.w.5.=.2.=.%.%.$.$.$.$.$.$.$.$.$.$.$.} } } ] } $.$.$.C Q A } | Q ] ] ] ] Q Q Q Q Q Q Q Q Q ",
"Q S S S S S Q Q Q Q Q Q Q ] -.Q Q u C _ ( Q %.} $.$.$.$.$.| $.$.{ $.$.$.%.-.%.%.%.%.%.%.%.%.%.%.%.%.%.%.%.%.%.%.%.%.=.=.%.=.%.=.%.%.%.%.%.%.$.$.$.-.%.%.$.$.$.%.=.2.w.w.w.w.w.w.w.w.w.w.w.w.w.y.u.u.u.u.i.i.i.i.i.i.i.i.a.i.i.a.i.i.a.a.a.a.a.a.a.a.a.a.a.a.a.a.d.a.a.a.a.d.d.a.h.f.d.f.h.h.h.h.h.h.h.h.h.h.h.h.j.j.j.h.z.z.x.n.z.z.z.h.z.z.h.h.h.h.h.h.h.z.z.z.z.z.z.z.z.z.x.x.z.z.z.z.z.z.z.z.z.z.z.z.z.z.z.z.z.z.z.z.z.h.h.h.h.h.h.h.h.h.h.h.h.h.h.h.h.h.h.h.h.h.h.h.f.h.f.f.a.a.a.a.a.a.a.a.a.a.f.h.a.a.a.a.a.a.a.a.a.a.a.a.i.i.i.i.a.i.i.i.i.i.i.i.i.i.i.i.u.u.u.u.y.y.u.y.u.u.u.u.u.y.y.u.u.y.y.y.y.y.y.e.e.e.e.w.e.w.w.w.w.w.w.w.w.w.w.w.=.1.w.5.5.=.=.=.%.%.%.%.$.$.$.$.$.$.$.{ } } } [ ] } } } $.A Q A [ | Q ] ] ] ] Q Q Q Q Q Q Q Q Q ",
"Q Q Q S S S Q Q Q Q Q Q Q ] %.Q Q u C Q Q ( w.} $.$.$.$.#.$.Q z { $.-.%.-.-.-.%.%.%.%.%.%.%.%.%.%.%.%.%.%.%.%.%.%.=.%.%.=.%.%.=.=.%.%.%.%.%.%.%.%.=.=.%.%.$.%.%.w.w.w.w.w.w.w.w.w.w.w.w.w.( %.y.y.y.u.u.u.u.i.i.i.i.i.i.i.a.a.i.a.a.i.a.a.a.a.a.a.a.a.a.a.a.a.a.a.a.a.a.a.a.a.a.a.a.f.a.a.f.f.f.f.h.h.h.h.h.h.h.h.h.h.h.j.z.z.z.z.z.j.h.z.z.h.h.h.h.h.h.h.z.z.j.j.z.z.z.z.z.z.z.x.z.z.z.z.z.z.z.z.z.z.z.z.z.z.z.z.z.z.z.z.h.h.h.h.h.h.h.h.h.h.h.h.h.h.h.h.h.h.h.h.d.h.f.f.a.a.f.a.a.a.a.a.a.a.a.a.a.a.h.a.a.a.a.i.i.a.a.a.a.a.a.a.i.a.a.i.i.i.i.i.i.i.i.i.u.u.u.u.y.y.u.u.y.y.y.u.u.u.u.y.y.y.u.u.y.y.y.y.y.y.e.w.e.w.w.w.w.w.w.w.w.w.w.w.w.w.5.=.%.q.%.5.2.=.=.%.%.[ V -.$.$.$.$.$.#.} } } } } ] } | | $.C Q A [ } Q ] ] ] ( Q Q Q Q Q Q Q Q Q ",
"Q Q Q S S S Q Q Q Q Q ] ( ] %.Q Q e C Q Q ] =.} $.$.$.$.| } ] S [ $.$.%.$.$.$.$.%.%.%.%.%.%.%.%.%.%.%.%.%.%.%.%.%.%.%.=.%.%.%.%.%.%.%.%.%.%.%.] V V V V V V V V S =.2.w.w.w.w.w.w.w.w.w.w.} =.e.y.y.y.u.u.u.i.i.i.i.i.i.i.i.i.i.i.a.a.a.a.i.a.a.a.a.a.a.a.a.a.a.a.a.a.a.a.a.a.a.a.a.a.a.a.a.a.a.a.a.h.h.h.h.h.h.h.h.h.h.h.h.j.z.j.h.j.j.z.h.h.h.h.h.h.h.h.z.z.h.j.j.z.z.z.z.z.z.z.z.z.z.z.z.z.z.z.z.z.z.z.z.z.z.z.z.z.h.h.h.h.h.h.h.h.h.h.h.h.h.h.h.h.h.h.h.h.d.h.a.a.a.a.a.a.a.a.a.a.a.a.a.a.a.a.a.a.a.a.a.a.a.i.i.i.i.i.i.i.a.i.i.i.i.i.i.i.i.i.i.i.i.u.u.u.y.u.y.y.y.y.y.y.y.y.y.y.y.y.y.y.y.y.y.y.y.y.y.y.e.e.w.w.w.w.w.w.w.w.w.w.w.w.w.5.5.=.%.=.%.%.%.q.%.%.%.} ] } $.$.$.$.$.} } } [ } } ] } | } $.C Q A [ } Q ] ] ( Q Q Q Q Q Q Q Q Q S ",
"Q Q S Q Q Q Q Q Q Q Q Q Q [ =.S Q e C Q Q ] %.} $.$.| | } } } } [ } $.%.$.$.$.$.$.$.%.%.%.%.%.%.%.%.%.%.%.%.%.%.%.4.%.%.%.%.%.%.%.%.%.%.%.%.q.N   0 = > q w , - X %.w.2.w.w.w.w.w.w.w.w.w.y.w.w.e.y.y.u.u.i.i.i.i.i.i.i.i.i.i.i.a.a.a.a.a.i.i.i.i.i.i.a.a.a.a.a.a.a.a.a.a.a.a.a.a.a.a.a.a.a.a.a.a.a.h.h.h.h.h.h.h.h.h.z.h.h.j.h.z.h.h.h.j.z.h.h.h.h.h.h.h.h.h.h.h.j.j.z.z.z.z.z.z.z.z.z.z.z.z.z.z.z.z.z.z.h.z.z.z.h.z.h.h.h.h.h.h.h.h.h.h.f.h.h.h.h.h.h.h.h.h.a.a.a.a.a.a.a.a.a.a.a.a.a.a.a.a.a.a.a.f.f.f.a.a.a.i.i.i.i.i.i.i.i.i.i.i.i.i.i.i.i.i.i.i.i.u.u.u.u.u.y.y.y.y.y.y.y.y.y.y.y.y.y.y.y.y.y.y.y.y.y.e.e.w.w.w.w.w.w.w.w.w.w.w.w.w.4.w.w.2.=.=.%.%.%.%.%.%.%.=.w.$.$.$.$.$.-.{ } } [ [ } ] } { } #.C Q A ] [ Q ] ( ( Q Q Q Q Q Q Q S S A ",
"A A A S Q Q Q Q Q Q Q Q Q [ 5.S Q u C Q Q ( w.} $.| | | } [ ] ] [ } $.| $.$.$.$.$.$.$.%.$.$.$.%.%.%.%.%.%.%.%.%.%.%.%.%.%.%.%.%.%.=.%.%.%.%.2.u.y.s.s.s.s.k.f.a.y.w.=.w.w.w.w.w.w.w.w.w.w.w.w.w.e.e.y.y.y.u.u.u.u.i.i.i.i.i.i.i.a.a.a.a.i.u.u.u.u.i.i.a.a.a.a.a.a.a.a.a.a.a.a.a.a.a.a.a.a.a.a.a.a.a.h.h.h.h.h.h.h.h.h.h.h.h.h.h.h.h.h.h.h.h.h.h.a.h.h.f.f.h.h.h.h.h.h.z.z.z.z.z.z.z.z.z.z.z.z.z.z.z.z.z.z.h.h.h.h.h.h.h.h.h.h.h.h.h.h.h.d.f.h.h.h.h.h.h.h.h.h.a.a.a.a.a.a.a.a.a.a.a.a.a.a.a.a.a.a.a.a.a.a.a.a.a.a.i.i.i.i.i.i.i.i.i.i.i.i.i.i.i.u.i.u.u.u.y.u.y.y.y.y.y.y.y.y.y.y.y.y.y.y.y.y.y.y.y.y.e.e.e.e.w.w.w.w.w.w.w.w.w.w.w.w.5.4.%.w.w.w.=.%.%.%.%.%.%.%.%.%.$.$.$.$.$.$.-.} } [ [ [ [ ] } } [ } V Q A [ } Q ( ] ( Q Q Q Q Q Q S A A A ",
"A A A Q Q Q Q Q Q Q Q Q Q ] =.Q ] V C Q Q ] e.} $.| | | [ [ [ [ [ [ | | | | | | | } | | | | | | | | | | $.%.%.q.%.%.%.%.%.%.%.%.%.%.%.%.%.%.%.-.=.y.y.w.=.5.y.y.y.w.2.w.w.w.w.w.w.w.w.w.w.w.w.w.w.w.e.y.u.y.y.y.u.u.u.i.i.i.i.i.a.a.a.a.a.i.u.y.u.u.i.a.i.i.a.a.i.i.a.a.a.a.a.a.a.a.a.a.a.a.a.a.a.a.h.h.h.h.h.h.f.h.h.h.h.h.h.h.h.h.h.z.h.h.h.h.a.a.h.h.h.h.h.h.h.h.h.h.z.z.z.z.z.z.z.z.z.z.z.z.z.h.h.h.h.h.h.h.h.h.h.h.h.h.h.h.h.h.h.h.h.h.f.h.f.a.f.f.h.f.f.a.a.f.a.a.a.a.a.h.h.a.a.a.a.a.a.a.i.a.a.a.a.a.a.a.i.i.i.i.i.i.i.i.i.i.i.i.i.u.u.u.u.u.u.i.u.y.y.y.y.u.i.u.y.u.y.y.y.y.y.y.e.y.y.y.e.e.e.w.w.w.w.w.w.w.w.w.w.w.w.w.w.5.w.w.w.=.=.5.2.=.%.%.%.%.%.%.$.$.$.-.$.$.$.$.$.$.-.} } [ [ [ ] [ [ [ } g Q A } } Q ] ] ] ( Q Q Q ] Q S A A A ",
"A A Q V u Q S Q S u u Q Q ] =.Z A u C Q Q ] w.} } | $.| [ [ [ [ } | | $.} } $.$.$.$.%.%.%.%.%.%.%.4.%.%.%.%.$.$.%.%.{ ] %.%.%.%.%.%.%.%.%.%.=.V   O             : %.w.1.w.w.w.w.w.w.w.w.w.w.e.w.w.w.w.5.] =.%.C } y.y.y.i.u.u.i.i.i.a.u.[ [ e.y.y.u.u.e.a.u.i.i.i.i.a.i.i.i.i.i.i.a.i.y.i.i.u.i.a.a.d.h.h.h.h.h.h.h.h.h.h.h.h.h.h.h.u.5.f.h.a.a.f.u.$.y.e.i.z.h.h.h.h.h.h.z.z.z.z.z.z.h._ %.a.z.z.z.z.z.h.h.h.h.h.h.h.h.h.h.h.h.d.h.h.h.h.f.a.a.a.f.f.f.f.f.a.a.a.i.a.a.i.a.a.%.e.a.u.u.i.i.i.i.i.a.a.a.a.a.a.i.i.i.i.i.i.i.i.a.w.( w.i.i.u.u.u.i.u.] } y.y.y.y.u.$.Q y.u.u.y.e.e.y.y.y.y.} A w.y.e.w.w.w.w.w.w.Q A w.5.w.w.w.w.w.w.w.w.5.5.w.=.=.%.%.%.%.%.%.$.$.$.%.%.%.$.$.$.$.-.$.} } [ } ] ] [ [ ] [ g A A [ } Q V ; Q ( Q Q ] V 0 A A A A ",
"A Q Q A A Q Q Q ] [ V ( Q ] $.C Z 0 u N V [ w.[ } | | } } [ D V ] A V Q A A l e e A Q Q ] ] ] ] Q S ] ] ] [ S w Q | Q ] %.%.%.%.%.-.%.-.%.%.%.} Q } _ Q Q Q A A S %.w.w.w.w.w.w.w.w.w.w.w.] %.w.w.w.e.w.=.w.y.e.=.y.i.i.i.i.i.i.i.i.a.i.y.w.y.u.y.i.y.$.y.y.e.} u.a.i.i.a.a.a.i.i.i.i.y.i.s.y.y.a.a.a.h.h.d.h.h.h.h.h.h.h.h.h.h.h.h.a.s.a.f.f.h.h.a.a.a.a.u.z.z.h.h.h.h.z.z.z.z.z.z.z.h.y.a.w.h.z.h.z.z.z.h.h.h.h.h.f.f.h.h.h.h.a.a.a.a.f.a.a.a.a.a.a.a.h.h.a.f.i.%.y.i.i.a.i.%.%.a.h.a.a.a.i.=.y.a.i.i.a.i.i.i.a.i.i.i.i.i.i.a.i.e.u.i.i.i.i.i.i.i.a.u.y.y.y.u.i.u.u.i.a.u.u.u.y.y.s.y.y.w.u.y.w.e.e.w.w.w.w.w.%.w.=.=.w.w.w.w.%.$.5.4.q.4.%.%.%.%.%.%.%.%.%.%.-.%.[ A $.-.$.$.%.b A } [ ] [ ] ] ] Q   C V A C [ [ Q V S ] Q Q Q Q ] S C C Z Z ",
"S S A Q Q A A S Q ] Q ( Q ] $.C A 0 > D ] [ w.#.$.| { A Q ] V S A A _ V % V %.%._ $.$.$.| %.%.%.%.| %.%.%.%.w.%.| ( V ] %.%.%.%.%.$.%.%.%.%.%.$.w.y.%.-.#.} [ _ $.=.%.w.w.w.w.w.w.w.w.w.w.w.5.w.w.e.e.e.y.w.w.y.y.w.y.y.y.y.y.y.i.i.i.i.a.i.u.y.y.y.i.i.y.y.u.y.u.i.i.i.i.i.i.a.i.i.a.a.i.i.a.s.a.a.d.a.f.a.f.h.h.h.h.h.h.h.h.h.h.a.h.h.a.a.a.a.a.a.a.a.a.f.h.h.h.h.h.h.h.j.j.h.h.h.h.f.a.h.a.h.z.z.h.h.h.h.h.h.h.h.h.h.h.h.h.d.a.a.a.a.a.a.a.a.a.a.a.a.a.a.a.a.a.a.i.u.i.i.i.i.u.u.i.i.i.i.a.i.i.i.i.i.i.i.i.i.i.i.i.i.u.i.i.i.i.i.i.y.i.i.i.i.i.i.i.y.e.y.y.y.y.y.i.y.y.y.y.y.y.y.y.y.w.w.y.w.w.w.w.w.w.w.w.=.=.=.%.=.=.w.w.=.%.$.%.q.| } %.| %.%.=.%.%.%.%.%.-.%.%.$.$.$.$.-.#.A A ] [ ] ] ] Q _ ] S #.u A V ] ] Q Q [ Q Q Q Q Q Q A V C Z Z ",
"A A A C C A A A A A A Q Q ] $.V A q u Q } [ %.} $.| | ] ( [ V u A Q C V t b Q _ ] Q Q Q Q Q Q Q ( Q Q Q ] Q Q C Q [   0 $.$.$.$.%.$.$.$.%.%.%.V # u w w 0 > > # u %.2.w.w.w.w.w.w.w.w.w.w.w.w.w.w.e.e.w.w.w.w.w.w.w.w.y.y.y.y.y.u.u.u.u.y.y.u.u.y.y.y.e.e.e.e.y.y.u.i.i.u.u.i.i.i.u.u.u.y.y.y.u.i.i.a.a.a.a.a.a.a.d.h.h.a.a.a.a.a.a.a.a.a.a.a.a.a.i.i.i.i.a.a.h.h.h.h.h.h.h.h.h.h.h.h.h.y.a.z.h.h.z.h.h.h.h.h.h.h.h.h.h.h.h.h.d.a.d.d.a.i.a.a.a.a.a.a.a.a.a.a.a.a.i.u.u.u.u.u.y.y.y.u.u.u.i.i.i.i.i.i.i.i.i.i.i.i.i.i.u.u.u.u.u.y.y.e.y.u.u.u.u.u.u.y.e.e.y.y.y.y.w.w.e.e.e.e.e.e.e.e.w.w.=.=.w.w.w.w.w.w.w.=.=.%.%.=.%.=.=.5.5.%.%.( [ $.-.%.$.%.%.%.%.%.$.$.$.-.-.%.%.$.$.$.$.$.$.Q [ [ ] ] ] Q _ S w.-.u Z V _ [ A Q A A Q Q Q A C C C C Z Z ",
"A A A V A A A A A A Q Q Q ] $.C A w V Q Q Q %.} $.{ | { { [ [ [ ] ] Q [ %.] Q [ | } [ [ ] ] ] ] ] ] ] [ { { [ [ #.5.%.} $.$.-.%.%.$.$.%.%.%.5.S   q > q w w > @   $.w.w.w.w.w.2.w.w.w.w.w.w.w.w.w.e.w.w.w.w.w.w.w.w.w.y.y.y.y.u.u.u.u.u.u.u.u.u.u.y.e.e.e.e.y.y.y.u.i.i.y.u.y.i.i.u.u.y.y.e.e.y.u.u.i.a.a.i.a.a.a.a.d.h.f.h.h.h.h.h.a.a.a.a.a.a.a.a.a.a.a.a.a.a.a.f.h.h.h.h.h.h.h.h.h.z.i.a.f.f.f.f.f.f.f.f.f.h.h.f.h.h.h.f.f.f.f.a.a.f.a.a.f.a.f.h.h.f.a.a.a.a.i.i.u.u.u.u.u.u.y.y.u.u.u.u.i.i.u.u.i.i.i.i.i.i.i.i.i.u.u.u.u.y.y.y.y.y.y.y.y.y.y.y.u.y.y.y.y.y.e.w.w.e.e.e.e.e.w.e.e.w.w.w.w.w.w.w.w.w.w.w.2.=.=.%.=.%.%.=.%.%.[ [ %.$.%.%.$.%.%.%.%.%.%.%.$.$.$.$.$.$.-.$.-.$.#.} #.#.[ ] [ ] Q Q Q } [ u Z V _ [ A Q Q Q Q Q Q A A C Z C Z Z ",
"A A A C A A A A A A Q Q Q ] #.C A u V Q A A $.} | [ { } [ [ ] [ [ } } | $.$.] w.e.w.w.w.5.%.%.%.%.q.4.q.5.%.%.=.%.-.-.$.$.$.$.$.-.$.$.-.%.%.=.a.y.y.y.i.i.i.u.i.w.%.w.w.2.w.w.w.w.w.w.w.w.w.w.w.w.w.w.w.w.w.w.w.w.w.w.y.y.y.y.%.w.y.y.u.u.u.u.u.y.e.e.e.w.w.w.y.e.y.u.u.y.y.y.y.y.y.y.y.y.e.y.e.y.y.u.i.i.i.i.i.i.i.a.a.h.h.h.h.h.a.a.f.a.a.a.a.a.a.a.a.a.a.i.i.a.a.d.d.h.h.h.h.h.h.j.z.z.f.a.h.f.a.f.f.h.h.h.h.h.h.h.h.h.h.f.f.f.a.a.f.h.h.h.h.h.h.h.h.h.h.a.a.i.i.u.u.u.u.y.u.u.y.u.u.u.u.u.u.u.u.u.i.i.i.i.i.i.u.u.u.y.y.y.y.y.y.e.y.y.y.y.y.y.y.y.y.y.y.y.y.e.e.w.e.y.e.e.w.w.e.w.w.w.w.w.w.w.w.w.w.w.5.=.=.%.=.=.=.%.%.%.%.} | h.$.} } $.$.$.$.$.$.%.$.$.$.$.$.$.$.$.$.-.$.$.#.} } ] ] [ Q Q _ ] Q ] b C V _ [ A Q Q Q Q Q Q A A C A C C C ",
"A A C C A A A A A A S Q Q ] $.V C u V Q A Q %.[ } [ [ } } [ Q [ { } } } [ [ [ [ } } } } [ [ S ] [ [ [ | | | } } $.$.$.$.$.$.$.$.$.$.$.$.-.-.-.%.w.5.w.w.w.e.w.y.w.%.w.w.=.5.w.w.w.w.w.w.w.w.w.w.w.w.w.w.w.w.w.w.w.w.e.e.y.y.w.5.w.y.u.y.u.u.y.y.e.e.w.w.w.w.w.w.w.e.y.y.y.y.e.e.e.e.e.y.w.e.e.e.e.y.y.y.u.u.u.y.i.i.i.a.a.f.f.f.f.a.a.a.a.a.a.a.a.a.a.a.a.i.i.i.a.a.a.a.a.h.f.f.h.h.h.h.h.h.h.h.h.h.h.h.h.h.h.h.h.h.h.f.a.a.a.a.a.a.a.a.a.f.h.h.h.h.h.h.f.e.i.y.i.i.i.u.u.u.u.u.u.u.u.y.y.u.u.u.u.i.u.u.i.i.w.w.i.u.u.y.y.y.y.y.e.e.e.e.e.y.y.y.y.y.y.y.y.y.y.y.y.e.e.y.e.y.e.w.w.w.w.w.w.w.w.5.w.w.w.w.w.w.=.=.2.=.=.=.%.%.%.-.$.} } $.] $.$.#.$.$.$.-.$.$.$.$.$.$.$.$.$.$.$.$.#.} #.} ] _ [ ] _ [ } } } V Z V Q ] A Q Q Q Q Q Q Q A A A A A C ",
"A A A V A A A A A S Q Q Q ] $.C C w V Q Q Q %.] } [ } } [ [ ] [ [ [ } [ [ [ [ [ } [ [ [ } %.S ] [ [ [ { | } } } | | | $.$.$.$.$.$.$.$.$.$.-.$.$.$.| | | | $.$.$.%.5.w.w.w.w.w.w.w.w.w.w.w.w.w.w.w.w.w.w.w.w.w.w.w.w.w.e.y.y.y.i.i.y.y.y.y.y.e.e.y.e.e.e.w.w.w.w.w.e.e.e.e.e.e.e.e.e.w.e.e.e.e.e.e.e.e.y.u.u.u.u.i.i.a.a.a.a.a.a.a.a.a.a.i.i.a.a.i.i.i.i.i.i.i.i.i.i.a.a.i.a.a.a.a.h.f.h.h.h.a.a.a.f.a.a.a.d.a.a.a.a.a.a.a.a.a.a.a.a.a.a.a.a.a.d.a.a.a.f.f.i.a.e.i.i.i.i.u.u.u.u.u.y.u.y.y.u.i.u.u.i.i.y.i.i.e.y.u.u.y.y.y.y.y.e.e.e.e.e.e.y.e.e.y.y.y.y.y.y.e.y.e.y.y.y.y.e.e.w.w.w.w.w.w.w.w.w.w.w.w.w.w.5.=.=.%.%.%.%.%.%.%.} $.} | } Q } $.$.$.$.$.$.-.$.$.$.$.$.$.$.$.$.{ } } } } } [ _ ] ] ] [ } [ } V Z V Q ] S Q Q Q Q Q Q S A A A A A A ",
"A A C V A A A A A S S Q Q ] -.Z Z w V Q Q Q -.Q [ ] [ } [ [ A ] ] ] [ } } } [ } } } [ [ [ } S [ [ [ } } } [ [ } [ [ } -.$.$.$.$.$.$.$.$.$.$.$.$.$.$.$.$.$.%.%.%.%.%.w.5.w.w.w.w.w.w.w.w.w.%.w.w.w.w.w.w.w.w.w.w.w.w.w.e.e.y.y.y.y.y.y.y.e.e.e.e.2.%.%.%.$.$.| { | $.%.%.%.%.%.%.%.%.%.%.%.%.%.%.%.%.%.q.w.w.e.e.u.a.a.a.a.a.a.a.i.i.a.a.i.i.i.i.i.i.i.i.u.i.i.i.i.i.a.i.i.a.a.a.a.a.h.h.h.h.h.d.f.f.a.a.d.d.a.a.a.a.a.a.a.a.a.a.a.a.a.a.a.a.d.d.a.a.h.h.a.a.a.i.i.i.i.i.u.u.u.u.u.y.y.y.y.y.u.u.u.i.w.w.i.i.i.u.y.y.y.y.y.y.e.e.e.e.e.e.e.e.e.w.y.y.e.y.e.e.e.e.w.w.w.y.y.y.e.w.w.w.w.w.w.w.w.w.w.w.w.w.w.w.5.=.=.%.%.%.%.-.$.} $.} | [ Q } $.#.$.$.$.$.$.$.$.$.$.$.$.$.$.-.} } } } } [ ] ] ] ] _ [ } } } V A V A ] Q Q Q Q Q Q Q A A A A A A A ",
"C C Z C A A A A A S Q Q Q ] %.C Z w V Q A Q -.Q ] ] [ [ [ A g ] ] ] ] } } [ [ } [ [ [ [ [ [ [ ] [ [ [ [ [ [ ] Q Q ] } } } -.$.$.$.$.$.V u } $.$.$.$.$.$.$.%.$.%.%.%.%.5.5.w.w.w.w.w.w.w.w.} %.w.w.w.w.w.w.w.w.w.w.w.w.w.e.e.w.w.w.y.y.y.w.w.[ A t 0 > % @ @ + . . . @ * * * * * # # * @ * * * # % # % % & ; 0 ] [ $.y.y.y.e.e.y.u.u.u.y.y.y.e.e.e.e.e.e.e.e.e.e.e.e.e.e.e.e.e.e.e.e.u.u.u.u.u.u.u.u.u.e.e.u.u.u.e.u.y.y.y.y.y.e.e.e.e.e.e.w.w.e.e.e.w.u.a.a.i.i.i.i.i.i.i.u.u.u.u.y.y.y.u.u.u.u.u.u.i.i.i.i.u.y.u.y.y.y.y.y.e.e.y.e.e.e.e.e.e.w.e.e.e.e.e.e.w.e.w.w.w.e.y.y.e.w.w.w.w.w.w.w.w.w.w.w.5.=.w.w.w.=.=.%.%.%.$.$.$._ #.} | [ _ } $.} #.$.$.$.$.$.$.-.$.$.$.| { -.} } } } } [ ] ] [ ] Q [ } } [ V A V S ] S Q Q Q Q Q Q S A A A A A A ",
"V C C V A Z A A A S Q Q Q [ %.C A w V Q A Q #.A Q Q Q Q [ C A ] ] ] [ [ } } [ [ [ [ [ [ [ [ _ ] [ [ ] [ ] ] Q C Q [ } } } } $.$.$.| [ . w ] } $.$.$.$.$.$.$.$.$.$.%.%.2.w.w.w.w.w.w.w.e.y.i.w.w.w.w.w.w.w.w.w.w.w.w.w.w.w.w.w.w.w.Q y f y t 0 q 0 u V V u u e u w e u u w q w V u u u u u b V V v u u V v N l S A u C Z Z C A & > 0 e @ * e V V V V V V V V V V V V V N V N V V V V V V V V V A A A Z V V V V C A A Q ] ] ( S S S S S S S Z A A S ] ] V u.i.u.u.i.i.i.i.i.i.u.u.u.y.y.y.y.y.y.y.y.y.u.u.y.u.y.y.u.u.y.y.y.y.y.y.y.e.e.e.e.e.e.y.e.w.w.e.e.e.w.w.w.w.w.y.y.y.e.e.w.w.w.w.w.w.w.w.5.5.w.=.5.5.=.%.=.%.%.-.$.$.} _ #.} } } ] } } } } } $.$.{ #.} } { } } } } } } } } } [ ] ] ] ( _ Q ] } ] [ V Z V Q ] S Q Q Q Q Q Q S A A A A A A ",
"C C V V A A A A A S Q _ ( [ %.C A w V Q A Q } C Q Q A Q ] C A ] ] ] [ [ [ [ [ [ ] [ [ [ [ [ ] [ } } } } [ [ ( Q ] [ } } } } #.-.$.} [ u A ] } } $.$.$.$.$.$.$.$.$.%.%.=.5.%.%.w.w.w.w.w.w.w.=.5.w.w.w.w.w.w.e.w.w.w.w.w.w.w.w.w.$.C g.j.u.e.j.e.Q ] [ [ [ ] ( ( S ( Q Q S S Q [ ] ] ] [ [ [ { [ [ [ [ { } [ ] Q C ] w.w.w.a.e.$ C } q.# N L.c.b.V.M.M.M.V.b.b.b.b.V.b.b.b.c.b.c.c.c.c.z.b.b.b.b.b.M.M.b.b.c.c.b.K.I.P.U.P.L.V.V.N.c.V.K.I.I.I.V.I.P.E.j.Z i.u.u.u.i.i.i.i.i.i.u.u.y.y.y.y.y.y.y.y.e.y.u.y.y.y.u.u.u.y.y.e.y.y.y.y.e.e.e.e.e.y.y.y.y.e.e.e.w.w.w.w.w.w.e.y.y.e.w.w.w.w.w.w.w.w.w.5.5.w.w.5.=.%.%.%.%.%.-.$.$.} Q } } } } ] ] } } [ } #.} { } } } } } } } } } } [ [ [ [ _ [ [ Q Q Q ] } } [ V A V Q ] Q Q Q Q Q Q Q A S S S S S A ",
"C V V V A A A A A A S Q Q [ %.C C 0 b Q A Q } C Q Q A Q Q V A ] ] ] ] ] ] [ [ ] [ [ [ [ ] } } [ } } } } } [ [ [ } } [ } } } -.$.$.} [ V A ] [ } } | | | | | $.$.$.%.%.%.%.%.%.5.w.w.w.w.w.5.=.=.5.5.w.w.w.w.w.=.5.w.w.w.w.w.w.w.V w.u.w.w.a.h.a.i.a.z.c.b.c.z.h.h.h.z.z.z.c.c.c.z.z.j.z.z.z.c.j.j.z.z.c.z.h.h.h.h.j.h.h.a.i.f.f.z.z.z.b.u.$.%.w.w.y.y.y.y.y.y.y.y.y.y.y.y.w.w.w.w.w.w.w.w.w.y.y.e.y.y.y.y.y.y.y.u.u.i.u.y.e.w.q.w.%.%.=.=.w.=.%.C ] [ c.} %.i.u.i.e.y.i.u.u.u.y.y.y.y.y.y.y.y.y.y.y.y.y.y.y.u.w.y.y.y.y.e.y.y.y.y.e.e.e.e.w.e.e.w.w.w.w.w.w.w.w.w.w.w.w.w.w.w.w.w.w.w.w.w.w.w.q.w.w.w.=.%.%.%.%.%.%.-.$.$.$.] Q } ] } } ] [ [ [ } #.} } } } } } } } [ Q } } } } [ [ [ ] } } ( _ Q ] [ ] [ V A V Q [ Q Q Q Q Q S S A Q S S S S S ",
"C C C V A A A A A A A S Q ] $.V C q g Q A Q [ C Q Q C Q Q V A ] ( ] ] ] [ ] ] ] ] [ [ ] ] } } } } [ [ } } [ } [ } [ [ } } } #.#.$.} [ V Q ] ] [ [ [ [ [ [ [ | | %.$.=.%.%.5.%.%.=.%.%.=.=.%.%.=.5.5.=.=.=.=.5.%.%.5.w.w.w.5.w.Q } u.[ } [ w.w.w.e.i.h.z.z.z.h.h.f.a.f.f.h.h.h.z.h.h.f.f.f.h.z.f.f.f.a.h.h.a.a.a.a.a.a.i.u.w.y.y.y.w.w.i.s.$.} %.w.e.e.e.e.u.e.y.y.y.e.e.e.e.e.e.w.w.w.e.e.e.e.e.e.e.e.e.e.y.u.u.u.u.u.u.u.u.q.S | %.w.e.w.e.w.e.S { | w.z.Q i.i.i.} =.i.y.u.y.y.y.y.y.y.y.y.y.e.e.e.y.y.e.y.] 0 $.w.w.e.e.e.y.y.e.w.w.w.e.e.w.w.e.y.w.w.w.w.w.w.w.w.i.h.a.i.2.w.w.w.w.w.w.w.w.w.w.w.w.=.=.%.%.%.%.%.$.$.$.#.C C [ ] [ [ [ [ [ } } } } } } } } } } #.S V } } } } } } [ ] ] Q Q _ S ] ] ] [ V A V Q ] Q Q Q Q Q S S S S Q Q Q S S ",
"C C C V A A A A A A A A A Q $.z V q b A Q Q ] C Q Q A A Q V A ] ] ] ] ] ] ] ] [ ] [ [ ] ] } } } } [ } } } [ [ [ } } } } } } #.#.$.} ] u Q ] } | $.%.%.%.%.q.w.q.i.w.%.%.5.=.%.%.%.=.=.%.5.w.=.=.=.5.=.=.%.%.%.$.%.5.5.5.5.w.$.C a.%.$.%.} %.%.5.=.%.%.%.$.$.-.$.%.$.$.$.$.$.%.%.%.%.%.=.%.%.=.%.2.w.w.w.w.w.w.w.w.w.w.=.w.w.=.5.w.w.e.w.=.y.e.w.e.e.e.e.e.e.e.e.e.e.e.e.e.e.e.e.e.w.w.e.e.e.e.e.e.e.e.e.e.e.y.u.u.u.u.y.y.u.%.] %.V { e.w.e.e.e.A [ q.$.j.u.} a.i.i.i.y.y.y.y.y.y.y.u.u.y.y.e.e.e.e.e.e.e.y.$.r.w.=.w.e.e.e.e.e.e.w.w.w.w.w.w.w.%.w.y.w.w.w.w.w.w.w.a.a.y.w.w.w.w.w.w.w.w.w.w.w.w.w.=.=.=.%.%.%.%.%.$.$.$.#.] ] } ] } [ [ [ [ } } [ } } } } [ } } } #.$.} } } } } [ [ ] Q Q Q Q A ] ] ] ] V A V Q ] S Q Q Q S S S S Q Q Q Q S A ",
"C C C V Z A A A A A A A A Q -.V A u V A A Q #.C Q Q Q Q Q g C ] ] ] ] ] ] ] ] ] ] ] ] ] } } } } } } } } } [ [ [ } } } } } } } #.| | A t S ] $.w.w.y.y.y.u.u.u.y.i.w.$.%.%.%.%.=.%.V $.=.%.A $.=.=.=.=.=.%.5.| $.w.w.w.%.=.w.C w.u.} $.%.$.5.{ %.w.w.w.w.5.w.w.%.%.%.%.w.%.2.w.w.w.w.w.w.w.w.w.w.w.w.e.e.e.e.e.e.w.w.w.w.w.w.w.w.w.w.w.y.y.y.y.y.y.y.e.y.y.y.y.y.e.e.e.e.e.e.e.e.e.e.e.e.e.e.e.y.y.y.y.y.y.y.u.u.y.y.e.e.e.e.e.e.e.q.e.e.e.e.e.e.w.e.e.w.w.c.Q e.i.i.u.y.y.y.y.y.y.y.y.y.y.e.e.e.w.w.w.e.e.w.y.h.y.2.y.y.e.e.e.e.e.w.w.w.w.w.w.w.w.%.{ y.e.e.e.w.e.[ ] [ ] Q %.w.w.w.w.w.w.w.w.w.w.w.5.=.%.%.%.%.-.$.$.$.$.#.} } } [ } [ [ [ [ } [ [ } } } } [ } } } } ] [ [ } } } [ [ Q V A Q Q S ] ] ] ] V A V _ [ S Q Q S S S S S Q Q Q S A A ",
"C C C z C A A A A A A A C Q $.Z Q e V A C Q } A Q Q Q Q Q g A ] ] ] ] ] ] ] ] ] ] ] ] _ ] [ Q [ } } } [ } [ } [ } } } } } } #.#.$.$.Q u Q V ] | | $.| $.} } } } } } %.%.%.%.%.5.$.A $.=.$.Q $.=.%.%.=.%.=.w.Q [ $.w.w.%.w.] [ a.#.$.$.%.-.w.%.=.w.5.w.5.%.=.=.=.=.%.5.w.=.=.=.w.w.w.w.w.w.w.w.w.w.w.w.w.e.w.w.w.w.w.w.w.w.w.w.w.w.w.e.y.y.u.y.y.y.y.y.y.y.y.y.y.y.e.e.y.y.y.y.y.e.y.y.y.e.e.y.y.y.y.y.y.y.y.y.y.y.y.y.y.e.e.e.e.w.w.e.e.y.y.y.y.y.y.e.e.=.a.e.Q i.u.y.y.y.y.y.y.e.y.y.y.y.e.e.w.w.w.w.w.w.w.w.w.=.y.y.y.y.e.e.e.e.e.w.w.w.w.w.w.w.{ Q y.e.e.e.e.e.e.4.w.4.%.%.w.e.w.w.w.$.w.w.w.w.w.5.%.%.%.%.-.-.$.$.$.-.#.} } } } } [ [ [ [ } } [ [ } [ } } [ [ [ [ [ [ ] } } } [ } C X u Q A A ] ] Q ] V A C _ [ A Q S S S S S A S S S S A A ",
"C C V z Z A A A A A A A Z Q $.C A e V A A A [ A Q Q Q Q Q V Q ] ] ] ] ] ] ] ] ] ] ] ] _ ] [ ] [ } } } } } [ } } } } } } } } #.} $.$.] g ] ] $.$.$.$.$.$.| | $.| $.} $.%.=.=.w.=.=.w.%.-.-.%.%.%.%.%.%.=.=.w.w.w.w.w.w.=.$.h i.%.$.%.%.=.-.w.w.w.w.w.w.5.=.=.=.w.w.w.w.w.5.5.w.w.w.w.w.w.w.w.w.w.w.w.w.e.w.w.w.w.w.w.w.w.w.w.y.y.y.y.e.y.y.y.y.y.y.y.y.y.y.y.y.y.y.y.y.y.y.y.y.y.y.y.y.y.y.y.y.y.y.y.y.y.y.y.y.y.y.e.e.e.w.w.1.q.q.1.w.e.y.y.y.y.y.y.e.e.e.w.c.S w.i.y.y.u.} %.y.w.w.w.e.e.e.e.w.w.w.w.w.w.w.w.w.w.w.w.y.e.w.e.w.w.w.w.w.w.w.5.w.w.w.e.y.y.e.e.w.w.e.i.f.i.u.w.w.w.w.5.5.$.5.w.w.w.5.%.%.-.-.-.$.$.$.$.$.$.#.#.#.} } } } } } } } [ [ ] [ [ [ [ [ [ [ [ [ [ ] [ } } } [ ] Q Q ] ] A ] ] ] ] V C V Q ] A Q S S Q S S S S S A A A A ",
"C C V V A A A A A A A A A Q { C C u V A A Q $.A Q Q Q ] Q V S ] ] ] ] ] ] ] ] ] ] ] ] ] ] } ] ] ] [ } } } [ } } } } } } } } } } $.$.Q V } _ } $.} $.$.$.} } } } } [ $.-.%.=.=.%.%.$.$.$.$.$.$.$.%.%.%.%.=.5.w.w.w.2.%.2.z %.y.} %.%.%.=.$.w.w.w.w.w.w.5.=.=.=.=.=.5.5.w.5.5.w.w.w.w.w.w.w.w.w.w.w.w.w.w.w.w.w.w.w.w.w.w.w.y.y.y.y.y.y.y.y.y.y.y.y.y.y.y.e.y.y.y.y.y.y.y.y.u.y.y.y.e.y.y.y.y.y.y.y.y.y.y.y.y.y.y.u.a.i.i.i.i.u.u.u.u.u.a.e.y.y.e.y.e.e.e.y.e.h.i.C i.y.w.w.$.-.w.=.w.=.w.w.w.w.w.w.5.w.w.w.w.w.w.w.w.w.w.w.w.w.w.w.w.w.w.=.=.%.%.2.w.w.w.w.w.w.w.w.w.%.| | $.%.=.%.%.=.5.=.%.=.w.w.=.=.%.-.-.$.$.$.$.$.| -.#.#.} } } } } } } [ [ [ [ ] [ [ [ ] ] ] ] [ ] [ [ } } } } ] A _ Q Q Q A ] ] ] ] z C V Q ] A Q Q S S S S S S A A A A A ",
"C V V b C A A A A A A A A Q { V C u b A A Q ] A Q ( Q _ Q C Q [ ] ] ] ] ] ] ] ] ] ] ] ] ] ] ] [ ] ] ] [ } } [ } } [ } } } } } } } $.Q g } ] | | } $.#.$.| } } } } } $.%.%.%.%.%.$.$.$.$.$.$.$.$.-.$.%.%.%.%.=.=.=.%.w.] Q s.-.%.%.=.=.=.$.w.w.w.w.w.w.w.=.=.=.=.w.w.w.w.=.w.w.w.w.w.w.w.w.w.w.w.w.w.w.w.w.w.w.e.w.w.w.w.w.w.e.y.y.y.y.y.y.y.y.y.y.y.y.y.y.y.y.u.y.y.y.y.y.u.y.y.y.e.e.e.y.y.y.y.y.y.y.y.y.e.y.w.w.u.w.w.w.w.e.e.e.e.y.i.w.y.y.y.y.e.e.e.y.y.e.x.] %.y.w.w.w.w.w.w.w.w.w.e.e.e.w.w.w.w.w.w.w.w.w.w.w.w.w.w.w.e.w.w.w.w.w.w.w.q.w.w.e.e.e.e.w.w.w.w.w.%.%.%.%.%.%.%.%.%.%.%.%.#.$.%.%.%.%.$.$.$.$.$.$.$.$.#.} } } } [ } [ [ [ [ [ [ [ ] ] } } [ [ [ ] [ } } } } } } [ ] A Q Q Q Q A ] [ ] ] u C V S ] S Q S S S S S A A A A A A A ",
"C C C V C C C C Z A A A A ] $.V C w g A A Q } A Q Q Q Q Q A A A ] ] ] ] ] ] _ ] ] ( Q ^ _ [ ] ] ] ] ] [ [ } [ } [ [ [ [ } } } } } } [ A $.A Q ] ] ] ] ] ] ] ] ] Q Q $.-.%.%.%.%.$.$.[ A | | $.$.$.$.%.-.%.%.%.=.=.=.%.V w.5.%.%.%.=.=.5.#.%.5.w.w.w.2.=.%.%.=.%.=.=.w.w.=.=.w.w.w.w.w.w.w.w.w.w.w.w.w.w.w.w.e.e.w.w.w.y.e.e.y.y.e.y.y.y.y.y.y.y.y.y.y.y.y.y.y.u.u.y.y.y.y.y.y.y.y.e.e.y.y.y.y.y.y.y.y.y.y.e.y.%.$.y.2.1.%.%.w.%.w.2.w.w.} w.y.y.y.e.e.y.e.e.w.a.a.C $.} ] Q Q ] ] [ | $.| } } } } } } | } } [ [ [ } [ [ [ ] ] ] ] ] ] ] ] ] ] ] [ } } [ [ [ [ Q A A A V V V C V A %.%.%.%.-.-.$.$.-.%.$.$.$.$.$.$.$.$.#.$.} } } } } } ] [ [ [ } [ } ] ] } } [ [ ] ] ] A [ } [ } } [ ] C Q ( Q Q A [ [ [ ] g C V A ] Q Q S S S A A A A A A A A A ",
"C C V g C V V V V V Z A A ] %.C Z w g C C C } A Q Q Q Q ( Q S V Q ] ] ] ] ] ] ] ) ^ Q Q Q ] ] ] [ ] ] [ [ } ] ] [ [ ] [ } } } #.} } } $.%.| Q Q V A A A V V V Q Q #.$.-.-.%.%.%.$.%.[ u $.%.-.-.-.-.%.%.%.=.5.w.w.w.Q } w.$.%.%.%.%.%.%.[ %.%.%.5.5.=.%.%.%.=.%.%.=.=.=.=.=.w.w.w.w.2.5.w.w.w.w.w.w.w.w.w.w.e.e.w.w.w.e.w.e.y.y.y.y.y.y.y.y.y.y.y.y.y.y.y.y.y.u.u.y.y.y.y.y.y.y.y.y.y.y.y.y.y.y.y.y.y.e.e.e.u.w.w.u.w.w.%.1.1.w.w.w.w.w.} w.e.w.w.w.w.y.y.y.y.w.h.%.] [ [ [ { | %.| V   X .                                                                   ] %.} [ | | | [ %.N A w.%.%.$.$.$.$.$.$.$.$.$.$.$.#.} $.$.-.} } [ } } } [ [ [ } } } } } [ } } [ ] ] [ Q V ] [ } [ ] ] ] Q Q S A ( Q [ } [ ] u C V Q ] A S S S S A A A A A A A A Z ",
"C C V u V V V V V V V Z A ] %.A Q u g C C C _ A Q Q Q Q Q Q ] ] Q Q ] ] ] ] ] ( Q Q Q Q Q Q A _ [ } [ [ [ ] ] ] [ [ [ ] } } } } } } } } } $.%.u.e.e.e.e.w.w.w.w.-.-.$.$.-.%.-.%.%.%.=.-.=.#.Q Q A A A A A Q Q Q ] C C 5.-.-.%.%.-.-.-.%.} %.%.%.%.%.=.%.%.%.=.%.%.%.%.%.%.%.w.w.w.w.=.2.w.w.w.w.w.w.w.w.w.w.e.e.w.e.e.e.e.e.e.e.e.y.y.y.y.y.y.y.y.e.y.y.y.y.y.u.u.y.y.y.y.y.y.y.y.y.y.y.y.y.y.y.y.y.e.e.e.e.u.%.} e.e.w.%.%.%.%.w.q.w.%.A 2.w.w.w.w.w.y.e.e.e.w.y.b.M.M.K.K.I.P.P.I.e.A [ [ Q A V C S A A V A V V V V V V V C S S A A A A A A A A V V V V V Q i.n.x.z.z.c.c.z.c.h.2 | $.} } } } } } } } [ ] ] ] } } $.$.| } } } [ ] } } } [ ] } } [ } [ } [ [ [ [ [ } %.} ] ] ] ] ] ] _ _ Q Q Q Q | { } ] u C V Q ] A Q S S A A A A A A A A A Z ",
"C C V u C V b g g z g C A ] %.A Q w g C C C [ A Q Q Q Q Q Q Q Q Q Q ] ] ] _ ] Q Q Q Q Q Q _ Q ] [ } [ [ [ ] ] ] ] ] [ [ ] } S g } } } } #.#.} #.$.$.$.$.$.#.#.#.#.#.$.$.$.$.$.-.-.-.%.=.$.Q Q A A C A C C A Q Q A u $.%.$.-.-.%.%.-.-.-.} %.%.%.%.%.=.=.=.=.=.=.%.%.2.w.w.w.5.w.w.w.w.w.2.w.w.w.%.%.w.w.w.w.w.e.e.e.e.e.e.e.e.y.y.y.y.y.y.e.e.e.e.e.y.y.y.y.y.y.y.y.y.y.e.y.y.y.y.e.y.y.y.y.y.y.y.e.e.e.e.e.y.w.w > V u u u w u z u u u S w.w.e.w.w.w.w.w.w.w.e.e.w.w.w.w.w.w.w.w.w.i.a.u.u.e.w.%.4.w.e.w.1.w.w.w.q.4.%.%.5.e.w.4.%.4.w.q.%.%.%.%.%.%.%.%.%.i.w.} $.} } $.$.$.] e.|   Q ] Q Q Q Q Q Q Q A A A C ] } } } { } } } } } } } [ [ [ } } } [ [ [ [ [ [ [ } ] ] ] ] ] ] ] ] ( ( ] _ _ _ Q } { } [ u C V S ] S A C A A A A A A A C C C C ",
"V C V V C V V b b g q C A ] %.C A w u C A Q } A Q Q Q Q Q Q Q Q Q Q Q _ Q Q Q Q Q Q Q Q Q _ Q ] ] ] ] [ ] ] ] ] ] ] ] ] ] [ Q Q } } } } } } } } | | } $.| $.| #.#.$.$.$.$.$.$.$.$.$.-.$.Q A Z A Q A A A A Q Q Q g ] *.*.-.-.-.-.%.=.=.-.] %.%.%.%.%.%.%.%.%.%.%.%.=.5.5.=.=.=.2.w.w.5.w.w.w.w.w.w.w.w.w.w.w.w.w.e.e.e.e.e.e.e.e.y.y.e.e.e.e.e.w.e.e.w.e.e.y.y.y.y.y.y.e.e.e.e.e.e.e.y.y.y.y.e.e.e.e.e.e.e.e.y.i.h.y.i.i.i.i.u.u.e.u.e.u.u.w.w.w.w.w.w.w.w.w.w.%.2.y.y.y.y.e.y.y.y.y.y.h.c.z.j.h.h.h.z.z.h.h.h.h.j.j.h.h.j.h.h.h.a.a.a.j.h.h.h.a.h.h.f.a.a.i.a.w.%.%.%.%.%.%.%.%.$.a.C V [ ] [ Q Q Q Q A A A A A A [ } } } } } } } } [ [ [ [ [ } } } [ [ [ ] ] ] ] ] [ ] ] ] ] ] ] ( ( ] ] ] ] ] Q [ | { } g C V S ] Q u q A A A A A A A C Z C V ",
"V u > > > & & & & + e S Q ] %.V C q u C V Q } Z Q Q Q Q Q Q Q Q Q Q Q Q Q Q Q Q Q Q Q Q Q ] Q ] ] [ [ ] ] ] ] ] ] ] ] ] ] [ [ [ [ } [ } } } } } } } } } } | } $.#.#.$.$.$.$.$.$.$.$.$.] Q Q A A A A C A A A Q V A -.#.$.$.$.$.-.%.=.=.=.] %.%.%.%.%.%.%.%.%.%.%.%.%.%.%.%.%.=.=.%.%.%.w.=.w.w.w.w.w.w.w.w.w.w.w.w.w.w.e.e.e.e.e.e.y.e.w.e.e.e.w.w.w.e.e.e.y.y.y.y.y.e.e.e.e.e.w.w.y.e.e.y.e.e.e.e.e.e.e.y.y.e.e.i.a.i.i.a.a.i.i.u.i.a.u.w.w.w.w.w.w.w.w.w.w.w.} $.y.e.e.e.e.e.w.w.w.w.2.=.=.=.%.%.%.%.%.%.%.$.-.%.%.$.$.$.$.$.$.$.$.$.$.$.$.$.$.$.$.$.$.$.$.$.$.%.$.$.%.%.$.$.$.-.w.a.0 ( [ [ _ Q Q Q Q Q A A A A Q } } } } } [ [ ] } } [ } } [ } } } ] ] ] ] ] ] [ } ] ] [ ] ] ] ( ( ] ] ] ] ] Q ] | ] } g C V S ] Q V S w > > > > & & # # V V ",
"C u q q 0 q 0 0 > > > A Q ] w.z V w u u = u } C Q Q Q Q Q Q Q Q Q Q Q Q Q Q Q Q Q Q Q Q Q ] Q ] [ ] ] ] ] ] ] ] ] ] ] ] ] ] ] ] [ } [ } } } [ { [ } } } } | } $.{ $.$.$.$.$.$.$.$.$.] Q Q A A A A A A A Q Q A C =.$.$.$.$.$.$.$.%.=.=.%.] %.%.%.%.%.%.%.%.%.%.%.%.%.%.%.%.%.%.%.%.%.%.=.=.=.w.w.w.w.w.w.w.w.w.w.w.w.w.w.w.w.w.e.e.e.w.w.w.w.w.w.w.w.w.w.e.e.e.e.e.e.e.e.e.e.w.w.w.e.e.w.w.w.e.e.w.w.w.e.w.e.e.w.w.=.%.%.%.%.%.%.%.=.%.=.w.w.w.w.w.w.w.w.w.w.w.w.w.w.w.e.w.w.w.w.w.w.w.w.w.5.=.%.%.%.%.%.%.%.%.%.%.%.%.%.-.$.$.$.$.$.$.%.$.$.$.$.$.$.$.$.$.$.$.$.$.$.$.$.-.-.$.$.$.[ a.w.2 [ [ ] _ Q Q Q A A A A Q Q Q } } } [ [ ] ] } } [ } [ [ [ [ [ ] ] ] ] ] ] } } [ ] ] ] ] ] ] _ ] ] ] ] ] A _ ] N _ b C g Q [ Q A { S & w w e w w q D A V ",
"C Q Q ] ] _ Q Q Q A A Z C A [ z C u u V S Z ] A Q Q Q Q Q Q Q ( Q Q Q Q Q Q Q Q Q Q Q Q Q ] Q ] [ [ [ ] ] ] ] ] ] ] ] ] ] ] ] ] ] [ ] } } } [ } } } } } } } | | { { $.$.$.$.$.-.$.] A Q A A A A A A A Q Q Q V %.=.#.$.$.$.$.$.$.%.%.%.%.] -.%.%.%.-.-.-.%.%.%.%.%.%.%.%.%.%.%.%.%.%.%.%.w.w.w.w.w.=.w.w.w.w.w.w.w.w.w.w.w.w.w.e.w.w.w.w.e.w.w.w.w.w.w.w.w.e.w.e.e.e.e.e.e.w.w.w.w.w.w.w.w.w.w.w.w.w.w.e.w.w.w.w.w.w.w.w.w.w.w.w.w.w.w.w.w.w.w.w.w.w.w.w.w.w.w.=.=.w.w.w.w.w.w.w.w.w.w.w.w.w.=.=.%.%.%.%.%.$.$.$.-.-.-.%.$.$.$.$.$.$.$.$.$.$.$.$.$.$.$.$.$.$.$.$.$.$.$.$.-.%.$.| } } } z.Q u { [ [ ] Q A A A A A A A A Q ] ] ] [ ] ] [ } [ [ [ [ [ [ [ ] [ [ ] ] [ [ [ ] ] ] ] ] ] _ ] ] ] ] ] ] A Q ] } [ b C g V A A Q ] #.} | %.%.| | } q.} Z ",
"C C C C C C V V V V u u u V Q g C 0 u V V C Q A Q Q Q _ Q Q A g Q Q Q Q Q Q Q Q Q Q Q Q Q ] Q ] } } } [ [ ] ] ] ] ] ] ] ] ] ] ] ] ] ] ] [ ] Q ] ] [ } [ } [ [ } { } { { $.$.-.-.[ A Q A A A A A A A A A ( V } w.#.$.$.| -.| | $.%.%.%.%.] %.%.%.%.$.$.$.$.%.%.$.$.%.$.$.%.%.%.%.%.%.%.=.w.w.w.w.=.%.=.5.w.w.w.w.5.5.w.w.w.w.w.w.w.w.w.w.w.w.w.w.w.w.w.w.w.w.w.w.w.w.w.w.w.w.w.w.w.w.w.w.w.w.w.w.w.w.w.w.w.w.w.w.w.w.w.w.w.w.=.w.w.w.w.w.w.w.w.w.w.w.w.w.w.w.w.=.w.w.w.w.w.w.w.w.w.w.w.w.2.w.=.=.%.%.%.%.%.-.%.$.$.-.-.$.$.$.$.$.$.$.$.$.$.$.$.$.$.$.$.$.$.$.$.$.$.$.$.$.-.%.$.} } } } w.h.6 A } ] ] Q Q Q A Q A Q Q Q Z Q ] ] ] [ [ } } [ [ } [ [ [ ] ] [ [ ] ] [ [ } } ] ] ] ] ] ] ] ] ] ] ] ] A W ] ] _ V V g V V u A C u g u u z g V V Q ] Z ",
"C C V V V V V V V g t u u V [ g V 0 u C V C Q A Q Q Q Q Q Q Q C Q Q Q Q Q Q Q Q Q Q Q Q Q ] Q ] } } } [ ] ] ] ] ] Q ] ( Q ] ] ] [ ] ] ] [ ] Q ] ] [ [ ] [ [ [ [ ] [ | | { { -.} A A A A A Z A A A S S Q V Q w.$.} #.} } } { { #.$.-.%.$.Q $.%.%.$.$.$.$.%.%.%.%.%.%.$.$.$.$.$.%.%.%.%.%.%.=.%.%.%.4.%.w.w.4.5.%.2.=.5.w.w.w.w.w.w.w.w.w.w.w.w.w.w.w.w.w.w.w.w.w.w.w.w.w.w.w.w.w.w.w.w.w.w.w.w.w.w.w.w.w.w.w.w.w.w.w.2.=.=.=.w.w.w.w.w.w.2.w.w.w.w.5.w.w.w.w.=.=.=.w.w.w.w.w.w.w.w.w.w.=.=.%.=.=.%.%.%.%.%.%.%.%.%.-.$.$.$.$.$.$.$.$.$.$.$.$.$.$.$.$.$.$.$.$.$.$.$.$.$.$.$.$.$.] } } $.} a.a.  ] ] ] Q Q A A A A A Q A A C Q _ ] ] ] [ [ [ [ [ [ ] ] ] ] [ [ ] ] ] ] ] e ] ] ] ] ] ] ( ] ] ] ] Q V Q Q A Q g V u V V u u g V g V V V V V C A Z A ",
"C C V V V V V V V u u 0 0 V ] g z > u V V A _ Z A S Q Q Q Q Q Q Q Q Q Q Q Q Q Q Q Q Q Q Q } ] ] ] [ } [ ] A A A A C C C C A ] [ [ ] ] [ [ ] ] ] ] ] [ [ [ [ [ [ [ } { | { { $.Q A A A A A C C A A A Q C g %.$.] } } } [ } } } } #.$.$.#.A $.%.$.$.$.$.$.$.%.%.%.%.$.$.$.$.} [ %.%.%.%.%.%.%.%.%.%.%.%.%.%.%.%.=.=.=.=.=.w.w.w.w.w.w.w.w.w.w.w.w.w.w.w.w.w.w.w.w.w.w.w.w.w.w.w.w.w.w.w.w.w.w.w.w.w.w.w.w.w.w.w.w.w.w.2.%.%.=.w.w.5.w.=.=.=.w.w.w.w.w.w.w.w.w.=.=.%.=.w.w.w.2.w.w.w.w.=.=.%.%.=.%.%.%.%.%.%.$.$.$.%.%.-.$.$.$.$.$.$.$.$.$.$.} #.#.$.$.$.$.$.$.$.$.$.} #.#.$.$.| q ] $.} $.} c.%.. ] ] Q Q A Q A A A Z A A Z C _ ] ] [ [ [ [ [ [ ] ] ] ] ] [ ] ] ] ] ] Q Q ] ] ] _ ] ] ) ] Q ] ] Q V Q Q A A u u 0 u u u u u u u C V V V V C C Z Z ",
"C V V V V V g V u u u u u V ] g g ; 0 V V A Q C A S S Q Q Q Q Q Q Q Q Q Q S Q S S Q Q Q Q ] ] [ [ ] ] } A V V V V V C V C A Q [ [ ] ] A Q ] [ [ [ [ [ [ [ ] { | | | } } } } ] Q A A A A A C C A A A S 0 %.w.Q ] ] ] [ [ [ } } [ } } } } Q $.$.| | $.$.| $.$.$.$.$.$.$.| { ] ] $.%.%.%.%.%.%.%.%.%.%.=.%.%.%.%.%.=.=.=.%.=.w.w.w.w.w.w.w.w.w.w.w.w.w.w.w.w.w.w.w.w.w.w.w.w.w.w.w.w.w.q.w.w.w.w.w.w.w.w.w.w.w.w.w.w.=.=.=.=.w.w.w.w.w.w.w.w.w.w.w.w.w.w.w.w.w.w.2.=.w.w.w.w.w.w.w.w.w.%.%.%.%.%.%.%.%.%.%.%.%.$.$.-.%.%.$.$.$.$.$.$.| $.$.} -.} } $.$.$.$.$.$.$.$.$.$.#.#.#.$.$.} } } } } { $.M.V 0 Q V V V V V V g g V V V u V ] ] ] [ [ [ [ ] ] ] ] ] ] ] ] ] ] ] ] ] [ ] ] ] ] ] ] ( Q Q Q A Q S _ A C A u u t u u u u u 0 u C C C V V V V C C ",
"V V V V V V V V z 0 u u u V ] u u ; 0 g g V A C S u > A Q Q Q Q Q Q Q Q S S S S Q Q Q Q Q _ A Q ] A A $.[ V u V V C V C A Q Q ] ] ] ] V Q ] %.w.w.w.e.y.y.u.i.u.f.e.[ } } ] Q Q A A A A A A C A A A u [ e.] _ ] ] ] ] ] ] ] ] ] [ } } } Q } $.| { $.$.$.$.$.$.$.$.$.| | { [ { %.%.%.%.%.%.%.%.%.%.%.%.%.=.%.%.%.%.%.%.%.%.2.w.w.w.w.2.w.w.w.w.w.w.w.w.w.=.=.5.w.5.w.w.w.w.w.w.5.w.w.4.w.w.w.w.w.w.w.w.w.w.w.=.=.=.=.=.%.%.w.w.5.w.w.w.w.=.w.w.w.w.w.w.w.w.w.w.=.=.5.w.w.w.5.w.w.=.=.%.%.%.%.%.%.%.$.%.%.%.$.$.-.$.$.$.$.$.$.$.$.$.{ | | | -.} | | $.$.$.$.$.$.$.| { } } $.$.} } } } } #.$.} h.M.  u C C C V g g u u g u g g u S ] ( | ] [ [ [ [ ] ] ] ] ] ] ] ] ] ] ] ] ] ] ] ] ] ] ] ] Q # > ] ] Q C A A u u t b u u u u 0 u C V V V V V V V V ",
"V V V V V V V V u 0 u u u u A u u ; w V z g A C A V   u Q A Q Q Q Q Q Q Q Q Q Q Q Q Q Q Q ] C A Q q V $.$.] u C C V V C ] ] ] [ [ [ [ Q ] Q ] } } } } #.$.$.$.} } } | $.[ Q Q Q A Q Q Q Q Q A C A u V e.[ Q ] ] Q Q ] ] ] ] ] ] ] } } } Q #.} } { } } | | $.$.$.$.$.$.$.$.| %.%.%.%.%.%.%.%.%.%.%.%.%.%.%.%.%.%.%.%.%.%.%.%.4.5.5.2.2.w.q.w.w.w.w.w.w.5.%.%.=.5.5.5.5.4.%.%.4.%.w.w.q.q.w.2.=.w.w.w.w.w.5.w.=.=.=.%.%.%.%.%.%.%.=.w.=.%.1.%.%.=.=.=.5.w.w.w.w.w.5.w.w.w.5.%.%.%.%.%.%.%.%.%.%.%.%.%.$.$.$.$.$.$.$.$.$.$.$.} { | } } { | { #.| | } $.$.$.$.| $.$.| | | } | | } [ C u u u u V z f.[ + Q A C V V V u u g u u g V V A A S ] | { { [ [ [ ] [ [ [ ] ] ] ] ] ] ] ] ] ] ] ] ] ] u   V ] ] A C A A u g t u u u u u u g C V V V V V V V V ",
"V V V V g b V V u 0 t u u z A t u & w V g V V V C Z V A A S A V Q Q S Q Q Q Q Q Q Q Q A C Q V V A C V ] [ C u V g g V C Q ( Q ( Q Q ( A A u Q | } [ [ } } } [ [ ] ] ] [ Q Q Q Q Q Q Q ( Q Q A C u % %.| ] ] ] Q Q Q Q Q ] ] ] ] ] ] [ [ A } } } } } [ } { { } { | $.$.} } $.%.%.%.%.%.%.%.%.%.%.%.%.%.%.%.%.%.%.%.%.%.%.%.%.5.%.5.1.1.2.q.2.=.2.w.q.w.4.%.%.%.5.4.%.%.%.%.%.%.%.2.%.1.1.%.%.1.2.=.=.5.5.5.=.=.=.=.%.%.%.%.%.%.%.=.%.%.%.%.%.%.=.=.%.%.5.w.w.w.5.=.5.w.=.%.%.%.%.%.%.$.$.%.%.%.%.$.$.$.$.$.$.| | $.$.$.| | } } } } } #.} } #.| | } | | } } } #.$.| | } } } } } [ A C V V Q ] ( Q w.u 0 A V V V V V b b V g z V V V V A ] Q A A A A A A Q ] _ Q ] Q Q Q Q Q Q ] ] ] ] ] Q A V Q Q A C A A A u u t v u u u u u g C V V V V V V V V ",
"V V z z V g V V u 0 w u u V A u 0 # w V V V g A ( C A A A S > # Q Q A S Q Q Q Q Q Q Q C V g u 0 b Q Q _ Q b t u g g g V Q _ A A A S A A A C A | } } } } [ [ [ [ ] Q Q ] ] ] ] [ [ [ [ [ [ ] ] ] 0 ] $.] [ ] _ Q Q Q Q _ ] ] ] ] ] [ [ ] C ] [ } } } [ } } } [ [ { { { { [ [ $.%.%.%.%.$.-.-.%.%.$.$.%.%.$.$.$.%.%.%.%.%.%.%.%.%.%.q.q.w.%.1.%.%.q.%.%.%.%.%.%.%.%.%.%.%.%.%.%.%.%.%.%.1.%.%.%.%.%.%.=.5.5.5.=.%.%.%.%.%.%.%.%.%.%.%.%.%.%.%.%.%.%.%.4.5.5.5.%.%.%.=.=.%.%.%.%.%.%.$.%.%.%.%.%.$.$.$.$.$.| $.$.| $.$.} } } } } } } } } } } } } } } } } [ } } } #.} } } } } } [ } } } } #.#.$.$.} $.w.. V C V V V V V V V g V V V g g V g b u u t u u g A Q A S A A A A A Q Q Q _ Q Q Q Q Q Q ] ] C C A A C t u 0 V u u u u u u V V V V V V V V V ",
"V V z z V b V V u 0 0 0 u V Q t 0 # w g g V g C Q C C C A A A ] ] Q Q S S S A S S A A S A V u u V C Q Q Q Q u u V u V V A S A A A S Q Q Q S Q | } } } } ] ] ] ] ] A Q [ [ [ [ ] ] ] ] ] ] Q ] g V %.Q ] Q 0 * X . . . . .         ; Q ] A [ [ [ [ [ [ } } [ [ [ } } { | { } $.$.%.%.%.$.$.$.-.$.$.$.$.$.$.$.$.$.%.%.%.%.%.%.%.%.%.%.%.w.%.%.%.%.=.%.%.%.%.%.%.%.%.%.%.%.%.%.%.%.%.%.%.%.%.%.%.%.%.%.=.=.=.=.=.%.%.%.%.%.%.%.%.%.%.%.%.%.%.%.%.=.%.%.%.=.%.%.%.%.%.%.%.%.%.%.%.%.%.$.$.$.%.%.$.$.$.| { { { { { { | | { } } } } } } [ } [ [ } } } } } } } } } } } } } } } } [ [ ] A A A A A A A A V %.[   V V V V V V V V V V V V V C C C V V u g u u V A A A S A A S Q Q Q Q Q ] Q ] ] Q ] Q ] A C V A A C 0 t 0 u u u u u 0 u V V V V V V V V V ",
"V b V b V V V V u 0 0 u u z Q t 0 # 0 u g g V b V A C Z C V V A A S A S S S S A A A A A A V t V V A A A Q Q A u g g g g g g b V A A Q Q ] ] V ] [ ] ] ] ] Q ] [ A S ] ] ] ] ] ] ] ( ( Q Q Q C 0 q.[ ] [ ] A C C A A Q ] ] [ [ %.| V ] ] A [ ] [ [ [ [ [ } } [ [ [ [ [ | -.$.$.$.$.$.$.$.$.$.$.| | | $.$.| $.| $.%.%.%.%.-.-.%.%.%.%.%.%.%.%.%.%.%.%.%.%.%.%.%.%.%.%.%.%.%.%.%.%.%.%.%.%.%.%.%.%.%.%.%.%.5.=.%.%.%.%.%.%.%.%.%.%.%.%.%.%.%.%.%.%.%.%.%.%.%.%.%.%.%.%.%.%.%.%.%.%.%.%.$.| $.$.$.$.| | { { } } } } } } } } [ } } } } [ [ [ } } } [ } } } } [ } } [ } [ [ [ [ [ [ V V V V V V V A A S S e.V & V g V V V V V V z g g V V V V V V g g g u V C C A Q Q A V b C Z A ] _ Q ] Q Q Q ] Q C A V A A C 0 t 0 u u u u u 0 u V V V V V V V V V ",
"V V V b V V V V z 0 q w u g ( t 0 & 0 u u u g V V A A C C V u V A A S S S S S A A A A A V 0 % u V V A S Q Q u 0 0 0 0 0 u V V b Z ( Q ] ] ] Q e q & & & # # # & V ] ] ] ] ] ] ] A Z S S Q A 6 $.%.Q ] ] ] } } } } } } $.-.%.%.e.e.$.] Q C ] ] [ ] ] ] [ [ [ [ [ [ [ [ } } } | $.$.$.$.| ] #.#.} } } $.$.$.$.$.$.$.%.%.$.$.$.$.} %.%.%.%.%.%.%.%.%.%.%.%.$.$.$.$.%.$.%.%.%.%.%.%.%.%.%.%.$.$.$.%.-.-.%.%.$.$.%.%.%.%.%.%.%.%.%.%.%.%.%.$.$.%.%.%.-.-.$.%.%.$.$.$.Q Q [ %.$.| %.%.%.$.$.$.$.$.$.$.| } } } } } } } } } } [ [ [ } [ [ [ [ [ [ [ [ [ [ [ } } } } [ } [ [ ] [ [ [ } ] $.} } } $.$.%.%.%.| e.u.+ u V V V V V V V V V g V V V V V V V g u u V V V C Q Q Q b * 0 C A ] Q S Q Q ( ( ] A A A C A A C 0 0 0 u u 0 u u 0 u V V V V V V V V V ",
"V V b b V V V V g 0 q 0 0 g Q t 0 & 0 u u u b V V C A C V V g V V A A S A A A A C Z C Q Q e & u V V V V V C u 0 0 0 0 0 u V g u C S S Q Q Q ] Q Q | ] [ [ ] ] S Q _ Q ( Q Q Q _ Q A A C A 0 Q w.Q ] ] Q S Q A A C V V V Z A A C C Q Q Q C ] ] ] ] ] ] [ [ [ [ [ [ [ } } } [ } #.#.#.$.A v _ #.} } } | $.$.$.$.$.$.$.$.| | $.[ A [ %.%.%.%.%.%.%.$.$.-.$.$.$.$.$.[ C [ %.$.$.$.$.$.$.$.$.$.$.$.$.$.$.%.| D C } $.$.$.$.$.$.$.$.$.$.$.$.-.| $.$.$.$.$.$.$.$.$.$.$.$.%.| $.| | $.%.$.$.$.$.} $.} } } } } } [ [ } } [ [ [ [ [ } } [ [ [ [ } [ [ [ ] [ [ ] } [ [ } [ [ ] ] [ [ ] ] ] ] ] ] ] ] [ [ } } } ( q.[ + V V V V V V V V V V V b V C C V g g u u g u t V Q Q ] ] V ( S A A S A A Q Q ] A C A A A A A C 0 0 0 u u 0 t u 0 u V V V V V V V V V ",
"V b b V b V V V g 0 0 q 0 V Q t 0 # 0 u u u b V V V A A V V 0 u V A A A A A A C V V V ( ] Q V g V V V V V C V 0 u 0 0 0 u g u u Z A A Q Q Q Q Q ] [ [ } [ ] } Q Q Q ( ( Q _ _ ] Q Q C Z u u %.Q Q Q Q Q S >                 .     * A Q C ] ] ] ] ] ] ] [ [ ] [ [ [ [ [ [ [ } } } } } [ u.%.[ } } [ } | | | { { $.$.$.| | $.$.u.w.$.%.%.%.%.$.$.$.$.$.| | $.$.$.$.u.y.$.$.$.$.$.$.$.$.| { | { $.$.$.$.$.e.s.} $.$.$.$.$.$.$.$.$.$.{ { } } $.$.$.| $.$.$.$.$.| { $.5.$.[ [ [ [ } } [ [ [ [ [ [ } } [ [ [ ] ] [ [ [ [ [ [ ] } } [ [ [ } } [ ] ] ] ] q   & .       > ] [ ] ] ] ] ] ] ] ] ] ] ] ] [ [ [ [ ( w.V 0 A C C V V V V V V b b g V V V g u u u u u u V Q Q Q A C A A A V A A A A A Q A C A A C C C V 0 0 ; u u 0 w t 0 u V V V V V V V V V ",
"g g b b V V V V V 0 & u g V ] 0 t # 0 u u g b V C C C A V V & = V V A A C Z V V V V Z A C Q C u V V V V V g 0 0 0 0 0 0 0 u t u C A A A A A A A S S Q Q Q S Q Q Q Q Q Q Q Q Q Q S A Q V 0 } _ A Q Q Q C A V u u u u u u w u u u u w A Q C ] ] ] ( ] ] ] ] ] ] ] ] ] [ [ [ [ [ [ } } [ [ ] [ } } [ } } } } } } } | } } } } #.} } -.$.$.%.%.%.$.$.$.%.$.| | | $.$.$.} -.$.| | | | | | } } } } } } $.$.$.#.} #.$.#.| | $.| } | | | -.-.| } } } | | | } } | | | } } [ ] [ [ [ ] [ [ [ [ [ [ [ [ ] [ [ [ ] ] ] ] ] ] ] [ ] ] ] [ [ [ } } [ ] [ ] ] ] Q q Q Q ( S ] F   Q [ ] ] ] ] ] ] ] ] ] ] ] ] ] ] ] ] ] } e.t V A C V V V u u u u u u u u g u u t 0 t u u A A Q A C g g t g A C A A C Z A C A A C A A C V > 0 & u u u u u u u V b V V V V V V g ",
"u u g g g b V V V u u u u V [ >     & t $ 2 V V C V V V V A V V D A A A S S D D D A Q ] ] ] A V V V V V V w q q e v N v e N l v V V V V V V V D D A A A A A A A A A A A S S S S S S S A %.] A Q Q Q Q Q Q Q _ ] } } } } } $.$.$.$.} Q Q C ] Q Q ( _ _ ] ] ] ] ] ] ] [ [ ] ] ] ] ] ] ] ] ] ] [ [ [ } } } } } } } } } } } } } } | $.$.$.$.$.$.$.$.$.$.$.$.} } } } } } } } } } } } } } } } } } } } } } } } } $.#.} } } } } } } } #.#.#.} } } } { { } } [ } } } } [ [ } [ ] ] ] ] [ ] ] ] ] ] ] ] [ ] ] ] ] ] ] ] ] ] ] ] ] ] ] ] ] ] [ [ ] ] ] ] ] } %.%.$.%.%.%.e.q.[ ] ] ] ] ] Q Q Q ] _ _ _ ] ] ] ] ] ] ( %.e.V ] S S A V e e e v v e e e v v v e w e V V V V V V V N V N D S S A S S S A A C C C b V V N >   . u u 0 u g g g b g g g b b b b u ",
"u u u g g g g b g g g u V V } .  .> # .  .] u V V V V V ] %.{ | | q.e.w.w.w.q.4.w.q.w.e.e.e.q.q.4.4.%.q.%.| | %.4.q.q.q.q.q.q.q.%.%.$.%.%.%.q.w.q.w.w.w.w.e.y.y.w.e.e.e.e.u.u.i.a.h.a.a.%.C S C A Q Q Q S A Q Q _ ] ] Q _ ] ] ] Q Q Q Q C ] Q Q Q _ Q Q ] ] ( ] ] ] ] ] ] ] ] ] ] ] ] ] ] ] ] ] ] [ [ [ [ } } [ } } } [ [ } } } } } { { { -.} } { -.} } } [ [ } } [ } } } } } } } [ } } } } } } } } } } } } } } } } } [ [ } } } } } } } [ } } } [ [ [ [ [ [ [ [ [ [ ] ] ] ] ] ] ] ] ] ] ( ] ] A u ] ] ] ] ] ] ] ] ] ] ] ] ] ] Q Q ] ] ] ] ] Q ( ] ] Q Q Q Q A Q w.] ] ] ] ( Q Q Q Q Q Q ( Q ( ] _ Q ] ] ] Q %.q.e.u.u.i.i.e.w.e.w.w.w.w.w.e.u.i.u.u.a.a.i.u.e.e.u.i.u.e.i.i.i.g.i.r.r.C C C C C V V A C A q V q 0 u u u V V V b b u g g g u g u ",
"u u u u u g g u u u u u C V Z D g.# * 2 | | u V V V g V V V V V u 0 C C V g g g g g g g f g h g g u u t t y u y u u u y u u u g g A C C g b C C C C A A C C C C A C C C C C V V V C C b V Q Q V Z Q A A A A A A A A Z A C A Q Q Q Q Q Q C ] Q Q ( Q ( Q _ Q Q ( Q Q ] ( ] ] ] ] _ _ ( ] ] ] ] ] ] ] ] ] [ ] ] ] ] ] ] ] ] [ [ } ] ] } [ [ } [ [ } } } [ ] ] ] ] ] ] [ [ [ [ [ ] [ [ [ [ [ [ [ } [ [ [ [ [ [ ] [ [ [ ] ] [ ] ] [ } [ } [ [ [ ] [ [ ] ] ] ] ] [ Q _ ] ] ] Q Q ] ] ] ] ] S Q Q Q V C Q Q ( Q Q Q Q ] ] ] ] ] ] ] ] A ] ] ] ] ] Q Q Q Q Q Q Q Q ( Q A ] ] ] _ Q Q Q Q Q Q Q Q Q Q Q Q Q Q Q Q Q Q C g h h g b g g g g g g g g g h V V V V C C C C C C V g V C b C C A A C V C C C C u { ] g C w { V 0 u b g V V V V b u g u u u g u ",
"u u u u u u u u u u u u 0 u u o     # u 2 . u g g g u u V V V V u e A A A C C C V V C V V V V V V V g u u u u g g V V b V V g g u V C C C C A A A A Q Q A Q A Q Q Q A A A C C A A A C C C V Q A A A A A A A A A A A A A A A V A Q Q Q Q C ] Q Q _ Q ] ] Q Q Q Q Q Q Q Q ] ] Q ] ] _ _ ] _ ] Q ( ] ] ] ] ] ] ] ] ] ] ] ] ] ] ] ] ] ] ] [ [ [ [ ] [ [ [ [ ] ] ] ] ] ] ] [ [ ] ] ] ] ] ] ] [ ] [ [ ] [ [ [ [ ] ] [ ] ] ] ] ] ] ] ] [ [ [ ] ] ] ] [ ] ] ] ] ] ] ] A Q ] ] _ ] Q Q Q Q A Q ( Q A Q Q Q Q Q Q Q Q Q Q Q Q ] ] ] [ ] ] _ ] ] [ ] ] ] Q Q Q Q Q Q ( Q Q Q ] ] _ _ Q Q Q Q Q Q Q Q Q Q Q Q Q Q A Q A Q A C C C C C V V V V V V V V V V C V V C A A A C C V g u V C A A A A A V V C C C V u V V g t = - # 0 0 t t b V V V b u u u u u u u ",
"0 0 0 0 0 u u u t 0 0 0 ; 0 u       @ # # & q 0 0 0 0 u u u u g u b V V V V V V V V V g g b g u g g u u u u u u g g g u g u u u z u V C C C C C C C C C C C C C C C C A e u V V C V C C C V C C C C C C Z C C C C C C C C C u 0 A Q Q A V Q Q Q Q Q Q Q A S A Q S A A Q Q Q Q Q Q Q Q Q Q Q Q Q Q Q Q Q Q Q Q Q Q Q Q Q Q Q Q Q Q Q Q ] ] ] ] ] ] ] ] ] Q ] Q Q Q ] ] ] ] _ Q Q Q Q _ _ ] ] ] ] ] ] ] ] ] ] ] ] Q ] Q ] ] Q Q Q _ ] ] Q ] ] ] ] ] ] ] ] ] ] ] _ Q Q Q Q Q Q Q Q A A Q Q A S A A A A Q Q A Q Q Q Q Q Q Q ] ] ] ] ] ] Q _ _ Q Q Q Q Q Q Q Q Q Q Q Q Q Q Q Q Q Q A A S Q Q Q A A A A A A A A C A C V V b V V b V g g b b b g g g b b V V V V C V V V g g V V V C C C C b u V g g u u u 0 0 & .     # % & 8 u u u u u w 0 q 0 0 0 & ",
"> > > & > 0 q q q > & & # X @ . . . . @ # # & & & & & & & ; 0 0 0 0 0 0 0 0 0 0 0 0 0 0 0 0 0 0 0 0 0 0 0 t u u t u u 0 0 0 0 0 u u u u u u u u t t 0 0 0 0 0 0 t t 0 0 0 0 0 t t t u u u 0 0 0 t t t 0 t u t u t t u u u u u 0 u u u u u V V V V V V V V V g V V u V V u w u u w 0 0 u w q u V V V u u u u u u u t u u u g u u u u u u g u u u V V u u u 0 u u u u V V V V V b b V V V V V V V V V V V V V V V V V V V V V V V V V V V V V V V V b V u u V C V V V u u V V V V u g V V N V u 0 0 u u v v u u w e V V z V V V C V b V V V z u b V V V g u u u u u u u g u u u u u u u u u u u u t t 0 0 0 0 0 t t t 0 0 0 0 0 0 t 0 t t t 0 0 0 0 0 0 t 0 t 0 0 0 0 0 t t u t t u u u 0 0 0 0 0 ; ; & ; & & # @ . . X # 0 0 q 0 0 0 0 > > = & & ",
"V V g u u g g V z u 0 0 0 0 0 t 0 0 0 t u u u u u u u u u u u u u u u u u u u u u u u u u u u g g g g u u V V V C C V V V V V V V V V V V V V b V V V V g u g b V b g g g V V V V V V V V V b V V C C V V C C C V V V C C A C C A A A A A A A S S A A A C C C V V u u b u 0 u u 8 & % + w V A ] ( Q Q Q A S S A A A A A S Q Q Q A V V V V V g u g V V V V V C C C C A Q ] ] ] Q Q ] ] ] _ Q Q Q Q Q A V A A A A C V C A Q A A Q Q Q Q Q Q Q Q Q Q A V V V A C C C C V V V V V V C V u u u u w & * & 0 u u 0 0 0 0 u u t g Q Q ] _ ] ] Q Q A A A S A Q Q A A S A A A Z A A S A A A A A C V V V V V V V V C C C C C C C V V V V V C V V C C V V V V V V V V V b V V V V V V V V V V V V V V V V V V b b g g z g t 0 0 0 > u g V V V V V V V V V C ",
"A C C C C C C V g u u u u u b V g g u u g g b V b V V g g g g g V z V V V V V V V V C C V V C C C C V V V V C C A A A A A A S A S Q S S S Q A A A A A C C C C Z C A A A A A A A A A A A A A A A A Q A S A A S Q S Q Q Q Q Q _ Q Q _ ] ] ] ( ( ( ( Q ( Q Q Q ] ] ] ] ( ( ( ] Q Q S Q ( Q ] [ [ [ [ ] ] ] [ [ [ ] ] ] [ [ [ ] ] [ ] ] ] ( Q Q Q ] ] ] ] ] [ [ ] [ [ [ [ } | | | | | | | | | [ [ [ [ } [ ] Q ( Q ] } ] [ [ [ [ [ ] ] ] ] ] ] ] [ [ [ [ [ ] ] ] ] _ ] ] ] ] ] Q Q Q Q ] Q ] ] ] ] Q Q Q Q _ ] ] ] [ [ [ [ [ ] ] ] ( Q S [ } [ [ [ ] ] ] [ [ [ [ [ [ [ ] ] ] ] ] ] ] ] ] ] ] Q Q Q Q ( ( ] ] ] _ _ _ Q Q Q Q Q Q Q Q Q Q Q Q Q Q Q A Q Q A S Q Q Q Q A A A A A A A A A Z C C C C C C C V V V g V g g u u u u u u u u V V A A A A A A ",
"Q Q C V z u u u V V V u u u V V V V V V V V V V V V V V V V V V V V C Z C C C C A A S S S S S A A A A A A A A A Q Q Q Q Q Q Q Q ] ] ] ] [ [ ] ] Q ( Q Q Q Q Q Q Q Q ( ] ] ] ] ] ] _ ] Q Q ( ] ( ] ] Q Q Q Q Q _ ] ] ] ] ] ] [ ] ] ] [ ] ] ] ] ] ] [ [ ] ] ] [ [ [ [ [ [ [ { } [ [ { | | %.%.| { [ [ [ [ } [ [ [ | | | | | %.| | | %.%.%.%.%.| | | | | | %.| | | | | | | $.$.%.%.%.%.%.%.%.%.%.%.%.%.%.| [ | $.%.1.%.q.q.%.%.%.$.$.| | | | | %.$.| $.| | | | $.$.$.$.| | | | | | | } } | | | | [ [ } | | | } } | | %.%.%.$.%.| | } [ | | | | | { [ [ [ | | $.$.| | | | | { [ [ [ [ | [ [ [ [ ] ] ] ] ] ] ] ] ] ] ] ] ] ( ( ] ] ] Q Q ] ] _ Q Q Q ] ] Q ( Q Q ] Q Q Q Q S S S A A S A A A A A A A A C C V V V V V V g V V z u u u u q w N V Z A A ",
"V u 0 q 0 w u u u z V u u u V C C C V V V z g g u u u u g u u u u g b u g g g V V V V V V V V g V V g z u u V V V V V C C V C C C C C A A A A C C C V V C V V V V C C C Z A S A C C C C C C C C Z C C V V V V C A A A A A A S A A A S A A S A A A A Q A A C A Q Q S Q A S A A A A Q ] ] ] ] Q Q S A Q Q Q Q ] ] ( ] ] ] ] [ [ ] ] ] ] ] [ ] ] Q Q Q Q Q ] Q Q Q Q Q Q ] [ [ ] [ [ ] [ ] ] ] ] ] ] ] ] ( ] ] ] ] ] [ [ [ [ ] ] ] ] _ Q ] _ ] ] Q ] ] ( Q Q Q Q Q _ Q Q Q Q Q Q Q Q Q Q Q Q Q Q Q Q Q Q Q A Q Q ] ] [ ] [ | [ [ ( ] ] S Q Q Q A C C C A Q Q Q Q Q Q Q S Q A A A A S Q Q S A A A C C C A A A A A A A A C Z C A A A A C A Q Q A A A A A A A C A A S A A A C C C C C C C V V C C C C C C C V C C V V V V V V z u 0 t 0 0 * # & @ 0 u ",
"V C A A A C V V V V C V A C C A C A A A V V C A V V V V V V V V V A A A A V Z A S A A A A Q S S S A S S A C A Z S S A S S S S S A A A Q Q S A A A A A A A Z A S A S A S S Q S S Q Q Q Q Q S A A Q S A A A A A A S S S Q Q S ( Q ] ] ] ] Q Q Q Q S S S S ] S ] ] ] ] ] Q ] ] ( ] ] ] ] ] ] ] ] ] Q S ] Q ] [ ] [ [ [ ] [ ] | | } } [ ] [ [ [ [ ] ] [ [ { [ [ [ | [ [ { { $.| | | [ } | } } [ [ [ } [ | [ ] | [ [ [ [ [ | [ | } } | } [ [ [ [ } [ [ ] [ [ | [ [ [ } | } [ [ [ [ [ [ [ [ [ [ [ [ [ [ [ [ [ ] ] ] [ [ [ [ [ | $.%.| { [ [ [ [ [ ] ] ] ] ] ] ] ] [ [ ] ] ] ] ] ] ( ] ( ] ] Q ] Q Q Q Q Q Q ( Q ] Q ] Q Q Q Q S ( S Q ] Q Q S A Q Q A A A A Q Q Q Q Q Q S Q A A A Q S S A C A A A A A A S Q S A A A A A A A A A S A A C C S ] [ ] V > ",
"u C V V V V V V V V V V C C V V V C V V V V V V V V V V V V V V V V V V V V V V V V V V V Z Z C V Z V C V V V V C Z Z A A A A A A A A A A C Z A Z V V V V V C A A A A A A A A A A A A A A A A Z A A C Z A A A A A S S S S S S A S S S A A A A A Z A A A S Q Q Q ( Q Q Q ( ( Q Q Q Q Q Q Q ( Q S S S S A Q ] ] ] ] ] ] ] ] [ [ [ ] ] ] Q Q Q Q ( ] ] ] [ ] ] [ [ [ [ [ [ [ } [ ] ] ] ] ] ] ] ] ] ] ] ] ] ] ] ] ] ] ] ] ] ] ] ] ] ] ] ] ] ] ] ] ] ] ] ] ] [ ] ] ] ] [ [ [ ] [ ] ] ] ] ] ] ] ] ] ] ] ] _ Q Q Q Q ] ] ] ] ] [ [ } } ] ] ] ] ] ] ( Q Q Q Q Q ( Q ] Q S S Q S S S A S A S A A A A A A A A S S A S S S A S A A A S S S Q S S A C C C V V V C Z A A A A A Z C C Z Z A Z Z V V V V C C V V C C C V V V V C C Z A A A A C C C A A Q Q u X ",
"0 g g u u u u u u u u g V V g z V V z u u u u u u u u u u u u u u u u g u u u g z u u u u g V z u u u g z u u l z V V V V V V V V V V V V V V V V u u u u z g V C V V V V V V V V V V C V V V V V V V V V V V V C C C C C C C C V Z C V V V V V V V V C A A A A A A A A A A A A S Q A S A A S C A A A A Q Q Q Q Q Q Q Q Q Q ] ] Q S Q A Q C Z A A A Q [ Q Q Q Q Q Q ( ( ] ] Q A S S Q S C V A Q C A A A A A A A A A A S Q S Q Q Q Q Q Q Q Q Q Q Q Q Q Q Q Q Q Q Q Q ( ( Q Q Q Q Q Q Q Q Q Q Q Q Q Q Q A A A A S Q ( Q ( ] ] ] ] Q Q Q Q Q S A A A A Z S A A A A C C C C V V V V V C V V V V V V C C C C C C C C C V V C V C C Z Z A V u u u g g u u u g V V z V V z g V V V V V z g z g g V g g z V V z z V z z z g z V V V V V z V V C C C u   "
};
