/* XPM */
static char *_c3494d4455e462ad7dce83e911f143eiq3BgsUXWc74drFh[] = {
/* columns rows colors chars-per-pixel */
"360 360 203 2 ",
"   c #1F2839",
".  c #232A3A",
"X  c #222836",
"o  c #2E3444",
"O  c #353C4B",
"+  c #363C48",
"@  c #373E50",
"#  c #3F434E",
"$  c #3B4354",
"%  c #3F4857",
"&  c #45484F",
"*  c #414654",
"=  c #444A56",
"-  c #4B4D54",
";  c #454C5B",
":  c #4A4E5B",
">  c #4C515D",
",  c #51535E",
"<  c #505156",
"1  c #484F61",
"2  c #454D60",
"3  c #4D5363",
"4  c #515663",
"5  c #545965",
"6  c #5D5C63",
"7  c #505769",
"8  c #555B6B",
"9  c #595E6A",
"0  c #575E70",
"q  c #615F64",
"w  c #5B626D",
"e  c #596066",
"r  c #5D6473",
"t  c #5F6877",
"y  c #5F6879",
"u  c #636166",
"i  c #60646E",
"p  c #65686D",
"a  c #626674",
"s  c #636A75",
"d  c #686B75",
"f  c #656C7C",
"g  c #696E7C",
"h  c #67717C",
"j  c #6B717E",
"k  c #6F787D",
"l  c #697277",
"z  c #70717C",
"x  c #74797D",
"c  c #666E80",
"v  c #686F81",
"b  c #677081",
"n  c #6C7383",
"m  c #6F7885",
"M  c #6E768A",
"N  c #6E798C",
"B  c #717685",
"V  c #787785",
"C  c #737A85",
"Z  c #797C86",
"A  c #717789",
"S  c #747B8C",
"D  c #787E8E",
"F  c #6E7A90",
"G  c #767E91",
"H  c #787E91",
"J  c #77808E",
"K  c #7B818E",
"L  c #768194",
"P  c #7C8394",
"I  c #7F8896",
"U  c #76839A",
"Y  c #7E8699",
"T  c #7E899B",
"R  c #7286A1",
"E  c #7D8AA1",
"W  c #7C91AC",
"Q  c #7D95B3",
"!  c #7A97B9",
"~  c #7693B3",
"^  c #80838F",
"/  c #818695",
"(  c #898693",
")  c #838996",
"_  c #8A8A94",
"`  c #808799",
"'  c #838B9C",
"]  c #898E9D",
"[  c #928E9C",
"{  c #918E97",
"}  c #87909E",
"|  c #8B919E",
" . c #91919D",
".. c #868EA1",
"X. c #888FA1",
"o. c #868FAC",
"O. c #938DA1",
"+. c #8691A3",
"@. c #8B92A4",
"#. c #8F98A6",
"$. c #8794AA",
"%. c #8E96A9",
"&. c #8E98AB",
"*. c #9196A5",
"=. c #939AA5",
"-. c #9097AA",
";. c #9894A9",
":. c #939AAD",
">. c #999FAE",
",. c #9A9AA4",
"<. c #8D97B1",
"1. c #8099B7",
"2. c #8C9DB5",
"3. c #969EB1",
"4. c #989FB2",
"5. c #939FB9",
"6. c #97A0AF",
"7. c #9CA1AE",
"8. c #96A1B3",
"9. c #9BA3B5",
"0. c #9FA8B6",
"q. c #96A3BC",
"w. c #9FA7BA",
"e. c #9EA8BA",
"r. c #A0A3AF",
"t. c #A1A7B6",
"y. c #A3AAB5",
"u. c #A8AAB7",
"i. c #A0A7B9",
"p. c #A0A7BA",
"a. c #A0A8BB",
"s. c #A0A9BA",
"d. c #A1AABB",
"f. c #A2A9BA",
"g. c #A1A9BC",
"h. c #A0A8BD",
"j. c #A2AABD",
"k. c #A2ABBC",
"l. c #A1A9BE",
"z. c #A3ABBE",
"x. c #A2AABF",
"c. c #A1ABBD",
"v. c #A4ABBD",
"b. c #A4ABBE",
"n. c #A3ACBD",
"m. c #A1ACBE",
"M. c #A4ACBF",
"N. c #A4ADBE",
"B. c #A5AEBF",
"V. c #A6ADBD",
"C. c #A1A9BC",
"Z. c #A9AEBE",
"A. c #A7B0BE",
"S. c #ABB1BE",
"D. c #97A7C0",
"F. c #9BA6C1",
"G. c #9DAAC1",
"H. c #95ADC9",
"J. c #9EB2CD",
"K. c #83AAD5",
"L. c #88AFDA",
"P. c #87AED9",
"I. c #8AB1DC",
"U. c #9DB5D5",
"Y. c #A0A6C0",
"T. c #A3ABC0",
"R. c #A2ADC1",
"E. c #A5ADC0",
"W. c #A4ACC1",
"Q. c #A6AEC1",
"!. c #A7AFC2",
"~. c #A5AEC1",
"^. c #A6ADC1",
"/. c #A8AFC1",
"(. c #A7B0C1",
"). c #A7B0C1",
"_. c #A8B1C2",
"`. c #A9B2C3",
"'. c #AAB3C2",
"]. c #AAB2C4",
"[. c #ACB3C5",
"{. c #ABB2C4",
"}. c #AFB8C6",
"|. c #A6B2CA",
" X c #AEB6C9",
".X c #AFB8C9",
"XX c #B0B6C6",
"oX c #B2B8C6",
"OX c #B0B7C9",
"+X c #B3BACB",
"@X c #B9BFCF",
"#X c #A1B6D3",
"$X c #B6BED1",
"%X c #B8BFD1",
"&X c #B7C1CB",
"*X c #BAC2CC",
"=X c #B6C1D4",
"-X c #BAC1D3",
";X c #BFC6D8",
":X c #BFC8D9",
">X c #C0C6D6",
",X c #C4CBDA",
"<X c #C0C8D5",
/* pixels */
"w.w.e.e.e.e.e.e.k.@.:.(.w.w.N.9.w.w.w.w.w.w.w.w.w.z.z.w.9.w.z.z.9.z.w.w.z.0.3.z.w.z.z.f.w.w.f.f.w.f.w.w.e.w.w.z.9.f.w.z.z.w.9.z.w.w.w.w.w.w.w.w.w.w.w.w.w.w.w.w.w.w.w.w.w.w.w.w.0.z.w.0.f.z.w.w.w.f.f.0.9.w.f.p.z.w.9.w.w.w.w.w.z.0.z.f.f.w.W...:.f.W.z.f.w.w.w.w.w.z.z.w.w.z.w.w.w.w.w.w.w.w.w.w.w.w.w.w.w.w.w.w.w.w.w.w.w.w.w.w.w.w.w.w.w.w.w.w.w.w.w.w.w.w.w.w.w.w.w.w.w.w.w.w.w.w.w.w.w.w.w.w.w.w.w.w.w.w.w.w.w.w.w.w.w.w.w.w.w.w.w.w.w.w.w.w.w.w.w.w.w.w.w.w.w.w.w.w.w.w.w.w.w.w.w.w.w.w.w.w.w.w.w.w.w.w.w.w.w.w.w.w.w.w.w.w.w.w.w.w.w.w.w.w.w.w.w.w.w.w.w.w.f.w.0.z.9.N.w.z.w.p.z.w.9.w.z.w.f.f.w.w.w.w.w.z.z.w.w.w.p.z.f.0.w.f.z.z.f.w.w.N.>.0.f.w.z.e.0.f.0.f.z.3.W.z.e.w.w.w.w.w.f.w.w.w.w.w.w.w.w.w.w.f.w.w.w.z.z.w.w.w.w.w.w.w.w.w.w.",
"w.w.w.w.e.e.e.e.@.:.0.N.f.0.w.f.w.w.w.w.w.w.w.w.w.w.0.w.z.z.w.0.w.z.w.9.z.w.9.w.w.w.w.w.w.w.w.w.w.w.w.w.w.w.w.0.N.f.4.3.w.z.w.z.w.w.w.w.w.w.w.w.w.w.w.w.w.w.w.w.w.w.w.w.w.w.w.w.w.z.w.0.w.w.w.z.0.w.z.z.z.w.w.w.w.w.w.z.z.f.w.9.w.9.f.w.w.f.{.@.w.e.9.9.w.z.w.w.z.9.0.w.9.w.w.w.w.w.w.w.w.w.w.w.w.w.w.w.w.w.w.w.w.w.w.w.w.w.w.w.w.w.w.w.w.w.w.w.w.w.w.w.w.w.w.w.w.w.w.w.w.w.w.w.w.w.w.w.w.w.w.w.w.w.w.w.w.w.w.w.w.w.w.w.w.w.w.w.w.w.w.w.w.w.w.w.w.w.w.w.w.w.w.w.w.w.w.w.w.w.w.w.w.w.w.w.w.w.w.w.w.w.w.w.w.w.w.w.w.w.w.w.w.w.w.w.w.w.w.w.w.w.w.w.w.w.w.w.w.w.w.w.9.w.w.9.z.9.N.9.w.w.w.w.w.w.w.w.w.f.f.w.w.w.f.w.0.w.w.z.z.w.9.9.f.w.w.w.f.f.f.e.e.N.N.N.f.e.f.N.N.N.{.N.w.e.9.f.w.w.w.w.w.w.w.w.z.z.z.z.f.z.z.z.w.w.w.w.f.f.w.w.w.w.w.w.w.w.w.w.",
"v.v.v.v.N.N.N.N.' f.N.9.z.w.9.z.w.w.w.w.w.w.w.w.z.w.w.z.z.w.w.f.w.z.w.9.z.z.w.w.w.w.w.f.f.f.e.w.z.0.z.z.w.z.z.9.z.z.z.z.z.w.9.f.w.w.w.w.w.w.w.w.w.w.w.w.w.w.w.w.w.w.w.w.w.w.w.w.w.e.w.w.N.w.w.W.w.w.w.w.f.f.z.N.z.z.z.w.w.f.z.w.W.w.W.f.w.f.W...w.z.z.z.N.w.0.f.f.0.z.W.z.z.z.w.w.w.w.w.w.w.w.w.w.w.w.w.w.w.w.w.w.w.w.w.w.w.w.w.w.w.w.w.w.w.w.w.w.w.w.w.w.w.w.w.w.w.w.w.w.w.w.w.w.w.w.w.w.w.w.w.w.w.w.w.w.w.w.w.w.w.w.w.w.w.w.w.w.w.w.w.w.w.w.w.w.w.w.w.w.w.w.w.w.w.w.w.w.w.w.w.w.w.w.w.w.w.w.w.w.w.w.w.w.w.w.w.w.w.w.w.w.w.w.w.w.w.w.w.w.w.w.w.w.w.w.w.w.w.w.w.0.z.z.w.z.9.N.9.0.z.w.w.W.N.w.z.w.w.w.w.z.N.z.w.w.w.w.w.w.0.w.z.z.z.e.f.f.w.w.w.e.9.@.' @.@.@.@.' ` ' @.9.W.w.W.w.w.w.w.w.w.w.w.w.w.w.w.w.w.w.w.w.w.w.w.w.f.e.w.w.w.w.w.w.w.w.w.",
"' ' ' ' ' ' ' ' >.{.f.>.z.z.9.f.w.w.w.w.w.w.w.w.0.0.w.w.:.@.:.z.w.z.f.w.w.z.z.w.z.w.w.f.z.f.w.w.:...:.z.w.z.W.9.9.9.3.3.w.w.9.w.w.w.w.w.w.w.w.w.w.w.w.w.w.w.w.w.w.w.w.w.w.w.w.w.w.w.w.z.z.3.%.3.z.w.w.9.w.z.w.3.:.w.z.0.9.w.z.z.3.:.9.w.z.0.z...9.3.:.9.z.w.9.f.w.f.z.w.3.9.z.w.w.w.w.w.w.w.w.w.w.w.w.w.w.w.w.w.w.w.w.w.w.w.w.w.w.w.w.w.w.w.w.w.w.w.w.w.w.w.w.w.w.w.w.w.w.w.w.w.w.w.w.w.w.w.w.w.w.w.w.w.w.w.w.w.w.w.w.w.w.w.w.w.w.w.w.w.w.w.w.w.w.w.w.w.w.w.w.w.w.w.w.w.w.w.w.w.w.w.w.w.w.w.w.w.w.w.w.w.w.w.w.w.w.w.w.w.w.w.w.w.w.w.w.w.w.w.w.w.w.w.w.w.w.w.w.w.w.z.z.w.w.:.w.f.w.z.w.w.z.:.@.0.w.w.w.p.z.z.4.%.3.w.z.w.9.w.z.w.%.:.9.e.z.w.w.w.N.@.@.@.&.>.@.@.3.-.@.%.@.z.9.3.w.w.w.f.w.w.w.f.z.z.z.z.f.f.f.f.f.w.w.w.w.w.f.f.w.w.w.w.w.w.w.w.",
"9.9.9.9.9.9.9.9.W.N.w.0.w.f.z.w.w.w.w.w.w.w.w.w.w.w.z.p.3.%.3.N.9.0.w.w.9.w.w.9.f.w.0.w.w.0.9.w.` S ` w.w.0.z.w.w.@.G L 3.N.z.w.w.w.w.w.w.w.w.w.w.w.w.w.w.w.w.w.w.w.w.w.w.w.w.w.f.w.w.f.9.@.L Y 9.z.z.w.z.f.%.L G %.w.z.e.z.z.w.Y G ..9.z.9.z.%.w.X.S L 3.N.z.f.f.z.9.` L @.p.f.w.w.w.w.w.w.w.w.w.w.w.w.w.w.w.w.w.w.w.w.w.w.w.w.w.w.w.w.w.w.w.w.w.w.w.w.w.w.w.w.w.w.w.w.w.w.w.w.w.w.w.w.w.w.w.w.w.w.w.w.w.w.w.w.w.w.w.w.w.w.w.w.w.w.w.w.w.w.w.w.w.w.w.w.w.w.w.w.w.w.w.w.w.w.w.w.w.w.w.w.w.w.w.w.w.w.w.w.w.w.w.w.w.w.w.w.w.w.w.w.w.w.w.w.w.w.w.w.w.w.w.w.w.w.w.w.f.w.w.w.9...3.z.w.z.w.w.3.L S %.N.z.w.w.f.9...S ` 3.z.f.w.z.w.%.S ` :.w.z.w.w.f.9.D 9.{.e.{.w.(.9.e.f.e.S w.N.z.w.w.w.z.w.0.w.z.w.w.e.e.e.e.e.e.z.z.f.f.w.w.w.w.w.w.w.w.w.w.w.w.",
"{.{.{.[.[.[.[.[.N.9.w.W.0.9.z.e.w.w.w.w.w.w.w.w.z.f.z.W.v.p.w.z.{.z.z.W.z.z.z.z.W.z.z.N.z.f.z.W.@.Y @.z.z.9.w.f.z.:.Y ` 9.z.z.w.w.w.w.w.w.w.w.w.w.w.w.w.w.w.w.w.w.w.w.w.w.w.w.w.w.z.z.z.f.:.' ` 9.z.z.w.z.z.3.Y ` :.z.z.f.w.w.w.@.Y %.f.W.9.z.@.e.-.Y ' 9.W.z.w.w.z.9...L %.f.w.w.w.w.w.w.w.w.w.w.w.w.w.w.w.w.w.w.w.w.w.w.w.w.w.w.w.w.w.w.w.w.w.w.w.w.w.w.w.w.w.w.w.w.w.w.w.w.w.w.w.w.w.w.w.w.w.w.w.w.w.w.w.w.w.w.w.w.w.w.w.w.w.w.w.w.w.w.w.w.w.w.w.w.w.w.w.w.w.w.w.w.w.w.w.w.w.w.w.w.w.w.w.w.w.w.w.w.w.w.w.w.w.w.w.w.w.w.w.w.w.w.w.w.w.w.w.w.w.w.w.w.w.w.w.w.w.z.w.w.w.0...3.N.w.w.w.z.3.Y Y 3.z.e.w.f.z.0.@.L ..9.z.w.w.W.f.:.L ..9.z.z.w.w.w.{.P 9.z.9.z.8.e.N.N.N.f.G f.W.w.w.w.w.z.w.9.w.z.e.w.e.e.e.e.e.e.w.f.z.f.w.w.w.w.w.w.w.w.w.w.w.w.",
"9.9.9.9.9.9.9.9.w.9.f.W.w.w.z.z.w.w.w.w.w.w.w.w.0.9.9.w.p.f.w.9.3.` Y ` Y Y ` Y ` Y Y ` Y Y ` @.w.9.w.N.v.w.w.f.w.w.0.w.z.w.0.f.w.w.w.w.w.w.w.w.w.w.w.w.w.w.w.w.w.w.w.w.w.w.w.w.w.z.z.z.W.z.9.0.z.w.w.w.w.z.z.w.w.e.z.w.w.w.w.z.z.9.w.z.z.0.z...9.f.e.w.z.z.w.w.w.z.z.0.>.9.z.w.w.w.w.w.w.w.w.w.w.w.w.w.w.w.w.w.w.w.w.w.w.w.w.w.w.w.w.w.w.w.w.w.w.w.w.w.w.w.w.w.w.w.w.w.w.w.w.w.w.w.w.w.w.w.w.w.w.w.w.w.w.w.w.w.w.w.w.w.w.w.w.w.w.w.w.w.w.w.w.w.w.w.w.w.w.w.w.w.w.w.w.w.w.w.w.w.w.w.w.w.w.w.w.w.w.w.w.w.w.w.w.w.w.w.w.w.w.w.w.w.w.w.w.w.w.w.w.w.w.w.w.w.w.w.w.w.z.f.f.w.z.:.w.z.f.w.w.z.f.3.9.z.w.w.w.f.z.z.9.3.9.w.z.9.0.z.z.w.>.9.z.z.z.w.w.w.w.` L L P Y L L L L L L T w.w.0.w.w.w.z.p.9.0.z.(.(.{.{.{.{.(.{.9.0.w.f.w.w.w.w.w.w.w.w.w.w.w.w.",
"w.w.e.e.e.e.e.e.z.f.9.9.z.W.z.w.w.w.w.w.w.w.w.w.w.z.z.w.w.w.z.z.z.` L Y Y Y ' Y Y Y Y ` Y Y ' -.0.z.w.0.w.p.f.z.w.w.9.9.f.w.0.z.w.w.w.w.w.w.w.w.w.w.w.w.w.w.w.w.w.w.w.w.w.w.w.w.0.z.w.9.w.z.z.z.z.w.w.N.z.9.9.z.z.w.9.f.z.f.w.w.z.w.w.9.9.w.W.@.3.w.z.0.f.z.w.w.z.0.w.z.w.w.f.w.w.w.w.w.w.w.w.w.w.w.w.w.w.w.w.w.w.w.w.w.w.w.w.w.w.w.w.w.w.w.w.w.w.w.w.w.w.w.w.w.w.w.w.w.w.w.w.w.w.w.w.w.w.w.w.w.w.w.w.w.w.w.w.w.w.w.w.w.w.w.w.w.w.w.w.w.w.w.w.w.w.w.w.w.w.w.w.w.w.w.w.w.w.w.w.w.w.w.w.w.w.w.w.w.w.w.w.w.w.w.w.w.w.w.w.w.w.w.w.w.w.w.w.w.w.w.w.w.w.w.w.w.w.w.w.w.0.z.p.9.z.w.W.9.z.w.0.w.w.z.z.w.w.z.f.w.0.w.z.z.z.w.w.z.z.w.w.w.z.z.w.w.w.w.f.z.9.[.:.:.w.-.>.>.>.3.9.@.W.z.9.N.w.w.w.z.p.9.0.z.z.z.N.N.N.N.N.N.3.9.w.w.w.w.w.w.w.w.w.w.w.w.w.w.",
"w.w.w.w.w.w.w.w.0.z.9.9.9.@.@.(.w.w.w.w.w.w.w.w.9.z.W.z.w.f.f.w.9.0.w.w.w.w.w.w.f.0.0.z.f.9.9.w.w.w.w.w.w.w.w.w.w.w.w.w.w.w.w.w.w.w.w.w.w.w.w.w.w.w.w.w.w.w.w.w.w.w.w.w.w.w.w.w.w.w.w.w.w.w.w.w.w.w.w.w.w.w.w.w.w.w.w.w.w.w.w.w.f.w.f.w.z.w.z.@.9.w.w.w.e.f.w.w.w.w.w.w.w.w.w.w.w.w.w.w.w.w.w.w.0.f.p.0.z.z.w.w.W.9.e.e.f.N.w.9.w.w.w.w.w.w.w.w.w.w.w.w.w.w.w.w.w.w.w.w.w.w.w.w.w.w.w.w.w.w.w.w.w.w.w.w.w.w.w.w.w.w.w.w.w.w.w.w.w.w.w.w.w.w.w.w.w.w.w.w.w.w.w.w.w.w.w.w.w.w.w.w.w.w.w.w.w.w.w.w.w.z.w.w.w.z.N.w.w.w.w.w.w.w.w.w.w.w.w.w.w.w.w.w.w.w.w.w.w.w.w.w.w.w.w.w.w.w.w.w.w.w.w.w.w.w.w.w.w.w.w.w.w.w.w.w.w.w.w.w.w.w.w.w.w.w.w.w.w.w.w.w.w.w.w.w.w.w.w.w.w.w.w.w.w.w.w.w.z.9.f.w.W.w...W.w.0.9.9.w.f.z.w.@.w.W.z.w.w.w.z.w.w.w.w.w.w.w.w.",
"w.w.w.w.w.w.w.w.N.w.9.z.%.f f 9.w.w.w.w.w.w.w.w.z.0.9.w.z.w.w.f.W.9.:.>.3.:.>.9.3.:.3.9.3.:.9.z.w.w.w.w.w.w.w.w.w.w.w.w.w.w.w.w.w.w.w.w.w.w.w.w.w.w.w.w.w.w.w.w.w.w.w.w.w.w.w.w.w.w.w.w.w.w.w.w.w.w.w.w.w.w.w.w.w.w.w.w.w.w.w.w.f.w.f.w.z.w.z.@.9.w.w.w.e.f.w.w.w.w.w.w.w.w.w.w.w.w.w.w.w.w.w.w.z.z.w.0.0.w.w.w.9.9.e.w.3.9.z.{.w.w.w.w.w.w.w.w.w.w.w.w.w.w.w.w.w.w.w.w.w.w.w.w.w.w.w.w.w.w.w.w.w.w.w.w.w.w.w.w.w.w.w.w.w.w.w.w.w.w.w.w.w.w.w.w.w.w.w.w.w.w.w.w.w.w.w.w.w.w.w.w.w.w.w.w.w.w.w.w.f.w.w.z.W.w.w.f.w.w.w.w.w.w.w.w.w.w.w.w.w.w.w.w.w.w.w.w.w.w.w.w.w.w.w.w.w.w.w.w.w.w.w.w.w.w.w.w.w.w.w.w.w.w.w.w.w.w.w.w.w.w.w.w.w.w.w.w.w.w.w.w.w.w.w.w.w.w.w.w.w.w.w.w.w.w.w.w.z.w.z.9.f.e.@.9.{.W.W.{.{.W.w.9.` :.w.w.f.z.w.z.w.w.w.w.w.w.w.w.",
"w.w.w.w.w.w.w.w.0.w.0.e.0.@.@.N.w.w.w.w.w.w.w.w.z.0.w.z.9.@.:.z.:.Y A S G S S L G S G G G S L ..w.w.w.w.w.w.w.w.w.w.w.w.w.w.w.w.w.w.w.w.w.w.w.w.w.w.w.w.w.w.w.w.w.w.w.w.w.w.w.w.w.w.w.w.w.w.w.w.w.w.w.w.w.w.w.w.w.w.w.w.w.w.w.w.f.w.f.w.z.w.z.@.3.w.w.w.f.f.w.w.w.w.w.w.w.w.w.w.w.w.w.w.w.w.w.w.9.9.e.R.e.e.e.9.T.W.T.z.w.w.w.w.w.w.w.w.w.w.w.w.w.w.w.w.w.w.w.w.w.w.w.w.w.w.w.w.w.w.w.w.w.w.w.w.w.w.w.w.w.w.w.w.w.w.w.w.w.w.w.w.w.w.w.w.w.w.w.w.w.w.w.w.w.w.w.w.w.w.w.w.w.w.w.w.w.w.w.w.w.w.w.w.w.f.e.w.w.z.z.w.w.w.w.w.w.w.w.w.w.w.w.w.w.w.w.w.w.w.w.w.w.w.w.w.w.w.w.w.w.w.w.w.w.w.w.w.w.w.w.w.w.w.w.w.w.w.w.w.w.w.w.w.w.w.w.w.w.w.w.w.w.w.w.w.w.w.w.w.w.w.w.w.w.w.w.w.w.w.w.w.9.f.W.0.z.w.L S L L L Y Y L D A @.9.w.w.z.z.w.w.w.w.w.w.w.w.w.w.",
"w.w.w.w.w.w.w.w.9.N.0.3.N. X{.e.w.w.w.w.w.w.w.w.f.w.z.z.3.@.-.z.w.:.@.%.:.%.%.%.%.%.%.%.%.@.:.9.w.w.w.w.w.w.w.w.w.w.w.w.w.w.w.w.w.w.w.w.w.w.w.w.w.w.w.w.w.w.w.w.w.w.w.w.w.w.w.w.w.w.w.w.w.w.w.w.w.w.w.w.w.w.w.w.w.w.w.w.w.w.w.w.f.w.f.w.z.w.z.@.8.w.w.w.f.f.w.w.w.w.w.w.w.w.w.w.w.w.w.w.w.w.w.w.R.w.e.e.9.9.z.z.4.9.3.9.z.z.z.w.w.w.w.w.w.w.w.w.w.w.w.w.w.w.w.w.w.w.w.w.w.w.w.w.w.w.w.w.w.w.w.w.w.w.w.w.w.w.w.w.w.w.w.w.w.w.w.w.w.w.w.w.w.w.w.w.w.w.w.w.w.w.w.w.w.w.w.w.w.w.w.w.w.w.w.w.w.w.w.w.w.w.N.e.f.W.z.w.w.w.w.w.w.w.w.w.w.w.w.w.w.w.w.w.w.w.w.w.w.w.w.w.w.w.w.w.w.w.w.w.w.w.w.w.w.w.w.w.w.w.w.w.w.w.w.w.w.w.w.w.w.w.w.w.w.w.w.w.w.w.w.w.w.w.w.w.w.w.w.w.w.w.w.w.w.w.w.w.w.z.z.3.w.W.3.:.@.@.@.@.@.%.%.@.w.z.z.w.w.f.w.w.w.w.w.w.w.w.w.w.",
"w.w.w.w.w.w.w.w.w.w.w.w.f.w.9.w.w.w.w.w.w.w.w.w.z.0.9.w.z.f.w.z.f.f.w.w.e.z.w.9.w.w.w.w.w.w.w.f.w.w.w.w.w.w.w.w.w.w.w.w.w.w.w.w.w.w.w.w.w.w.w.w.w.w.w.w.w.w.w.w.w.w.w.w.w.w.w.w.w.w.w.w.w.w.w.w.w.w.w.w.w.w.w.w.w.w.w.w.w.w.w.w.w.w.w.w.z.w.z.@.9.w.w.w.f.f.w.w.w.w.w.w.w.w.w.w.w.w.w.w.w.w.w.w.9.9.w.e.z.N.(.W./.OXv.z.z.9.w.R.w.w.w.w.w.w.w.w.w.w.w.w.w.w.w.w.w.w.w.w.w.w.w.w.w.w.w.w.w.w.w.w.w.w.w.w.w.w.w.w.w.w.w.w.w.w.w.w.w.w.w.w.w.w.w.w.w.w.w.w.w.w.w.w.w.w.w.w.w.w.w.w.w.w.w.w.w.w.w.w.W.9.0.9.9.f.9.T.w.w.w.w.w.w.w.w.w.w.w.w.w.w.w.w.w.w.w.w.w.w.w.w.w.w.w.w.w.w.w.w.w.w.w.w.w.w.w.w.w.w.w.w.w.w.w.w.w.w.w.w.w.w.w.w.w.w.w.w.w.w.w.w.w.w.w.w.w.w.w.w.w.w.w.w.w.w.w.w.z.f.w.9.w.W.z.W.W.z.f.w.w.z.z.z.w.z.w.9.w.f.w.z.w.w.w.w.w.w.w.w.",
"w.w.w.w.w.w.w.w.w.9.w.N.z.0.w.W.w.w.w.w.w.w.w.w.w.f.w.w.z.W.z.w.w.z.z.w.w.z.z.w.w.w.w.f.z.N.z.f.w.w.w.w.w.w.w.w.w.w.w.w.w.w.w.w.w.w.w.w.w.w.w.w.w.w.w.w.w.w.w.w.w.w.w.w.w.w.w.w.w.w.w.w.w.w.w.w.w.w.w.w.w.w.w.w.w.w.w.w.w.w.w.w.w.0.w.w.z.w.z.@.9.w.w.w.e.f.w.w.w.w.w.w.w.w.w.w.w.w.w.w.w.w.w.w.z.R.8.@.] ] ' ) / @.` >./.9.9.9.w.w.w.w.w.w.w.w.w.w.w.w.w.w.w.w.w.w.w.w.w.w.w.w.w.w.w.w.w.w.w.w.w.w.w.w.w.w.w.w.w.w.w.w.w.w.w.w.w.w.w.w.w.w.w.w.w.w.w.w.w.w.w.w.w.w.w.w.w.w.w.w.w.w.w.w.w.w.w.w.z.w.>.C C 6.w.z.w.w.w.w.w.w.w.w.w.w.w.w.w.w.w.w.w.w.w.w.w.w.w.w.w.w.w.w.w.w.w.w.w.w.w.w.w.w.w.w.w.w.w.w.w.w.w.w.w.w.w.w.w.w.w.w.w.w.w.w.w.w.w.w.w.w.w.w.w.w.w.w.w.w.w.w.w.w.w.w.9.w.z.W.z.9.9.9.z.z.f.f.f.f.f.w.w.z.w.w.z.z.w.w.w.w.w.w.w.w.w.w.",
"w.w.w.w.w.w.w.w.z.f.f.w.9.e.w.3.w.w.w.w.w.w.w.w.9.z.W.w.9.9.w.w.w.w.w.0.9.w.w.w.w.w.w.w.w.z.f.w.w.w.w.w.w.w.w.w.w.w.w.w.w.w.w.w.w.w.w.w.w.w.w.w.w.w.w.w.w.w.w.w.w.w.w.w.w.w.w.w.w.w.w.w.w.w.w.w.w.w.w.w.w.w.w.w.w.w.w.w.w.w.w.w.w.0.f.w.z.w.z.@.9.w.w.w.f.f.w.w.w.w.w.w.w.w.w.w.w.w.w.w.w.w.w.w.e.9.m = * = = : # ; * A z.z.e.e.w.w.w.w.w.w.w.w.w.w.w.w.w.w.w.w.w.w.w.w.w.w.w.w.w.w.w.w.w.w.w.w.w.w.w.w.w.w.w.w.w.w.w.w.w.w.w.w.w.w.w.w.w.w.w.w.w.w.w.w.w.w.w.w.w.w.w.w.w.w.w.w.w.w.w.w.w.w.w.w.w.f.9.m m 0.z.w.w.w.w.w.w.w.w.w.w.w.w.w.w.w.w.w.w.w.w.w.w.w.w.w.w.w.w.w.w.w.w.w.w.w.w.w.w.w.w.w.w.w.w.w.w.w.w.w.w.w.w.w.w.w.w.w.w.w.w.w.w.w.w.w.w.w.w.w.w.w.w.w.w.w.w.w.w.w.w.w.z.w.w.w.0.w.{.{.9.9.w.w.w.w.w.w.f.z.z.f.z.w.0.w.w.w.w.w.w.w.w.w.",
"w.w.w.w.w.w.w.w.z.w.z.z.w.w.z.w.w.w.w.w.w.w.w.w.z.w.w.w.w.z.w.w.z.w.w.z.z.w.w.z.w.z.z.f.w.w.f.f.w.w.w.w.w.w.w.w.w.w.w.w.w.w.w.w.w.w.w.w.w.w.w.w.w.w.w.w.w.w.w.w.w.w.w.w.w.w.w.w.w.w.w.w.w.w.w.w.w.w.w.w.w.w.w.w.w.w.w.w.w.w.w.w.w.w.e.w.z.w.z.@.4.w.w.w.f.f.w.w.w.w.w.w.w.w.w.w.w.w.w.w.w.w.w.w.9.{.| j D / V Z Z K g ' N.9.9.N.w.w.w.w.w.w.w.w.w.w.w.w.w.w.w.w.w.w.w.w.w.w.w.w.w.w.w.w.w.w.w.w.w.w.w.w.w.w.w.w.w.w.w.w.w.w.w.w.w.w.w.w.w.w.w.w.w.w.w.w.w.w.w.w.w.w.w.w.w.w.w.w.w.w.w.w.w.w.w.w.T.3.A.k.A.{.9.T.w.w.w.w.w.w.w.w.w.w.w.w.w.w.w.w.w.w.w.w.w.w.w.w.w.w.w.w.w.w.w.w.w.w.w.w.w.w.w.w.w.w.w.w.w.w.w.w.w.w.w.w.w.w.w.w.w.w.w.w.w.w.w.w.w.w.w.w.w.w.w.w.w.w.w.w.w.w.w.w.0.w.p.f.0.w.z.3.z.z.f.w.w.w.w.w.w.f.0.9.w.w.w.W.w.w.w.w.w.w.w.w.",
"w.w.w.w.w.w.w.w.w.w.w.w.w.w.w.w.w.w.w.w.w.w.w.w.f.w.f.z.z.w.w.z.w.w.w.w.w.w.w.w.w.w.w.w.w.w.w.w.w.w.w.w.w.w.w.w.w.w.w.w.w.w.w.w.w.w.w.w.w.w.w.w.w.w.w.w.w.w.w.w.w.w.w.w.w.w.w.w.w.w.w.w.w.w.w.w.w.w.w.w.w.w.w.w.w.w.w.w.w.w.w.w.f.z.z.w.v.9.v.@.9.z.f.w.e.w.f.w.w.w.w.w.w.w.w.w.w.w.w.w.w.w.w.w.G.9.f.9.9.:.0.0.>.t.0.t.f.0.z.e.w.w.w.w.w.w.w.w.w.w.w.w.w.w.w.w.w.w.w.w.w.w.w.w.w.w.w.w.w.w.w.w.w.w.w.w.w.w.w.w.w.w.w.w.w.w.w.w.w.w.w.w.w.w.w.w.w.w.w.w.w.w.w.w.w.w.w.w.w.w.w.w.w.w.w.w.w.w.w.w.w.w.w.w.w.w.w.w.w.w.w.w.w.w.w.w.w.w.w.w.w.w.w.w.w.w.w.w.w.w.w.w.w.w.w.w.w.w.w.w.w.w.w.w.w.w.w.w.w.z.z.w.w.p.w.9.f.f.f.f.f.f.f.f.w.w.w.w.w.w.w.w.w.w.w.w.w.w.w.w.w.w.w.w.w.w.w.w.z.w.w.z.f.9.0.N.w.w.w.w.w.w.w.w.w.w.w.w.w.w.w.w.w.w.w.w.w.w.w.w.",
"w.w.w.w.w.w.w.w.w.w.w.w.w.w.w.w.w.w.w.w.w.w.w.w.w.w.w.9.w.z.z.9.w.w.w.w.w.w.w.w.w.w.w.w.w.w.w.w.w.w.w.w.w.w.w.w.w.w.w.w.w.w.w.w.w.w.w.w.w.w.w.w.w.w.w.w.w.w.w.w.w.w.w.w.w.w.w.w.w.w.w.w.w.w.w.w.w.w.w.w.w.w.w.w.w.w.w.w.w.w.w.w.9.0.w.0.z.9.z.@.3.f.w.w.w.w.w.w.w.w.w.w.w.w.w.w.w.w.w.w.w.w.w.w.e.z.H ; 4 > ; 3 > = ; A 0.N.z.9.w.w.w.w.w.w.w.w.w.w.w.w.w.w.w.w.w.w.w.w.w.w.w.w.w.w.w.w.w.w.w.w.w.w.w.w.w.w.w.w.w.w.w.w.w.w.w.w.w.w.w.w.w.w.w.w.w.w.w.w.w.w.w.w.w.w.w.w.w.w.w.w.w.w.w.w.w.w.w.w.w.w.w.w.w.w.w.w.w.w.w.w.w.w.w.w.w.w.w.w.w.w.w.w.w.w.w.w.w.w.w.w.w.w.w.w.w.w.w.w.w.w.w.w.w.w.w.w.w.w.f.z.w.w.z.W.w.w.w.w.w.w.w.w.w.w.w.w.w.w.w.w.w.w.w.w.w.w.w.w.w.w.w.w.w.w.w.w.9.z.N.w.w.W.N.9.w.w.w.w.w.w.w.w.w.w.w.w.w.w.w.w.w.w.w.w.w.w.w.w.",
"w.w.w.w.w.w.w.w.w.w.w.w.w.w.w.w.w.w.w.w.w.w.w.w.z.z.z.w.w.z.z.z.w.w.w.w.w.w.w.w.w.w.w.w.w.w.w.w.w.w.w.w.w.w.w.w.w.w.w.w.w.w.w.w.w.w.w.w.w.w.w.w.w.w.w.w.w.w.w.w.w.w.w.w.w.w.w.w.w.w.w.w.w.w.w.w.w.w.w.w.w.w.w.w.w.w.w.w.w.w.w.w.f.z.z.f.W.f.p.@.9.w.f.w.z.z.w.z.w.w.w.w.w.w.w.w.w.w.w.w.w.w.w.w.9.v.' 9 g j s f g r r ) f.w.w.z.w.w.w.w.w.w.w.w.w.w.w.w.w.w.w.w.w.w.w.w.w.w.w.w.w.w.w.w.w.w.w.w.w.w.w.w.w.w.w.w.w.w.w.w.w.w.w.w.w.w.w.w.w.w.w.w.w.w.w.w.w.w.w.w.w.w.w.w.w.w.w.w.w.w.w.w.w.w.w.w.w.w.w.w.w.w.w.w.w.w.w.w.w.w.w.w.w.w.w.w.w.w.w.w.w.w.w.w.w.w.w.w.w.w.w.w.w.w.w.w.w.w.w.w.w.w.w.w.z.0.0.z.z.w.9.0.w.w.w.w.w.w.w.w.f.f.f.f.f.f.f.f.f.f.f.f.f.f.f.f.f.f.f.f.f.f.f.f.z.w.9.w.f.w.w.w.w.w.w.w.w.w.w.w.w.w.w.w.w.w.w.w.w.w.w.w.w.w.w.w.",
"w.w.w.w.w.w.w.w.w.w.w.w.w.w.w.w.w.w.w.w.w.w.w.w.w.9.w.z.9.@.%.z.w.w.w.w.w.w.w.w.w.w.w.w.w.w.w.w.w.w.w.w.w.w.w.w.w.w.w.w.w.w.w.w.w.w.w.w.w.w.w.w.w.w.w.w.w.w.w.w.w.w.w.w.w.w.w.w.w.w.w.w.w.w.w.w.w.w.w.w.w.w.w.w.w.w.w.w.w.w.w.w.w.w.w.0.w.p.9.@.9.9.w.9.w.w.9.w.w.w.w.w.w.w.w.w.w.w.w.w.w.w.w.w.0.p.u.>.7.r.u.t.t.t.>.t.N.9.w.R.w.w.w.w.w.w.w.w.w.w.w.w.w.w.w.w.w.w.w.w.w.w.w.w.w.w.w.w.w.w.w.w.w.w.w.w.w.w.w.w.w.w.w.w.w.w.w.w.w.w.w.w.w.w.w.w.w.w.w.w.w.w.w.w.w.w.w.w.w.w.w.w.w.w.w.w.w.w.w.w.w.w.w.w.w.w.w.w.w.w.w.w.w.w.w.w.w.w.w.w.w.w.w.w.w.w.w.w.w.w.w.w.w.w.w.w.w.w.w.w.w.w.w.w.w.w.w.w.z.w.w.f.z.e.w.w.z.z.z.z.z.z.z.z.f.f.f.f.f.f.f.f.f.f.f.f.f.f.f.f.f.f.f.f.f.f.f.f.(.e.9.z.f.9.0.W.w.w.w.w.w.w.w.w.w.w.w.w.w.w.w.w.w.w.w.w.w.w.w.w.",
"w.w.w.w.w.w.w.w.w.w.w.w.w.w.w.w.w.w.w.w.w.w.w.w.w.9.w.z.9.@.-.z.w.w.w.w.w.w.w.w.w.w.w.w.w.w.w.w.w.w.w.w.w.w.w.w.w.w.w.w.w.w.w.w.w.w.w.w.w.w.w.w.w.w.w.w.w.w.w.w.w.w.w.w.w.w.w.w.w.w.w.w.w.w.w.w.w.w.w.w.w.w.w.w.w.w.w.w.w.w.w.w.w.w.w.0.0./.N.9.z.z.W.z.W.W.9.z.w.w.w.w.w.w.w.w.w.w.w.w.w.w.w.w.N.9.:.D z g V j B j n ' v.z.z.9.w.w.w.w.w.w.w.w.w.w.w.w.w.w.w.w.w.w.w.w.w.w.w.w.w.w.w.w.w.w.w.w.w.w.w.w.w.w.w.w.w.w.w.w.w.w.w.w.w.w.w.w.w.w.w.w.w.w.w.w.w.w.w.w.w.w.w.w.w.w.w.w.w.w.w.w.w.w.w.w.w.w.w.w.w.w.w.w.w.w.w.w.w.w.w.w.w.w.w.w.w.w.w.w.w.w.w.w.w.w.w.w.w.w.w.w.w.w.w.w.w.w.w.w.w.w.w.w.9.z.N.w.0.z.N.z.-.-.-.-.-.-.-.-.-.-.-.-.-.-.-.-.-.-.-.-.-.-.-.-.-.-.-.-.-.-.-.-.@.0.N.f.w.z.T.w.w.w.w.w.w.w.w.w.w.w.w.w.w.w.w.w.w.w.w.w.w.w.w.w.",
"w.w.w.w.w.w.w.w.w.w.w.w.w.w.w.w.w.w.w.w.w.w.w.w.z.z.z.w.w.z.z.z.w.w.w.w.w.w.w.w.w.w.w.w.w.w.w.w.w.w.w.w.w.w.w.w.w.w.w.w.w.w.w.w.w.w.w.w.w.w.w.w.w.w.w.w.w.w.w.w.w.w.w.w.w.w.w.w.w.w.w.w.w.w.w.w.w.w.w.w.w.w.w.w.w.w.w.w.w.w.w.w.W.z.z.w.9.{.W.v.{.z.{.N.W.{.9.z.w.w.w.w.w.w.w.w.w.w.w.w.w.w.w.w.z.v.P : 4 4 > > 4 = ; A f.N.z.w.w.w.w.w.w.w.w.w.w.w.w.w.w.w.w.w.w.w.w.w.w.w.w.w.w.w.w.w.w.w.w.w.w.w.w.w.w.w.w.w.w.w.w.w.w.w.w.w.w.w.w.w.w.w.w.w.w.w.w.w.w.w.w.w.w.w.w.w.w.w.w.w.w.w.w.w.w.w.w.w.w.w.w.w.w.w.w.w.w.w.w.w.w.w.w.w.w.w.w.w.w.w.w.w.w.w.w.w.w.w.w.w.w.w.w.w.w.w.w.w.w.w.w.w.w.w.w.w.9.f.w.0.z.z.%.S f f f f f f f f f f f f f f f f f f f f f f f f f f f f f f f f f L :.f.z.z.w.w.w.w.w.w.w.w.w.w.w.w.w.w.w.w.w.w.w.w.w.w.w.w.w.w.",
"w.w.w.w.w.w.w.w.w.w.w.w.w.w.w.w.w.w.w.w.w.w.w.w.w.w.w.9.w.z.z.9.w.w.w.w.w.w.w.w.w.w.w.w.w.w.w.w.w.w.w.w.w.w.w.w.w.w.w.w.w.w.w.w.w.w.w.w.w.w.w.w.w.w.w.w.w.w.w.w.w.w.w.w.w.w.w.w.w.w.w.w.w.w.w.w.w.w.w.w.w.w.w.w.w.w.w.w.w.w.w.w.f.w.w.9.@.f.9.0.w.9.z.9.w.w.@.3.w.w.w.w.w.w.w.w.w.w.w.w.w.w.w.w.9.W.@.n / / K P / D C @.f.w.w.R.w.w.w.w.w.w.w.w.w.w.w.w.w.w.w.w.w.w.w.w.w.w.w.w.w.w.w.w.w.w.w.w.w.w.w.w.w.w.w.w.w.w.w.w.w.w.w.w.w.w.w.w.w.w.w.w.w.w.w.w.w.w.w.w.w.w.w.w.w.w.w.w.w.w.w.w.w.w.w.w.w.w.w.w.w.w.w.w.w.w.w.w.w.w.w.w.w.w.w.w.w.w.w.w.w.w.w.w.w.w.w.w.w.w.w.w.w.w.w.w.w.w.w.w.w.w.w.w.z.w.9.w.W.z.` f D D D D D D D D D D D D D D D D D D D D D D D D D D D D D D D D b A } e.N.9.9.T.w.w.w.w.w.w.w.w.w.w.w.w.w.w.w.w.w.w.w.w.w.w.w.w.",
"w.w.w.w.w.w.w.w.w.w.w.w.w.w.w.w.w.w.w.w.w.w.w.w.f.w.f.z.z.w.w.z.w.w.w.w.w.w.w.w.w.w.w.w.w.w.w.w.w.w.w.w.w.w.w.w.w.w.w.w.w.w.w.w.w.w.w.w.w.w.w.w.w.w.w.w.w.w.w.w.w.w.w.w.w.w.w.w.w.w.w.w.w.w.w.w.w.w.w.w.w.w.w.w.w.w.w.w.w.w.w.w.w.w.z.9.-.W.p.N.N.9.W.w.z.N.%.9.w.w.w.w.w.w.w.w.w.w.w.w.w.w.w.w.e.9.W.N.V.0.f.f.t.S.t.f.N.w.z.9.w.w.w.w.w.w.w.w.w.w.w.w.w.w.w.w.w.w.w.w.w.w.w.w.w.w.w.w.w.w.w.w.w.w.w.w.w.w.w.w.w.w.w.w.w.w.w.w.w.w.w.w.w.w.w.w.w.w.w.w.w.w.w.w.w.w.w.w.w.w.w.w.w.w.w.w.w.w.w.w.w.w.w.w.w.w.w.w.w.w.w.w.w.w.w.w.w.w.w.w.w.w.w.w.w.w.w.w.w.w.w.w.w.w.w.w.w.w.w.w.w.w.w.w.w.w.w.w.w.f.w.w.w.w.w.w.' ' ' ' ' ' ' ' ' ' ' ' ' ' ' ' ' ' ' ' ' ' ' ' ' ' ' ' ' ' ' ' @.6.0.0.9.z.T.z.w.w.w.w.w.w.w.w.w.w.w.w.w.w.w.w.w.w.w.w.w.w.w.w.",
"w.w.w.w.w.w.w.w.w.w.w.w.w.w.w.w.w.w.w.w.w.w.w.w.0.z.w.z.9.z.w.w.w.w.w.w.w.w.w.w.w.w.w.w.w.w.w.w.w.w.w.w.w.w.w.w.w.w.w.w.w.w.w.w.w.w.w.w.w.w.w.w.w.w.w.w.w.w.w.w.w.w.w.w.w.w.w.w.w.w.w.w.w.w.w.w.9.z.z.f.w.w.8.%.@.z.z.9.z.N.w.w.p.z.v.9.` G -.w.:.@.-.9.&.D L 9.w.w.w.w.w.w.w.w.f.w.z.z.3.0.N.w.w.w.w.w.w.w.w.w.w.w.w.w.w.w.w.w.w.w.w.w.w.w.w.w.w.w.w.w.w.w.w.w.w.w.w.w.w.w.w.w.w.w.w.w.w.w.w.w.w.w.w.w.w.w.w.w.w.w.w.w.w.w.w.w.f.w.w.w.w.w.w.w.w.w.w.w.w.w.w.w.w.w.w.w.w.w.w.w.w.w.w.w.w.w.w.w.w.w.w.w.w.w.w.w.w.w.w.w.w.w.w.w.w.w.w.w.w.w.w.w.w.w.w.w.w.w.w.w.w.w.w.w.w.w.w.w.w.w.w.w.w.w.w.w.w.w.w.w.f.z.z.z.+X*X&X+X&X*X+X+X@X@X@X@X%X%X%X%X@X@X@X@X%X%X%X%X*X&X+X&X*X*X&X*X+X{.z.w.w.e.w.9.w.w.w.w.w.w.w.w.w.w.w.w.w.w.w.w.w.w.w.w.w.w.w.w.",
"w.w.w.w.w.w.w.w.w.w.w.w.w.w.w.w.w.w.w.w.w.w.w.w.z.f.9.f.z.W.z.z.w.w.w.w.w.w.w.w.w.w.w.w.w.w.w.w.w.w.w.w.w.w.w.w.w.w.w.w.w.w.w.w.w.w.w.w.w.w.w.w.w.w.w.w.w.w.w.w.w.w.w.w.w.w.w.w.w.w.w.w.w.w.w.w.w.0.9.w.W.N.@.A b :.W.z.w.9.9.z.9.9.w.N.:.` L c D L S M S ' 3.[.w.w.w.w.w.w.w.w.z.w.w.3...@.9.w.w.w.w.w.w.w.w.w.w.f.f.f.f.w.w.w.w.w.w.w.w.w.w.w.w.w.w.w.w.w.w.w.w.w.w.w.w.w.w.w.w.w.w.w.w.w.w.w.w.w.w.w.w.w.w.w.w.w.w.w.w.w.w.w.w.w.w.w.w.w.w.w.w.w.w.w.w.w.w.w.w.w.w.w.w.w.w.w.w.w.w.w.w.w.w.w.w.w.w.w.w.w.w.w.w.w.w.w.w.w.w.w.w.w.w.w.w.w.w.w.w.w.w.w.w.w.w.w.w.w.w.w.w.w.w.w.w.w.w.w.w.w.w.w.w.w.w.w.f.f.z.z.0.p.0.0.f.z.f.p.t.t.t.t.p.p.p.p.t.t.t.t.p.p.p.p.9.f.N.e.0.w.e.w.z.w.9.9.w.z.f.w.w.w.w.w.w.w.w.w.w.w.w.w.w.w.w.w.w.w.w.w.w.w.w.w.",
"w.w.w.w.w.w.w.w.w.w.w.w.w.w.w.w.w.w.w.w.w.w.w.w.w.w.z.w.9.-.3.f.w.w.w.w.w.w.w.w.w.w.w.w.w.w.w.w.w.w.w.w.w.w.w.w.w.w.w.w.w.w.w.w.w.w.w.w.w.w.w.w.w.w.w.w.w.w.w.w.w.w.w.w.w.w.w.w.w.w.w.w.w.w.w.w.w.w.w.w.f.f.8.@.' 9.z.w.z.w.w.z.W.f.9.z.z.N.W.%.9.(.W.0.w.N.f.9.f.f.w.w.w.w.w.w.z.w.w.:.L Y 3.f.w.w.w.w.w.w.w.w.w.w.w.w.w.w.w.w.w.w.w.w.w.w.w.w.w.w.w.w.w.w.w.w.w.w.w.w.w.w.w.w.w.w.w.w.w.w.w.w.w.w.w.w.w.w.w.w.w.w.w.w.w.w.w.w.w.w.w.w.w.w.w.w.w.w.w.w.w.w.w.w.w.w.w.w.w.w.w.w.w.w.w.w.w.w.w.w.w.w.w.w.w.w.w.w.w.w.w.w.w.w.w.w.w.w.w.w.w.w.w.w.w.w.w.w.w.w.w.w.w.w.w.w.w.w.w.w.w.w.w.w.w.w.w.w.w.w.w.w.f.f.f.f.w.T.z.w.9.9.a.T.w.w.w.w.w.w.w.w.w.w.w.w.w.w.w.w.w.w.w.w.w.w.w.w.w.w.w.w.w.f.w.w.w.w.w.w.w.w.w.w.w.w.w.w.w.w.w.w.w.w.w.w.w.w.w.w.",
"w.w.w.w.w.w.w.w.w.w.w.w.w.w.w.w.w.w.w.w.w.w.w.w.9.9.W.0.3...:.w.w.w.w.w.w.w.w.w.w.w.w.w.w.w.w.w.w.w.w.w.w.w.w.w.w.w.w.w.w.w.w.w.w.w.w.w.w.w.w.w.w.w.w.w.w.w.w.w.w.w.w.w.w.w.w.w.w.w.w.w.w.w.w.w.9.z.W.w.9.0.W.[.W.{.w.3.z.W.z.w.9.9.9.w.9.z.v.@.>.9.0.w.N.N.w.e.f.f.f.w.w.w.w.w.w.w.z.3.Y ' 3.z.w.w.w.w.w.w.w.w.w.w.w.w.w.w.w.w.w.w.w.w.w.w.w.w.w.w.w.w.w.w.w.w.w.w.w.w.w.w.w.w.w.w.w.w.w.w.w.w.w.w.w.w.w.w.w.w.w.w.w.w.w.w.w.w.0.0.w.w.w.w.w.w.w.w.w.w.w.w.w.w.w.w.w.w.w.w.w.w.w.w.w.w.w.w.w.w.w.w.w.w.w.w.w.w.w.w.w.w.w.w.w.w.w.w.w.w.w.w.w.w.w.w.w.w.w.w.w.w.w.w.w.w.w.w.w.w.w.w.w.w.w.w.w.w.f.f.w.w.w.w.w.w.Y.w.a.f.p.z.T.w.e.e.e.e.e.e.e.e.e.e.e.e.e.e.e.e.T.9.9.z.W.z.w.w.z.z.z.z.z.w.w.w.w.w.w.w.w.w.w.w.w.w.w.w.w.w.w.w.w.w.w.w.w.w.w.w.",
"w.w.w.w.w.w.w.w.w.w.w.w.w.w.w.w.w.w.w.w.w.w.w.w.v.9.w.9.W.9.w.z.w.w.w.w.w.w.w.w.w.w.w.w.w.w.w.w.w.w.w.w.w.w.w.w.w.w.w.w.w.w.w.w.w.w.w.w.w.w.w.w.w.w.w.w.w.w.w.w.w.w.w.w.w.w.w.w.w.w.w.w.w.w.w.w.0.w.w.w.w.f.f.w.0.z.z.w.w.w.w.w.w.W.W.W.p.f.p...N.z.w.w.w.9.9.f.w.p.w.w.w.w.w.w.w.w.f.>.Y ` 9.z.w.w.w.w.w.w.w.w.w.9.9.9.0.w.w.w.w.w.w.w.w.w.w.w.w.w.w.w.w.w.w.w.w.w.w.w.w.w.w.w.w.w.w.w.w.w.w.w.w.w.w.w.w.w.w.w.w.w.w.w.w.w.w.0.9.9.9.9.0.w.w.w.w.w.w.w.w.w.w.w.w.w.w.w.w.w.w.w.w.w.w.w.w.w.w.w.w.w.w.w.w.w.w.w.w.w.w.w.w.w.w.w.w.w.w.w.w.w.w.w.w.w.w.w.w.w.w.w.w.w.w.w.w.w.w.w.w.w.w.w.w.w.w.w.f.f.f.w.w.w.w.w.z.p.f.f.9.0.v.p.9.9.9.9.9.9.9.9.9.9.9.9.9.9.9.9.N.N.e.9.9.f.N.z.0.w.w.w.w.w.f.z.w.w.w.w.w.w.w.w.w.w.w.w.w.w.w.w.w.w.w.w.w.w.w.w.",
"w.w.w.w.w.w.w.w.w.w.w.w.w.w.w.w.w.w.w.w.w.w.w.w.N.w.w.w.z.w.z.z.w.w.w.w.w.w.w.w.w.w.w.w.w.w.w.w.w.w.w.w.w.w.w.w.w.w.w.w.w.w.w.w.w.w.w.w.w.w.w.w.w.w.w.w.w.w.w.w.w.w.w.w.w.w.w.w.w.w.w.w.w.w.w.w.z.w.0.w.f.f.0.9.9.w.z.z.w.0.w.z.f.w.9.9.3.w.N.%.%.0.f.w.z.z.f.w.w.w.w.w.w.w.0.0.w.9.9.%.L ' 3.0.9.9.9.9.9.9.9.9.9.9.9.9.9.0.w.w.w.w.w.w.w.w.w.w.w.w.w.w.w.w.w.w.w.w.w.w.w.w.w.w.w.w.w.w.w.w.w.w.w.w.w.w.w.w.w.w.w.w.w.w.w.w.0.9.9.9.9.9.9.0.w.w.w.w.w.w.w.w.w.w.w.w.w.w.w.w.w.w.w.w.w.w.w.w.w.w.w.w.w.w.w.w.w.w.w.w.w.w.w.w.w.w.w.w.w.w.w.w.w.w.w.w.w.w.w.w.w.w.w.w.w.w.w.w.w.w.w.w.w.w.w.w.w.w.f.f.f.w.w.w.w.w.>.9.0.] f j @.f.e.e.e.e.e.e.e.e.e.e.e.e.e.e.e.e.8.f.=.m h ) 9.0.w.w.w.w.w.w.f.z.w.w.w.w.w.w.w.w.w.w.w.w.w.w.w.w.w.w.w.w.w.w.w.w.",
"w.w.w.w.w.w.w.w.w.w.w.w.w.w.w.w.w.w.w.w.w.w.w.w.w.f.f.z.9.9.9.w.w.w.w.w.w.w.w.w.w.w.w.w.w.w.w.w.w.w.w.w.w.w.w.w.w.w.w.w.w.w.w.w.w.w.w.w.w.w.w.w.w.w.w.w.w.w.w.w.w.w.w.w.w.w.w.w.w.w.w.w.w.w.w.w.z.z.f.w.0.w.f.N.W.f.w.w.w.f.z.p.z.w.w.N.z.v.z.X.9.W.N.9.9.f.e.w.w.w.w.w.0.0.9.9.w.9.9.%.L ` >.9.9.9.9.9.9.9.9.9.9.9.9.9.9.0.w.w.w.w.w.w.w.w.w.w.w.w.w.w.w.w.w.w.w.w.w.w.w.w.w.w.w.w.w.w.w.w.w.w.w.w.w.w.w.w.w.w.w.w.w.w.w.w.9.9.9.9.9.9.9.0.0.w.w.w.w.w.w.w.w.w.w.w.w.w.w.w.w.w.w.w.w.w.w.w.w.w.w.w.w.w.w.w.w.w.w.w.w.w.w.w.w.w.w.w.w.w.w.w.w.w.w.w.w.w.w.w.w.w.w.w.w.w.w.w.w.w.w.w.w.w.w.w.w.w.w.w.w.w.w.w.w.w.f.v./.-.n A >.{.w.w.w.w.w.w.w.w.w.w.w.w.w.w.w.w.z.(.6.K C @.z.W.z.z.f.w.w.w.w.w.w.w.w.w.w.w.w.w.w.w.w.w.w.w.w.w.w.w.w.w.w.w.w.w.",
"w.w.w.w.w.w.w.w.w.w.w.w.w.w.w.w.w.w.w.w.w.w.w.w.w.f.9.z.w.{.z.w.w.w.w.w.w.w.w.w.w.w.w.w.w.w.w.w.w.w.w.w.w.w.w.w.w.w.w.w.w.w.w.w.w.w.w.w.w.w.w.w.w.w.w.w.w.w.w.w.w.w.w.w.w.w.w.w.w.w.w.w.w.w.w.w.w.w.w.f.f.e.e.e.w.9.w.z.f.w.w.0.f.w.0.z.w.w.p.@.9.w.z.w.z.z.w.z.w.w.w.9.0.9.9.9.9.9.w.:.` ..3.0.9.9.9.9.9.9.9.9.0.9.9.9.9.0.w.w.w.w.w.w.w.w.w.w.w.w.w.w.w.w.w.w.w.w.w.w.w.w.w.w.w.w.w.w.w.w.w.w.w.w.w.w.w.w.w.w.w.w.w.w.w.w.9.9.9.9.9.9.9.0.0.w.w.w.w.w.w.w.w.w.w.w.w.w.w.w.w.w.w.w.w.w.w.w.w.w.w.w.w.w.w.w.w.w.w.w.w.w.w.w.w.w.w.w.w.w.w.w.w.w.w.w.w.w.w.w.w.w.w.w.w.w.w.w.w.w.w.w.w.w.w.w.w.w.w.w.w.w.w.f.f.f.a.3.0.N.z.{.{.3.f.f.f.f.f.f.f.f.f.f.f.f.f.f.f.f.w.w.w.t.V.N.e.w.w.w.w.w.f.f.w.w.w.w.w.w.w.w.w.w.w.w.w.w.w.w.w.w.w.w.w.w.w.w.w.w.",
"w.w.w.w.w.w.w.w.w.w.w.w.w.w.w.w.w.w.w.w.w.w.w.w.w.f.z.w.w.G 9.z.w.w.w.w.w.w.w.w.w.w.w.w.w.w.w.w.w.w.w.w.w.w.w.w.w.w.w.w.w.w.w.w.w.w.w.w.w.w.w.w.w.w.w.w.w.w.w.w.w.w.w.w.w.w.w.w.w.w.w.w.w.w.w.w.w.w.w.w.w.w.w.w.w.w.w.w.w.w.w.w.w.0.w.w.z.w.z.@.9.w.w.w.e.w.w.w.f.w.w.0.9.9.0.9.9.9.9.9.0.9.9.w.9.9.9.9.9.9.9.9.9.9.9.9.9.9.0.0.w.w.w.w.w.w.w.w.e.e.e.e.w.w.w.w.p.p.p.p.p.w.p.p.e.e.e.e.w.w.w.w.e.e.e.e.e.e.w.w.e.e.e.e.w.0.9.9.0.w.9.9.9.9.9.0.w.w.f.z.z.f.w.w.w.w.w.w.w.w.w.w.f.w.w.w.w.w.9.9.w.w.w.w.w.w.w.f.f.w.w.w.w.w.w.w.0.w.w.w.w.w.f.f.w.w.w.f.w.w.w.w.z.z.z.f.w.w.w.w.w.w.w.w.w.f.f.z.w.w.w.w.w.w.w.w.w.w.w.w.w.w.w.w.w.w.w.w.w.w.w.w.w.w.w.w.w.w.w.w.e.w.w.w.w.w.w.w.w.w.w.w.w.w.w.w.w.w.w.w.w.w.w.w.w.w.w.w.w.w.w.w.w.w.w.w.w.w.w.w.",
"w.w.w.w.w.w.w.w.w.w.w.w.w.w.w.w.w.w.w.w.w.w.w.w.w.0.9.9.z.@.w.w.w.w.w.w.w.w.w.w.w.w.w.w.w.w.w.w.w.w.w.w.w.w.w.w.w.w.w.w.w.w.w.w.w.w.w.w.w.w.w.w.w.w.w.w.w.w.w.w.w.w.w.w.w.w.w.w.w.w.w.w.w.w.w.w.w.w.w.w.w.w.w.w.w.w.w.w.w.w.w.w.w.0.w.w.z.w.z.@.3.w.w.w.f.w.w.w.w.w.w.9.9.9.9.9.w.9.w.f.w.0.9.9.0.0.0.0.w.w.9.0.9.9.0.w.0.0.w.w.w.w.w.w.w.w.w.w.p.f.f.f.w.w.w.w.w.w.w.w.w.w.w.w.f.f.e.z.p.f.p.p.w.w.w.w.w.w.w.w.f.p.f.f.w.w.9.9.9.9.9.9.9.w.0.9.9.w.w.f.f.f.w.w.w.w.w.w.w.w.w.w.w.w.w.f.z.z.z.z.z.z.z.f.w.w.w.w.w.w.w.w.f.z.z.z.z.z.z.z.f.w.w.w.w.w.w.f.w.w.w.w.w.w.w.f.w.z.z.z.z.z.p.w.w.w.w.0.w.w.w.w.w.w.w.w.w.w.w.w.w.w.w.w.w.w.w.w.w.w.w.w.w.w.w.w.w.w.w.w.w.w.w.w.w.w.w.w.w.w.w.w.w.w.w.w.w.w.w.w.w.w.w.w.w.w.w.w.w.w.w.w.w.w.w.w.w.w.w.w.",
"w.w.w.w.w.w.w.w.w.w.w.w.w.w.w.w.w.w.w.w.w.w.w.w.w.w.0.9.z.w.z.w.w.w.w.w.w.w.w.w.w.w.w.w.w.w.w.w.w.w.w.w.w.w.w.w.w.w.w.w.w.w.w.w.w.w.w.w.w.w.w.w.w.w.w.w.w.w.w.w.w.w.w.w.w.w.w.w.w.w.w.w.w.w.w.w.w.w.w.w.w.w.w.w.w.w.w.w.w.w.w.w.w.w.f.w.z.w.z.@.8.w.w.w.f.f.w.w.w.w.w.9.9.9.9.9.4.3.9.9.9.9.9.9.9.9.9.9.9.9.9.9.9.9.9.9.9.9.9.w.w.w.w.w.w.w.w.w.w.w.w.w.w.w.w.w.w.w.w.w.w.w.w.w.w.w.w.w.w.w.w.w.w.w.w.w.w.w.w.w.w.w.w.w.9.9.9.9.0.9.9.9.w.w.9.9.9.9.w.w.f.f.e.w.w.w.w.w.w.w.w.w.w.w.w.w.w.0.9.9.9.0.w.w.e.z.z.z.z.z.z.f.w.w.9.9.9.9.9.0.w.w.w.w.w.w.w.w.w.w.w.w.f.f.w.w.w.0.9.9.9.9.9.0.w.w.f.z.w.w.w.w.w.w.w.w.w.w.w.w.w.w.w.w.w.w.w.w.w.w.w.w.w.w.w.w.w.w.w.w.w.w.w.w.w.w.w.w.w.w.w.w.w.w.w.w.w.w.w.w.w.w.w.w.w.w.w.w.w.w.w.w.w.w.w.w.w.w.w.w.",
"w.w.w.w.w.w.w.w.w.w.w.w.w.w.w.w.w.w.w.w.w.w.w.w.9.w.W.w.0.z.w.w.w.w.w.w.w.w.w.w.w.w.w.w.w.w.w.w.w.w.w.w.w.w.w.w.w.w.w.w.w.w.w.w.w.w.w.w.w.w.w.w.w.w.w.w.w.w.w.w.w.w.w.w.w.w.w.w.w.w.w.w.w.w.w.w.w.w.w.w.w.w.w.w.w.w.w.w.w.w.w.w.w.w.f.w.z.w.z.@.9.w.w.w.f.f.w.w.w.w.w.0.0.0.0.0.w.0.9.9.9.9.9.w.9.9.9.9.9.9.9.w.9.w.w.w.9.w.w.w.z.z.z.z.z.z.z.z.z.z.z.z.z.z.z.z.e.e.e.e.e.e.e.e.z.z.z.z.z.z.z.a.z.z.z.z.z.z.z.z.w.w.z.z.w.w.9.w.9.9.9.0.w.9.9.9.0.9.w.w.f.f.f.e.w.w.w.w.w.w.w.w.w.w.w.f.z.z.z.N.w.w.w.w.w.w.0.9.9.0.w.w.w.f.f.f.z.z.z.z.f.w.w.w.w.w.w.w.w.w.w.w.w.w.w.w.z.z.z.z.w.e.w.w.w.0.9.9.w.w.w.w.w.w.w.w.w.w.w.w.w.w.w.w.w.w.w.w.w.w.w.w.w.w.w.w.w.w.w.w.w.w.w.w.w.w.w.w.w.w.w.w.w.w.w.w.w.w.w.w.w.w.w.w.w.w.w.w.w.w.w.w.w.w.w.w.w.w.w.w.",
"w.w.w.w.w.w.w.w.w.w.w.w.w.w.w.w.f.f.f.f.p.w.f.f.9.w.N.w.9.z.w.w.f.f.f.f.f.f.f.f.w.w.w.w.w.w.w.w.w.w.w.w.w.w.w.w.w.w.w.w.w.w.w.w.w.w.w.w.w.w.w.w.w.w.w.w.w.w.w.w.w.w.w.w.w.w.w.w.w.w.w.w.w.w.w.w.w.w.w.w.w.w.w.w.w.w.w.w.w.w.w.w.f.w.f.w.z.w.z.@.9.w.w.w.f.f.w.w.w.w.w.w.w.w.w.w.w.w.0.9.3.9.9.9.9.9.9.9.9.9.9.9.9.9.9.9.4.4.9.9.w.w.9.9.9.9.w.w.w.w.w.w.w.w.w.w.9.9.9.9.9.9.9.9.w.w.w.w.w.w.w.w.w.w.w.w.w.9.9.9.9.w.w.w.w.9.9.9.9.9.9.9.9.4.9.w.9.9.9.w.w.w.w.e.w.w.w.w.w.w.w.w.f.f.w.w.w.w.w.w.w.w.f.z.z.z.z.w.f.z.z.z.z.z.f.f.w.w.w.w.w.f.f.f.f.f.w.w.w.w.f.f.w.w.0.0.w.w.0.9.f.z.z.z.z.z.z.z.w.w.w.w.w.w.w.w.w.w.w.w.w.w.w.w.w.w.w.w.w.w.w.w.w.w.w.w.w.w.w.w.w.w.w.w.w.w.w.w.w.w.w.w.w.w.w.w.w.w.w.w.w.w.w.w.w.w.w.w.w.w.w.w.w.w.w.w.w.w.w.w.",
"w.w.w.w.w.w.w.w.w.w.w.w.w.w.w.w.w.w.w.w.w.w.w.w.z.w.w.w.z.f.z.w.w.w.w.w.w.w.w.w.w.w.w.w.w.w.w.w.w.w.w.w.w.w.w.w.w.w.w.w.w.w.w.w.w.w.w.w.w.w.w.w.w.w.w.w.w.w.w.w.w.w.w.w.w.w.w.w.w.w.w.w.w.w.w.w.w.w.w.w.w.w.w.w.w.w.w.w.w.w.w.w.f.w.f.w.z.w.z.@.9.w.w.w.f.f.w.w.w.w.w.w.w.w.w.w.3.9.9.9.9.w.w.9.9.9.9.9.0.9.9.9.9.0.w.9.0.9.w.p.f.f.p.p.p.p.z.z.f.f.f.f.f.f.p.p.z.z.z.z.z.z.z.z.f.f.p.p.f.f.f.f.f.f.f.f.f.f.p.p.p.p.f.f.f.p.w.0.f.w.w.w.w.3.3.9.9.9.9.9.w.w.w.w.w.w.w.w.w.w.w.w.f.f.w.w.w.9.9.9.3.3.9.9.9.9.9.9.9.9.9.9.9.9.9.3.0.0.w.w.w.f.z.z.0.0.9.9.9.9.0.0.z.f.w.w.w.w.w.9.3.9.9.9.9.9.9.9.w.w.w.w.w.w.w.w.w.w.w.w.w.w.w.w.w.w.w.w.w.w.w.w.w.w.w.w.w.w.w.w.w.w.w.w.w.w.w.w.w.w.w.w.w.w.w.w.w.w.w.w.w.w.w.w.w.w.w.w.w.w.w.w.w.w.w.w.w.w.w.w.",
"w.w.w.w.w.w.w.w.w.w.w.w.w.w.w.w.w.w.w.w.w.w.w.w.z.w.9.w.z.%.w.w.w.w.w.w.w.w.w.w.w.w.w.w.w.w.w.w.w.w.w.w.w.w.w.w.w.w.w.w.w.w.w.w.w.w.w.w.w.w.w.w.w.w.w.w.w.w.w.w.w.w.w.w.w.w.w.w.w.w.w.w.w.w.w.w.w.w.w.w.w.w.w.w.w.w.w.w.w.w.w.w.e.w.p.w.z.w.z.@.3.w.w.w.e.f.w.w.w.w.w.w.w.w.w.w.w.w.w.9.9.9.9.9.9.9.9.9.9.9.9.9.4.9.9.9.9.9.9.9.0.0.0.0.0.0.0.0.0.0.0.0.9.9.9.9.0.0.0.0.0.0.0.0.9.9.9.9.9.9.9.9.0.0.0.0.0.0.0.0.9.9.9.9.9.9.9.9.9.:.3.9.f.9.9.9.0.0.0.w.w.w.w.w.w.w.w.w.w.w.w.w.9.0.w.z.W.{.{. X+X+X+X+X X{.W.z.z.N.W.[..X+X+X$X X[.{.W.z.w.0.9.+X+X+X X X+X+X+Xw.w.w.z.{. X X X$X$X+X.X[.{.N.z.w.w.w.w.w.w.w.w.w.w.w.w.w.w.w.w.w.w.w.w.w.w.w.w.w.w.w.w.w.w.w.w.w.w.w.w.w.w.w.w.w.w.w.w.w.w.w.w.w.w.w.w.w.w.w.w.w.w.w.w.w.w.w.w.w.w.w.w.w.w.w.w.",
"w.w.w.w.w.w.w.w.w.w.w.w.w.w.w.w.9.9.9.9.9.9.9.9.9.9.0.9.9.S :.9.9.9.9.9.9.9.9.9.9.9.9.9.9.9.9.9.9.9.9.9.9.9.9.9.9.9.9.9.9.9.9.9.9.9.9.9.9.9.9.9.w.w.w.w.w.w.w.w.w.w.w.w.w.w.w.w.w.w.w.w.w.w.w.w.w.w.w.w.w.w.w.w.w.w.w.w.w.w.w.w.e.w.f.w.z.w.z.@.3.w.w.w.e.e.w.w.w.w.w.w.w.w.w.w.w.9.-.` L Y Y L Y Y Y Y Y Y Y Y P P Y Y P P Y / Y Y P P P P Y Y Y Y Y Y Y Y Y Y P P P P P P P P Y Y Y Y Y Y Y Y P P Y Y Y Y P Y Y Y Y Y Y Y Y P Y L Y :.w.z.w.w.w.w.w.w.w.f.f.f.w.w.w.w.w.w.w.w.z.f.w.w.w.0.9.9.:.>.3.9.0.w.w.w.9.0.9.9.9.3.3.:.9.9.9.w.w.w.f.w.9.9.9.3.3.8.9.9.z.w.0.0.w.w.9.4.3.3.8.9.0.w.w.w.w.w.w.w.w.w.w.w.w.w.w.w.w.w.w.w.w.w.w.w.w.w.w.w.w.w.w.w.w.w.w.w.w.w.w.w.w.w.w.w.w.w.w.w.w.w.w.w.w.w.w.w.w.w.w.w.w.w.w.w.w.w.w.w.w.w.w.w.w.w.w.w.",
"w.w.w.w.w.w.w.w.w.w.w.w.w.w.w.9.9.9.9.9.9.9.9.9.9.9.4.9.w.z.w.9.9.9.w.w.9.9.9.w.w.w.w.w.w.w.w.w.w.w.w.w.w.w.w.w.w.w.w.w.w.w.w.w.w.w.w.w.w.w.w.w.w.w.w.w.w.w.w.w.w.w.w.w.w.w.w.w.w.w.w.w.w.w.w.w.w.w.w.w.w.w.w.w.w.w.w.w.w.w.w.w.w.z.9.9.p.N.w.@.9.w.w.w.f.f.w.w.9.9.3.z.w.W.0.0.6.0.@.9.+X{.{. X[.[.[.[.[.[.[.[.{.[.{.{.f.9.u.Z.+X:.Z.f.Z.[./.[.V.t.>.| t.R.D.U.|.|.|.|.|.|.|.|.U.#Xe.0.| t.7.Z.{.{.[.{.f.{.>.+XS.=.t.t.V.+X{.+X'.+X0.' w.w.9.z.w.w.0.w.w.w.w.f.z.w.0.f.p.9.9.f.w.0.f.z.9...D M M M M M S T :.e.W.3.` G M M M M M S ..3.z.z.z.9.N N N N M M N N $.8.e.9.%.Y S N M M N N L $.9.R.w.w.w.w.w.w.w.w.w.w.w.w.w.w.w.w.w.w.w.w.w.w.w.w.w.w.w.w.w.w.w.w.w.w.f.f.w.w.w.w.w.w.w.w.w.w.w.w.z.e.w.w.w.w.w.9.w.w.w.w.w.w.w.w.w.w.w.w.w.w.w.w.",
"w.w.w.w.w.w.w.w.w.w.w.w.w.w.w.9.0.w.9.9.9.3.4.9.4.w.z.w.9.9.9.9.9.8.9.9.9.9.w.w.w.w.w.w.w.w.w.w.w.w.w.w.w.w.w.w.w.w.w.w.w.w.w.w.w.w.w.w.w.w.w.w.w.w.w.w.w.w.w.w.w.w.w.w.w.w.w.w.w.w.w.w.w.w.w.w.w.w.w.w.w.w.w.w.w.w.w.w.w.w.w.w.w.w.9.v.z.w.w.%.3.w.w.w.f.f.w.w.N.W.z.W.9.9.v.{.N.@.-.N.z.f.z.w.f.f.f.f.f.f.f.f.v.9.9.0.' r f 9.f.L *.@.:.p.4.0.' n s 5 C P <.J.K.K.P.I.I.L.K.K.H.5.Y S 9 g j ' 9.:.9.>.@.@.D Z.=.s f K :.N.9.0.f.0.{.9.' N.z.w.z.z.z.z.z.f.f.z.0.w.w.w.p.z.z.f.z.w.z.W.N.w.9.0.9.9.9.9.9.9.z.W.W.z.9.9.9.w.w.9.w.9.w.T.z.w.w.9.e.e.e.e.w.e.e.e.9.z.W.R.e.9.9.9.e.e.e.9.9.w.e.e.z.z.z.z.z.z.z.z.z.z.z.z.z.z.z.z.z.z.z.z.z.z.z.z.z.z.z.z.z.z.z.z.f.f.f.f.w.w.w.w.z.z.z.z.z.z.z.z.w.w.w.z.z.z.W.W.w.w.w.w.w.w.w.w.w.w.w.w.w.w.w.w.",
"w.w.w.w.w.w.w.w.w.w.w.w.w.w.w.9.9.9.0.0.w.w.w.z.3.4.9.3.9.w.w.3.z.w.9.9.9.9.9.9.w.w.w.w.w.w.w.w.w.w.w.w.w.w.w.w.w.w.w.w.w.w.w.w.w.w.w.w.w.w.w.w.w.w.w.w.w.w.w.w.w.w.w.w.w.w.w.w.w.w.w.w.w.w.w.w.w.w.w.w.w.w.w.w.w.w.w.w.w.w.w.w.w.w.z./.w.0.f.@.8.w.w.w.f.f.w.w.w.9.9.z.f.9.{.9.>.' w.N.9.f.9.9.0.0.0.0.0.0.0.0.p.w.N.0.] b f 9.{.A @.] -.p.:.9.@.A j 5 C ' :.&.1.Q Q Q Q Q Q Q E +.' S 9 g C @.p.:.0.-.@.] A [.t.j n ' :.9.9.W.9.w.0.{.' @.[.8.9.w.w.w.w.9.9.9.0.z.z.0.9.z.z.w.w.9.9.0.w.w.z.W.w.z.W.W.T.w.w.9.9.0.w.z.W.W.z.z.T.w.w.z.w.w.W.T.e.e.e.e.e.e.e.e.e.9.9.9.9.w.z.R.e.e.G.e.e.z.e.e.w.w.w.w.w.w.w.w.w.w.w.w.w.w.w.w.w.w.w.w.w.w.w.w.w.w.w.w.w.w.w.w.w.w.w.w.w.w.w.w.w.w.w.w.w.w.w.w.w.e.z.w.0.9.9.9.w.w.w.w.w.w.w.w.w.w.w.w.w.w.w.w.",
"w.w.w.w.w.w.w.w.w.w.w.w.w.w.w.9.9.9.9.9.9.3.3.3.f.9.9.0.w.w.w.w.>.3.3.3.9.0.0.9.w.w.w.w.w.w.w.w.w.w.w.w.w.w.w.w.w.w.w.w.w.w.w.w.w.w.w.w.w.w.w.w.w.w.w.w.w.w.w.w.w.w.w.w.w.w.w.w.w.w.w.w.w.w.w.w.w.w.w.w.w.w.w.w.w.w.w.w.w.w.w.w.z.w.3...G %.W.@.3.w.w.w.f.f.w.w.f.w.9.w.v.9.f.P D 8.{.9.w.N.9.z.f.f.f.f.f.f.f.f.z.w.>.A n n n 0.+XS @.@.-.v.4.0.+.A n : B / ' 8 p u 6 6 6 u u q 2 A ] C 9 n L ..w.:.p.@.@.X.A [.9.a t ` 3.f.w.w.w.!.9.N.N.Y 9.0.w.w.w.w.w.w.p.w.z.z.z.w.9.w.w.w.z.w.w.w.w.9.0.w.9.9.0.w.w.w.w.w.w.w.e.e.w.9.9.9.f.9.w.w.9.0.w.9.w.w.0.0.0.0.w.w.z.f.w.w.w.w.w.w.w.e.w.w.w.w.w.w.w.w.w.w.w.w.w.w.w.w.w.w.w.w.w.w.w.w.w.w.w.w.w.w.w.w.w.w.w.w.w.w.e.e.f.w.f.z.z.z.w.w.w.w.w.w.w.w.w.f.z.z.z.z.z.z.w.w.w.w.w.w.w.w.w.w.w.w.w.w.w.w.",
"w.w.w.w.w.w.w.w.w.w.w.w.w.w.0.9.9.9.9.0.e.f.w.0.0.9.0.w.:...@.p.9.w.e.w.0.w.0.9.w.w.w.w.w.w.w.w.f.f.f.f.f.w.w.w.w.w.w.w.w.w.w.w.w.w.w.w.w.w.w.w.w.w.w.w.w.w.w.w.w.w.w.w.w.w.w.w.w.w.w.w.w.w.w.w.w.w.w.w.w.w.w.w.w.w.w.w.w.w.w.w.9.z.{.W.9.W.{.` 9.w.w.w.p.p.w.w.w.N.W.9.w.9.W.@.' (.(.9.w.w.e.w.f.f.f.f.e.e.f.f.w.9.z.-.' b t >.N.B X.' -.p.3.9...A n : C ] | r 9 9 w i a a 9 5 7 D | A r B L ' 9.-.f.@.-.-.P v.4.S S @.9.f.f.w.W.9.{.9.[.0.I t.v.v.z.w.z.W.v.z.w.9.9.z.z.w.w.w.w.w.z.z.z.f.w.w.z.z.w.w.f.z.z.z.z.z.z.f.e.e.f.z.z.w.z.z.w.w.f.9.z.z.z.z.z.z.z.z.w.w.f.z.z.z.w.w.z.z.f.w.w.w.f.z.w.w.w.w.w.w.w.w.w.w.w.w.w.w.w.w.w.w.w.w.w.w.w.w.w.w.w.w.w.w.w.w.w.w.w.w.w.f.f.z.w.w.w.w.w.w.w.w.z.w.w.w.w.w.w.9.w.w.w.w.w.w.w.w.w.w.w.w.w.w.w.w.",
"w.w.w.w.w.w.w.w.w.w.w.w.w.w.0.9.9.9.9.0.w.w.0.9.f.9.9.w.3.@.-.f.9.0.9.9.9.w.w.9.0.0.9.9.9.9.0.0.0.0.0.0.0.0.9.9.9.9.9.9.0.0.0.0.9.9.9.9.0.0.0.0.w.w.w.w.w.w.w.w.w.w.w.w.w.w.w.w.w.w.w.w.w.w.w.w.w.w.w.w.w.w.w.w.w.w.w.w.w.w.w.w.W.w.9.w.4.9.z.@.9.w.w.w.p.p.0.w.9.w.z.9.v.N.0.%.N.f.9.N.9.9.{.9.w.w.w.w.w.w.w.w.z.w.w.:.' A A f.N.' -.@.9.w.9.w.:.T ' g ' @.:.| @.@.@.-.>.:.&.@.-.>.0.-.@.:.>.0.p.9.W.3.w.f.>.N.v.w.0.0.3.>.4.9.:.%.9.0.0.[.@.@.@.%.@.X.X.%.@...:.%.:.w.N.f.0.w.9.9.0.w.w.w.w.w.w.w.w.w.w.w.w.w.9.0.w.e.e.e.e.f.w.0.w.f.w.v.W.w.w.w.w.w.w.w.w.w.w.w.z.f.w.w.w.z.9.9.w.f.z.z.z.z.f.w.w.f.f.f.f.f.f.f.f.f.f.f.f.f.f.w.w.f.f.f.f.f.f.f.f.f.f.f.f.f.w.w.w.w.f.w.w.w.f.w.w.f.f.f.f.f.z.f.w.w.f.z.z.z.w.w.w.w.w.w.p.w.w.w.w.w.w.w.w.w.",
"w.w.w.w.w.w.w.w.w.w.w.w.w.w.0.9.f.w.9.%.' L L L Y H D L Y P L Y G L L P @.9.f.0.9.9.9.9.9.9.9.9.9.9.9.9.9.9.9.9.9.9.9.9.9.9.9.9.9.9.9.9.9.9.9.9.w.w.w.w.w.w.w.w.w.w.w.w.w.w.w.w.w.w.w.w.w.w.w.w.w.w.w.w.w.w.w.w.w.w.w.w.w.w.w.w.z.w.w.W.N.f.w.%.9.w.w.w.p.p.w.w.W.w.w.w.N.f.Y @.[.9.9.N.w.w.W.w.w.w.w.w.w.w.w.w.9.f.z.z.z.w.4.w.(.0.f.9.W.f.w.z.W.e.e.&.N.f.f.N.f.u.y.y.f.f.u.Z.f.9.f.e.N.W.f.N.e.9.N.9.z.f.v.v.9.3.' Y @.@.' Y ' @.` 9.9.N.N.` :.9.w.9.9.0.w.9.:.-.%.:.w.f.w.9.z.z.w.w.w.f.f.w.w.w.w.f.f.f.f.f.w.w.w.f.f.w.w.w.N.f.w.w.0.w.9.%.@.@.@.@.@.@.@.@.@.@.@.@.@.@.@.@.%.@.@.@.@...' ' +.+.@.@.@.@.@.@.@.@...+.@.@.@.@.+.+.@.@.@.@.@.@.@.@.+.@.@.@.@.@...@.@.@.@.@.....+.+.@.@.@.@.@.@.` ..@.@.%.:.9.z.w.w.w.w.w.w.w.w.w.w.w.w.w.w.w.w.",
"w.w.w.w.w.w.w.w.w.w.w.w.w.w.0.9.9.9.>.+.L A A G n S G S A D D S L G A S ' 9.w.9.w.w.w.w.w.w.w.w.w.w.w.w.w.w.w.w.w.w.w.w.w.w.w.w.w.w.w.w.w.w.w.w.w.w.w.w.w.w.w.w.w.w.w.w.w.w.w.w.w.w.w.w.w.w.w.w.w.w.w.w.w.w.w.w.w.w.w.w.w.w.w.w.9.N.w.0.w.f.p.%.9.w.w.w.f.p.w.w.f.9.w.f.w.9.` OXw.z.W.0.W.W.3.z.w.w.w.w.w.w.w.w.R.z.9.w.w.p.N.N.9.f.f.9.W.w.w.z.w.f.9.+.9.N.9.e.9.e.G.G.G.e.9.9.9.9.R.9.9.e.w.p.N.8.f.w.z.0.{.z.f.W.=.' | ' ' @.' ) @.@.z.z.z.3.@.9.z.f.0.p.z.z.W.f.3.%.3.z.N.w.w.w.w.w.w.w.w.9.f.f.f.e.0.0.w.e.z.w.w.w.w.w.w.w.e.0.e.f.f.f.9.@.9.9.0.0.0.9.0.9.w.0.0.w.f.z.p.0.z.w.0.p.p.0.w.z.w.w.w.w.w.w.w.w.w.w.w.w.w.w.w.w.w.w.w.w.w.w.w.w.w.w.w.w.w.w.w.w.z.N.W.W.W.N.z.f.w.w.w.w.w.w.w.w.w.z.z.0.>.:.9.z.w.w.w.w.w.w.w.w.w.w.w.w.w.w.w.w.",
"0.0.9.3.N.z.>.0.9.9.p.4.9.p.9.0.>.0.@.A f L r Y g S j j K w K a P f S j K 7.@.0.0.0.0.0.0.0.0.0.0.t.0.0.t.f.0.f.0.0.0.0.0.0.0.0.0.t.0.f.>.t.0.0.0.0.0.0.0.0.0.0.0.0.0.0.0.0.0.0.0.0.0.0.0.0.0.0.0.f.f.0.0.f.f.0.w.w.w.w.w.w.e.e.9.W.f.0.0.p.p.%.9.9.0.0.0.0.0.0.0.f.f.9.:.:.9.v.9.z.f.:.@.9.z.z.w.w.w.w.w.f.f.f.w.w.w.w.z.W.9.%.3.9.w.f.f.w.w.w.w.z.9.@.z.w.w.w.f.z.9.@.%.w.W.w.w.w.w.w.w.w.w.w.w.w.w.z.N.w.>.@.w.e.0.%.` ' @.' ' ' ' @.&.0.N.z.#.| N.w.9.!.3.N.w.w.z.w.0.9.9.w.0.0.0.0.0.0.0.0.0.0.0.0.0.0.0.0.w.w.w.w.0.w.0.w.w.0.w.w.9.>.:.9.z.W.9.w.N.3.{.>.9.>.>.0.0.>.>.9.>.9.:.9.9.>.9.>.9.9.9.9.9.9.9.9.>.>.9.9.9.9.>.>.>.>.>.>.>.>.>.>.>.>.>.9.9.9.9.4.P a n f n n =.7.>.>.>.>.>.>.>.>.-.9.9.-.9.] :.0.0.0.p.9.9.p.9.p.9.N.3.f.w.w.:.0.",
"K K ' ' A Y ) ' ' Y ' ' ' Y A Y ' Y D A A ' b L g P s a w C P C D b D n A / A P P P P P Y Y Y Y Y C t t A Y Y Y Y Y Y Y Y Y Y Y L P L Y A L L L Y Y Y Y Y Y Y Y Y Y Y Y Y Y Y Y Y Y Y Y Y Y Y Y L L Y ' Y L L Y Y Y Y Y Y Y Y Y L P D Y ' Y L n L L P Y Y Y Y Y ` L H P ..>.w.v.9.f.w.3.:.9.w.w.w.w.w.w.w.w.w.w.0.w.9.9.9.0.:.@.9.0.w.f.w.w.w.w.w.z.9.%.z.w.w.f.w.w.9.:.>.w.z.w.w.w.w.w.w.w.w.w.z.z.w.w.0.3.@.' z.f.e.3.X.' ' ' } ' ' ' ..-.0.f.t.' 9.z.w.w.W.0.z.z.w.9.:.@.@.@.@.@.@.@.@.@.@.@.@.@.@.@.@.@.@.@.@.@.@.@.@.@.@.@.@.....@.@.X.%.3.3.W.f.w.f.f.A Y ' Y D n n A S A A A n A D A D A S A S S S S S S A S D S D D S A S S D D D D D D B A A A A A A B X 5 g f f : : S S S D D D D D D S L D A P b A L L H Y P / ` L ' P L H Y D ' | ) ",
"t.V.9.V.{.{.| =.=.t.t.@.:.[.oX[.f.t.N.[.[.N.f.[.+X[.| ] ] *XoX{.XX[.+XXX[.[./.[.[.[.[.[.[.[.[.[.S.7.' ' 0.[.{./.[.[.[.[.[.[.[.[.{.[.{.{.p.{.[.[.[.[.[.[.[.[.[.[.[.[.[.[.[.[.[.[.[.[.[.[.[.[.[.[.+X[.[.{.9.' L ` P P P P P P P P ' Y Y 9.[.[.[.{.{.{.[.[.[.[.[.[. X{.{.[.+X[.z.9.w.w.w.w.0.w.w.w.w.w.w.w.w.w.w.w.w.z.z.f.z.z.w.9.w.w.w.f.w.w.w.w.0.z.w.:.z.w.w.f.w.w.9.9.w.z.z.w.w.w.w.w.w.w.w.w.w.w.w.f.z.z.z.z.z.f.w.e.3.' / @.} ' ' ' ` +.:.0.S.>.' N.9.z.W.0.9.w.w.w.w.w.w.z.f.f.f.f.f.f.f.f.f.f.f.f.f.f.f.f.z.z.z.z.z.z.z.z.z.e.f.z.z.f.N.{.9.z.w.w.0.W.n Y D -.{.[. X+X+X X[.{.f.{.OX[.OX{.[.[.[.[.[.[.[.[.[.[.[.[.[.[.[.[.[.[.[.[.[.[.[.[.[.[.[.[.[.{.{.{.n oXoX+XoX7.P {.[.[.[.[.[.[.[.[./.N.w.W.+Xf.f.N.{.[.[.9.>.f.0.>.0.*.[.+Xt.>.V.>.",
"d g 9 ) u.>.5 i 9 K K 5 s 7.V.=.] ' -.0.>.D @.-.9.0.V.V.V.7.4.9.9.w.0.w.0.9.w.p.p.p.p.p.p.p.p.p.f.f.9.9.v.N.z.v.p.p.p.p.p.p.p.p.f.f.0.p.>.w.f.f.p.p.p.p.p.p.p.p.p.p.p.p.p.p.p.p.p.p.p.p.p.p.p.p.f.0.0.w.-.P G T ` ` ` ` ' ' ' ` Y L L :.f.w.f.0.0.0.w.w.p.w.w.w.0.w.w.w.p.f.f.f.f.w.w.z.z.f.w.f.f.f.f.f.w.w.w.w.9.w.f.w.f.z.z.f.f.f.w.w.w.w.w.f.0.z.w.9.w.w.w.z.z.w.w.z.z.z.e.z.w.w.w.w.w.w.w.w.w.w.w.w.w.w.z.z.w.f.w.z.f.%.` @...+.+.@.@.+.@.3.0.N.@.%.f.z.9.f.w.w.z.z.f.f.z.z.w.w.w.w.w.w.w.w.w.w.w.w.w.w.w.w.w.w.w.w.w.w.w.w.w.w.w.f.w.9.9.w.W.9.w.f.0.9.@.' X.w.[.N.9.9.0.9.f.9.:.0.z.p.z.0.p.p.p.p.p.p.p.p.p.p.p.p.f.f.p.p.w.p.p.p.p.p.p.p.f.f.f.f.f.p.w.0.N.-X{.+X[.+X9.N.w.p.p.w.p.p.p.p.:.@.' :.v.-.' @.@.0.:.f 9 D S 9 9 4 *.V.@.a g g ",
"5 > 9 >.u.7.s w w K P r n 0.f.@.%.X.:.N.0.L :.>.v.0.0.9.>.D 4.W.f.N.0.e.e.0.z.e.f.f.f.f.f.f.f.f.7.e.f.f.w.9.3.9.f.f.f.f.f.f.f.f.e.e.w.z.3.w.w.w.f.f.f.f.f.f.f.f.f.f.f.f.f.f.f.f.f.f.f.f.f.f.f.f.w.w.z.z.z.w.w.z.w.w.0.0.0.0.0.0.w.w.9.z.z.w.f.9.e.f.w.f.f.f.f.f.z.z.z.w.9.9.9.w.z.w.9.w.w.w.w.w.w.w.w.w.w.w.w.w.w.f.w.w.0.0.0.0.z.f.w.w.w.w.w.w.9.z.w.w.w.f.w.z.f.w.0.w.e.w.w.w.w.w.w.w.w.w.w.w.f.z.e.w.9.9.9.9.9.z.w.w.v.9.@.@.@.%.@...@.@.@.&.>.e.N.Y e.9.z.w.w.f.w.w.w.9.9.9.p.p.p.p.f.f.f.f.p.p.f.f.f.f.f.f.f.f.f.f.p.p.p.p.w.w.w.z.z.z.z.z.z.3.w.z.f.3.@.` N.f.9.3.0.N.(.N.f.0.>.0.f.9.f.e.e.e.e.e.e.w.e.e.w.w.e.e.e.e.w.w.w.w.w.w.w.w.w.w.0.w.w.w.w.0.0.0.w.9.9.0.9.z.f.9.w.w.w.w.w.w.w.w.>.@.Y >.W.>...X.-.N.0.f 9 / ) w w a t.Z.*.5 > 4 ",
") | @.N.[.f.j w 9 K P r j 0.v.-.' ..9.N.4.D @.>.w.z.9.N.{.9.f.4.w.z.w.z.z.f.z.0.w.w.w.w.w.w.w.w.f.N.f.w.z.z.z.W.w.w.w.w.w.w.w.w.w.w.w.z.3.w.w.w.w.w.w.w.w.w.w.w.w.w.w.w.w.w.w.w.w.w.w.w.w.w.w.w.w.z.z.w.w.e.w.9.z.z.f.p.f.f.f.e.9.z.w.w.w.w.N.w.w.w.w.w.w.w.w.w.9.9.w.z.W.W.z.w.z.w.w.w.w.w.w.w.w.w.w.w.w.w.w.w.w.z.z.z.w.w.f.z.z.f.w.w.w.f.w.w.w.z.w.z.0.z.w.f.f.w.w.w.w.w.w.w.w.w.w.w.w.w.w.w.0.w.f.z.z.z.N.W.w.z.w.0.z.p.:.@.:.3.@.` @.@...@.%.>.N.9.' e.N.w.w.w.w.w.f.z.z.z.w.w.w.w.w.w.w.w.w.w.w.w.w.w.w.w.w.w.w.w.w.w.w.w.f.w.w.w.w.f.z.z.w.w.z.9.f.f.G 9.W.f.0.w.z.f.9.3.z.0.3.w.z.0.z.z.f.f.f.f.w.w.f.f.w.w.w.f.f.f.f.f.z.z.z.z.z.z.z.z.f.f.f.f.f.z.z.z.0.z.N.0./.f.f.v.z.z.z.z.z.z.z.z.4.%.Y 4./.9.@.@.@.9.9.j w K K 9 w j t.t.Z.*.@.=.",
"{.+XN.9.{.9.b f r K P r b 9.f.-.' @.9.f.-.L X.>.9.W.z.N.9.w.z.|.0.9.w.w.f.z.w.w.w.w.w.w.w.w.w.w.w.w.9.3.w.w.w.z.w.w.w.w.w.w.w.w.f.z.w.f.>.w.p.z.w.w.w.w.w.w.w.w.w.w.w.w.w.w.w.w.w.w.w.w.w.w.w.w.w.z.f.w.w.z.z.w.f.f.w.w.w.e.f.f.w.W.f.f.w.w.z.w.p.f.w.w.w.w.w.w.W.z.9.3.9.9.w.w.z.z.z.w.w.f.z.z.w.w.w.w.f.f.z.z.9.9.w.w.w.w.w.z.e.w.w.w.f.f.w.w.p.w.0.N.9.z.w.w.f.z.z.f.f.f.z.p.w.w.w.w.w.w.w.w.f.w.w.w.w.w.0.9.z.w.w.w.w.z.0.-.%.9.%.Y @.@.......@.%..X' 3.w.z.z.f.w.w.w.0.9.9.w.w.w.w.w.w.w.w.w.w.w.w.w.w.w.w.w.w.w.w.w.w.w.w.z.z.w.w.w.w.w.w.z.z.z.3.z.9.X.[.w.w.w.w.9.9.w.W.f.4.%.9.e.9.w.w.0.w.w.w.w.w.w.w.w.w.w.w.w.w.w.w.w.w.w.w.w.w.w.w.w.w.w.w.w.w.w.e.w.f.w.3.z.9.9.w.w.w.w.w.w.w.w.w.:.@.H :.p.9...' >.f.0.A r P P w a n t.0././.N.S.",
"w.:.w.z.w.w.3.%.*.:.9.-.3.z.9.a.9.4.9.p.p.9.9.p.T.9.N.w.w.{.9.z.z.w.z.w.w.z.w.z.w.w.w.w.w.w.w.w.w.z.f.w.z.w.9.w.w.w.w.w.w.w.w.w.f.w.9.0.:.9.w.p.w.w.w.w.w.w.w.w.w.w.w.w.w.w.w.w.w.w.w.w.w.w.w.w.w.w.z.z.w.w.w.w.w.w.w.w.w.w.w.w.w.z.9.w.w.9.w.w.f.w.w.w.w.w.w.w.9.w.W.W.z.w.w.z.w.f.z.w.w.w.f.w.f.f.z.z.z.z.N.N.z.z.z.z.z.w.w.w.w.w.w.w.f.z.w.w.z.w.9.N.9.z.w.w.0.w.z.w.w.w.w.w.w.w.w.w.w.w.w.w.z.f.w.w.f.z.f.f.z.9.w.z.w.f.z.9...9.%.` %.&...` T ` @.0.{.L 9.z.w.w.w.w.f.f.f.w.w.w.w.w.w.w.w.w.w.w.w.w.w.w.w.w.w.w.w.w.w.w.w.w.9.w.w.w.f.z.w.0.w.9.z.9./.P N.p.w.w.f.w.f.z.f.9.z.9.%.9.N.e.z.e.f.f.f.f.e.e.f.f.z.z.f.f.f.f.z.z.f.e.e.e.e.e.f.f.f.w.w.w.w.w.w.w.z.9.z.W.w.w.z.f.f.e.f.f.f.f.f.f.:.-.Y >.f.0.@.@.-.p.0.f 7 P / 5 w s e.{.N.z.w.N.",
"w.w.w.w.w.w.w.w.w.w.w.w.w.w.w.w.w.w.w.w.w.w.w.w.z.w.0.w.w.0.w.z.w.w.w.w.w.w.w.w.w.9.9.w.p.w.w.f.w.w.9.9.z.z.w.f.z.0.w.f.w.w.w.w.e.w.f.z.@.9.z.w.w.w.w.w.w.w.w.w.w.w.w.w.w.w.w.w.w.w.w.w.w.w.w.w.w.w.z.w.9.w.z.9.f.0.w.f.w.w.f.w.w.w.w.w.z.w.w.w.w.w.z.0.9.z.N.9.z.w.0.w.w.w.w.w.z.w.w.w.w.w.f.z.G.w.9.@.*.@.:.*.*.>.*.>.N.z.w.e.w.w.w.w.w.w.w.w.w.w.w.w.w.w.w.w.w.w.w.w.w.w.w.w.w.w.w.w.w.w.w.w.w.w.w.w.w.w.w.w.w.w.w.w.w.w.w.w.:.%.%.@.@.@.@.` ' X.' -.[.9.@.z.f.W.9.N.w.N.z.w.N.w.z.f.f.z.w.N.e.N.f.z.f.f.N.e.N.0.N.e.w.N.0.N.f.0.(.9.{.9.N.w.f.f.0.f.@.:. X0.N.0.9.w.w.z.z.0.e.f.@.0.f.w.w.z.9.z.w.0.w.w.w.f.w.w.z.z.9.w.z.z.w.w.w.w.w.f.f.w.w.w.w.w.w.w.w.w.w.w.w.w.w.w.w.w.w.w.w.w.w.w.w.w.9.0.0.9.0.0.0.0.9.w.0.-.%.:.%.....%.3.w.z.z.f.p.",
"w.w.w.w.w.w.w.w.w.w.w.p.w.w.w.w.w.w.w.w.w.w.w.w.z.z.w.w.z.W.z.0.w.w.w.w.w.w.w.w.w.9.9.w.p.w.w.f.w.z.z.z.z.w.w.f.w.w.z.z.w.w.f.z.e.w.f.z.@.9.z.w.w.w.w.w.w.w.w.w.w.w.w.w.w.w.w.w.w.w.w.w.w.w.w.w.W.9.9.z.z.w.w.w.w.9.w.f.z.z.z.0.9.z.z.z.z.w.9.z.w.w.z.N.w.9.w.N.0.w.w.f.f.w.w.p.z.z.z.z.z.w.w.w.9.{.' 3 9 5 4 7 5 > : A 0.f.w.W.w.w.w.w.w.w.w.w.w.w.w.w.w.w.w.w.w.w.w.w.w.w.w.w.w.w.w.w.w.w.w.w.w.w.w.w.w.w.w.w.w.w.w.w.w.w.w.w.z.-.%.3.9.3.3.3.-.9.>.>.0.0.-.@.:.@.e.@.f.@.9.-.>.3.>.>.>.>.3.>.:.:.:.:.:.:.-.:.3.&.9.%.9.-.>.>.:.9.@.w.@.0.&.3.9.@.N.@.@.+X3.z.w.9.w.z.w.f.z.w.e.e.@.w.N.f.w.w.w.z.z.f.z.z.w.e.z.f.z.z.z.z.f.9.w.e.z.z.z.z.f.w.w.w.w.w.w.w.w.w.w.w.w.w.w.w.w.w.w.w.w.w.w.w.w.w.w.w.w.w.w.w.w.w.w.N.z.w.w.W.W.f.0.w.f.f.w.w.w.w.",
"w.w.w.w.w.w.w.w.w.w.w.w.w.w.w.w.w.w.w.w.w.w.w.w.:.f.W.w.3.9.w.f.w.w.w.w.w.w.w.w.w.0.0.w.f.w.w.f.e.f.w.w.w.w.w.f.w.w.w.w.w.w.w.w.e.w.f.z.@.9.z.w.w.w.w.w.w.w.w.w.w.w.w.w.w.w.w.w.w.w.w.w.w.w.w.w.z.9.9.z.w.w.f.w.w.w.9.9.w.w.w.w.w.w.w.w.0.w.w.w.f.9.w.z.f.9.9.z.w.w.z.f.0.9.w.w.0.w.w.f.z.z.w.w.9.0.>.) | *.=.*.*.*.) @.v.z.w.9.w.w.w.w.w.w.w.w.w.w.w.w.w.w.w.w.w.w.w.w.w.w.w.w.w.w.w.w.w.w.w.w.w.w.w.w.w.w.w.w.w.w.w.w.w.w.w.w.W.3.:.w.w.9.9.0.w.0.f.0.8.N.z.' -...-.X...@.' :.' @.' @.@...@.` @.' @.@.@.@.' @...X.@.X.@.' @.' @.@.@...@.X.@.@.' ' @.G {.f.z.w.w.w.z.z.9.9.w.w.w.0.' 9.z.z.z.w.9.w.w.w.w.w.w.w.w.w.w.w.w.w.w.w.e.w.w.w.w.w.w.f.w.w.w.w.w.w.w.w.w.w.w.w.w.w.w.w.w.w.w.w.w.w.w.w.f.f.f.f.f.f.f.f.9.w.w.w.w.f.w.w.z.z.f.w.9.w.w.f.",
"w.w.w.w.w.w.w.w.w.w.w.w.w.w.w.w.w.w.w.w.w.w.w.w.z.f.w.w.z.W.z.w.w.w.w.w.w.w.w.w.w.w.0.w.f.w.w.w.z.w.9.w.f.z.z.9.w.w.9.9.z.W.z.w.e.w.f.a.@.9.z.w.w.w.w.w.w.w.w.w.w.w.w.w.w.w.w.w.w.w.w.w.w.w.w.w.w.z.W.f.9.w.z.9.w.z.z.w.w.9.w.z.f.9.9.w.z.N.z.w.w.w.0.9.z.W.z.w.w.z.f.w.0.w.z.z.w.w.w.0.w.w.w.e.N.9.0.7.t.7.y.7.7.u.9.9.N.w.w.9.w.w.w.w.w.w.w.w.w.w.w.w.w.w.w.w.w.w.w.w.w.w.w.w.w.w.w.w.w.w.w.w.w.w.w.w.w.w.w.w.w.w.w.w.w.w.w.w.w.f.W.v.w.w.z.z.e.>.9.e.9.z.N.8.L D A ` v ..b ..n Y A D G A Y n ' A Y H H Y A ' A Y n ' A L D D Y M ' c X.b ' D J #.f 9.{.8.z.z.z.w.f.w.9.w.z.f.f.f.@.9.f.f.z.w.W.w.w.w.w.0.w.w.w.f.w.w.w.9.w.W.w.w.w.f.w.w.w.w.w.w.w.w.w.w.w.w.w.w.w.w.w.w.w.w.w.w.w.w.w.w.w.w.w.w.w.w.w.w.w.w.w.w.w.w.w.9.9.0.9.0.w.w.w.w.w.w.",
"w.w.w.w.w.w.w.w.w.w.w.w.w.w.w.w.w.w.w.w.w.w.w.w.W.w.9.w.w.9.9.f.w.w.w.w.w.w.w.w.w.w.w.w.f.w.w.w.w.w.z.z.9.w.p.9.w.z.w.w.z.w.9.e.e.w.p.a.@.9.z.e.w.w.w.w.w.w.w.w.w.w.w.w.w.w.w.w.w.w.w.w.w.w.w.w.f.f.z.w.9.z.z.9.0.z.w.9.z.z.w.w.w.w.z.z.0.w.z.9.w.z.w.w.z.z.w.f.w.w.w.w.z.W.z.9.z.v.z.w.w.w.w.w.e.{.' 5 w w 5 5 5 5 5 L p.w.w.R.w.w.w.w.w.w.w.w.w.w.w.w.w.w.w.w.w.w.w.w.w.w.w.w.w.w.w.w.w.w.w.w.w.w.w.w.w.w.w.w.w.w.w.w.w.w.w.w.z.w.w.w.9.w.z.w.W.z.w.z.W.z.z.{.>.@.>.9.9.f.-.t.-.f.>.9.9.>.f.-.f.-.0.9.9.0.-.f.>.f.*.N.>.0.9.9.0.9.t.>.t.>.0.9.#.@.' {.z.e.8.z.w.0.w.f.f.W.z.9.9.f.%.e.z.w.w.w.z.9.w.W.z.w.w.w.f.f.9.w.W.z.9.w.w.z.z.w.w.w.f.w.w.w.w.w.w.w.w.w.w.w.w.w.w.w.w.w.w.w.w.w.w.w.w.w.w.w.w.w.w.w.w.w.z.w.w.z.z.w.w.z.w.f.z.z.z.e.w.0.",
"w.w.w.w.w.w.w.w.w.w.w.w.w.w.w.w.w.w.w.w.w.w.w.w.9.0.z.z.-.` %.W.w.w.w.w.w.w.w.w.z.w.w.f.z.w.w.w.w.w.f.-.L ` 9.z.9.W.N.w.:.` ' :.e.w.p.a.@.9.z.e.w.w.w.w.w.w.w.w.w.w.w.w.w.w.w.w.w.w.w.w.w.w.w.w.9.` Y >.z.z.w.w.z.9.` Y :.w.w.w.f.w.p.:.L ` 9.z.w.z.w.f.9.' Y 3.w.w.w.w.z.z.:.` -.9.z.z.w.f.f.w.w.e.@.f B B C S C n f Y p.z.w.e.w.w.w.w.w.w.w.w.w.w.w.w.w.w.w.w.w.w.w.w.w.w.w.w.w.w.w.w.w.w.w.w.w.w.w.w.w.w.w.w.w.w.w.w.w.w.w.w.z.@.L ` ` ` ' Y L +.Y G T T P +.9.@.>.@.:.-.@.-.@.>.@.=.=.@.>.@.:.@.-.@.@.-.| :.*.*.*.*.:.@.:.@.*.*.*.*.*.*.*.-.9.@. X9.N.9.W.w.w.w.w.z.z.z.3.` ' -.@.f.z.w.f.w...Y %.z.z.w.z.w.z.3.Y ` 9.z.0.w.z.z.3.' ` :.w.z.w.w.w.w.w.w.w.w.w.w.w.w.w.w.w.w.w.w.w.w.w.w.w.w.w.w.w.w.w.w.w.w.w.w.w.w.w.w.w.w.z.f.w.w.w.f.f.w.",
"w.w.w.w.w.w.w.w.w.w.w.w.w.w.w.w.w.w.w.w.w.w.w.w.W.w.w.w.w.9.9.w.w.w.w.w.w.w.w.w.z.w.w.f.z.w.w.w.z.w.w.@.A L 9.z.0.z.z.w.:.L G %.e.w.f.z.@.9.z.e.w.w.w.w.w.w.w.w.w.w.w.w.w.w.w.w.w.w.w.w.w.w.w.w.:.G G :.z.w.w.f.z.9.Y S @.9.0.z.z.w.0.@.S Y 9.z.w.z.w.w.3.L D -.z.f.w.w.f.9.@.G ' :.w.w.w.f.z.f.R.9.w.9.t.7.u.t.7.u.:.:.f.z.z.e.w.w.w.w.w.w.w.w.w.w.w.w.w.w.w.w.w.w.w.w.w.w.w.w.w.w.w.w.w.w.w.w.w.w.w.w.w.w.w.w.w.w.w.w.w.w.w.w.f...L Y Y Y L L L ' Y L T T P ' {.V.t.9.>.9.9.t.9.9.9.9.9.9.9.9.9.9.9.9.9.9.9.9.0.>.t.:.t.>.9.9.9.>.t.>.t.>.0.9.9.f.f.N.8.z.W.w.z.w.w.w.w.w.:.Y L @.+.w.z.w.z.z.' D ..w.w.w.z.w.z.-.S G >.w.0.N.f.z.:.G D %.f.z.w.w.w.w.w.w.w.w.w.w.w.w.w.w.w.w.w.w.w.w.w.w.w.w.f.f.f.f.f.f.f.f.z.z.z.w.p.f.w.w.w.w.9.9.w.f.z.z.",
"w.w.w.w.w.w.w.w.w.w.w.w.w.w.w.w.w.w.w.w.w.w.w.w.w.w.w.w.z.z.z.z.w.w.w.w.w.w.w.w.z.w.w.f.z.w.w.w.w.w.W.f.%.>.z.0.w.w.9.z.W.-.@.z.e.w.f.z.@.9.z.e.w.w.w.w.w.w.w.w.w.w.w.w.w.w.w.w.w.w.w.w.w.w.w.w.w.%.-.w.z.w.w.f.9.z.3.%.w.z.9.w.w.0.N.w.%.3.z.9.9.z.w.9.z.3.%.w.w.w.w.0.z.z.3...@.9.z.z.0.w.f.z.q.{.9.D ) / P P D P P :.Z.9.9.R.w.w.w.w.w.w.w.w.w.w.w.w.w.w.w.w.w.w.w.w.w.w.w.w.w.w.w.w.w.w.w.w.w.w.w.w.w.w.w.w.w.w.w.w.w.w.w.w.z.w.0.0.9.f.N.w.e.9.9.e.z.9.8.9.9.f.{.Z.[.V.[.N.{.N.{.S.S.{.N.{.Z.{.{.{.{.{.{.Z.{.N.[.Z.N.[.f.{.Z.{.S.{.{.{.{.Z.A.f.N.w.w.N.9.z.w.w.w.w.f.W.w.%.+.9.%.w.f.w.z.z.3...:.W.f.w.z.w.f.9.@.@.z.z.3.f.3.W.z.@.@.0.z.9.w.w.w.w.w.w.w.w.w.w.w.w.w.w.w.w.w.w.w.w.w.w.w.w.w.w.w.w.w.w.w.w.0.w.w.w.w.z.z.w.f.w.w.w.f.f.w.0.",
"w.w.w.w.w.w.w.w.w.9.z.w.z.w.z.0.w.w.w.w.w.w.w.w.z.w.0.w.z.z.f.z.w.w.w.w.w.w.w.w.w.w.w.w.w.w.w.w.w.w.w.w.w.w.w.w.w.w.w.w.0.0.e.z.N.e.9.0.%.0.z.w.z.w.9.w.z.z.z.z.w.w.w.w.w.w.w.w.w.w.w.w.w.w.w.w.z.z.f.w.w.w.f.w.w.w.w.w.w.w.w.w.w.z.z.f.z.z.z.w.w.w.w.w.w.w.w.w.w.z.z.p.f.z.z.w.w.z.z.z.w.w.f.w.0./.P : : 4 - < : > : g 0.W.3.R.w.w.w.w.w.w.w.w.w.w.w.w.w.w.w.w.w.w.w.w.w.w.w.w.w.w.w.w.w.w.w.w.w.w.w.w.w.w.w.w.w.w.w.w.w.w.w.w.w.3.:.3.9.3.>.3.3.3.3.>.3.3.3.9.w.w.w.w.w.w.w.w.0.0.0.0.0.0.9.9.9.0.9.0.w.9.9.z.0.0.9.9.9.0.0.0.0.0.0.0.0.0.9.9.w.0.w.z.f.z.z.9.w.w.w.w.w.w.w.w.z.w...9.z.z.z.z.w.w.w.w.w.w.w.w.w.w.w.w.w.w.w.w.w.w.z.z.w.w.f.z.w.w.w.w.w.w.w.w.w.w.w.w.w.w.w.w.w.w.w.w.w.w.w.w.w.w.w.w.w.w.w.w.w.w.w.w.w.w.w.w.w.w.w.w.w.w.w.w.",
"w.w.w.w.w.w.w.w.w.w.N.9.3.3.z.f.w.w.w.w.w.w.w.w.9.w.z.f.9.9.w.f.w.w.w.w.w.w.w.w.w.w.w.w.w.w.w.w.w.w.w.w.w.w.w.w.z.9.9.z.W.N.e.0.8.9.f.N.%.3.w.z.0.w.z.z.9.3.9.w.w.w.w.w.w.w.w.w.w.w.w.w.w.w.w.w.9.0.w.w.z.z.f.9.w.w.w.w.w.w.w.w.f.w.9.9.9.w.f.w.w.w.w.w.w.w.w.w.w.z.z.w.0.w.w.w.0.w.w.w.w.z.z.f.9.N.%.D / ) ^ ( / / S ' N.W.8.e.w.w.w.w.w.w.w.w.w.w.w.w.w.w.w.w.w.w.w.w.w.w.w.w.w.w.w.w.w.w.w.w.w.w.w.w.w.w.w.w.w.w.w.w.w.w.w.w.w...S A G L L L G G D D D G G L w.w.w.w.w.w.w.w.w.w.w.w.w.w.w.w.w.z.w.9.w.w.9.0.w.w.w.w.w.w.w.w.w.w.w.w.w.w.w.w.0.0.f.w.9.z.N.w.w.w.w.w.w.w.w.w.9.p.@.9.9.9.0.w.w.w.w.w.w.w.w.w.w.w.w.w.w.w.w.w.9.9.w.w.z.f.w.9.w.w.w.w.w.w.w.w.w.w.w.w.w.w.w.w.w.w.w.w.w.w.w.w.w.w.w.w.w.w.w.w.w.w.w.w.w.w.w.w.w.w.w.w.w.w.w.w.",
"w.w.w.w.w.w.w.w.0.w.z.%...@.f.f.w.w.w.w.w.w.w.w.w.w.w.w.z.v.z.w.w.w.w.w.w.w.w.w.w.w.w.w.w.w.w.w.w.w.w.w.w.w.w.w.z.w.w.w.0.9.9.f.N.e.w.w.%.4.p.z.z.w.w.z.z.z.z.z.w.w.w.w.w.w.w.w.w.w.w.w.w.w.w.w.z.z.w.0.w.w.z.w.w.w.w.w.w.w.w.w.w.w.f.f.z.N.z.9.w.w.w.w.w.w.w.w.0.f.z.w.w.f.z.z.z.z.f.w.w.z.f.w.e.f.0.0.f.f.9.t.p.p.9.9.v.z.9.e.w.w.w.w.w.w.w.w.w.w.w.w.w.w.w.w.w.w.w.w.w.w.w.w.w.w.w.w.w.w.w.w.w.w.w.w.w.w.w.w.w.w.w.w.w.w.w.w.W.:.....@.%.@...%.@.@.@.@.%.%.%.w.w.w.w.w.w.w.w.f.f.f.f.f.p.p.w.w.N.z.0.z.W.z.w.f.f.p.w.f.f.f.f.f.f.f.f.f.p.p.w.z.z.N.f.9.w.z.w.w.w.w.w.w.w.w.w.w.w.@.0.z.z.z.w.w.w.w.w.w.w.w.w.w.w.w.w.w.w.w.w.W.z.w.w.w.z.w.w.w.w.w.w.w.w.w.w.w.w.w.w.w.w.w.w.w.w.w.w.w.w.w.w.w.w.w.w.w.w.w.w.w.w.w.w.w.w.w.w.w.w.w.w.w.w.w.w.",
"w.w.w.w.w.w.w.w.9.f.z...Y ..w.w.w.w.w.w.w.w.w.w.N.w.0.w.z.w.w.w.w.w.w.w.w.w.w.w.w.w.w.w.w.w.w.w.w.w.w.w.w.w.w.w.9.w.z.w.e.f.f.e.9.e.w.w.@.9.z.w.z.w.0.w.z.z.z.z.w.w.w.w.w.w.w.w.w.w.w.w.w.w.w.w.w.z.f.w.0.w.w.w.w.w.w.w.w.w.w.w.w.f.z.z.w.w.w.w.w.w.w.w.w.w.w.w.w.w.w.w.z.z.z.w.w.z.z.z.w.w.w.w.z.9.e.z.f.p.w.w.a.a.a.w.9.w.z.e.w.w.w.w.w.w.w.w.w.w.w.w.w.w.w.w.w.w.w.w.w.w.w.w.w.w.w.w.w.w.w.w.w.w.w.w.w.w.w.w.w.w.w.w.w.w.w.w.w.w.z.W.W.z.z.z.z.z.f.f.w.z.z.z.f.f.f.f.w.w.f.e.w.w.w.w.w.w.w.w.0.z.w.w.z.z.w.w.w.w.w.w.w.w.w.w.w.w.w.w.w.w.w.w.v.w.w.z.w.w.f.w.w.w.w.w.w.w.w.w.z.0...w.W.f.w.f.w.w.w.w.w.w.w.w.w.w.w.w.w.w.w.w.z.z.w.w.w.f.f.z.w.w.w.w.w.w.w.w.w.w.w.w.w.w.w.w.w.w.w.w.w.w.w.w.w.w.w.w.w.w.w.w.w.w.w.w.w.w.w.w.w.w.w.w.w.w.w.w.",
"w.w.w.w.w.w.w.w.w.z.z...Y @.z.w.w.w.w.w.w.w.w.w.f.w.z.z.3...%.f.w.w.w.w.w.w.w.w.w.w.w.w.w.w.w.w.w.w.w.w.w.w.w.w.w.z.w.0.N.N.@.n L 3./.N.@.4.z.w.9.w.z.w.:.@.>.f.w.w.w.w.w.w.w.w.w.w.w.w.w.w.w.w...:.w.N.z.f.w.0.w.w.w.w.w.w.w.w.f.z.0.:.%.:.0.N.w.w.w.w.w.w.w.w.z.f.w.w.f.w.3.%.%.9.w.w.w.w.f.z.z.9.e.w.9.w.T.w.w.w.T.w.9.w.z.w.w.w.w.w.w.w.w.w.w.w.w.w.w.w.w.w.w.w.w.w.w.w.w.w.w.w.w.w.w.w.w.w.w.w.w.w.w.w.w.w.w.w.w.w.w.w.w.w.0.w.f.w.9.9.w.z.w.9.9.0.0.w.w.w.w.w.w.w.w.w.w.w.w.w.w.w.w.w.w.w.p.w.9.w.w.:.%.3.w.w.w.w.w.w.w.w.w.w.w.w.w.w.w.w.9.@.%.w.z.w.w.z.w.w.w.w.w.w.w.w.w.0.@.z.9...%.z.w.w.w.w.w.w.w.w.w.w.w.w.w.w.w.w.@.%.9.f.z.f.w.9.w.w.w.w.w.w.w.w.w.w.w.w.w.w.w.w.w.w.w.w.w.w.w.w.w.w.w.w.w.w.w.w.w.w.w.w.w.w.w.w.w.w.w.w.w.w.w.w.",
"w.w.w.w.w.w.w.w.f.z.z...' @.w.w.w.w.w.w.w.w.w.w.f.0.w.z.9.%.3.W.w.w.w.w.w.w.w.w.w.w.w.w.w.w.w.w.w.w.w.w.w.w.w.w.w.z.w.9.w.e.@.n T 8.W.f.@.9.N.w.w.w.w.0.>.-.3.z.w.w.w.w.w.w.w.w.w.w.w.w.w.w.w.w.@.3.w.z.f.w.w.w.w.w.w.w.w.w.w.w.w.z.w.3.:.>.w.N.w.w.w.w.w.w.w.w.z.w.w.w.z.z.9.%.:.9.z.z.w.w.w.f.w.p.z.w.w.z.W.w.z.w.z.z.w.z.z.w.w.w.w.w.w.w.w.w.w.w.w.w.w.w.w.w.w.w.w.w.w.w.w.w.w.w.w.w.w.w.w.w.w.w.w.w.w.w.w.w.w.w.w.w.w.w.w.w.z.f.w.w.w.w.w.w.z.z.z.z.z.z.z.z.w.w.w.w.w.w.w.w.w.w.w.w.w.w.w.w.z.w.9.z.w.:.%.9.w.w.w.w.w.w.w.w.w.w.w.w.w.w.w.w.9.@.%.f.N.w.w.z.w.w.w.w.w.w.w.w.z.9...z.w.@.:.z.w.w.w.w.w.w.w.w.w.w.w.w.w.w.w.w.@.:.9.z.z.w.w.w.w.w.w.w.w.w.w.w.w.w.w.w.w.w.w.w.w.w.w.w.w.w.w.w.w.w.w.w.w.w.w.w.w.w.w.w.w.w.w.w.w.w.w.w.w.w.w.w.",
"w.w.w.w.w.w.w.w.w.w.w...Y ..w.w.w.w.w.w.w.w.w.w.z.w.w.f.z.z.z.z.w.w.w.w.w.w.w.w.w.w.w.w.w.w.w.w.w.w.w.w.w.w.w.w.9.w.z.w.f.N.{.W.e.e.w.9.@.0.v.w.z.w.9.w.z.z.z.z.w.w.w.w.w.w.w.w.w.w.w.w.w.w.w.w.w.z.z.w.9.w.f.z.w.w.w.w.w.w.w.w.0.z.z.z.e.f.f.w.w.w.w.w.w.w.w.w.w.w.w.w.z.z.z.0.w.z.z.z.f.f.w.w.w.f.f.p.p.p.w.w.w.9.9.f.z.z.f.f.w.w.w.w.w.w.w.w.w.w.w.w.w.w.w.w.w.w.w.w.w.w.w.w.w.w.w.w.w.w.w.w.w.w.w.w.w.w.w.w.w.w.w.w.w.w.w.w.w.w.w.f.N.W.f.9.w.w.w.w.w.w.w.w.w.w.w.w.w.w.w.w.f.f.f.f.f.f.f.f.p.w.9.p.z.w.9.N.f.f.f.f.f.f.f.f.f.f.f.f.f.f.f.f.z.9.w.z.f.w.w.w.w.w.w.w.w.w.w.w.z.0.' w.W.w.f.z.w.w.w.w.w.w.w.w.w.w.w.w.w.w.w.w.z.z.f.w.w.w.z.z.w.w.w.w.w.w.w.w.w.w.w.w.w.w.w.w.w.w.w.w.w.w.w.w.w.w.w.w.w.w.w.w.w.w.w.w.w.w.w.w.w.w.w.w.w.w.w.w.",
"w.w.w.w.w.w.w.w.w.w.z.@.` ..w.z.w.w.w.w.w.w.w.w.9.z.W.w.9.w.w.9.w.w.w.w.w.w.w.w.w.w.w.w.w.w.w.w.w.w.w.w.w.w.w.w.f.0.9.w.e.0.0.z.e.e.w.f.@.3.w.z.w.w.z.z.w.0.w.f.w.w.w.w.w.w.w.w.w.w.w.w.w.w.w.w.w.w.w.w.w.z.z.w.w.w.w.w.w.w.w.w.0.w.w.w.w.z.z.w.w.w.w.w.w.w.w.w.w.w.z.w.0.w.w.w.w.w.9.9.w.z.z.w.w.a.p.p.z.w.0.f.0.0.9.w.z.w.0.z.w.w.w.w.w.w.w.w.w.w.w.w.w.w.w.w.w.w.w.w.w.w.w.w.w.w.w.w.w.w.w.w.w.w.w.w.w.w.w.w.w.w.w.w.w.w.w.w.f.f.w.w.w.w.z.z.w.e.f.e.f.f.w.w.w.w.w.w.w.w.w.w.w.w.w.w.w.w.w.w.w.z.w.9.z.z.w.w.w.w.w.w.w.w.w.w.w.w.w.w.w.w.w.w.w.z.W.f.9.w.z.w.w.w.w.w.w.w.w.w.9.w.@.0.w.w.w.w.w.w.w.w.w.w.w.w.w.w.w.w.w.w.w.w.f.w.w.w.z.z.w.0.w.w.w.w.w.w.w.w.w.w.w.w.w.w.w.w.w.w.w.w.w.w.w.w.w.w.w.w.w.w.w.w.w.w.w.w.w.w.w.w.w.w.w.w.w.w.w.w.",
"w.w.w.w.w.w.w.w.w.z.w.-.@.%.9.p.w.w.w.w.w.w.w.w.z.w.w.w.z.z.z.f.w.w.w.w.w.w.w.w.w.w.w.w.w.w.w.w.w.w.w.w.w.w.w.w.w.w.w.w.w.w.w.w.e.w.f.z.@.9.z.e.w.w.w.w.w.w.w.w.w.w.w.w.w.w.w.w.w.w.w.w.w.w.w.w.w.w.w.w.w.w.w.w.w.w.w.w.w.w.w.w.w.w.w.w.w.w.w.w.w.w.w.w.w.w.w.w.w.w.w.w.w.w.w.w.w.w.w.w.w.w.w.w.w.w.w.w.w.w.w.w.w.w.w.w.w.w.w.w.w.w.w.w.w.w.w.w.w.w.w.w.w.w.w.w.w.w.w.w.w.w.w.w.w.w.w.w.w.w.w.w.w.w.w.w.w.w.w.w.w.w.w.w.w.w.w.w.w.w.w.w.w.w.w.w.w.w.w.w.w.w.w.w.w.w.w.w.w.w.w.w.w.w.w.w.w.w.w.w.w.w.w.w.w.w.w.w.w.w.w.w.w.w.w.w.w.w.w.w.w.w.w.w.w.w.w.w.w.w.w.w.w.w.w.w.w.w.w.w.w.w.@.0.z.w.f.w.w.w.w.w.w.w.w.w.w.w.w.w.w.w.w.w.w.w.w.w.w.w.w.w.w.w.w.w.w.w.w.w.0.z.z.w.w.w.w.w.w.w.w.w.w.w.w.w.w.w.w.w.w.w.w.w.w.w.w.w.w.w.w.w.w.w.w.w.w.w.w.w.",
"w.w.w.w.w.w.w.w.w.z.z.0.9.0.f.w.w.w.w.w.w.w.w.w.9.z.z.w.9.9.0.w.w.w.w.w.w.w.w.w.w.w.w.w.w.w.w.w.w.w.w.w.w.w.w.w.w.w.w.w.w.w.w.w.e.w.f.z.@.9.z.e.w.w.w.w.w.w.w.w.w.w.w.w.w.w.w.w.w.w.w.w.w.w.w.w.w.w.w.w.w.w.w.w.w.w.w.w.w.w.w.w.w.w.w.w.w.w.w.w.w.w.w.w.w.w.w.w.w.w.w.w.w.w.w.w.w.w.w.w.w.w.w.w.w.w.w.w.w.w.w.w.w.w.w.w.w.w.w.w.w.w.w.w.w.w.w.w.w.w.w.w.w.w.w.w.w.w.w.w.w.w.w.w.w.w.w.w.w.w.w.w.w.w.w.w.w.w.w.w.w.w.w.w.w.w.w.w.w.w.w.w.w.w.w.w.w.w.w.w.w.w.w.w.w.w.w.w.w.w.w.w.w.w.w.w.w.w.w.w.w.w.w.w.w.w.w.w.w.w.w.w.w.w.w.w.w.w.w.w.w.w.w.w.w.w.w.w.w.w.w.w.w.w.w.w.w.w.w.w.w.w.@.0.z.w.f.w.w.w.w.w.w.w.w.w.w.w.w.w.w.w.w.w.w.w.w.w.w.w.w.w.w.w.w.w.w.w.w.w.w.f.w.w.w.f.p.w.w.w.w.w.w.w.w.w.w.w.w.w.w.w.w.w.w.w.w.w.w.w.w.w.w.w.w.w.w.w.w.w.",
"w.w.w.w.w.w.w.w.w.f.z.w.f.z.z.w.w.w.w.w.w.w.w.w.w.w.w.w.w.N.z.w.w.w.w.w.w.w.w.w.w.w.w.w.w.w.w.w.w.w.w.w.w.w.w.w.w.w.w.w.w.w.w.w.e.w.f.z.@.9.z.e.w.w.w.w.w.w.w.w.w.w.w.w.w.w.w.w.w.w.w.w.w.w.w.w.w.w.w.w.w.w.w.w.w.w.w.w.w.w.w.w.w.w.w.w.w.w.w.w.w.w.w.w.w.w.w.w.w.w.w.w.w.w.w.w.w.w.w.w.w.w.w.w.w.w.w.w.w.w.w.w.w.w.w.w.w.w.w.w.w.w.w.w.w.w.w.w.w.w.w.w.w.w.w.w.w.w.w.w.w.w.w.w.w.w.w.w.w.w.w.w.w.w.w.w.w.w.w.w.w.w.w.w.w.w.w.w.w.w.w.w.w.w.w.w.w.w.w.w.w.w.w.w.w.w.w.w.w.w.w.w.w.w.w.w.w.w.w.w.w.w.w.w.w.w.w.w.w.w.w.w.w.w.w.w.w.w.w.w.w.w.w.w.w.w.w.w.w.w.w.w.w.w.w.w.w.w.w.w.w.w.@.0.z.w.f.w.w.w.w.w.w.w.w.w.w.w.w.w.w.w.w.w.w.w.w.w.w.w.w.w.w.w.w.w.w.w.w.w.z.w.9.w.w.w.w.w.w.w.w.w.w.w.w.w.w.w.w.w.w.w.w.w.w.w.w.w.w.w.w.w.w.w.w.w.w.w.w.w.",
"w.w.w.w.w.w.w.w.w.w.0.9.w.z.e.w.w.w.w.w.w.w.w.w.z.w.9.w.z.z.f.z.w.w.w.w.w.w.w.w.w.w.w.w.w.w.w.w.w.w.w.w.w.w.w.w.w.w.w.w.w.w.w.w.e.w.f.z.@.9.z.e.w.w.w.w.w.w.w.w.w.w.w.w.w.w.w.w.w.w.w.w.w.w.w.w.w.w.w.w.w.w.w.w.w.w.w.w.w.w.w.w.w.w.w.w.w.w.w.w.w.w.w.w.w.w.w.w.w.w.w.w.w.w.w.w.w.w.w.w.w.w.w.w.w.w.w.w.w.w.w.w.w.w.w.w.w.w.w.w.w.w.w.w.w.w.w.w.w.w.w.w.w.w.w.w.w.w.w.w.w.w.w.w.w.w.w.w.w.w.w.w.w.w.w.w.w.w.w.w.w.w.w.w.w.w.w.w.w.w.w.w.w.w.w.w.w.w.w.w.w.w.w.w.w.w.w.w.w.w.w.w.w.w.w.w.w.w.w.w.w.w.w.w.w.w.w.w.w.w.w.w.w.w.w.w.w.w.w.w.w.w.w.w.w.w.w.w.w.w.w.w.w.w.w.w.w.w.w.w.w.w.@.0.z.w.f.w.w.w.w.w.w.w.w.w.w.w.w.w.w.w.w.w.w.w.w.w.w.w.w.w.w.w.w.w.w.w.w.w.w.0.0.f.z.w.w.w.w.w.w.w.w.w.w.w.w.w.w.w.w.w.w.w.w.w.w.w.w.w.w.w.w.w.w.w.w.w.w.w.",
"w.w.w.w.w.w.w.w.f.f.w.w.w.w.f.w.w.w.w.w.w.w.w.w.f.w.z.z.3...%.z.w.w.w.w.w.w.w.w.w.w.w.w.w.w.w.w.w.w.w.w.w.w.w.w.w.w.w.w.w.w.w.w.w.w.f.z.@.9.z.w.w.w.w.w.w.w.w.w.w.w.w.w.w.w.w.w.w.w.w.w.w.w.w.w.w.w.w.w.w.w.w.w.w.w.w.w.w.w.w.w.w.w.w.w.w.w.w.w.w.w.w.w.w.w.w.w.w.w.w.w.w.w.w.w.w.w.w.w.w.w.w.w.w.w.w.w.w.w.w.w.w.w.w.w.w.w.w.w.w.w.w.w.w.w.w.w.w.w.w.w.w.w.w.w.w.w.w.w.w.w.w.w.w.w.w.w.w.w.w.w.w.w.w.w.w.w.w.w.w.w.w.w.w.w.w.w.w.w.w.w.w.w.w.w.w.w.w.w.w.w.w.w.w.w.w.w.w.w.w.w.w.w.w.w.w.w.w.w.w.w.w.w.w.w.w.w.w.w.w.w.w.w.w.w.w.w.w.w.w.w.w.w.w.w.w.w.w.w.w.w.w.w.w.w.w.w.w.w.w.w.@.0.z.w.p.w.w.w.w.w.w.w.w.w.w.w.w.w.w.w.w.w.w.w.w.w.w.w.w.w.w.w.w.w.w.w.w.w.w.w.f.z.z.w.w.w.w.w.w.w.w.w.w.w.w.w.w.w.w.w.w.w.w.w.w.w.w.w.w.w.w.w.w.w.w.w.w.w.",
"w.w.w.w.w.w.w.w.w.z.z.z.f.w.w.w.w.w.w.w.w.w.w.w.z.w.w.z.9.@.:.z.w.w.w.w.w.w.w.w.w.w.w.w.w.w.w.w.w.w.w.w.w.w.w.w.w.w.w.w.w.w.w.w.w.w.f.z.@.9.z.w.w.w.w.w.w.w.w.w.w.w.w.w.w.w.w.w.w.w.w.w.w.w.w.w.w.w.w.w.w.w.w.w.w.w.w.w.w.w.w.w.w.w.w.w.w.w.w.w.w.w.w.w.w.w.w.w.w.w.w.w.w.w.w.w.w.w.w.w.w.w.w.w.w.w.w.w.w.w.w.w.w.w.w.w.w.w.w.w.w.w.w.w.w.w.w.w.w.w.w.w.w.w.w.w.w.w.w.w.w.w.w.w.w.w.w.w.w.w.w.w.w.w.w.w.w.w.w.w.w.w.w.w.w.w.w.w.w.w.w.w.w.w.w.w.w.w.w.w.w.w.w.w.w.w.w.w.w.w.w.w.w.w.w.w.w.w.w.w.w.w.w.w.w.w.w.w.w.w.w.w.w.w.w.w.w.w.w.w.w.w.w.w.w.w.w.w.w.w.w.w.w.w.w.w.w.w.w.w.w.w.@.0.z.w.p.w.w.w.w.w.w.w.w.w.w.w.w.w.w.w.w.w.w.w.w.w.w.w.w.w.w.w.w.w.w.w.w.w.w.w.w.0.w.f.z.w.w.w.w.w.w.w.w.w.w.w.w.w.w.w.w.w.w.w.w.w.w.w.w.w.w.w.w.w.w.w.w.w.",
"w.w.w.w.w.w.w.w.w.w.p.z.f.w.w.w.w.w.w.w.w.w.w.w.z.w.0.f.z.z.f.z.w.w.w.w.w.w.w.w.w.w.w.w.w.w.w.w.w.w.w.w.w.w.w.w.w.w.w.w.w.w.w.w.w.w.p.z.@.9.z.w.w.w.w.w.w.w.w.w.w.w.w.w.w.w.w.w.w.w.w.w.w.w.w.w.w.w.w.w.w.w.w.w.w.w.w.w.w.w.w.w.w.w.w.w.w.w.w.w.w.w.w.w.w.w.w.w.w.w.w.w.w.w.w.w.w.w.w.w.w.w.w.w.w.w.w.w.w.w.w.w.w.w.w.w.w.w.w.w.w.w.w.w.w.w.w.w.w.w.w.w.w.w.w.w.w.w.w.w.w.w.w.w.w.w.w.w.w.w.w.w.w.w.w.w.w.w.w.w.w.w.w.w.w.w.w.w.w.w.w.w.w.w.w.w.w.w.w.w.w.w.w.w.w.w.w.w.w.w.w.w.w.w.w.w.w.w.w.w.w.w.w.w.w.w.w.w.w.w.w.w.w.w.w.w.w.w.w.w.w.w.w.w.w.w.w.w.w.w.w.w.w.w.w.w.w.w.w.w.w.w.@.0.z.w.w.w.w.w.w.w.w.w.w.w.w.w.w.w.w.w.w.w.w.w.w.w.w.w.w.w.w.w.w.w.w.w.w.w.z.w.:.@.:.w.N.w.w.w.w.w.w.w.w.w.w.w.w.w.w.w.w.w.w.w.w.w.w.w.w.w.w.w.w.w.w.w.w.w.",
"w.w.w.w.w.w.w.w.z.w.w.w.w.f.w.z.w.w.w.w.w.w.w.w.3.w.z.f.w.w.w.w.w.w.w.w.w.w.w.w.w.w.w.w.w.w.w.w.w.w.w.w.w.w.w.w.w.w.w.w.w.w.w.w.w.w.p.z.@.9.z.w.w.w.w.w.w.w.w.w.w.w.w.w.w.w.w.w.w.w.w.w.w.w.w.w.w.w.w.w.w.w.w.w.w.w.w.w.w.w.w.w.w.w.w.w.w.w.w.w.w.w.w.w.w.w.w.w.w.w.w.w.w.w.w.w.w.w.w.w.w.w.w.w.w.w.w.w.w.w.w.w.w.w.w.w.w.w.w.w.w.w.w.w.w.w.w.w.w.w.w.w.w.w.w.w.w.w.w.w.w.w.w.w.w.w.w.w.w.w.w.w.w.w.w.w.w.w.w.w.w.w.w.w.w.w.w.w.w.w.w.w.w.w.w.w.w.w.w.w.w.w.w.w.w.w.w.w.w.w.w.w.w.w.w.w.w.w.w.w.w.w.w.w.w.w.w.w.w.w.w.w.w.w.w.w.w.w.w.w.w.w.w.w.w.w.w.w.w.w.w.w.w.w.w.w.w.w.w.w.w.w.@.0.z.w.w.w.w.w.w.w.w.w.w.w.w.w.w.w.w.w.w.w.w.w.w.w.w.w.w.w.w.w.w.w.w.w.w.w.z.9...L ..w.W.w.w.w.w.w.w.w.w.w.w.w.w.w.w.w.w.w.w.w.w.w.w.w.w.w.w.w.w.w.w.w.w.w.",
"w.w.w.w.w.w.w.w.w.w.w.w.w.w.w.w.w.w.w.w.w.w.w.w.0.w.f.w.w.w.f.w.w.f.f.f.f.w.w.w.w.w.w.w.w.w.w.w.w.w.w.w.w.w.w.w.w.z.w.f.f.9.p.w.f.N.f.W.@.f.N.f.e.N.>.e.w.p.9.z.w.w.w.w.w.w.w.w.w.w.w.w.w.w.w.w.w.w.w.w.w.w.w.w.w.w.w.w.w.w.w.w.w.w.w.w.w.w.w.w.w.w.w.w.w.w.w.w.w.w.w.w.w.w.w.w.w.w.w.w.w.w.w.w.w.w.w.w.w.w.w.w.w.w.w.w.w.w.w.w.z.0.w.z.z.9.9.N.w.w.w.w.w.w.w.w.w.w.w.w.w.0.w.z.w.w.z.z.f.w.w.w.w.w.w.w.w.w.w.w.f.w.w.f.w.w.w.z.w.w.w.w.w.w.w.w.z.w.w.w.w.w.w.w.w.w.w.w.w.w.w.w.w.w.w.w.w.w.w.w.w.w.w.w.w.w.w.w.w.w.w.w.w.w.w.w.w.w.w.w.w.w.w.w.w.w.w.w.w.w.w.w.w.w.w.w.w.w.w.w.w.w.@.0.z.w.f.w.w.w.w.w.w.w.w.w.w.w.w.w.w.w.w.w.w.w.w.w.w.w.w.w.w.w.w.w.w.w.w.w.z.z...G @.w.w.z.w.w.w.w.w.w.w.w.w.w.w.w.w.w.w.w.w.w.w.w.w.w.w.w.w.w.w.w.w.w.w.w.",
"w.w.w.w.w.w.w.w.w.w.w.w.w.w.w.w.w.w.w.w.w.w.w.w.z.w.w.w.N.W.N.z.w.w.w.w.w.w.w.w.w.w.w.w.w.w.w.w.w.w.w.w.w.w.w.w.9.z.f.w.W.W.9.-.@.@.@.@.L ..@.@.-.N.{.N.w.z.w.w.w.w.w.w.w.w.w.w.w.w.w.w.w.w.w.w.w.w.w.w.w.w.w.w.w.w.w.w.w.w.w.w.w.w.w.w.w.w.w.w.w.w.w.w.w.w.w.w.w.w.w.w.w.w.w.w.w.w.w.w.w.w.w.w.w.w.w.w.w.w.w.w.w.w.w.w.w.w.w.w.w.z.f.0.w.z.z.w.w.w.w.w.w.w.w.w.w.w.9.w.z.z.f.w.w.w.w.w.w.w.f.z.w.w.w.w.w.w.w.w.w.z.z.w.w.f.z.w.w.w.w.w.w.w.w.w.w.w.w.z.z.e.w.f.w.w.w.w.w.w.w.w.w.w.w.w.w.w.w.w.w.w.w.w.w.w.w.w.w.w.w.w.w.w.w.w.w.w.w.w.w.w.w.w.w.w.w.w.w.w.w.w.w.w.w.w.w.w.w.w.w.w.@.0.z.w.f.w.w.w.w.w.w.w.w.w.w.w.w.w.w.w.w.w.w.w.w.w.w.w.w.w.w.w.w.w.w.w.w.w.w.w.@.L %.w.w.w.w.w.w.w.w.w.w.w.w.w.w.w.w.w.w.w.w.w.w.w.w.w.w.w.w.w.w.w.w.w.w.w.",
"w.w.w.w.w.w.w.w.w.w.w.w.w.w.w.w.w.w.w.w.w.w.w.w.w.w.z.f.9.:.3.w.w.w.w.w.w.w.w.w.w.w.w.w.w.w.w.w.w.w.w.w.w.w.w.w.z.p.f.3.p.9.Y ..@.@.@.@.' ....@.P ' z.9.9.z.e.f.w.w.w.w.w.w.w.w.w.w.w.w.w.w.w.w.w.w.w.w.w.w.w.w.w.w.w.w.w.w.w.w.w.w.w.w.w.w.w.w.w.w.w.w.w.w.w.w.w.w.w.w.w.w.w.w.w.w.w.w.w.w.w.w.w.w.w.w.w.w.w.w.w.w.w.w.w.w.w.w.w.z.f.0.w.N.z.9.w.w.w.w.w.w.w.w.w.w.w.w.w.w.w.0.f.f.w.w.w.w.f.z.w.w.w.w.w.w.w.w.w.w.w.p.e.w.w.w.w.w.w.w.w.w.w.w.w.f.z.z.w.0.w.w.w.w.w.w.w.w.w.w.w.w.w.w.w.w.w.w.w.w.w.w.w.w.w.w.w.w.w.w.w.w.w.w.w.w.w.w.w.w.w.w.w.w.w.w.w.w.w.w.w.w.w.w.w.w.w.w.w.w.@.0.z.w.f.w.w.w.w.w.w.w.w.w.w.w.w.w.w.w.w.w.w.w.w.w.w.w.w.w.w.w.w.w.w.w.w.w.w.w.@.L @.e.z.w.w.w.w.w.w.w.w.w.w.w.w.w.w.w.w.w.w.w.w.w.w.w.w.w.w.w.w.w.w.w.w.w.",
"w.w.w.w.w.w.w.w.w.w.w.w.w.w.w.w.w.w.w.w.w.w.w.w.w.w.z.z.3.@.-.w.z.z.f.f.w.w.w.w.w.w.w.w.w.w.w.w.w.w.w.w.w.w.w.w.z.9.w.w.N.3.` {.f.z.z.z.N.f.f.(.&.' z.w.z.z.9.w.w.w.w.w.w.w.w.w.w.w.w.w.w.w.w.w.w.w.w.w.w.w.w.w.w.w.w.w.w.w.w.w.w.w.w.w.w.w.w.w.w.w.w.w.w.w.w.w.w.w.w.w.w.w.w.w.w.w.w.w.w.w.w.w.w.w.w.w.w.w.w.w.w.w.w.w.w.w.w.w.w.0.w.z.z.w.w.w.w.w.w.w.w.w.w.w.9.w.z.w.9.0.f.N.z.z.z.p.w.w.w.f.w.w.w.w.w.w.w.w.z.9.9.W.W.w.9.e.w.w.w.w.w.w.w.w.f.f.w.w.w.w.f.z.w.w.w.w.w.w.w.w.w.w.w.w.w.w.w.w.w.w.w.w.w.w.w.w.w.w.w.w.w.w.w.w.w.w.w.w.w.w.w.w.w.w.w.w.w.w.w.w.w.w.w.w.w.w.w.w.w.w.@.0.z.w.f.w.w.w.w.w.w.w.w.w.w.w.w.w.w.w.w.w.w.w.w.w.w.w.w.w.w.w.w.w.w.w.w.w.z.w.@.L ..w.z.w.w.w.w.w.w.w.w.w.w.w.w.w.w.w.w.w.w.w.w.w.w.w.w.w.w.w.w.w.w.w.w.w.",
"w.w.w.w.w.w.w.w.w.w.w.w.w.w.w.w.w.w.w.w.w.w.w.w.W.w.9.z.z.w.w.z.f.w.w.w.w.w.w.w.w.w.w.w.w.w.w.w.w.w.w.w.w.w.w.w.z.9.w.w.W.>.Y W.f.N.N.N.N.f.f.(.-.' z.w.z.z.0.w.w.w.w.w.w.w.w.w.w.w.w.w.w.w.w.w.w.w.w.w.w.w.w.w.w.w.w.w.w.w.w.w.w.w.w.w.w.w.w.w.w.w.w.w.w.w.w.w.w.w.w.w.w.w.w.w.w.w.w.w.w.w.w.w.w.w.w.w.w.w.w.w.w.w.w.w.w.w.w.w.z.w.f.f.w.9.w.W.w.w.w.w.w.w.w.w.0.w.z.w.w.z.z.z.0.w.w.z.p.w.w.w.w.w.w.w.w.w.w.w.z.f.w.w.w.f.f.f.w.w.w.w.w.w.w.w.w.w.w.w.z.z.z.w.w.w.w.w.w.w.w.w.w.w.w.w.w.w.w.w.w.w.w.w.w.w.w.w.w.w.w.w.w.w.w.w.w.w.w.w.w.w.w.w.w.w.w.w.w.w.w.w.w.w.w.w.w.w.w.w.w.w.@.9.z.w.f.w.w.w.w.w.w.w.w.w.w.w.w.w.w.w.w.w.w.w.w.w.w.w.w.w.w.w.w.w.w.w.w.w.f.0.%.Y @.9.z.w.w.w.w.w.w.w.w.w.w.w.w.w.w.w.w.w.w.w.w.w.w.w.w.w.w.w.w.w.w.w.w.w.",
"w.w.w.w.w.w.w.w.w.w.w.w.w.w.w.w.w.w.w.w.w.w.w.w.f.0.0.f.z.w.w.f.w.w.w.w.w.w.f.f.w.w.w.w.w.w.w.w.w.w.w.w.w.w.w.w.w.w.z.9.f.3.L Y Y Y Y Y G L L Y P ' z.9.9.z.f.f.w.w.w.w.w.w.w.w.w.w.w.w.w.w.w.w.w.w.w.w.w.w.w.w.w.w.w.w.w.w.w.w.w.w.w.w.w.w.w.w.w.w.w.w.w.w.w.w.w.w.w.w.w.w.w.w.w.w.w.w.w.w.w.w.w.w.w.w.w.w.w.w.w.w.w.w.w.w.w.w.9.z.p.:.%.9.z.z.w.w.w.w.w.w.w.w.z.f.w.w.z.z.3.@.3.9.w.w.f.w.w.w.w.w.w.w.w.w.w.w.w.N.w.@.%.f.W.9.w.w.w.w.w.w.w.w.w.w.w.f.z.w.:.@.w.w.w.w.w.w.w.w.w.w.w.w.w.w.w.w.w.w.w.w.w.w.w.w.w.w.w.w.w.w.w.w.w.w.w.w.w.w.w.w.w.w.w.w.w.w.w.w.w.w.w.w.w.w.w.w.w.w.@.0.z.w.f.w.w.w.w.w.w.w.w.w.w.w.w.w.w.w.w.w.w.w.w.w.w.w.w.w.w.w.w.w.w.w.w.w.f.w.3.:.9.z.z.w.w.w.w.w.w.w.w.w.w.w.w.w.w.w.w.w.w.w.w.w.w.w.w.w.w.w.w.w.w.w.w.w.",
"w.w.w.w.w.w.w.w.w.w.w.w.w.w.w.w.w.w.w.w.w.w.w.w.9.w.z.z.9.3.9.w.z.f.w.w.w.w.f.f.w.w.w.w.w.w.w.w.w.w.w.w.w.w.w.w.9.z.w.w.W.W.4.%.-.:.-.>.T %.-.-.-.N.{.N.w.z.w.w.w.w.w.w.w.w.w.w.w.w.w.w.w.w.w.w.w.w.w.w.w.w.w.w.w.w.w.w.w.w.w.w.w.w.w.w.w.w.w.w.w.w.w.w.w.w.w.w.w.w.w.w.w.w.w.w.w.w.w.w.w.w.w.w.w.w.w.w.w.w.w.w.w.w.w.w.w.w.w.w.9.z.w.:.%.9.z.w.w.w.w.w.w.w.w.w.z.z.w.0.w.f.3...3.9.w.w.w.w.w.w.w.w.w.w.w.w.w.w.0.z.9.%.:.w.z.9.w.w.w.w.w.w.w.w.f.w.w.e.w.9.:.@.w.w.w.w.w.w.w.w.w.w.w.w.w.w.w.w.w.w.w.w.w.w.w.w.w.w.w.w.w.w.w.w.w.w.w.w.w.w.w.w.w.w.w.w.w.w.w.w.w.w.w.w.w.w.w.w.w.w.@.0.z.w.f.w.w.w.w.w.w.w.w.w.w.w.w.w.w.w.w.w.w.w.w.w.w.w.w.w.w.w.w.w.w.w.w.w.z.w.w.z.z.z.z.f.w.w.w.w.w.w.w.w.w.w.w.w.w.w.w.w.w.w.w.w.w.w.w.w.w.w.w.w.w.w.w.w.",
"w.w.w.w.w.w.w.w.w.w.w.w.w.w.w.w.w.w.w.w.w.w.w.w.w.z.W.W.W.{.{.W.W.W.N.z.f.w.w.w.w.w.w.w.w.w.w.w.w.w.w.w.w.w.w.w.f.z.0.w.p.w.v.N.w.z.w.N.@.e.N.z.e.N.>.e.f.f.9.z.w.w.w.w.w.w.w.w.w.w.w.w.w.w.w.w.w.w.w.w.w.w.w.w.w.w.w.w.w.w.w.w.w.w.w.w.w.w.w.w.w.w.w.w.w.w.w.w.w.w.w.w.w.w.w.w.w.w.w.w.w.w.w.w.w.w.w.w.w.w.w.w.w.w.w.w.w.w.w.w.w.w.z.z.z.f.w.w.w.w.w.w.w.w.w.w.9.f.z.w.w.z.N.z.w.f.z.w.w.w.w.w.w.w.w.w.w.w.w.w.z.0.0.z.W.f.w.w.w.w.w.w.w.w.w.w.w.w.w.w.z.z.z.z.w.w.w.w.w.w.w.w.w.w.w.w.w.w.w.w.w.w.w.w.w.w.w.w.w.w.w.w.w.w.w.w.w.w.w.w.w.w.w.w.w.w.w.w.w.w.w.w.w.w.w.w.w.w.w.w.w.w.@.0.z.w.f.w.w.w.w.w.w.w.w.w.w.w.w.w.w.w.w.w.w.w.w.w.w.w.w.w.w.w.w.w.w.w.w.w.f.9.w.z.w.9.w.w.w.w.w.w.w.w.w.w.w.w.w.w.w.w.w.w.w.w.w.w.w.w.w.w.w.w.w.w.w.w.w.w.",
"w.w.w.w.w.w.w.w.w.z.w.w.z.w.0.w.w.w.w.w.w.w.w.w.3.@.W.z.9.[.N.0.e.(.e.@.f.f.f.w.w.w.w.w.w.w.w.w.w.w.w.w.w.w.w.w.w.w.w.w.w.w.w.w.e.w.f.z.@.9.z.w.w.w.w.w.w.w.w.w.w.w.w.w.w.w.w.w.w.w.w.w.w.w.w.w.w.w.w.w.w.w.w.w.w.w.w.w.w.w.w.w.w.w.w.w.w.w.w.w.w.w.w.w.w.w.w.w.w.w.w.w.w.w.w.w.w.w.w.w.w.w.w.w.w.w.w.w.w.w.w.w.w.w.z.W.9.0.N.f.z.0.f.N.w.w.w.f.w.w.w.w.w.w.w.w.z.w.w.z.w.w.z.w.w.w.w.w.w.w.w.w.w.w.w.w.z.N.z.w.w.w.w.w.w.w.w.w.w.w.w.w.w.w.w.w.z.f.w.w.f.f.w.w.w.w.w.w.w.w.w.w.w.w.w.w.w.w.w.w.w.w.w.w.w.w.w.w.w.w.w.w.w.w.w.w.w.w.w.w.w.w.w.w.w.w.w.w.w.w.w.w.w.w.w.w.w.w.w.w.w.w.@.0.z.w.w.w.w.w.w.w.w.w.w.w.w.w.w.w.w.w.w.w.w.w.w.w.w.w.w.w.w.w.w.w.w.w.w.w.w.w.w.w.w.w.w.w.w.w.w.w.w.w.w.w.w.w.w.w.w.w.w.w.w.w.w.w.w.w.w.w.w.w.w.w.w.w.w.w.",
"w.w.w.w.w.w.w.w.0.z.w.w.w.w.f.W.w.w.w.w.w.w.w.w.w.%.W.z.>.0.9.N.8.f.0.&.e.0.9.w.w.w.w.w.w.w.w.w.w.w.w.w.w.w.w.w.w.w.w.w.w.w.w.w.e.w.f.z.@.9.z.w.w.w.w.w.w.w.w.w.w.w.w.w.w.w.w.w.w.w.w.w.w.w.w.w.w.w.w.w.w.w.w.w.w.w.w.w.w.w.w.w.w.w.w.w.w.w.w.w.w.w.w.w.w.w.w.w.w.w.w.w.w.w.w.w.w.w.w.w.w.w.w.w.w.w.w.w.w.w.w.w.z.z.z.-.p.N.>.0.9.0.0.0.w.w.w.w.w.w.w.w.w.w.w.w.f.9.0.N.z.9.w.w.w.w.w.w.w.w.w.w.W.w.w.z.w.9.9.w.w.w.w.w.w.w.w.w.w.w.w.w.w.w.w.w.9.w.w.w.w.w.w.z.w.w.w.w.w.w.w.w.w.w.w.w.w.w.w.w.w.w.w.w.w.w.w.w.w.w.w.w.w.w.w.w.w.w.w.w.w.w.w.w.w.w.w.w.w.w.w.w.w.w.w.w.w.w.w.w.w.w.@.0.z.w.w.w.w.w.w.w.w.w.w.w.w.w.w.w.w.w.w.w.w.w.w.w.w.w.w.w.w.w.w.w.w.w.w.w.w.w.w.w.w.w.w.w.w.w.w.w.w.w.w.w.w.w.w.w.w.w.w.w.w.w.w.w.w.w.w.w.w.w.w.w.w.w.w.w.",
"w.w.w.w.w.w.w.w.W.w.w.z.%.n S 3.w.w.w.w.w.w.w.w.9.` 9.{.{.{.f.W.{.e.%.+.w.N.z.z.w.w.w.w.w.w.w.w.w.w.w.w.w.w.w.w.w.w.w.w.w.w.w.w.e.w.f.z.@.4.z.w.w.w.w.w.w.w.w.w.w.w.w.w.w.w.w.w.w.w.w.w.w.w.w.w.w.w.w.w.w.w.w.w.w.w.w.w.w.w.w.w.w.w.w.w.w.w.w.w.w.w.w.w.w.w.w.w.w.w.w.w.w.w.w.w.w.w.w.w.w.w.w.w.w.w.w.w.w.w.w.w.W...W.[.{.@.' N.[.z.9.0./.z.9.z.w.w.w.w.w.w.w.w.%...%.w.f.9.w.z.w.w.w.w.w.w.w.w.3.w.W.z.%.Y %.W.w.w.w.w.w.w.w.w.w.w.w.w.w.w.w.w.L @.9.N.N.f.0.9.w.w.w.w.w.w.w.w.w.w.w.w.w.w.w.w.w.w.w.w.w.w.w.w.w.w.w.w.w.w.w.w.w.w.w.w.w.w.w.w.w.w.w.w.w.w.w.w.w.w.w.w.w.w.w.w.w.w.@.0.z.w.f.w.w.w.w.w.w.w.w.w.w.w.w.w.w.w.w.w.w.w.w.w.w.w.w.w.w.w.w.w.w.w.w.w.w.w.w.w.w.w.w.w.w.w.w.w.w.w.w.w.w.w.w.w.w.w.w.w.w.w.w.w.w.w.w.w.w.w.w.w.w.w.w.w.",
"w.w.w.w.w.w.w.w.z.9.w.W.:.S L z.w.w.w.w.w.w.w.w.9.L G L Y Y L Y Y G D ' w.z.9.3.w.w.w.w.w.w.w.w.w.w.w.w.w.w.w.w.w.w.w.w.w.w.w.w.e.w.f.z.@.4.z.w.w.w.w.w.w.w.w.w.w.w.w.w.w.w.w.w.w.w.w.w.w.w.w.w.w.w.w.w.w.w.w.w.w.w.w.w.w.w.w.w.w.w.w.w.w.w.w.w.w.w.w.w.w.w.w.w.w.w.w.w.w.w.w.w.w.w.w.w.w.w.w.w.w.w.w.w.w.w.w.w.0.f.{.' ' P ' @.' w.z.w.N.z.0.z.w.w.w.w.w.w.w.w.w.3.0.W.z.w.w.w.w.w.w.w.w.w.w.w.W.w.w.w.w.9.9.z.w.w.w.w.w.w.w.w.w.w.w.w.w.w.w.w.9.w.z.z.w.9.w.z.w.w.w.w.w.w.w.w.w.w.w.w.w.w.w.w.w.w.w.w.w.w.w.w.w.w.w.w.w.w.w.w.w.w.w.w.w.w.w.w.w.w.w.w.w.w.w.w.w.w.w.w.w.w.w.w.w.w.@.9.z.w.f.w.w.w.w.w.w.w.w.w.w.w.w.w.w.w.w.w.w.w.w.w.w.w.w.w.w.w.w.w.w.w.w.w.w.w.w.w.w.w.w.w.w.w.w.w.w.w.w.w.w.w.w.w.w.w.w.w.w.w.w.w.w.w.w.w.w.w.w.w.w.w.w.w.",
"w.w.w.w.w.w.w.w.9.z.w.9.z.{.W.W.w.w.w.w.w.w.w.w.W.3.:.%.......@...@.>.z.W.z.w.W.w.w.w.w.w.w.w.w.w.w.w.w.w.w.w.w.w.w.w.w.w.w.w.w.e.w.f.z.@.9.z.9.w.w.w.w.w.w.w.w.w.w.w.w.w.w.w.w.w.w.w.w.w.w.w.w.w.w.w.w.w.w.w.w.w.w.w.w.w.w.w.w.w.w.w.w.w.w.w.w.w.w.w.w.w.w.w.w.w.w.w.w.w.w.w.w.w.w.w.w.w.w.w.w.w.w.w.w.w.w.w.w.3.$XM   8 8 3 3 $ +.[.9.3.z.z.w.w.w.w.w.w.w.w.w.z.z.W.N.w.f.z.9.w.w.w.w.w.w.w.w.N.f.0.w.z.W.v.w.w.w.w.w.w.w.w.w.w.w.w.w.w.w.w.w.{.W.z.w.9.0.w.z.w.w.w.w.w.w.w.w.w.w.w.w.w.w.w.w.w.w.w.w.w.w.w.w.w.w.w.w.w.w.w.w.w.w.w.w.w.w.w.w.w.w.w.w.w.w.w.w.w.w.w.w.w.w.w.w.w.w.@.9.z.w.f.w.w.w.w.w.w.w.w.w.w.w.w.w.w.w.w.w.w.w.w.w.w.w.w.w.w.w.w.w.w.w.w.w.w.w.w.w.w.w.w.w.w.w.w.w.w.w.w.w.w.w.w.w.w.w.w.w.w.w.w.w.w.w.w.w.w.w.w.w.w.w.w.w.",
"w.w.w.w.w.w.w.w.w.z.w.9.z.{.z.9.w.w.w.w.w.w.w.w.9.w.f.N.W.W.z.w.N.N.e.z.9.9.9.N.w.w.w.w.w.w.w.w.w.w.w.w.w.w.w.w.w.w.w.w.w.w.w.w.e.w.f.z.@.4.z.w.w.w.w.w.w.w.w.w.w.w.w.w.w.w.w.w.w.w.w.w.w.w.w.w.w.w.w.w.w.w.w.w.w.w.w.w.w.w.w.w.w.w.w.w.w.w.w.w.w.w.w.w.w.w.w.w.w.w.w.w.w.w.w.w.w.w.w.w.w.w.w.w.w.w.w.w.w.w.w.w.N.N.n n +Xt.f.+Xt ..w.w.w.w.w.z.w.w.w.w.w.w.w.w.9.9.w.9.9.f.N.w.w.w.w.w.w.w.w.w.:.f.W.w.9.9.w.w.w.w.w.w.w.w.w.w.w.w.w.w.w.w.w.w.3.9.9.f.z.z.w.9.w.w.w.w.w.w.w.w.w.w.w.w.w.w.w.w.w.w.w.w.w.w.w.w.w.w.w.w.w.w.w.w.w.w.w.w.w.w.w.w.w.w.w.w.w.w.w.w.w.w.w.w.w.w.w.w.w.w.@.9.z.w.f.w.w.w.w.w.w.w.w.w.w.w.w.w.w.w.w.w.w.w.w.w.w.w.w.w.w.w.w.w.w.w.w.w.w.w.w.w.w.w.w.w.w.w.w.w.w.w.w.w.w.w.w.w.w.w.w.w.w.w.w.w.w.w.w.w.w.w.w.w.w.w.w.w.",
"w.w.w.w.w.w.w.w.w.w.w.N.N.9.9.W.w.w.w.w.w.w.w.w.W.z.9.9.f.z.z.f.9.9.9.N.z.{.f.0.w.w.w.w.w.w.w.w.w.w.w.w.w.w.w.w.w.w.w.w.w.w.w.w.e.w.f.z.@.9.z.w.w.w.w.w.w.w.w.w.w.w.w.w.w.w.w.w.w.w.w.w.w.w.w.w.w.w.w.w.w.w.w.w.w.w.w.w.w.w.w.w.w.w.w.w.w.w.w.w.w.w.w.w.w.w.w.w.w.w.w.w.w.w.w.w.w.w.w.w.w.w.w.w.w.w.w.w.w.w.w.w.e.0.8.'.;X+X-XoXN.9.8.z.W.w.9.N.w.w.w.w.w.w.w.w.W.N.W.z.w.w.z.9.w.w.w.w.w.w.w.w.z.z.w.w.z.W.z.9.w.w.w.w.w.w.w.w.w.w.w.w.w.w.w.w.{.W.f.w.w.w.z.z.w.w.w.w.w.w.w.w.w.w.w.w.w.w.w.w.w.w.w.w.w.w.w.w.w.w.w.w.w.w.w.w.w.w.w.w.w.w.w.w.w.w.w.w.w.w.w.w.w.w.w.w.w.w.w.w.w.w.@.0.z.w.f.w.w.w.w.w.w.w.w.w.w.w.w.w.w.w.w.w.w.w.w.w.w.w.w.w.w.w.w.w.w.w.w.w.w.w.w.w.w.w.w.w.w.w.w.w.w.w.w.w.w.w.w.w.w.w.w.w.w.w.w.w.w.w.w.w.w.w.w.w.w.w.w.w.",
"w.w.w.w.w.w.w.w.f.z.w.w.z.w.9.z.w.w.w.w.w.w.w.w.9.f.w.z.w.>.3.w.f.f.0.z.3.f.w.w.w.w.w.w.w.w.w.w.w.w.w.w.w.w.w.w.w.w.w.w.w.w.w.w.e.w.f.z.@.9.z.w.w.w.w.w.w.w.w.w.w.w.w.w.w.w.w.w.w.w.w.w.w.w.w.w.w.w.w.w.w.w.w.w.w.w.w.w.w.w.w.w.w.w.w.w.w.w.w.w.w.w.w.w.w.w.w.w.w.w.w.w.w.w.w.w.w.w.w.w.w.w.w.w.w.w.w.w.w.w.w.w.0.N.f.9.9.f.t.t.f.f.N.e.9.w.z.w.w.w.w.w.w.w.w.w.w.9.0.z.w.w.z.z.w.w.w.w.w.w.w.w.w.w.w.z.w.9.0.z.w.w.w.w.w.w.w.w.w.w.w.w.w.w.w.w.0.w.w.f.z.f.w.w.w.w.w.w.w.w.w.w.w.w.w.w.w.w.w.w.w.w.w.w.w.w.w.w.w.w.w.w.w.w.w.w.w.w.w.w.w.w.w.w.w.w.w.w.w.w.w.w.w.w.w.w.w.w.w.w.w.w.@.0.z.w.f.w.w.w.w.w.w.w.w.w.w.w.w.w.w.w.w.w.w.w.w.w.w.w.w.w.w.w.w.w.w.w.w.w.w.w.w.w.w.w.w.w.w.w.w.w.w.w.w.w.w.w.w.w.w.w.w.w.w.w.w.w.w.w.w.w.w.w.w.w.w.w.w.w.",
"w.w.w.w.w.w.w.w.w.w.w.w.w.w.w.w.w.w.w.w.w.w.w.w.f.9.w.z.>.` %.W.w.w.w.w.w.w.w.w.w.w.w.w.w.w.w.w.w.w.w.w.w.w.w.w.w.w.w.w.w.w.w.w.z.9.w.e.-.0.f.Z.T.z.v.Z.N.v.f.z.z.f.z.N.v.a.w.w.z.z.z.z.f.w.w.w.z.z.f.w.w.z.z.w.w.z.w.9.w.w.z.9.w.9.w.z.w.w.w.w.w.w.w.w.w.w.w.w.w.w.w.w.w.w.w.w.w.w.w.w.w.w.w.w.w.w.w.w.w.w.w.w.w.w.w.w.w.w.w.w.w.w.w.w.w.w.w.w.w.w.w.w.w.w.w.w.w.w.w.w.w.w.w.w.w.w.w.w.w.w.w.w.w.w.w.w.w.w.w.w.w.w.w.w.w.w.w.w.w.w.w.w.w.w.w.w.w.w.w.w.w.w.w.w.w.w.w.w.w.w.w.w.w.w.w.w.w.w.w.w.w.w.w.w.w.w.w.w.w.w.w.w.w.w.w.w.w.w.w.w.w.w.w.w.w.w.w.w.w.w.w.w.w.w.w.w.w.w.w.w.w.w.@.0.z.w.p.w.w.w.w.w.w.w.w.w.w.w.w.w.w.w.w.w.w.w.w.w.w.w.w.w.w.w.w.w.w.w.w.w.w.w.w.w.w.w.w.w.w.w.w.w.w.w.w.w.w.w.w.w.w.w.w.w.w.w.w.w.w.w.w.w.w.w.w.w.w.w.w.w.",
"w.w.w.w.w.w.w.w.w.w.w.w.w.w.w.w.w.w.w.w.w.w.w.w.z.w.w.z.f.9.0.z.w.w.w.w.w.w.w.w.w.w.w.w.w.w.w.w.w.w.w.w.w.w.w.w.w.w.w.w.w.w.w.w.p.9.f.e.@.>.*.-.:.3.3.3.3.3.3.:.@.-.-.@.:.w.z.a.9.9.9.w.w.w.w.w.w.f.f.f.f.z.e.w.w.z.f.p.w.w.z.f.p.w.w.z.w.w.z.f.w.w.w.w.w.w.w.w.w.w.w.w.w.w.w.w.w.w.w.w.w.w.w.w.w.w.w.w.w.w.w.w.w.w.w.w.w.w.w.w.w.w.w.w.w.w.w.w.w.w.w.w.w.w.w.w.w.w.w.w.w.w.w.w.w.w.w.w.w.w.w.w.w.w.w.w.w.w.w.w.w.w.w.w.w.w.w.w.w.w.w.w.w.w.w.w.w.w.w.w.w.w.w.w.w.w.w.w.w.w.w.w.w.w.w.w.w.w.w.w.w.w.w.w.w.w.w.w.w.w.w.w.w.w.w.w.w.w.w.w.w.w.w.w.w.w.w.w.w.w.w.w.w.w.w.w.w.w.w.w.w.w.@.0.z.w.w.w.w.w.w.w.w.w.w.w.w.w.w.w.w.w.w.w.w.w.w.w.w.w.w.w.w.w.w.w.w.w.w.w.w.w.w.w.w.w.w.w.w.w.w.w.w.w.w.w.w.w.w.w.w.w.w.w.w.w.w.w.w.w.w.w.w.w.w.w.w.w.w.w.",
"w.w.w.w.w.w.w.w.w.w.w.w.w.w.w.w.w.w.w.w.w.w.w.w.w.f.w.w.z.W.z.0.w.w.w.w.w.w.w.w.w.w.w.w.w.w.w.w.w.w.w.w.w.w.w.w.w.w.w.w.w.w.w.w.w.w.f.f.@.@.P L S L U R R U L S A L D M L 3.z.w.v.v.z.z.f.w.w.w.0.0.w.f.w.w.w.w.w.w.w.p.w.9.0.f.w.w.w.w.w.w.w.w.w.w.w.w.w.w.w.w.w.w.w.w.w.w.w.w.w.w.w.w.w.w.w.w.w.w.w.w.w.w.w.w.w.w.w.w.w.w.w.w.w.w.w.w.w.w.w.w.w.w.w.w.w.w.w.w.w.w.w.w.w.w.w.w.w.w.w.w.w.w.w.w.w.w.w.w.w.w.w.w.w.w.w.w.w.w.w.w.w.w.w.w.w.w.w.w.w.w.w.w.w.w.w.w.w.w.w.w.w.w.w.w.w.w.w.w.w.w.w.w.w.w.w.w.w.w.w.w.w.w.w.w.w.w.w.w.w.w.w.w.w.w.w.w.w.w.w.w.w.w.w.w.w.w.w.w.w.w.w.w.w.w.@.9.z.w.f.w.w.w.w.w.w.w.w.w.w.w.w.w.w.w.w.w.w.w.w.w.w.w.w.w.w.w.w.w.w.w.w.w.w.w.w.w.w.w.w.w.w.w.w.w.w.w.w.w.w.w.w.w.w.w.w.w.w.w.w.w.w.w.w.w.w.w.w.w.w.w.w.w.",
"w.w.w.w.w.w.w.w.w.w.w.w.w.w.w.w.w.w.w.w.w.w.w.w.9.f.z.w.0.w.w.9.w.w.w.w.w.w.w.w.w.w.w.w.w.w.w.w.w.w.w.w.w.w.w.w.w.w.w.w.w.w.w.w.w.w.f.f.@.X.S A D E Q ! ! Q E G B D S n P 9.W.z.9.9.w.w.w.w.w.w.w.w.f.z.z.w.w.z.w.w.z.p.f.z.w.z.w.z.f.w.w.w.w.z.w.w.w.w.w.w.w.w.w.w.w.w.w.w.w.w.w.w.w.w.w.w.w.w.w.w.w.w.w.w.w.w.w.w.w.w.w.w.w.w.w.w.w.w.w.w.w.w.w.w.w.w.w.w.w.w.w.w.w.w.w.w.w.w.w.w.w.w.w.w.w.w.w.w.w.w.w.w.w.w.w.w.w.w.w.w.w.w.w.w.w.w.w.w.w.w.w.w.w.w.w.w.w.w.w.w.w.w.w.w.w.w.w.w.w.w.w.w.w.w.w.w.w.w.w.w.w.w.w.w.w.w.w.w.w.w.w.w.w.w.w.w.w.w.w.w.w.w.w.w.w.w.w.w.w.w.w.w.w.w.w.w.@.9.z.w.f.w.w.w.w.w.w.w.w.w.w.w.w.w.w.w.w.w.w.w.w.w.w.w.w.w.w.w.w.w.w.w.w.w.w.w.w.w.w.w.w.w.w.w.w.w.w.w.w.w.w.w.w.w.w.w.w.w.w.w.w.w.w.w.w.w.w.w.w.w.w.w.w.w.",
"w.w.w.w.w.w.w.w.w.w.w.w.w.w.w.w.w.w.w.w.w.w.w.w.w.f.z.z.w.9.w.w.w.w.w.w.w.w.w.w.w.w.w.w.w.w.w.w.w.w.w.w.w.w.w.w.w.w.w.w.w.w.w.w.w.w.f.e.-.@.D L A T W ~ ~ W T D K P D D ' -.4.4.w.w.f.z.z.f.w.w.z.w.w.w.w.w.w.z.w.0.z.9.w.W.w.9.0.z.w.0.w.w.9.z.w.w.w.w.w.w.w.w.w.w.w.w.w.w.w.w.w.w.w.w.w.w.w.w.w.w.w.w.w.w.w.w.w.w.w.w.w.w.w.w.w.w.w.w.w.w.w.w.w.w.w.w.w.w.w.w.w.w.w.w.w.w.w.w.w.w.w.w.w.w.w.w.w.w.w.w.w.w.w.w.w.w.w.w.w.w.w.w.w.w.w.w.w.w.w.w.w.w.w.w.w.w.w.w.w.w.w.w.w.w.w.w.w.w.w.w.w.w.w.w.w.w.w.w.w.w.w.w.w.w.w.w.w.w.w.w.w.w.w.w.w.w.w.w.w.w.w.w.w.w.w.w.w.w.w.w.w.w.w.w.w.w.@.9.z.w.e.w.w.w.w.w.w.w.w.w.w.w.w.w.w.w.w.w.w.w.w.w.w.w.w.w.w.w.w.w.w.w.w.w.w.w.w.w.w.w.w.w.w.w.w.w.w.w.w.w.w.w.w.w.w.w.w.w.w.w.w.w.w.w.w.w.w.w.w.w.w.w.w.w.",
"w.w.w.w.w.w.w.w.w.w.w.w.w.w.w.w.w.w.w.w.w.w.w.w.z.w.9.w.z.w.w.z.w.w.w.w.w.w.w.w.w.w.w.w.w.w.w.w.w.w.w.w.w.w.w.w.w.w.w.w.w.w.w.w.f.f.w.w.:.@.D L D P T R R U P D K D S D D L L Y 9.0.w.z.N.z.z.f.w.w.w.w.w.z.z.w.p.9.N.w.w./.9.w.w.W.f.w.W.z.0.z.w.w.w.w.w.w.w.w.w.w.w.w.w.w.w.w.w.w.w.w.w.w.w.w.w.w.w.w.w.w.w.w.w.w.w.w.w.w.w.w.w.w.w.w.w.w.w.w.w.w.w.w.w.w.w.w.w.w.w.w.w.w.w.w.w.w.w.w.w.w.w.w.w.w.w.w.w.w.w.w.w.w.w.w.w.w.w.w.w.w.w.w.w.w.w.w.w.w.w.w.w.w.w.w.w.w.w.w.w.w.w.w.w.w.w.w.w.w.w.w.w.w.w.w.w.w.w.w.w.w.w.w.w.w.w.w.w.w.w.w.w.w.w.w.w.w.w.w.w.w.w.w.w.w.w.w.w.w.w.w.w.w.@.9.z.w.f.w.w.w.w.w.w.w.w.w.w.w.w.w.w.w.w.w.w.w.w.w.w.w.w.w.w.w.w.w.w.w.w.w.w.w.w.w.w.w.w.w.w.w.w.w.w.w.w.w.w.w.w.w.w.w.w.w.w.w.w.w.w.w.w.w.w.w.w.w.w.w.w.w.",
"w.w.w.w.w.w.w.w.w.w.w.w.w.w.w.w.w.w.w.w.w.w.w.w.z.0.9.w.z.z.f.w.w.w.w.w.w.w.w.w.w.w.w.w.w.w.w.w.w.w.w.w.w.w.w.w.w.w.w.w.w.w.w.w.w.z.w.0.:.' b A n n n n n n n n B B B B n n n B G L ' %.>.3.9.9.:.3.3.3.9.z.w.3.9.-.w.w.9.9.-.z.9.w.:.:.N.z.>.3.w.w.w.w.w.w.w.w.w.w.w.w.w.w.w.w.w.w.w.w.w.w.w.w.w.w.w.w.w.w.w.w.w.w.w.w.w.w.w.w.w.w.w.w.w.w.w.w.w.w.w.w.w.w.w.w.w.w.w.w.w.w.w.w.w.w.w.w.w.w.w.w.w.w.w.w.w.w.w.w.w.w.w.w.w.w.w.w.w.w.w.w.w.w.w.w.w.w.w.w.w.w.w.w.w.w.w.w.w.w.w.w.w.w.w.w.w.w.w.w.w.w.w.w.w.w.w.w.w.w.w.w.w.w.w.w.w.w.w.w.w.w.w.w.w.w.w.w.w.w.w.w.w.w.w.w.w.w.w.w.w.w.@.0.z.w.f.w.w.w.w.w.w.w.w.w.w.w.w.w.w.w.w.w.w.w.w.w.w.w.w.w.w.w.w.w.w.w.w.w.w.w.w.w.w.w.w.w.w.w.w.w.w.w.w.w.w.w.w.w.w.w.w.w.w.w.w.w.w.w.w.w.w.w.w.w.w.w.w.w.",
"w.w.w.w.w.w.w.w.w.w.w.w.w.w.w.w.w.w.w.w.w.w.w.w.0.w.e.w.w.w.w.w.w.w.w.w.w.w.w.w.w.w.w.w.w.w.w.w.w.w.w.w.w.w.w.w.w.w.w.w.w.w.w.w.w.z.w.0.-.Y t f f s d d d a a s a a s a a a f g G L Y ` ' ` Y L M G L G Y ..` S Y n ` ' Y G n @.Y Y M S ....S M w.w.w.w.w.w.w.w.w.w.w.w.w.w.w.w.w.w.w.w.w.w.w.w.w.w.w.w.w.w.w.w.w.w.w.w.w.w.w.w.w.w.w.w.w.w.w.w.w.w.w.w.w.w.w.w.w.w.w.w.w.w.w.w.w.w.w.w.w.w.w.w.w.w.w.w.w.w.w.w.w.w.w.w.w.w.w.w.w.w.w.w.w.w.w.w.w.w.w.w.w.w.w.w.w.w.w.w.w.w.w.w.w.w.w.w.w.w.w.w.w.w.w.w.w.w.w.w.w.w.w.w.w.w.w.w.w.w.w.w.w.w.w.w.w.w.w.w.w.w.w.w.w.w.w.w.w.w.w.w.w.w.@.0.z.w.f.w.w.w.w.w.w.w.w.w.w.w.w.w.w.w.w.w.w.w.w.w.w.w.w.w.w.w.w.w.w.w.w.w.w.w.w.w.w.w.w.w.w.w.w.w.w.w.w.w.w.w.w.w.w.w.w.w.w.w.w.w.w.w.w.w.w.w.w.w.w.w.w.w.",
"z.z.z.z.z.z.z.z.z.z.z.z.z.z.z.z.z.z.z.z.z.z.z.z.{.w.9.w.N.z.w.f.z.z.z.z.z.z.z.z.z.z.z.z.z.z.z.z.z.z.z.z.z.z.z.z.z.z.z.z.z.z.z.z.N.z.w.z.-.` S D n L L L Y :.3.%.:.:.:.:.:.:.:.:.9.9.9.9.9.9.9.9.3.3.3.3.3.3.3.3.9.3.3.>.>.3.3.9.:.:.>.3.>.>.3.3.w.w.w.w.w.w.w.w.w.w.w.w.w.w.w.w.w.w.w.w.w.w.w.w.w.w.w.w.w.w.w.w.w.w.w.w.w.w.w.w.w.w.w.w.w.w.w.w.w.w.w.w.w.w.w.w.w.w.w.w.w.w.w.w.w.w.w.w.w.w.w.w.w.w.w.w.w.w.w.w.w.w.w.w.w.w.w.w.w.w.w.w.w.w.w.w.w.w.w.w.w.w.w.w.w.w.w.w.w.w.w.w.w.w.w.w.w.w.w.w.w.w.w.w.w.w.w.w.w.w.w.w.w.w.w.w.W.9.w.9.z.w.W.f.f.e.8.N.f.9.N.e.w.w.w.w.w.w.w.w.f.f.@.0.z.z.z.z.z.z.z.z.z.z.z.z.z.z.z.z.z.z.z.z.z.z.z.z.z.z.z.z.z.z.z.z.z.z.z.z.z.z.z.z.z.z.z.z.z.z.z.z.z.z.z.z.z.z.z.z.z.z.z.z.z.z.z.z.z.z.z.z.z.z.z.z.z.z.z.z.",
"................................................Y @.>.%.L n L %.................................................................' ....%.' Y H Y Y -.w.9.9.w.z.f.z.z.z.z.z.z.z.z.w.w.w.w.w.w.w.w.w.w.w.w.w.w.w.w.f.w.w.w.w.w.w.p.w.f.z.z.z.z.z.N.w.w.w.w.w.w.w.w.w.w.w.w.w.w.w.w.w.w.w.w.w.w.w.w.w.w.w.w.w.w.w.w.w.w.w.w.w.w.w.w.w.w.w.w.w.w.w.w.w.w.w.w.w.w.w.w.w.w.w.w.w.w.w.w.w.w.w.w.w.w.w.w.w.w.w.w.w.w.w.w.w.w.w.w.w.w.w.w.w.w.w.w.w.w.w.w.w.w.w.w.w.w.w.w.w.w.w.w.w.w.w.w.w.w.w.w.w.w.w.w.w.w.w.w.w.w.w.w.f.f.w.w.w.w.f.f.9.9.W.z.p.9.0.3.0.f.0.w.0.9.w.f.w.w.w.w.w.w.w.w.f.w.` -.-.@.....@.@.@.@.@.@.@.@.................@.@.@.@.@.@.@.@.................................................................................................",
"w.w.w.w.w.w.w.w.w.w.w.w.w.w.w.w.w.w.w.w.w.w.w.w.z.0.9.9.w.9.9.0.w.w.w.w.w.w.w.w.w.w.w.w.w.w.w.w.w.w.w.w.w.w.w.w.w.w.w.w.w.w.w.w.9.0.9.9...X.X.@.-.8.0.9.9.w.z.w.w.w.w.w.w.w.w.w.e.e.f.f.f.f.f.f.z.z.z.z.z.z.z.z.z.z.z.f.w.z.z.z.9.0.w.w.w.w.w.e.w.w.w.w.w.w.w.w.w.w.w.w.w.w.w.w.w.w.w.w.w.w.w.w.w.w.w.w.w.w.w.w.w.w.w.w.w.w.w.w.w.w.w.w.w.w.w.w.w.w.w.w.w.w.w.w.w.w.w.w.w.w.w.w.w.w.w.w.w.w.w.w.w.w.w.w.w.w.w.w.w.w.w.w.w.w.w.w.w.w.w.w.w.w.w.w.w.w.w.w.w.w.w.w.w.w.w.w.w.w.w.w.w.w.w.w.w.w.w.w.w.w.w.w.w.w.w.w.f.f.w.w.w.w.f.f.w.w.9.9.9./.+X+Xz.{. X[..X{.9.w.w.w.w.w.w.w.w.w.w.w...9.w.9.9.9.9.9.0.0.9.9.9.9.w.w.w.w.w.w.w.w.9.9.9.9.9.9.0.0.w.w.w.w.w.w.w.w.w.w.w.w.w.w.w.w.w.w.w.w.w.w.w.w.w.w.w.w.w.w.w.w.w.w.w.w.w.w.w.w.w.w.w.w.w.w.w.w.",
"w.w.w.w.w.w.w.w.w.w.w.w.w.w.w.w.w.w.w.w.w.w.w.w.z.9.9.w.z.z.z.z.w.w.w.w.w.w.w.w.w.w.w.w.w.w.w.w.w.w.w.w.w.w.w.w.w.w.w.w.w.w.w.w.f.z.z.z.%.3.9.9.e.9.>.3.9.f.f.w.w.w.w.w.w.w.w.w.w.w.w.w.w.w.w.w.w.w.w.w.w.w.w.w.w.w.w.w.w.w.w.w.w.w.w.w.w.w.w.e.w.w.w.w.w.w.w.w.w.w.w.w.w.w.w.w.w.w.w.w.w.w.w.w.w.w.w.w.w.w.w.w.w.w.w.w.w.w.w.w.w.w.w.w.w.w.w.w.w.w.w.w.w.w.w.w.w.w.w.w.w.w.w.w.w.w.w.w.w.w.w.w.w.w.w.w.w.w.w.w.w.w.w.w.w.w.w.w.w.w.w.w.w.w.w.w.w.w.w.w.w.w.w.w.w.w.w.w.w.w.w.w.w.w.w.w.w.w.w.w.w.w.w.w.w.w.w.w.w.w.w.w.w.w.w.w.z.z.9.9.-.f.w.3.z.w.0.3.f.0.@.9.w.w.w.w.w.w.w.w.f.f.@.w.z.z.z.z.w.w.w.w.w.w.w.w.w.w.w.w.w.w.w.w.f.f.w.w.w.w.w.w.w.w.w.w.w.w.w.w.w.w.w.w.w.w.w.w.w.w.w.w.w.w.w.w.w.w.w.w.w.w.w.w.w.w.w.w.w.w.w.w.w.w.w.w.w.w.w.w.",
"f.f.f.f.f.f.f.f.f.f.f.f.f.f.f.f.f.f.f.f.f.f.f.f.w.f.z.z.w.9.w.N.f.f.f.f.f.f.f.f.f.f.f.f.f.f.f.f.f.f.f.f.f.f.f.f.f.f.f.f.f.f.f.f.9.9.9.w.@.9.0.4.9.9.0.w.w.w.w.f.f.f.f.f.f.f.f.f.w.w.w.w.w.w.w.w.w.w.w.w.w.w.w.w.w.w.w.f.w.w.w.w.z.z.z.z.z.z.z.z.w.w.w.w.w.w.w.w.w.w.w.w.w.w.w.w.w.w.w.w.w.w.w.w.w.w.w.w.w.w.w.w.w.w.w.w.w.w.w.w.w.w.w.w.w.w.w.w.w.w.w.w.w.w.w.w.w.w.w.w.w.w.w.w.w.w.w.w.w.w.w.w.w.w.w.w.w.w.w.w.w.w.w.w.w.w.w.w.w.w.w.w.w.w.w.w.w.w.w.w.w.w.w.w.w.w.w.w.w.w.w.w.w.w.w.w.w.w.w.w.w.w.w.w.w.w.w.w.w.w.f.f.f.f.w.w.z.N.w.0.-.f.z.p.0.9.f.f.(.0.@.{.w.w.w.w.w.w.w.w.w.w...9.w.w.w.w.w.z.z.z.z.z.z.f.f.f.f.f.f.w.f.w.f.z.z.z.z.z.w.w.f.f.f.f.f.f.f.f.f.f.f.f.f.f.f.f.f.f.f.f.f.f.f.f.f.f.f.f.f.f.f.f.f.f.f.f.f.f.f.f.f.f.f.f.f.f.f.f.",
"w.w.w.w.w.w.w.w.w.w.w.w.w.w.w.w.w.w.w.w.w.w.w.w.z.w.9.w.w.f.w.9.w.w.w.w.w.w.w.w.w.w.w.w.w.w.w.w.w.w.w.w.w.w.w.w.w.w.w.w.w.w.w.w.W.z.z.z.@.4.9.-.9.8.>.>.9.w.w.w.w.w.w.w.w.w.w.w.w.w.w.w.w.w.w.w.f.f.f.f.f.f.f.f.w.w.f.f.f.f.w.w.w.w.w.w.w.w.w.w.w.w.w.w.w.w.w.w.w.w.w.w.w.w.w.w.w.w.w.w.w.w.w.w.w.w.w.w.w.w.w.w.w.w.w.w.w.w.w.w.w.w.w.w.w.w.w.w.w.w.w.w.w.w.w.w.w.w.w.w.w.w.w.w.w.w.w.w.w.w.w.w.w.w.w.w.w.w.w.w.w.w.w.w.w.w.w.w.w.w.w.w.w.w.w.w.w.w.w.w.w.w.w.w.w.w.w.w.w.w.w.w.w.w.w.w.w.w.w.w.w.w.w.w.w.w.w.w.w.f.f.z.z.f.f.w.w.z.f.3.' %.9.N.w.f.N.w.:.' Y 9.w.w.w.w.w.w.w.w.0.w...9.z.z.z.z.w.w.w.9.0.w.w.w.w.w.w.w.w.w.w.w.9.9.9.w.w.w.w.w.w.w.w.w.w.w.w.w.w.w.w.w.w.w.w.w.w.w.w.w.w.w.w.w.w.w.w.w.w.w.w.w.w.w.w.w.w.w.w.w.w.w.w.w.w.w.w.w.",
"w.w.w.w.w.w.w.w.w.w.w.w.w.w.w.w.w.w.w.w.w.w.w.w.0.w.z.z.f.f.z.W.w.w.w.w.w.w.w.w.w.w.w.w.w.w.w.w.w.w.w.w.w.w.w.w.w.w.w.w.w.w.w.w.z.9.w.N.@.3.w.9.N.0.>.:.9.N.W.f.e.e.w.e.f.f.f.f.w.w.w.w.w.w.w.w.w.w.w.w.w.w.w.w.w.w.w.w.w.w.w.w.z.e.w.w.z.z.f.w.w.w.w.w.w.w.w.w.w.w.w.w.w.w.w.w.w.w.w.w.w.w.w.w.w.w.w.w.w.w.w.w.w.w.w.w.w.w.w.w.w.w.w.w.w.w.w.w.w.w.w.w.w.w.w.w.w.w.w.w.w.w.w.w.w.w.w.w.w.w.w.w.w.w.w.w.w.w.w.w.w.w.w.w.w.w.w.w.w.w.w.w.w.w.w.w.w.w.w.w.w.w.w.w.w.w.w.w.w.w.w.w.w.w.w.w.w.w.w.w.w.w.w.w.w.w.w.w.f.w.w.w.w.w.w.f.9.w.W.9.' S S M N N n M S P 3.{.w.w.w.w.w.w.w.w.z.z.@.9.z.w.0.9.z.z.z.z.z.z.z.N.w.w.w.w.w.w.w.w.z.z.z.N.N.z.z.z.w.w.w.w.w.w.w.w.w.w.w.w.w.w.w.w.w.w.w.w.w.w.w.w.w.w.w.w.w.w.w.w.w.w.w.w.w.w.w.w.w.w.w.w.w.w.w.w.",
"w.w.w.w.w.w.w.w.w.w.w.w.w.w.w.w.w.w.w.w.w.w.w.w.z.w.9.w.z.W.z.9.w.w.w.w.w.w.w.w.w.w.w.w.w.w.w.w.w.w.w.w.w.w.w.w.w.w.w.w.w.w.w.w.z.9.w.W.@.%.9.3.-.0.z.w.9.0.w.w.w.w.w.w.w.w.w.w.w.w.w.w.w.w.w.w.w.w.w.w.w.w.w.w.f.f.w.w.w.w.f.f.z.w.w.w.f.f.w.w.w.w.w.w.w.w.w.w.w.w.w.w.w.w.w.w.w.w.w.w.w.w.w.w.w.w.w.w.w.w.w.w.w.w.w.w.w.w.w.w.w.w.w.w.w.w.w.w.w.w.w.w.w.w.w.w.w.w.w.w.w.w.w.w.w.w.w.w.w.w.w.w.w.w.w.w.w.w.w.w.w.w.w.w.w.w.w.w.w.w.w.w.w.w.w.w.w.w.w.w.w.w.w.w.w.w.w.w.w.w.w.w.w.w.w.w.w.w.w.w.w.w.w.w.w.w.w.w.f.w.9.8.8.9.w.f.z.9.z.f.N.9.w.9.9.e.8.0.e.w.N.%.w.w.w.w.w.w.w.w.w.w...w.z.z.z.z.w.w.9.9.9.0.w.w.w.w.w.w.w.w.w.w.e.f.f.w.w.9.9.3.w.w.w.w.w.w.w.w.w.w.w.w.w.w.w.w.w.w.w.w.w.w.w.w.w.w.w.w.w.w.w.w.w.w.w.w.w.w.w.w.w.w.w.w.w.w.w.w.",
"w.w.w.w.w.w.w.w.w.w.w.w.w.w.w.w.w.w.w.w.w.w.w.w.e.w.9.z.:.Y %.z.w.w.w.w.w.w.w.w.w.w.w.w.w.w.w.w.w.w.w.w.w.w.w.w.w.w.w.w.w.w.w.w.f.w.z.z.@.-.@.H b 3.z.w.f.0.w.z.z.w.w.w.9.w.a.w.w.w.w.w.w.w.w.w.w.w.w.w.w.w.w.w.z.w.0.w.w.9.w.T.w.w.w.w.w.w.w.w.w.w.w.w.w.w.w.w.w.w.w.w.w.w.w.w.w.w.w.w.w.w.w.w.w.w.w.w.w.w.w.w.w.w.w.w.w.w.w.w.w.w.w.w.w.w.w.w.w.w.w.w.w.w.w.w.w.w.w.w.w.w.w.w.w.w.w.w.w.w.w.w.w.w.w.w.w.w.w.w.w.w.w.w.w.w.w.w.w.w.w.w.w.w.w.w.z.0.0.f.z.f.w.z.w.w.w.w.w.w.w.w.w.w.w.w.w.w.w.w.w.w.w.w.w.w.w.w.z.N.3.` @.w.W.0.0.z.z.0.f.w.w.p.f.z.9.z.N.3.@.` w.w.w.w.w.w.w.w.w.w.@.0.z.w.f.w.w.z.@.` w.z.3.W.w.w.w.w.w.w.w.w.w.W.9.9.W.:.' 3.w.w.w.w.w.w.w.w.9.e.W.e.9.z.w.f.9.{.9.w.{.3.|.9.w.w.w.w.w.w.w.w.w.w.w.w.w.w.w.w.w.w.w.w.w.w.w.w.",
"w.w.w.w.w.w.w.w.w.w.w.w.w.w.w.w.w.w.w.w.w.w.w.w.w.z.w.z.9.-.w.N.w.w.w.w.w.w.w.w.w.w.w.w.w.w.w.w.w.w.w.w.w.w.w.w.w.w.w.w.w.w.w.w.9.W.9.9.:.@.L Y S 9.w.0.W.N.e.w.w.z.z.w.w.z.N.z.w.w.w.w.w.w.w.w.w.w.w.w.w.w.w.w.9.z.N.z.w.z.z.p.w.w.w.w.w.w.w.w.w.w.w.w.w.w.w.w.w.w.w.w.w.w.w.w.w.w.w.w.w.w.w.w.w.w.w.w.w.w.w.w.w.w.w.w.w.w.w.w.w.w.w.w.w.w.w.w.w.w.w.w.w.w.w.w.w.w.w.w.w.w.w.w.w.w.w.w.w.w.w.w.w.w.w.w.w.w.w.w.w.w.w.w.w.w.w.w.w.w.w.w.w.w.w.w.9.z.N.w.9.w.w.0.w.w.w.w.w.w.w.w.w.w.w.w.w.w.w.w.w.w.w.w.w.w.w.w.w.f.w.0.w.N.z.9.w.f.f.w.w.w.w.z.w.w.9.z.N.z.z.w.w.w.w.w.w.w.w.w.w.w.@.0.z.w.f.w.w.W.9.3.W.z.9.z.w.w.w.w.w.w.w.w.9.z.9.w.{.w.3.W.w.w.w.w.w.w.w.w.z.3.9.z.z.9.z.f.f.9.f.p.w.9.9.W.w.w.w.w.w.w.w.w.w.w.w.w.w.w.w.w.w.w.w.w.w.w.w.w.",
"w.w.w.w.w.w.w.w.w.w.w.w.w.w.w.w.w.w.w.w.w.w.w.w.9.z.w.w.w.f.W.w.w.w.w.w.w.w.w.w.w.w.w.w.w.w.w.w.w.w.w.w.w.w.w.w.w.w.w.w.w.w.w.w.w.9.w.[.@.L L X.T N.(.0.w.9.w.z.9.z.w.w.f.9.:.9.w.w.w.w.w.w.w.w.w.w.w.w.w.w.w.w.z.w.9.0.w.9.9.9.w.w.w.w.w.w.w.w.w.w.w.w.w.w.w.w.w.w.w.w.w.w.w.w.w.w.w.w.w.w.w.w.w.w.w.w.w.w.w.w.w.w.w.w.w.w.w.w.w.w.w.w.w.w.w.w.w.w.w.w.w.w.w.w.w.w.w.w.w.w.w.w.w.w.w.w.w.w.w.w.w.w.w.w.w.w.w.w.w.w.w.w.w.w.w.w.w.w.w.w.w.w.w.w.z.z.z.z.z.z.z.z.w.w.w.w.w.w.w.w.w.w.w.w.w.w.w.w.w.w.w.w.w.w.w.w.f.w.w.z.N.f.w.w.w.z.w.w.9.w.w.9.e.w.w.w.9.w.z.w.w.w.w.w.w.w.w.w.w.w.@.0.z.w.f.w.w.z.z.f.z.w.9.w.w.w.w.w.w.w.w.w.w.z.w.w.z.z.w.W.w.w.w.w.w.w.w.w.N.9.w.z.z.3.{.9.f.f. Xv.9./.N.9.w.w.w.w.w.w.w.w.w.w.w.w.w.w.w.w.w.w.w.w.w.w.w.w.",
"w.w.w.w.w.w.w.w.w.w.w.w.w.w.w.w.w.w.w.w.w.w.w.w.9.z.w.w.w.z.z.9.w.w.w.w.w.w.w.w.w.w.w.w.w.w.w.w.w.w.w.w.w.w.w.w.w.w.w.w.w.w.w.w.z.w.w.f...-.@.A f :.f.e.z.0.0.w.T.w.3.w.9.K s J w.w.w.w.w.w.w.w.w.w.w.w.w.w.w.w.z.w.N.z.' s n =.w.w.w.w.w.w.w.w.w.w.w.w.w.w.w.w.w.w.w.w.w.w.w.w.w.w.w.w.w.w.w.w.w.w.w.w.w.w.w.w.w.w.w.w.w.w.w.w.w.w.w.w.w.w.w.w.w.w.w.w.w.w.w.w.w.w.w.w.w.w.w.w.w.w.w.w.w.w.w.w.w.w.w.w.w.w.w.w.w.w.w.w.w.w.w.w.w.w.w.w.w.w.w.w.f.%.@.9.W.z.0.f.w.w.w.w.w.w.w.w.w.w.w.w.w.w.w.w.w.w.w.w.w.w.w.w.z.w.9.w.w.9.w.N.p.z.w.w.9.z.z.w.9.9.z.e.0.z.z.0.w.w.w.w.w.w.w.w.w.w.@.0.z.w.f.w.w.w.f.f.w.w.w.w.w.w.w.w.w.w.w.w.f.w.w.w.9.w.w.0.w.w.w.w.w.w.w.w.w.w.z.0.z.9.W.n + 3 3 3 4 r /.9.w.w.w.w.w.w.w.w.w.w.w.w.w.w.w.w.w.w.w.w.w.w.w.w.",
"w.w.w.w.w.w.w.w.w.w.w.w.w.w.w.w.w.w.w.w.w.w.w.w.z.f.z.f.f.z.w.w.w.w.w.w.w.w.w.w.w.w.w.w.w.w.w.w.w.w.w.w.w.w.w.w.w.w.w.w.w.w.w.w.9.W.w.9.-.' G ' G 9.0.9.z.z.f.w.T.a.9.z.f.) C | w.w.w.w.w.w.w.w.w.w.w.w.w.w.w.w.a.9.z.N.@.n K t.w.w.w.w.w.w.w.w.w.w.w.w.w.w.w.w.w.w.w.w.w.w.w.w.w.w.w.w.w.w.w.w.w.w.w.w.w.w.w.w.w.w.w.w.w.w.w.w.w.w.w.w.w.w.w.w.w.w.w.w.w.w.w.w.w.w.w.w.w.w.w.w.w.w.w.w.w.w.w.w.w.w.w.w.w.w.w.w.w.w.w.w.w.w.w.w.w.w.w.w.w.w.w.w.w.%.@.9.W.p.9.w.w.w.w.w.w.w.w.w.w.w.w.w.w.w.w.w.w.w.w.w.w.w.w.w.w.w.z.z.w.w.w.w.w.w.0.z.9.{.{.W.W.z.{.W.W.{.f.w.w.w.w.w.w.w.w.w.w.w.@.9.z.w.f.w.z.0.w.w.9.w.z.f.w.w.w.w.w.w.w.w.w.w.f.w.9.f.z.w.w.w.w.w.w.w.w.w.w.w.w.9.W.f.9.; D ] ) ' D ; f./.w.w.w.w.w.w.w.w.w.w.w.w.w.w.w.w.w.w.w.w.w.w.w.w.",
"w.w.w.w.w.w.w.w.w.w.w.w.w.w.w.w.w.w.w.w.w.w.w.w.z.0.f.f.p.w.9.z.w.w.w.w.w.w.w.w.w.w.w.w.w.w.w.w.w.w.w.w.w.w.w.w.w.w.w.w.w.w.w.w.w.w.f.W.%.Y L @.' N.N.9.f.w.w.w.9.z.w.e.N.f.f.{.w.w.w.w.w.w.w.w.w.w.w.w.w.w.w.w.T.9.3.w.{.{.N.f.w.w.w.w.w.w.w.w.w.w.w.w.w.w.w.w.w.w.w.w.w.w.w.w.w.w.w.w.w.w.w.w.w.w.w.w.w.w.w.w.w.w.w.w.w.w.w.w.w.w.w.w.w.w.w.w.w.w.w.w.w.w.w.w.w.w.w.w.w.w.w.w.w.w.w.w.w.w.w.w.w.w.w.w.w.w.w.w.w.w.w.w.w.w.w.w.w.w.w.w.w.w.w.w.w.z.z.w.f.z.z.e.w.w.w.w.w.w.w.w.w.w.w.w.w.w.w.w.w.w.w.w.w.w.w.w.9.z.z.w.w.p.z.w.w.f.9.z.%.N.W.z.{.z.W.w.z.N.:.9.w.w.w.w.w.w.w.w.w.w.@.0.z.w.f.w.e.w.w.z.w.f.f.0.w.w.w.w.w.w.w.w.w.w.z.z.w.p.z.w.w.w.w.w.w.w.w.w.w.w.f.0.z.9.z.D XX+X>X-X+X' f.9.w.w.w.w.w.w.w.w.w.w.w.w.w.w.w.w.w.w.w.w.w.w.w.w.",
"w.w.w.w.w.w.w.w.w.w.w.w.w.w.w.w.w.w.w.w.w.w.w.w.f.9.f.w.w.z.9.z.w.w.w.w.w.w.w.w.w.w.w.w.w.w.w.w.w.w.w.w.w.w.w.w.w.w.w.w.w.w.w.w.N.f.f.9.' 9.:.n f -.z.z.W.w.9.9.w.z.f.9.9.p.p.0.w.w.w.w.w.w.w.w.w.w.w.w.w.w.w.w.0.f.z.w.0.w.0.9.w.w.w.w.w.w.w.w.w.w.w.w.w.w.w.w.w.w.w.w.w.w.w.w.w.w.w.w.w.w.w.w.w.w.w.w.w.w.w.w.w.w.w.w.w.w.w.w.w.w.w.w.w.w.w.w.w.w.w.w.w.w.w.w.w.w.w.w.w.w.w.w.w.w.w.w.w.w.w.w.w.w.w.w.w.w.w.w.w.w.w.w.w.w.w.w.w.w.w.w.w.w.w.w.9.z.N.w.9.9.w.9.w.w.w.w.w.w.w.w.w.w.w.w.w.w.w.w.w.w.w.w.w.w.w.w.e.f.w.9.9.w.f.w.z.z.0.f...w.z.w.9.9.w.3.z.w.@.w.w.w.w.w.w.w.w.w.w.w.@.0.z.w.f.w.w.w.w.w.w.w.0.0.w.w.w.w.w.w.w.w.f.f.w.w.w.w.0.w.w.w.w.w.w.w.w.w.z.f.W.f.9.9.{.{.{.Z.{.f./.{./.0.w.w.w.w.w.w.w.w.w.w.w.w.w.w.w.w.w.w.w.w.w.w.w.w.",
"w.w.w.w.w.w.w.w.w.w.w.w.w.w.w.w.w.w.w.w.w.w.w.w.f.9.N.w.w.W.0.w.w.w.w.w.w.w.w.w.w.w.w.w.w.w.w.w.w.w.w.w.w.w.w.w.w.w.w.w.w.w.w.w.0.0.0.{.:.H A -.' N.f.8.w.f.e.f.w.0.w.z.a.a.a.9.w.w.w.w.w.w.w.w.w.w.w.w.w.w.w.w.w.w.z.z.w.9.a.!.w.w.w.w.w.w.w.w.w.w.w.w.w.w.w.w.w.w.w.w.w.w.w.w.w.w.w.w.w.w.w.w.w.w.w.w.w.w.w.w.w.w.w.w.w.w.w.w.w.w.w.w.w.w.w.w.w.w.w.w.w.w.w.w.w.w.w.w.w.w.w.w.w.w.w.w.w.w.w.w.w.w.w.w.w.w.w.w.w.w.w.w.w.w.w.w.w.w.w.w.w.w.w.w.z.w.w.z.z.z.w.z.w.w.w.w.w.w.w.w.w.w.w.w.w.w.w.w.w.w.w.w.w.w.w.w.w.w.w.z.z.z.w.w.w.f.9.z...f.W.W.N.W.{.f.{.9.L 9.w.w.w.w.w.w.w.w.w.w.@.0.z.w.f.w.w.z.w.w.w.w.w.W.w.w.w.w.w.w.w.w.w.w.9.w.z.w.w.z.w.w.w.w.w.w.w.w.f.w.f.w.w.z.0.9.0.f.3.f.9.w.9.z.w.w.w.w.w.w.w.w.w.w.w.w.w.w.w.w.w.w.w.w.w.w.w.w.",
"w.w.w.w.w.w.w.w.w.w.w.w.w.w.w.w.w.w.w.w.w.w.w.w.0.w.w.0.3.M 3.z.w.w.w.w.w.w.w.w.w.w.w.w.w.w.w.w.w.w.w.w.w.w.w.w.w.w.w.w.w.w.w.w.0.z.w.f.-...Y ' L w.N.0.w.w.z.w.w.w.w.w.w.w.w.w.w.w.w.w.w.w.w.w.w.w.w.w.w.w.w.w.w.w.w.w.w.w.w.w.w.w.w.w.w.w.w.w.w.w.w.w.w.w.w.w.w.w.w.w.w.w.w.w.w.w.w.w.w.w.w.w.w.w.w.w.w.w.w.w.w.w.w.w.w.w.w.w.w.w.w.w.w.w.w.w.w.w.w.w.w.w.w.w.w.w.w.w.w.w.w.w.w.w.w.w.w.w.w.w.w.w.w.w.w.w.w.w.w.0.w.z.z.w.0.w.w.w.w.w.w.w.w.w.f.0.0.f.w.9.0.f.w.w.w.w.w.w.w.w.w.w.w.w.w.w.w.w.w.w.w.w.w.w.w.w.w.w.w.w.w.w.w.w.w.z.z.4.' S S Y ' P Y / D A ' t.w.w.w.w.w.w.w.w.w.w.@.0.z.w.w.w.w.w.w.w.w.w.w.w.0.f.W.z.9.e.z.9.z.9.0.N.0.f.0.0.w.w.w.w.w.w.w.w.w.w.w.w.w.w.w.w.w.w.w.w.w.w.w.w.w.w.w.w.w.w.w.w.w.w.w.w.w.w.w.w.w.w.w.w.w.w.w.w.",
"w.w.w.w.w.w.w.w.w.w.w.w.w.w.w.w.w.w.w.w.w.w.w.w.z.z.0.9.W.9.{.0.w.w.w.w.w.w.w.w.w.w.w.w.w.w.w.w.w.w.w.w.w.w.w.w.w.w.w.w.w.w.w.w.f.9.w.f.' -.@.b c :.z.N.N.f.w.9.w.w.w.w.w.w.w.w.w.w.w.w.w.w.w.w.w.w.w.w.w.w.w.w.w.w.w.w.w.w.w.w.w.w.w.w.w.w.w.w.w.w.w.w.w.w.w.w.w.w.w.w.w.w.w.w.w.w.w.w.w.w.w.w.w.w.w.w.w.w.w.w.w.w.w.w.w.w.w.w.w.w.w.w.w.w.w.w.w.w.w.w.w.w.w.w.w.w.w.w.w.w.w.w.w.w.w.w.w.w.w.w.w.w.w.w.w.w.w.w.z.f.w.0.9.w.f.z.w.w.w.w.w.w.w.w.w.f.e.9.w.z.z.9.w.w.w.w.w.w.w.w.w.w.w.w.w.w.w.w.w.w.w.w.w.w.w.w.w.w.w.w.w.w.w.w.z.w.w.w.9.:.@.@.@.' ' X.%.>.0.N.w.w.w.w.w.w.w.w.w.w.@.0.z.w.w.w.w.w.w.w.w.w.w.w.N.9.9.f.w.9.e.R.9.w.T.z.9.w.z.W.w.w.w.w.w.w.w.w.w.w.w.w.w.w.w.w.w.w.w.w.w.w.w.w.w.w.w.w.w.w.w.w.w.w.w.w.w.w.w.w.w.w.w.w.w.w.w.w.",
"w.w.w.w.w.w.w.w.w.w.w.w.w.w.w.w.w.w.w.w.w.w.w.w.3.w.N.w.w.9.z.z.w.w.w.w.w.w.w.w.w.w.w.w.w.w.w.w.w.w.w.w.w.w.w.w.w.w.w.w.w.w.w.w.9.W.w.z.>.' D -.@.W.N.9.w.w.z.f.w.w.w.w.w.w.w.w.w.w.w.w.w.w.w.w.w.w.w.w.w.w.w.w.w.w.w.w.w.w.w.w.w.w.w.w.w.w.w.w.w.w.w.w.w.w.w.w.w.w.w.w.w.w.w.w.w.w.w.w.w.w.w.w.w.w.w.w.w.w.w.w.w.w.w.w.w.w.w.w.w.w.w.w.w.w.w.w.w.w.w.w.w.w.w.w.w.w.w.w.w.w.w.w.w.w.w.w.w.w.w.w.w.w.w.w.w.w.w.w.w.z.f.w.w.f.z.w.w.w.w.w.w.w.w.w.9.' ' 0.W.9.9.{.w.w.w.w.w.w.w.w.w.w.w.w.w.w.w.w.w.w.w.w.w.w.w.w.w.w.w.w.w.w.w.w.w.0.9.z.W.v.w.9.f.W.W.w.w.z.z.w.w.w.w.w.w.w.w.w.w.w.@.0.z.w.f.w.w.w.w.w.w.w.w.w.w.w.f.w.f.z.w.3.a.w.w.4.9.a.T.3.w.w.w.w.w.w.w.w.w.w.w.w.w.w.w.w.w.w.w.w.w.w.w.w.w.w.w.w.w.w.w.w.w.w.w.w.w.w.w.w.w.w.w.w.w.w.w.w.",
"w.w.w.w.w.w.w.w.w.w.w.w.w.w.w.w.w.w.w.w.w.w.w.w.W.w.w.f.w.w.9.z.w.w.w.w.w.w.w.w.w.w.w.w.w.w.w.w.w.w.w.w.w.w.w.w.w.w.w.w.w.w.w.w.z.w.w.w.@.@.X.L S 3.w.0.f.w.z.w.w.w.w.w.w.w.w.w.w.w.w.w.w.w.w.w.w.w.w.w.w.w.w.w.w.w.w.w.w.w.w.w.w.w.w.w.w.w.w.w.w.w.w.w.w.w.w.w.w.w.w.w.w.w.w.w.w.w.w.w.w.w.w.w.w.w.w.w.w.w.w.w.w.w.w.w.w.w.w.w.w.w.w.w.w.w.w.w.w.w.w.w.w.w.w.w.w.w.w.w.w.w.w.w.w.w.w.w.w.w.w.w.w.w.w.w.w.w.w.w.w.w.w.f.f.w.w.w.w.w.w.w.w.w.w.w.f.0.9.0.w.z.w.w.w.w.w.w.w.w.w.w.w.w.w.w.w.w.w.w.w.w.w.w.w.w.w.w.w.w.w.w.w.w.w.w.w.w.w.w.w.w.z.N.9.R.).e.9.e.e.9.w.w.w.w.w.w.w.w.w.w.@.9.z.w.f.w.w.w.w.w.w.w.w.w.w.f.w.0.z.N.N.N.{.{.[.[.[.W.[.w.w.w.w.w.w.w.w.w.w.w.w.w.w.w.w.w.w.w.w.w.w.w.w.w.w.w.w.w.w.w.w.w.w.w.w.w.w.w.w.w.w.w.w.w.w.w.w.w.",
"w.w.w.w.w.w.w.w.w.w.w.w.w.w.w.w.w.w.w.w.w.w.w.w.W.w.w.f.z.z.9.z.w.w.w.w.w.w.w.w.w.w.w.w.w.w.w.w.w.w.w.w.w.w.w.w.w.w.w.w.w.w.w.w.9.9.w.z.@.@.Y n f -.N.N.z.9.w.z.w.w.w.w.w.w.w.w.w.w.w.w.w.w.w.w.w.w.w.w.w.w.w.w.w.w.w.w.w.w.w.w.w.w.w.w.w.w.w.w.w.w.w.w.w.w.w.w.w.w.w.w.w.w.w.w.w.w.w.w.w.w.w.w.w.w.w.w.w.w.w.w.w.w.w.w.w.w.w.w.w.w.w.w.w.w.w.w.w.w.w.w.w.w.w.w.w.w.w.w.w.w.w.w.w.w.w.w.w.w.w.w.w.w.w.w.w.w.w.w.z.w.0.w.w.9.w.z.w.w.w.w.w.w.w.w.z.W.N.w.w.z.f.9.w.w.w.w.w.w.w.w.w.w.w.w.w.w.w.w.w.w.w.w.w.w.w.w.w.w.w.w.w.w.w.w.w.z.z.w.9.9.p.z.w.9.8.9.e.R.z.9.w.w.w.w.w.w.w.w.w.w.@.9.z.w.f.w.w.w.w.w.w.w.w.w.R.9.3.W.9.A r g w w w w w w @.N.w.w.w.w.w.w.w.w.w.w.w.w.w.w.w.w.w.w.w.w.w.w.w.w.w.w.w.w.w.w.w.w.w.w.w.w.w.w.w.w.w.w.w.w.w.w.w.w.",
"w.w.w.w.w.w.w.w.w.w.w.w.w.w.w.w.w.w.w.w.w.w.w.w.3.w.z.w.w.w.z.w.w.w.w.w.w.w.w.w.w.w.w.w.w.w.w.w.w.w.w.w.w.w.w.w.w.w.w.w.w.w.w.w.9.z.w.z.>.` L >.:.{.z.9.w.w.z.f.w.w.w.w.w.w.w.w.w.w.w.w.w.w.w.w.w.w.w.w.w.w.w.w.w.w.w.w.w.w.w.w.w.w.w.w.w.w.w.w.w.w.w.w.w.w.w.w.w.w.w.w.w.w.w.w.w.w.w.w.w.w.w.w.w.w.w.w.w.w.w.w.w.w.w.w.w.w.w.w.w.w.w.w.w.w.w.w.w.w.w.w.w.w.w.w.w.w.w.w.w.w.w.w.w.w.w.w.w.w.w.w.w.w.w.w.w.w.w.w.f.w.z.W.W.z.w.w.w.w.w.w.w.w.w.w.0.9.9.w.f.0.w.z.w.w.w.w.w.w.w.w.w.w.w.w.w.w.w.w.w.w.w.w.w.w.w.w.w.w.w.w.w.w.w.w.f.f.w.w.f.z.p.9.W.z.f.z.f.w.w.f.w.w.w.w.w.w.w.w.w.w.@.9.z.w.f.w.w.w.w.w.w.w.w.w.e.w.w.W.9.v ; 4 e 5 , > 5 4 | Z.w.w.w.w.w.w.w.w.w.w.w.w.w.w.w.w.w.w.w.w.w.w.w.w.w.w.w.w.w.w.w.w.w.w.w.w.w.w.w.w.w.w.w.w.w.w.w.w.",
"w.w.w.w.w.w.w.w.w.w.w.w.w.w.w.w.w.w.w.w.w.w.w.w.W.z.9.9.{.w.{.9.w.w.w.w.w.w.w.w.w.w.w.w.w.w.w.w.w.w.w.w.w.w.w.w.w.w.w.w.w.w.w.w.{.w.w.9.' 9.z.@.&.e.8.8.W.W.f.3.w.w.w.w.w.w.w.w.w.w.w.w.w.w.w.w.w.w.w.w.w.w.w.w.w.w.w.w.w.w.w.w.w.w.w.w.w.w.w.w.w.w.w.w.w.w.w.w.w.w.w.w.w.w.w.w.w.w.w.w.w.w.w.w.w.w.w.w.w.w.w.w.w.w.w.w.w.w.w.w.w.w.w.w.w.w.w.w.w.w.w.w.w.w.w.w.w.w.w.w.w.w.w.w.w.w.w.w.w.w.w.w.w.w.w.w.w.w.w.w.0.z.z.9.9.z.z.0.w.w.w.w.w.w.w.w.e.{.(.9.9.W.N.3.w.w.w.w.w.w.w.w.w.w.w.w.w.w.w.w.w.w.w.w.w.w.w.w.w.w.w.w.w.w.w.w.w.w.0.0.z.W.v.w.9.w.z.f.0.9.w.z.w.w.w.w.w.w.w.w.w.w.@.0.z.w.f.w.w.w.w.w.w.w.w.w.9.R.w.9.f.9.*.>.=.=.=.:.9.' f.9.w.w.w.w.w.w.w.w.w.w.w.w.w.w.w.w.w.w.w.w.w.w.w.w.w.w.w.w.w.w.w.w.w.w.w.w.w.w.w.w.w.w.w.w.w.w.w.w.",
"w.w.w.w.w.w.w.w.w.w.w.w.w.w.w.w.w.w.w.w.w.w.w.w.w.w.w.w.0.D 3.z.w.w.w.w.w.w.w.w.w.w.w.w.w.w.w.w.w.w.w.w.w.w.w.w.w.w.w.w.w.w.w.w.9.w.0.z.:.@.' @.` e.z.e.f.9.w.z.w.w.w.w.w.w.w.w.w.w.w.w.w.w.w.w.w.w.w.w.w.w.w.w.w.w.w.w.w.w.w.w.w.w.w.w.w.w.w.w.w.w.w.w.w.w.w.w.w.w.w.w.w.w.w.w.w.w.w.w.w.w.w.w.w.w.w.w.w.w.w.w.w.w.w.w.w.w.w.w.w.w.w.w.w.w.w.w.w.w.w.w.w.w.w.w.w.w.w.w.w.w.w.w.w.w.w.w.w.w.w.w.w.w.w.w.w.w.w.w.w.z.:.L L :.z.w.w.w.w.w.w.w.w.w.e.:.:.0.z.w.w.z.w.w.w.w.w.w.w.w.w.w.w.w.w.w.w.w.w.w.w.w.w.w.w.w.w.w.w.w.w.w.w.w.w.z.f.w.w.N.{.{.[.{.{.{.{.[.f.9.w.w.w.w.w.w.w.w.w.w.@.0.z.w.f.w.w.w.w.w.w.w.w.w.e.z.0.w.f.| S D K P K S ` G W.W.w.w.w.w.w.w.w.w.w.w.w.w.w.w.w.w.w.w.w.w.w.w.w.w.w.w.w.w.w.w.w.w.w.w.w.w.w.w.w.w.w.w.w.w.w.w.w.w.",
"w.w.w.w.w.w.w.w.w.w.w.w.w.w.w.w.w.w.w.w.w.w.w.w.9.0.f.z.0.3.3.w.w.w.w.w.w.w.w.w.w.w.w.w.w.w.w.w.w.w.w.w.w.w.w.w.w.w.w.w.w.w.w.w.w.w.w.w.@.>.9.9.w.w.w.w.w.w.w.w.w.w.w.w.w.w.w.w.w.w.w.w.w.w.w.w.w.w.w.w.w.w.w.w.w.w.w.w.w.w.w.w.w.w.w.w.w.w.w.w.w.w.w.w.w.w.w.w.w.w.w.w.w.w.w.w.w.w.w.w.w.w.w.w.w.w.w.w.w.w.w.w.w.w.w.w.w.w.w.w.w.w.w.w.w.w.w.w.w.w.w.w.w.w.w.w.w.w.w.w.w.w.w.w.w.w.w.w.w.w.w.w.w.w.w.w.w.w.w.w.9.W.8.S n @.N.z.w.w.w.w.w.w.w.w.z.' ` w.z.w.w.0.w.w.w.w.w.w.w.w.w.w.w.w.w.w.w.w.w.w.w.w.w.w.w.w.w.w.w.w.w.w.w.w.z.w.0.0...w.W.f.3.z.w.3.f.w.3.9.w.w.w.w.w.w.w.w.w.w.@.0.z.w.p.w.w.w.w.w.w.w.w.w.w.w.w.p.9.a * , = 4 , > = ; ..W.w.w.w.w.w.w.w.w.w.w.w.w.w.w.w.w.w.w.w.w.w.w.w.w.w.w.w.w.w.w.w.w.w.w.w.w.w.w.w.w.w.w.w.w.w.w.w.w.",
"w.w.w.w.w.w.w.w.w.w.w.w.w.w.w.w.w.w.w.w.w.w.w.w.{.0.3.0.W.W.z.w.w.w.w.w.w.w.w.w.w.w.w.w.w.w.w.w.w.w.w.w.w.w.w.w.w.w.w.w.w.w.w.w.w.p.w.w.@.9.p.w.w.w.w.w.w.w.w.w.w.w.w.w.w.w.w.w.w.w.w.w.w.w.w.w.w.w.w.w.w.w.w.w.w.w.w.w.w.w.w.w.w.w.w.w.w.w.w.w.w.w.w.w.w.w.w.w.w.w.w.w.w.w.w.w.w.w.w.w.w.w.w.w.w.w.w.w.w.w.w.w.w.w.w.w.w.w.w.w.w.w.w.w.w.w.w.w.w.w.w.w.w.w.w.w.w.w.w.w.w.w.w.w.w.w.w.w.w.w.w.w.w.w.w.w.w.w.w.w.9.f.(.(.N.N.f.w.w.w.w.w.w.w.w.w.N.9.w.z.w.z.W.w.w.w.w.w.w.w.w.w.w.w.w.w.w.w.w.w.w.w.w.w.w.w.w.w.w.w.w.w.w.w.w.w.3.0.N.{.:.w.z.9.f.w.9.W. X9.@.9.w.w.w.w.w.w.w.w.w.w.@.0.z.w.w.w.w.w.w.w.w.w.w.w.e.W.z.9.v.] Z _ / ^ Z Z / D 0.z.w.w.w.w.w.w.w.w.w.w.w.w.w.w.w.w.w.w.w.w.w.w.w.w.w.w.w.w.w.w.w.w.w.w.w.w.w.w.w.w.w.w.w.w.w.w.w.w.",
"w.w.w.w.w.w.w.w.w.w.w.w.w.w.w.w.w.w.w.w.w.w.w.w.3.w.N.w.%...:.z.w.w.w.w.w.w.w.w.w.w.w.w.w.w.w.w.w.w.w.w.w.w.w.w.w.w.w.w.w.w.w.w.w.w.p.p.%.9.z.z.w.w.w.w.w.w.w.w.w.w.w.w.w.w.w.w.w.w.w.w.w.w.w.w.w.w.w.w.w.w.w.w.w.w.w.w.w.w.w.w.w.w.w.w.w.w.w.w.w.w.w.w.w.w.w.w.w.w.w.w.w.w.w.w.w.w.w.w.w.w.w.w.w.w.w.w.w.w.w.w.w.w.w.w.w.w.w.w.w.w.w.w.w.w.w.w.w.w.w.w.w.w.w.w.w.w.w.w.w.w.w.w.w.w.w.w.w.w.w.w.w.w.w.w.w.w.w.w.N.0.9.z.N.0.0.z.w.w.w.w.w.w.w.w.0.z.N.w.9.w.w.9.w.w.w.w.w.w.w.w.w.w.w.w.w.w.w.w.w.w.w.w.w.w.w.w.w.w.w.w.w.w.w.w.W.w.9.>.Y X.9.z.z.w.9.w.3.Y Y 0.w.w.w.w.w.w.w.w.w.w.@.9.z.w.f.w.w.w.w.w.w.w.w.w.8.e.z.w.OXt.>.y.u.t.t.u.u.:.N.0.w.w.w.w.w.w.w.w.w.w.w.w.w.w.w.w.w.w.w.w.w.w.w.w.w.w.w.w.w.w.w.w.w.w.w.w.w.w.w.w.w.w.w.w.w.w.w.w.",
"w.w.w.w.w.w.w.w.w.w.w.w.w.w.w.w.w.w.w.w.w.w.w.w.p.z.z.w.3.-.3.w.w.w.w.w.w.w.w.w.w.w.w.w.w.w.w.w.w.w.w.w.w.w.w.w.w.w.w.w.w.w.w.w.w.w.w.w.%.9.z.f.w.w.w.w.w.w.w.w.w.w.w.w.w.w.w.w.w.w.w.w.w.w.w.w.w.w.w.w.w.w.w.w.w.w.w.w.w.w.w.w.w.w.w.w.w.w.w.w.w.w.w.w.w.w.w.w.w.w.w.w.w.w.w.w.w.w.w.w.w.w.w.w.w.w.w.w.w.w.w.w.w.w.w.w.w.w.w.w.w.w.w.w.w.w.w.w.w.w.w.w.w.w.w.w.w.w.w.w.w.w.w.w.w.w.w.w.w.w.w.w.w.w.w.w.w.w.w.w.f.w.0.9.0.e.e.0.w.w.w.w.w.w.w.w.w.f.w.w.z.w.w.w.w.w.w.w.w.w.w.w.w.w.w.w.w.w.w.w.w.w.w.w.w.w.w.w.w.w.w.w.w.w.w.w.9.9.z.N.@.L M n c A S M S L @.W.w.w.w.w.w.w.w.w.w.w.@.9.z.w.f.w.w.w.w.w.w.w.w.w.W.w.w.0.4.f : > = ; : : > 5 @.z.w.w.w.w.w.w.w.w.w.w.w.w.w.w.w.w.w.w.w.w.w.w.w.w.w.w.w.w.w.w.w.w.w.w.w.w.w.w.w.w.w.w.w.w.w.w.w.w.",
"w.w.w.w.w.w.w.w.w.w.w.w.w.w.w.w.w.w.w.w.w.w.w.w.v.w.9.w.z.N.z.w.w.w.w.w.w.w.w.w.w.w.w.w.w.w.w.w.w.w.w.w.w.w.w.w.w.w.w.w.w.w.w.w.w.w.w.w.@.9.f.p.w.w.w.w.w.w.w.w.w.w.w.w.w.w.w.w.w.w.w.w.w.w.w.w.w.w.w.w.w.w.w.w.w.w.w.w.w.w.w.w.w.w.w.w.w.w.w.w.w.w.w.w.w.w.w.w.w.w.w.w.w.w.w.w.w.w.w.w.w.w.w.w.w.w.w.w.w.w.w.w.w.w.w.w.w.w.w.w.w.w.w.w.w.w.w.w.w.w.w.w.w.w.w.w.w.w.w.w.w.w.w.w.w.w.w.w.w.w.w.w.w.w.w.w.w.w.w.w.9.z.z.w.w.z.z.0.w.w.w.w.w.w.w.w.w.f.w.w.z.w.w.z.w.w.w.w.w.w.w.w.w.w.w.w.w.w.w.w.w.w.w.w.w.w.w.w.w.w.w.w.w.w.w.w.z.9.z.z.z.9.z.W.N.W.w.9.w.W.W.z.w.w.w.w.w.w.w.w.w.w.@.9.z.w.f.w.w.w.w.w.w.w.w.w.e.9.w.!.v.A r s f f f w 5 r @.(.w.w.w.w.w.w.w.w.w.w.w.w.w.w.w.w.w.w.w.w.w.w.w.w.w.w.w.w.w.w.w.w.w.w.w.w.w.w.w.w.w.w.w.w.w.w.w.w.",
"w.w.w.w.w.w.w.w.w.w.w.w.w.w.w.w.w.w.w.w.w.w.w.w.4.w.z.w.0.9.w.z.w.w.w.w.w.w.w.w.w.w.w.w.w.w.w.w.w.w.w.w.w.w.w.w.w.w.w.w.w.w.w.w.w.f.f.f.%.9.f.p.w.w.w.w.w.w.w.w.w.w.w.w.w.w.w.w.w.w.w.w.w.w.w.w.w.w.w.w.w.w.w.w.w.w.w.w.w.w.w.w.w.w.w.w.w.w.w.w.w.w.w.w.w.w.w.w.w.w.w.w.w.w.w.w.w.w.w.w.w.w.w.w.w.w.w.w.w.w.w.w.w.w.w.w.w.w.w.w.w.w.w.w.w.w.w.w.w.w.w.w.w.w.w.w.w.w.w.w.w.w.w.w.w.w.w.w.w.w.w.w.w.w.w.w.w.w.w.w.z.w.w.w.9.9.w.N.w.w.w.w.w.w.w.w.9.z.z.w.9.w.w.9.w.w.w.w.w.w.w.w.w.w.w.w.w.w.w.w.w.w.w.w.w.w.w.w.w.w.w.w.w.w.w.w.z.w.p.w.z.9.9.9.z.0.9.w.z.w.0.9.w.w.w.w.w.w.w.w.w.w.@.9.z.w.f.w.w.w.w.w.w.w.w.w.f.w.z.z.z.@.@.=.@.@.:.=.:.-.0.9.w.w.w.w.w.w.w.w.w.w.w.w.w.w.w.w.w.w.w.w.w.w.w.w.w.w.w.w.w.w.w.w.w.w.w.w.w.w.w.w.w.w.w.w.w.w.w.w.",
"w.w.w.w.w.w.w.w.w.w.w.w.w.w.w.w.w.w.w.w.w.w.w.w.z.z.w.f.z.z.w.0.w.w.w.w.w.w.w.w.w.w.w.w.w.w.w.w.w.w.w.w.w.w.w.w.w.w.w.w.w.w.w.w.w.f.f.f.%.9.f.f.w.w.w.w.w.w.w.w.w.w.w.w.w.w.w.w.w.w.w.w.w.w.w.w.w.w.w.w.w.w.w.w.w.w.w.w.w.w.w.w.w.w.w.w.w.w.w.w.w.w.w.w.w.w.w.w.w.w.w.w.w.w.w.w.w.w.w.w.w.w.w.w.w.w.w.w.w.w.w.w.w.w.w.w.w.w.w.w.w.w.w.w.w.w.w.w.w.w.w.w.w.w.w.w.w.w.w.w.w.w.w.w.w.w.w.w.w.w.w.w.w.w.w.w.w.w.w.w.w.w.w.W.W.w.w.z.w.w.w.w.w.w.w.w.z.9.0.z.w.z.W.w.w.w.w.w.w.w.w.w.w.w.w.w.w.w.w.w.w.w.w.w.w.w.w.w.w.w.w.w.w.w.w.w.w.0.w.9.N.w.f.f.f.0.w.z.w.9.w.W.w.w.w.w.w.w.w.w.w.w.@.0.z.w.f.w.w.w.w.w.w.w.w.w.e.w.z.9.T.z.{.Z.{.w.v.9.f.f.N.9.w.w.w.w.w.w.w.w.w.w.w.w.w.w.w.w.w.w.w.w.w.w.w.w.w.w.w.w.w.w.w.w.w.w.w.w.w.w.w.w.w.w.w.w.w.w.w.w.",
"w.w.w.w.w.w.w.w.w.w.w.w.w.w.w.w.w.w.w.w.w.w.w.w.0.w.w.w.w.w.f.f.w.w.w.w.w.w.w.w.w.w.w.w.w.w.w.w.w.w.w.w.w.w.w.w.w.w.w.w.w.w.w.w.w.w.w.w.@.9.f.f.w.w.w.w.w.w.w.w.w.w.w.w.w.w.w.w.w.w.w.w.w.w.w.w.w.w.w.w.w.w.w.w.w.w.w.w.w.w.w.w.w.w.w.w.w.w.w.w.w.w.w.w.w.w.w.w.w.w.w.w.w.w.w.w.w.w.w.w.w.w.w.w.w.w.w.w.w.w.w.w.w.w.w.w.w.w.w.w.w.w.w.w.w.w.w.w.w.w.w.w.w.w.w.w.w.w.w.w.w.w.w.w.w.w.w.w.w.w.w.w.w.w.w.w.w.w.w.w.z.w.w.9.w.w.w.w.w.w.w.w.w.w.w.w.f.Y Y 9.z.w.w.w.w.w.w.w.w.w.w.w.w.w.w.w.w.w.w.w.w.w.w.w.w.w.w.w.w.w.w.w.w.w.w.w.w.w.z.9.W.0.w.w.w.0.w.z.w.w.w.9.w.w.w.w.w.w.w.w.w.w.@.0.z.w.f.w.w.w.w.w.w.w.w.w.f.w.z.w.W.w.e.9.w.9.v.9.9.9.z.e.w.w.w.w.w.w.w.w.w.w.w.w.w.w.w.w.w.w.w.w.w.w.w.w.w.w.w.w.w.w.w.w.w.w.w.w.w.w.w.w.w.w.w.w.w.w.w.w.",
"w.w.w.w.w.w.w.w.w.w.w.w.w.w.w.w.w.w.w.w.w.w.w.w.z.0.w.z.W.w.w.w.w.w.w.w.w.w.w.w.w.w.w.w.w.w.w.w.w.w.w.w.w.w.w.w.w.w.w.w.w.w.w.w.e.w.p.z.@.9.z.w.w.w.w.w.w.w.w.w.w.w.w.w.w.w.w.w.w.w.w.w.w.w.w.w.w.w.w.w.w.w.w.w.w.w.w.w.w.w.w.w.w.w.w.w.w.w.w.w.w.w.w.w.w.w.w.w.w.w.w.w.w.w.w.w.z.w.f.z.z.w.w.w.w.w.w.w.w.w.w.w.w.w.w.w.f.f.f.f.w.w.w.w.w.w.w.w.e.z.e.0.w.0.w.W.z.0.9.N.9.z.w.z.w.p.z.z.w.w.p.z.z.w.w.w.w.f.f.w.w.w.w.w.w.w.w.w.w.f.w.w.w.z.z.w.z.z.e.w.w.f.f.w.w.w.w.w.w.w.w.w.w.w.w.w.w.w.w.w.w.w.w.w.w.w.w.w.w.w.w.w.w.w.w.w.w.w.w.w.w.w.w.w.w.w.w.w.w.w.w.w.w.w.w.w.w.w.w.w.w.w.@.0.z.w.f.w.w.w.w.w.w.w.w.w.w.w.w.w.w.w.w.w.w.w.w.w.w.w.w.w.w.w.w.w.w.w.w.w.w.w.w.w.w.w.w.w.w.w.w.w.w.w.w.w.w.w.w.w.w.w.w.w.w.w.w.w.w.w.w.w.w.w.w.w.w.w.w.w.",
"w.w.w.w.w.w.w.w.w.w.w.w.w.w.w.w.w.w.w.w.w.w.w.w.w.w.w.w.3.%.3.z.w.w.w.w.w.w.w.w.w.w.w.w.w.w.w.w.w.w.w.w.w.w.w.w.w.w.w.w.w.w.w.w.e.w.p.z.@.9.z.w.w.w.w.w.w.w.w.w.w.w.w.w.w.w.w.w.w.w.w.w.w.w.w.w.w.w.w.w.w.w.w.w.w.w.w.w.w.w.w.w.w.w.w.w.w.w.w.w.w.w.w.w.w.w.w.w.w.w.w.w.w.w.w.w.w.0.w.f.z.f.z.W.w.w.w.w.w.w.w.w.w.w.w.w.w.w.w.0.f.f.f.f.f.f.e.f.w.f.N.N.N.N.z.0.f.{.W.z.0.w.0.9.w.w.w.w.f.f.f.f.w.f.z.z.z.w.w.w.z.z.w.w.w.w.z.z.N.w.w.z.z.w.9.0.9.0.w.w.w.w.f.w.w.w.w.w.w.w.w.w.w.w.w.w.w.w.w.w.w.w.w.w.w.w.w.w.w.w.w.w.w.w.w.w.w.w.w.w.w.w.w.w.w.w.w.w.w.w.w.w.w.w.w.w.w.w.w.w.w.w.@.0.z.w.f.w.w.w.w.w.w.w.w.w.w.w.w.w.w.w.w.w.w.w.w.w.w.w.w.w.w.w.w.w.w.w.w.w.w.w.w.w.w.w.w.w.w.w.w.w.w.w.w.w.w.w.w.w.w.w.w.w.w.w.w.w.w.w.w.w.w.w.w.w.w.w.w.w.",
"w.w.w.w.w.w.w.w.w.w.w.w.w.w.w.w.w.w.w.w.w.w.w.w.w.f.z.w.:.%.3.z.w.w.w.w.w.w.w.w.w.w.w.w.w.w.w.w.w.w.w.w.w.w.w.w.w.w.w.w.w.w.w.w.e.w.w.z.@.9.z.w.w.w.w.w.w.w.w.w.w.w.w.w.w.w.w.w.w.w.w.w.w.w.w.w.w.w.w.w.w.w.w.w.w.w.w.w.w.w.w.w.w.w.w.w.w.w.w.w.w.w.w.w.w.w.w.w.w.w.w.w.w.w.w.w.z.f.w.w.w.9.9.0.w.w.w.w.w.w.w.w.z.z.z.z.z.z.z.z.w.w.w.w.w.w.w.w.w.0.N.{.N.{.[.(.e.[.(.-.3.w.z.W.w.9.3.9.w.f.w.9.:.3.w.w.9.3.3.3.w.9.9.3.3.9.9.w.9.:.-.0.z.w.9.w.:.9.f.f.w.w.w.w.w.w.w.w.w.w.w.w.w.w.w.w.w.w.w.w.w.w.w.w.w.w.w.w.w.w.w.w.w.w.w.w.w.w.w.w.w.w.w.w.w.w.w.w.w.w.w.w.w.w.w.w.w.w.w.w.w.w.@.0.z.w.f.w.w.w.w.w.w.w.w.w.w.w.w.w.w.w.w.w.w.w.w.w.w.w.w.w.w.w.w.w.w.w.w.w.w.w.w.w.w.w.w.w.w.w.w.w.w.w.w.w.w.w.w.w.w.w.w.w.w.w.w.w.w.w.w.w.w.w.w.w.w.w.w.w.",
"w.w.w.w.w.w.w.w.w.w.w.w.w.w.w.w.w.w.w.w.w.w.w.w.z.w.w.z.w.w.w.w.w.w.w.w.w.w.w.w.w.w.w.w.w.w.w.w.w.w.w.w.w.w.w.w.w.w.w.w.w.w.w.w.e.w.p.z.@.4.z.w.w.w.w.w.w.w.w.w.w.w.w.w.w.w.w.w.w.w.w.w.w.w.w.w.w.w.w.w.w.w.w.w.w.w.w.w.w.w.w.w.w.w.w.w.w.w.w.w.w.w.w.w.w.w.w.w.w.w.w.w.w.w.w.w.f.w.f.z.z.z.z.z.w.w.w.w.w.w.w.w.9.9.0.0.w.w.w.w.f.f.f.f.f.f.f.f.9.:.0.N.9.8.e.0.3.N.w.@.9.9.0.9.f.w.9.9.z.z.z.w.9.w.z.N.z.w.w.w.z.f.w.0.0.w.f.z.z.9.9.w.z.w.9.9.9.w.z.z.w.w.w.w.w.w.w.w.w.w.w.w.w.w.w.w.w.w.w.w.w.w.w.w.w.w.w.w.w.w.w.w.w.w.w.w.w.w.w.w.w.w.w.w.w.w.w.w.w.w.w.w.w.w.w.w.w.w.w.w.w.w.@.0.z.w.f.w.w.w.w.w.w.w.w.w.w.w.w.w.w.w.w.w.w.w.w.w.w.w.w.w.w.w.w.w.w.w.w.w.w.w.w.w.w.w.w.w.w.w.w.w.w.w.w.w.w.w.w.w.w.w.w.w.w.w.w.w.w.w.w.w.w.w.w.w.w.w.w.w.",
"w.w.w.w.w.w.w.w.w.w.w.w.w.w.w.w.w.w.w.w.w.w.w.w.w.9.9.z.N.z.w.0.w.w.w.w.w.w.w.w.w.w.w.w.w.w.w.w.w.w.w.w.w.w.w.w.w.w.w.w.w.w.w.w.e.w.p.z.@.9.z.e.w.w.w.w.w.w.w.w.w.w.w.w.w.w.w.w.w.w.w.w.w.w.w.w.w.w.w.w.w.w.w.w.w.w.w.w.w.w.w.w.w.w.w.w.w.w.w.w.w.w.w.w.w.w.w.w.w.w.w.w.w.w.w.w.0.w.w.w.w.w.w.0.z.z.z.z.z.z.z.z.f.f.f.f.w.w.w.w.w.w.w.w.w.w.w.w.z.@.>.{.{.N.(.N.{.N.3.+.f.e.f.z.w.0.9.w.w.p.p.w.w.w.w.p.p.p.w.9.w.w.0.0.0.9.w.w.w.w.w.w.w.f.f.w.w.p.f.w.w.f.w.w.w.w.w.w.w.w.w.w.w.w.w.w.w.w.w.w.w.w.w.w.w.w.w.w.w.w.w.w.w.w.w.w.w.w.w.w.w.w.w.w.w.w.w.w.w.w.w.w.w.w.w.w.w.w.w.w.w.w.@.0.z.w.p.w.w.w.w.w.w.w.w.w.w.w.w.w.w.w.w.w.w.w.w.w.w.w.w.w.w.w.w.w.w.w.w.w.w.w.w.w.w.w.w.w.w.w.w.w.w.w.w.w.w.w.w.w.w.w.w.w.w.w.w.w.w.w.w.w.w.w.w.w.w.w.w.w.",
"w.w.w.w.w.w.w.w.w.w.w.w.w.w.w.w.w.w.w.w.w.w.w.w.w.p.z.f.w.w.w.f.w.w.w.w.w.w.w.w.w.w.w.w.w.w.w.w.w.w.w.w.w.w.w.w.w.w.w.w.w.w.w.w.e.w.p.z.@.9.z.e.w.w.w.w.w.w.w.w.w.w.w.w.w.w.w.w.w.w.w.w.w.w.w.w.w.w.w.w.w.w.w.w.w.w.w.w.w.w.w.w.w.w.w.w.w.w.w.w.w.w.w.w.w.w.w.w.w.w.w.w.w.w.w.w.w.z.z.f.w.w.w.0.0.0.0.0.0.0.0.0.w.w.w.w.w.9.9.9.p.p.p.p.p.p.p.p.f.' G ..@.@.@.@.@.' L Y 3.9.w.z.f.f.z.z.p.p.z.z.z.p.w.w.p.p.p.p.w.p.p.p.f.p.w.w.w.z.z.w.w.z.z.w.w.w.w.9.w.z.z.w.w.w.w.w.w.w.w.w.w.w.w.w.w.w.w.w.w.w.w.w.w.w.w.w.w.w.w.w.w.w.w.w.w.w.w.w.w.w.w.w.w.w.w.w.w.w.w.w.w.w.w.w.w.w.w.w.w.w.@.0.z.w.p.w.w.w.w.w.w.w.w.w.w.w.w.w.w.w.w.w.w.w.w.w.w.w.w.w.w.w.w.w.w.w.w.w.w.w.w.w.w.w.w.w.w.w.w.w.w.w.w.w.w.w.w.w.w.w.w.w.w.w.w.w.w.w.w.w.w.w.w.w.w.w.w.w.",
"w.w.w.w.w.w.w.w.w.w.w.w.w.w.w.w.w.w.w.w.w.w.w.w.w.z.z.f.0.0.w.z.w.w.w.w.w.w.w.w.w.w.w.w.w.w.w.w.w.w.w.w.w.w.w.w.w.w.w.w.w.w.w.w.e.w.p.z.@.4.z.e.w.w.w.w.w.w.w.w.w.w.w.w.w.w.w.w.w.w.w.w.w.w.w.w.w.w.w.w.w.w.w.w.w.w.w.w.w.w.w.w.w.w.w.w.w.w.w.w.w.w.w.w.w.w.w.w.w.w.w.w.w.w.w.w.w.f.w.w.w.z.W.N.v.v.v.v.v.v.v.z.z.z.z.z.z.z.z.z.w.w.w.w.w.w.w.w.{.:.' Y Y Y L L L Y ' 9.W.W.w.9.f.f.f.p.p.p.p.p.z.z.z.z.p.z.z.z.z.z.z.z.z.z.z.z.z.z.z.z.z.f.w.9.w.f.w.w.w.w.z.f.w.w.w.w.w.w.w.w.w.w.w.w.w.w.w.w.w.w.w.w.w.w.w.w.w.w.w.w.w.w.w.w.w.w.w.w.w.w.w.w.w.w.w.w.w.w.w.w.w.w.w.w.w.w.w.w.w.w.@.0.z.w.w.w.w.w.w.w.w.w.w.w.w.w.w.w.w.w.w.w.w.w.w.w.w.w.w.w.w.w.w.w.w.w.w.w.w.w.w.w.w.w.w.w.w.w.w.w.w.w.w.w.w.w.w.w.w.w.w.w.w.w.w.w.w.w.w.w.w.w.w.w.w.w.w.w.",
"w.w.w.w.w.w.w.w.w.w.w.w.w.w.w.w.w.w.w.w.w.w.w.w.w.w.w.w.e.z.w.w.w.w.w.w.w.w.w.w.w.w.w.w.w.w.w.w.w.w.w.w.w.w.w.w.w.w.w.w.w.w.w.w.e.w.p.z.@.9.z.e.w.w.w.w.w.w.w.w.w.w.w.w.w.w.w.w.w.w.w.w.w.w.w.w.w.w.w.w.w.w.w.w.w.w.w.w.w.w.w.w.w.w.w.w.w.w.w.w.w.w.w.w.w.w.w.w.w.w.w.w.w.w.w.w.f.w.3.@.` Y Y L P P Y Y Y Y Y Y L L Y Y ' ` ` ` ................` @.%.@.@.@.@.@.@.@.' @.Y ....@.@.X...........' P Y ` ` Y P Y ' Y Y Y Y Y Y Y Y T Y ` >.f.f.w.z.w.z.W.z.w.w.w.f.w.w.w.w.w.w.w.w.w.w.w.w.w.w.w.w.w.w.w.w.w.w.w.w.w.w.w.w.w.w.w.w.w.w.w.w.w.w.w.w.w.w.w.w.w.w.w.w.w.w.w.w.w.w.w.w.w.w.@.0.z.w.w.w.w.w.w.w.w.w.w.w.w.w.w.w.w.w.w.w.w.w.w.w.w.w.w.w.w.w.w.w.w.w.w.w.w.w.w.w.w.w.w.w.w.w.w.w.w.w.w.w.w.w.w.w.w.w.w.w.w.w.w.w.w.w.w.w.w.w.w.w.w.w.w.w.",
"w.z.9.z.w.z.9.W.z.0.z.N.9.0.z.w.z.f.w.w.w.w.w.0.w.w.9.9.z.w.9.z.f.w.w.w.w.w.w.w.f.w.9.w.w.z.f.w.f.z.f.9.9.w.z.z.f.f.f.f.f.f.f.f.w.w.p.w.@.9.z.z.w.w.w.w.w.w.w.w.w.w.w.e.z.z.f.w.w.w.w.f.w.w.w.w.w.w.z.z.w.w.w.z.w.w.f.f.f.w.w.w.w.w.w.w.w.w.f.z.f.w.w.w.e.z.w.w.w.w.w.w.0.w.w.z.0.0.:.@.f.w.0.w.9.f.p.0.f.v.-.H r :.V.7.V.t.) C S S S S S S S S S A A S A A A A A A S S A A A A S S S S C S Y @.f.f.t.0.f.f.0.0.t.t.t.t.t.t.t.t.f.N.9.' 9.w.w.9.f.` L w.z.z.9.z.w.w.w.w.w.w.w.w.w.w.w.w.w.w.w.w.w.W.z.9.w.z.w.9.w.w.w.w.w.w.w.w.w.w.w.w.w.w.w.w.3.w.z.w.w.f.z.w.w.w.w.w.w.w.w.w.9.z.%.9.w.w.f.w.w.w.w.w.w.w.w.w.w.w.w.w.w.w.w.w.w.0.9.w.z.N.f.0.w.w.w.w.w.w.w.w.w.w.w.w.w.w.w.w.w.w.w.w.w.w.w.w.w.w.w.w.w.w.w.w.w.w.w.w.w.w.w.w.w.w.w.w.w.w.w.w.",
"z.9.z.w.z.p.W.4.w.z.f.w.v.z.w.z.f.f.z.z.z.z.z.z.w.z.z.W.{.W.N.W.w.w.w.f.z.z.z.f.z.z.z.z.z.f.f.w.w.w.z.z.w.w.w.w.w.w.w.w.w.w.w.w.9.w.w.w.@.3.w.w.w.w.w.w.w.w.w.w.w.w.w.w.w.w.w.f.w.w.w.w.w.w.w.w.w.w.f.w.w.w.w.w.w.w.w.w.w.w.w.w.w.w.w.w.w.w.w.w.w.w.w.w.w.w.w.w.z.w.9.f.z.f.0.9.t.9.' {.{./.{.W.N.Z.N.f./.[.{.0.0.N.N.N.t.P s C n n n n n n n n B B n n n n n n n n B B n n n n n b n B S B b g @.f.{.Z.Z.{.{.[.Z.Z.Z.Z.Z.Z.Z.Z.f.N.Z.:...W.9.e.z.9.9.N.w.w.w.w.w.w.w.w.w.w.w.w.w.w.w.w.w.w.w.w.9.w.w.z.W.N.z.W.w.w.w.w.w.w.w.w.w.w.w.w.w.w.w.w. Xz.f.z.w.w.f.z.w.w.w.w.w.w.w.w.z.w...w.W.z.z.z.w.w.w.w.w.w.w.w.w.w.w.w.w.w.w.w.{.W.z.f.w.w.w.w.w.w.w.w.w.w.w.w.w.w.w.w.w.w.w.w.w.w.w.w.w.w.w.w.w.w.w.w.w.w.w.w.w.w.w.w.w.w.w.w.w.w.w.w.w.w.w.w.",
"z.9.z.w.z.p.z.@.%.%.@.@.%.-.%.@.@.@.@.@.%.%.%.%.@.@.@.@...@.%.@.@.@.%.%.%.%.@.@.@.%.%.%.%.@.@.@.%.-.9.f.z.w.w.z.z.z.z.z.z.z.z.z.w.f.f.f.%.9.z.z.f.f.f.w.f.f.f.f.z.z.z.z.w.w.z.z.z.z.f.f.f.z.z.z.z.z.z.z.w.w.f.z.z.z.z.z.z.z.z.z.f.z.z.z.z.z.f.f.e.z.z.z.f.f.f.z.z.w.w.z.N.z.w.w.t.Y 9.f.f.z.9.p.z.f.w.9.0.f.z.z.N.z.w.p.>.L n D D D D D D D D D D D D D D D D D D D D D D D D D S D D K D S D L Y 3.f.9.4.9.9.9.w.w.w.w.w.w.w.w.0.{.0.N.@.%.{.w.3.9.N.w.9.9.z.w.w.w.w.w.w.w.w.w.w.w.w.w.w.w.w.w.z.w.0.f.w.%.X.:.w.w.w.w.w.w.w.w.w.w.w.w.w.w.w.w.3...@.f.z.w.z.z.w.w.w.w.w.w.w.w.0.9...w.9.@.%.w.w.w.w.w.w.w.w.w.w.w.w.w.w.w.w.w...%.3.0.w.w.f.z.w.w.w.w.w.w.w.w.w.w.w.w.w.w.w.w.w.w.w.w.w.w.w.w.w.w.w.w.w.w.w.w.w.w.w.w.w.w.w.w.w.w.w.w.w.w.w.w.",
"w.z.9.z.0.f.:.@.9.:.3.9.:.3.0.:.3.3.3.3.3.3.3.3.9.3.9.9.-.>.9.>.3.3.3.3.>.:.:.3.:.:.:.3.3.3.3.3.3.:.3.w.z.w.9.w.w.w.w.w.w.w.w.w.w.w.w.w.@.9.w.w.w.w.w.w.w.w.w.w.w.w.w.w.w.w.w.w.f.w.w.w.w.w.w.w.w.w.w.0.0.0.w.w.w.w.w.w.w.w.w.w.0.w.w.w.w.w.w.w.w.w.w.w.0.0.w.w.9.w.w.w.0.w.w.f.:.@.+X9.9.f.9.p.e.w.w.e.9.9.9.9.3.w.z.w.0.f.f.9.-.-.-.-.-.-.-.-.-.-.-.-.-.-.-.=.-.-.-.-.-.-.-.-.-.>.>.:.@.*.9.f.w.!.W.w.a.W.a.w.w.w.w.w.w.w.w.w.0.w.9.W.w.Y z.f.N.0.z.w.z.9.z.9.w.w.w.w.w.w.w.w.w.w.w.w.w.w.w.w.f.w.w.z.z.:.%.0.w.w.w.w.w.w.w.w.w.w.w.w.w.w.w.w.9.@.>.W.N.w.w.9.w.w.w.w.w.w.w.w.w.w.@.z.0.@.-.z.w.w.w.w.w.w.w.w.w.w.w.w.w.w.w.w.@.>.w.z.z.w.w.w.w.w.w.w.w.w.w.w.w.w.w.w.w.w.w.w.w.w.w.w.w.w.w.w.w.w.w.w.w.w.w.w.w.w.w.w.w.w.w.w.w.w.w.w.w.w.w.w.",
"0.W.9.f.z.9.@.9.z.W.N.z.z.z.z.W.N.N.z.z.z.z.z.z.f.w.W.{.f.e.N.w.N.z.z.z.z.z.z.z.W.z.w.w.z.N.N.z.w.3.:.0.z.z.f.z.p.f.f.f.f.f.p.p.w.f.w.f.%.0.z.w.f.f.f.f.f.f.f.e.w.w.w.z.v.v.z.w.z.z.z.f.f.f.z.z.f.p.p.p.p.z.z.z.z.z.z.f.f.f.f.f.z.z.f.w.w.f.z.z.f.f.f.e.w.w.f.z.w.N.N.w.w.W.z.9.' oX9.N.9.w.{.z.w.9.w.R.R.e.e.e.).9.w.z.f.N. X+X-X-X-X-X-X-X-X-X-X-X-X-X-X-X-X-X-X-X-X-X-X-X-X-X+X+X+X+X$X$X+X[.z.w.9.9.z.w.9.w.z.z.z.z.z.z.z.z.N.-.{.9.W.9.X.z.z.9.w.9.f.w.N.9.w.w.w.w.w.w.w.w.w.w.w.w.w.w.w.w.w.f.w.f.z.w.w.W.w.w.w.w.w.w.w.w.w.w.w.w.w.w.w.w.{.f.w.z.w.w.f.w.w.w.w.w.w.w.w.w.z.w...0.N.z.f.p.w.w.w.w.w.w.w.w.w.w.w.w.w.w.w.p.W.z.z.w.w.w.w.p.w.w.w.w.w.w.w.w.w.w.w.w.w.w.w.w.w.w.w.w.w.w.w.w.w.w.w.w.w.w.w.w.w.w.w.w.w.w.w.w.w.w.w.w.w.w.p.p.",
"w.z.p.9.{.-.%.f.@.z.:.@.w.3...w.3.9.9.9.9.9.3.3.9.-.-.:.%.%.9.N.w.0.9.9.w.w.w.w.z.w.9.9.w.w.0.9.f.3.:.3.0.w.0.w.9.9.0.0.0.0.9.9.9.9.9.0.@.9.w.9.9.9.9.9.9.9.9.9.9.9.9.0.w.w.w.9.9.9.9.w.w.w.w.w.0.0.9.0.w.w.w.0.0.0.w.w.w.0.0.9.w.w.w.0.9.9.9.0.w.w.9.9.0.w.w.w.9.0.9.9.w.z.9...:.{.:.9.N.9.w.w.e.9.9.w.e.e.9.9.z.9.9.w.w.0.w.p.9.9.9.9.9.9.9.9.9.9.9.9.9.9.4.4.9.9.9.9.9.9.9.9.9.0.p.p.f.w.0.9.w.w.w.z.W.w.w.W.w.w.w.w.w.w.w.w.w.z.z.9.p.{.' -.0.w.N.9.9.w.W.w.w.w.w.w.w.w.w.w.w.w.w.w.w.w.w.w.w.N.z.9.0.9.9.w.w.w.w.w.w.w.w.w.w.w.w.w.w.w.w.w.0.w.w.9.9.z.z.f.w.w.w.w.w.w.w.w.w.w...3.w.z.z.9.w.w.w.w.w.w.w.w.w.w.w.w.w.w.w.w.w.0.9.9.w.p.z.f.w.w.w.w.w.w.w.w.w.w.w.w.w.w.w.w.w.w.w.w.w.w.w.w.w.w.w.w.w.w.w.w.w.w.w.w.w.w.w.w.w.w.w.w.w.w.w.p.",
"z.9.z.w.w.@.:.3.@.:.@.@.-.@...%.:.3.9.w.0.3.%.@.I D n n n n P 6.w.0.9.w.f.w.w.9.9.0.w.w.w.0.0.w.w.9.3.:.:.%.@.@.%.%.%.-.-.-.-.-.%.%.%.-.Y @.:.%.%.%.%.%.%.%.%.%.%.%.-.%.@.@.%.-.%.%.%.&.-.%.%.@.%.%.%.-.-.-.%.@.@.@.%.%.%.%.%.%.@.%.%.%.%.%.%.@.:.%.@.@.%.-.%.%.%.@.@.%.%.%...` [.9.{.3.{.f.9.w.z.z.z.w.w.w.w.w.8.e.N.e.p.N.f.9.N.N.N.N.N.N.N.N.f.f.f.f.f.f.f.f.f.f.f.f.f.f.f.f.9.f.z.0.9.9.f.N.9.e.z.f.f.9.9.f.f.f.f.f.f.f.f.f.8.[.3.f.p.f.0.] W.W.W.{.w.f.w.9.w.w.w.w.w.w.w.w.w.w.w.w.w.w.w.w.w.z.w.w.z.z.z.W.w.w.w.w.w.w.w.w.w.w.w.w.w.w.w.w.w.W.w.9.z.N.9.9.w.w.w.w.w.w.w.w.w.W.:.w.w.w.z.z.w.w.w.w.w.w.w.w.w.w.w.w.p.w.p.w.p.z.z.N.N.z.w.9.w.w.w.w.w.w.w.w.w.w.w.w.w.w.w.w.w.w.w.w.p.w.p.w.w.w.w.w.w.w.w.w.w.w.w.w.w.w.w.w.w.w.w.w.w.w.p.p.",
"N.9.w.W.@.-.:.X.-.G ..@.S L @.M @.:.9.9.3.@.' L L C n D L m D -.3.:.:.>.3.>.%...' @.:.3.:.-.:.3...@.%.%.:.>.4.3.3.3.3.3.3.3.3.3.3.3.:.3...:.3.:.3.3.3.3.3.3.3.3.:.3.3.:.@.@.%.3.:.:.3.3.:.-.@.@.:.>.:.:.3.:.%.@.@.%.%.:.:.:.:.:.@.@.-.:.3.3.:.:.3.:.%.%.:.3.:.-.3.:.:.9.:.@.-.w.N.9.9.W.3.w.z.w.9.p.f.0.0.w.f.w.z.N.e.9.w.w.w.N.e.e.e.e.e.e.e.e.e.f.e.e.e.e.e.e.e.e.e.e.e.e.e.e.N.z.w.0.e.N.f.9.w.N.f.9.f.z.f.f.e.e.e.e.e.e.e.e.N.8.z.f.v.t.N.-.@.Y Y w.f.p.9.N.w.w.w.w.w.w.w.w.w.w.w.w.w.w.w.w.w.w.w.w.z.w.9.w.w.w.w.w.w.w.w.w.w.w.w.w.w.w.w.w.0.f.%.@.w.f.9.z.w.w.w.w.w.w.w.w.w.9.` 3.z.z.z.w.w.w.w.w.w.w.w.w.w.w.w.w.w.w.w.w.w.w.0.0.w.w.z.z.w.w.w.w.w.w.w.w.w.w.w.w.w.w.w.w.w.w.w.w.p.p.p.w.w.w.w.w.w.w.w.w.w.w.w.w.w.w.w.w.w.w.w.w.w.w.w.w.",
"9.9.>.@.@.@.@.] @.@.@.@.@.] ] ] @.@.@.@.@.@.@.@.@.=.@.@.-.@.' -.] @.@.@.@.@./ A j ' @.] @.*.@.@.n B K ] @.@.@.@.@.@.@.@.@.@.X.X.>.Y @.:.L ' 9.' @.@.@.@.@.@.@.@.| @.@.) n g P :.) :.@.| *.K g K @.@.@.@.*.@.Y n B ) @.| | *.@.' S f P :.] @.:.] =./ B B / @.@.] | -.L :.@.A 0.[.w.w.w.w.w.w.w.w.w.w.w.w.w.w.w.w.w.w.w.w.w.w.w.w.w.w.w.w.w.w.w.w.w.w.w.w.w.w.w.w.f.v.w.9.w.w.w.w.p.w.w.w.w.w.w.w.w.e.w.w.z.w.9.w.w.w.w.w.w.w.w.w.w.w.w.w.w.f.z.z.' @.>.0.e.f.z.w.w.w.w.w.w.w.w.w.w.w.w.w.w.w.w.w.w.w.w.w.w.w.w.w.w.w.w.w.w.w.w.w.w.w.w.w.w.w.w.w.N.9.L M @.w.w.f.N.:.' Y D ' :.-.7.:./ >.*.B ) ] *.*.=.:.>.*.' D / @.>.:.*.=.:.:.-.:.>.>.>.>.>.>.>.>.>.>.>.>.>.>.>.>.>.>.>.>.>.>.>.>.>.>.>.>.>.>.4.4.4.4.4.4.4.4.>.>.>.>.>.>.>.>.>.>.>.>.>.>.>.>.",
"S D D A A D L D P P P P P Y Y Y L H L L K L K K D L D D L A n L S D D D D D A g g S L D D L D S g b n D L D D D P P P P L L L L P A D K n S P A D D D D D D D D D D L D b f n P A P D D P n a n D L D D L L A f f A L D D L D S n s B Y S D P S L B g g A L L D n ` L D ' >./.9.w.w.w.w.w.w.w.w.w.w.w.w.w.w.w.w.w.w.w.w.w.w.w.w.w.w.w.w.w.w.w.w.w.w.w.w.w.w.w.w.9.f.w.w.N.z.w.w.w.w.w.w.w.w.w.w.w.z.w.0.w.9.9.w.w.w.w.w.w.w.w.w.w.w.w.w.w.f.z.z.N.' w.{.f.0.w.0.w.w.w.w.w.w.w.w.w.w.w.w.w.w.w.w.w.w.w.w.w.w.w.w.w.w.w.w.w.w.w.w.w.w.w.w.w.w.w.w.e.9.@.` >.w.w.z.N.@.A g f f B L S C n D C f j C L D D D D A b f n D L D D L L D S D D D D D D D D D D D D D D D D D D D D D D D D D D D D D D D D D D D D D D D D D D D D D D D D D D D D D D D ",
"p.f.f.p.p.v.v.v.9.9.9.0.t.p.p.p.p.p.p.p.p.p.p.p.p.v.p.p.v.9.>.v.v.v.v.f.f.v.v.p.N.f.f.f.f.f.f.0.f.f.f.N.N.f.f.N.p.p.p.p.p.v.v.v.f./.f.t.v.v.p.v.f.f.f.f.f.f.f.f.f.f.f.N.N.t.t.N.f.N.f.f.N.t.9.v.p.v.Z.v.v.v.v.p.0.f.f.f.f.f.f.f.f.0.f.N.f.p.f.f.f.f.t.t.f.N.N.f.f.0.N.9.0.+Xf.9.w.w.w.w.w.w.w.w.w.w.w.w.w.w.w.w.w.w.w.w.w.w.w.w.w.w.w.w.w.w.w.w.w.w.w.w.w.w.w.w.f.z.f.0.z.z.f.z.z.z.z.z.z.z.z.z.w.z.f.w.f.w.w.z.w.w.w.w.w.w.w.w.w.w.w.w.w.f.f.z.f.@...N.9.f.w.z.w.w.w.w.w.w.w.w.w.w.w.w.w.w.w.w.w.w.w.w.w.w.w.w.w.w.w.w.w.w.w.w.w.w.w.w.w.w.w.w.z.w.9.9.w.z.z.z.@.@.>.t.N.t.9.t.f.f.{.f.t.f.0.f.f.f.f.f.f.f.t.0.t.f.f.f.f.N.f.t.p.p.p.v.v.v.v.f.p.p.p.p.p.p.p.p.p.p.p.p.p.p.p.p.f.p.f.f.f.f.f.f.t.t.t.t.t.t.t.t.p.p.p.p.p.p.p.p.f.p.f.f.f.f.f.f.",
"N.{.{.N.N.W.N.z.{.{.{.{.{.{.{.{.W.W.W.W.Z.Z.Z.Z.v.N.z.v.N.9.>.N.N.W.N.z.z.N.W.N.[.f.v./.f.N.{.f.W.N.N.v.N.N.N.N.N.N.N.N.N.W././.v.{.N.z.{.W.f.W.N.N.N.N.N.N.N.N.{.v.f.N././.N.N./.v.v.W.N.N././.z.N.W.v.v.N.{.{.W.v.v.N.N.v.N.W.W.N.v.v.W.v.f.N.v.N././.W.N.N.N.XX0.{.{.{.N.>.N.w.w.w.w.w.w.w.w.w.w.w.w.w.w.w.w.w.w.w.w.w.w.w.w.w.w.w.w.w.w.w.w.w.w.w.w.w.w.w.w.w.9.%.' ' ` ` ..' ' ` ` ` ` ' ' >.w.f.z.N.z.w.f.w.w.w.w.w.w.w.w.f.f.w.w.w.w.w.w.f.}.+.-.N.f.z.0.w.w.w.w.w.w.w.w.w.w.w.w.w.w.w.w.w.w.w.w.w.w.w.w.w.w.w.w.w.w.w.w.w.w.w.w.w.w.w.w.z.f.z.z.w.z.z.9.' N.XX{.{.{.{.[.N.N.{.N.N.{.N.W.N.N.W.W.W./.{.{./.{.N.N.W.{.W.z.N.W././.{./././././././././././././././././././.W.W.W.W.W.W.W.W.Z.u.N.N.N.N.N.N././././././././.W.W.W.W.W.W.W.W.",
"0.w.p.w.w.p.p.w.0.0.0.9.9.9.9.9.p.p.p.p.p.p.p.p.w.f.0.p.p.:.-.f.0.p.p.w.0.0.p.p.f.9.0.z.0.0.f.w.w.w.w.0.0.w.w.w.p.p.p.p.p.p.p.p.p.w.p.f.p.p.p.0.p.p.p.p.p.p.p.p.f.0.9.9.w.p.w.w.f.9.0.f.0.p.f.w.w.p.p.0.w.p.f.p.f.0.9.w.p.0.0.p.0.p.0.9.f.w.9.f.w.p.p.f.p.w.0.0.9.>.w.9.9.w.9.f.w.w.w.w.w.w.w.w.w.w.w.w.w.w.w.w.w.w.w.w.w.w.w.w.w.w.w.w.w.w.w.w.w.w.w.w.w.w.w.w.w.9.@.L L L L Y L L L L L L L L -.9.w.w.z.f.w.w.w.w.w.w.w.w.w.w.f.f.f.f.w.w.w.w.0.f.8.P N.0.W.9.w.w.w.w.w.w.w.w.w.w.w.w.w.w.w.w.w.w.w.w.w.w.w.w.w.w.w.w.w.w.w.w.w.w.w.w.w.w.w.w.w.w.w.w.0.f.9.@.9.S.0.] ' ' ' @.@.@.' -.0.0.f.w.w.p.p.w.0.9.9.9.p.f.f.w.0.p.p.w.0.0.w.w.w.w.w.w.w.w.w.w.w.w.w.w.w.w.w.w.w.w.w.w.0.0.0.0.0.0.w.w.p.w.w.w.w.w.w.w.w.w.w.w.w.w.w.w.0.0.0.0.0.0.0.0.",
"w.w.p.p.p.p.w.w.f.f.f.f.f.f.f.p.9.0.0.0.0.9.0.9.p.f.w.f.z.:.-.z.w.p.f.f.p.w.w.w.p.w.f.z.w.0.p.p.p.z.z.p.p.f.p.w.p.0.0.0.w.0.0.0.z.9.f.v.9.w.v.0.p.p.p.p.p.p.p.p.p.p.f.z.z.p.p.w.z.w.p.z.w.p.f.0.z.f.p.p.f.p.p.w.p.w.w.f.f.p.p.p.w.f.w.w.z.p.0.w.f.p.w.w.p.f.p.w.N.N.w.w.p.z.z.w.w.w.w.w.w.w.w.w.w.w.w.w.w.w.w.w.w.w.w.w.w.w.w.w.w.w.w.w.w.w.w.w.w.w.w.w.w.w.w.w.z.z.0.9.w.w.9.9.w.w.w.w.w.w.w.w.3.z.z.9.w.w.w.z.w.w.w.w.w.w.w.w.w.w.f.f.f.w.w.w.9.I :.&...N.9.N.w.w.w.w.w.w.w.w.w.w.w.w.w.w.w.w.w.w.w.w.w.w.w.w.w.w.w.w.w.w.w.w.w.w.w.w.w.w.w.w.9.w.w.w.f.w.3.@.{.0.@.] @.' ' ' ' ) Y -.w.9.p.w.w.p.p.p.w.w.w.w.p.p.f.p.w.w.p.z.w.w.w.w.w.w.w.w.w.w.w.w.w.w.w.w.w.w.w.w.w.w.w.w.w.w.w.w.w.w.w.w.w.w.w.w.w.w.w.w.w.w.w.w.w.w.w.w.w.w.w.w.w.w.w.w.",
"z.z.f.p.w.w.w.w.w.w.w.w.p.p.f.f.z.z.z.z.z.z.z.z.w.w.w.f.z.:.%.z.w.w.w.f.p.w.w.w.w.z.p.w.p.w.w.w.w.z.z.w.w.z.p.w.z.z.z.z.z.z.z.z.w.w.w.w.w.w.f.w.w.w.w.w.w.p.p.p.w.w.z.z.p.p.w.w.w.f.f.w.w.w.w.w.f.f.f.f.w.w.f.z.w.w.f.w.w.w.p.p.w.w.f.f.f.f.f.w.w.w.w.w.w.f.f.f.f.9.9.w.p.w.0.z.w.w.w.w.w.w.w.w.w.w.w.w.w.w.w.w.w.w.w.w.w.w.w.w.w.w.w.w.w.w.w.w.w.w.w.w.w.w.w.w.w.w.3.:.9.9.9.9.3.3.3.3.3.3.3.3.3.z.z.w.w.f.f.z.w.w.w.w.w.w.w.w.w.w.f.f.f.f.w.w.'.:.9..X' 0.:.z.w.w.w.w.w.w.w.w.w.w.w.w.w.w.w.w.w.w.w.w.w.w.w.w.w.w.w.w.w.w.w.w.w.w.w.w.w.w.w.w.w.z.f.z.z.9.:.w.[.:.' ' ' ' ] @.@.' @.9.z.z.w.z.p.p.p.f.z.z.z.z.p.p.f.f.f.w.p.z.z.z.z.f.p.f.f.z.f.f.f.f.f.f.f.f.f.f.f.f.f.f.f.f.p.p.f.f.f.f.a.p.z.f.f.f.f.f.f.f.f.f.f.f.f.f.f.f.p.f.p.f.f.f.f.f.",
"w.w.w.w.w.w.p.z.f.f.f.w.w.w.w.w.w.w.w.w.w.w.w.w.w.w.w.z.z.:.-.N.z.w.w.w.p.p.p.f.9.W.w.9.z.T.w.z.w.a.w.w.w.z.z.w.w.w.w.w.w.w.w.w.w.z.w.0.z.f.w.z.w.w.w.w.w.a.a.a.z.z.w.9.w.w.z.z.w.z.z.w.z.z.w.z.w.w.f.f.w.w.z.W.w.z.z.w.w.w.z.a.w.w.z.z.w.z.W.z.w.w.a.w.w.z.z.z.0.e.[.z.0.N.w.z.w.w.w.w.w.w.w.w.w.w.w.w.w.w.w.w.w.w.w.w.w.w.w.w.w.w.w.w.w.w.w.w.w.w.w.w.w.w.w.w.z.9...G D G G G G G G G G G G G %.w.e.9.w.w.w.w.w.w.w.w.w.w.w.w.w.w.w.f.f.f.w.w.0.f.w.e.N.T W.f.w.w.w.w.w.w.w.w.w.w.w.w.w.w.w.w.w.w.w.w.w.w.w.w.w.w.w.w.w.w.w.w.w.w.w.w.w.w.w.w.f.z.0.w.w.@.%.+X-.@.] ] ' ' @.' | ) 9.9.w.{.3.T.z.z.w.w.w.w.w.w.z.a.w.z.z.z.w.w.f.f.w.w.w.w.w.w.w.w.w.w.w.w.w.w.w.w.w.w.w.w.w.w.w.w.w.w.w.w.w.w.0.0.0.0.0.0.0.0.w.w.w.w.w.w.w.w.w.w.w.w.w.w.w.w.",
"w.w.w.w.w.w.w.w.w.w.w.w.w.w.w.w.w.w.w.w.w.w.w.w.w.w.w.w.W.:.:.z.w.w.w.w.w.w.w.w.w.w.w.w.w.w.w.w.w.w.w.w.w.w.w.w.w.w.w.w.w.w.w.w.w.w.w.w.w.w.w.w.w.w.w.w.w.w.w.w.w.w.w.w.w.w.w.w.w.w.w.w.w.w.w.w.w.0.w.z.f.z.w.3.%.w.f.0.w.z.w.w.f.9.w.z.f.@.3.z.w.w.w.w.w.w.w.w.z.0.:.:.w.z.w.f.w.w.w.w.w.w.w.w.@.>.0.f.w.w.w.w.9.w.z.w.f.9.%.9.w.w.w.w.w.w.w.w.w.w.w.w.w.w.w.w.f.9.:.@.@.%.-.@.@.@.@.@.@.@.@.@.:.9.f.f.9.9.w.f.w.w.w.w.w.w.w.w.w.w.w.w.w.w.w.w.w.z.9.w.{.-.' z.w.f.f.w.w.w.f.z.f.f.f.f.f.f.f.e.w.w.w.w.w.w.w.w.w.w.w.w.w.w.w.w.w.w.w.w.w.w.w.w.z.9.w.w.3.%.[.9.........' ` ` ' ' 3.w.9.w.z.9.z.0.w.z.z.9.9.f.z.z.p.w.w.w.0.w.z.w.w.f.f.z.z.f.e.w.w.w.w.w.w.w.w.w.w.w.w.w.w.w.w.w.w.w.w.w.w.w.w.w.w.w.w.w.w.w.w.w.w.w.w.w.w.w.w.w.w.w.w.w.w.w.w.",
"w.w.w.w.w.w.w.w.w.w.w.w.w.w.w.w.w.w.w.w.w.w.w.w.w.w.w.w.W.:.:.z.w.w.w.w.w.w.w.w.w.w.w.w.w.w.w.w.w.w.w.w.w.w.w.w.w.w.w.w.w.w.w.w.w.w.w.w.w.w.w.w.w.w.w.w.w.w.w.w.w.w.w.w.w.w.w.w.w.w.w.w.w.w.w.w.w.f.p.9.0.z.9.Y 3.p.z.0.w.w.w.f.w.f.f.9.3...3.z.w.w.w.w.w.w.w.w.z.9.@.@.9.z.z.f.w.w.w.w.w.w.w.w.' -.e.N.w.0.w.z.z.z.0.9.W.:.` 9.w.w.w.w.w.w.w.w.w.w.w.w.w.w.w.w.9.p.z.w.0.w.w.w.w.w.w.w.w.w.w.w.z.z.z.z.e.z.z.w.w.w.w.w.w.w.w.w.w.w.w.w.w.w.w.w.w.w.w.f.z.z.9.%.w.9.9.f.z.f.w.f.w.w.w.w.w.w.w.w.w.w.w.w.w.w.w.w.w.w.w.w.w.w.w.w.w.p.w.w.w.w.w.w.0.9.W.w.Y [.N.@...@.@.....@.....` 3.W.f.z.W.w.z.N.w.0.N. X{.z.9.9.9.w.z.N.z.f.f.z.f.w.0.9.9.w.f.w.w.w.w.w.w.w.w.w.w.w.w.w.w.w.w.w.w.w.w.w.w.w.w.w.w.w.w.w.w.w.w.w.w.w.w.w.w.w.w.w.w.w.w.w.w.w.w.",
"w.w.w.w.w.w.w.w.w.w.w.w.w.w.w.w.w.w.w.w.w.w.w.w.w.w.w.w.W.:.:.z.w.w.w.w.w.w.w.w.w.w.w.w.w.w.w.w.w.w.w.w.w.w.w.w.w.w.w.w.w.w.w.w.w.w.w.w.w.w.w.w.w.w.w.w.w.w.w.w.w.w.w.w.w.w.w.w.w.w.w.w.w.w.w.w.z.9.9.z.w.9.w.z.9.z.z.0.w.w.w.f.w.w.w.0.N.9.z.w.w.w.w.w.w.w.w.w.w.z.e.w.z.w.0.f.w.w.w.w.w.w.w.w.e.f.f.w.w.w.w.9.z.3.z.f.9.v.N.9.w.w.w.w.w.w.w.w.w.w.w.w.w.w.w.w.w.W.z.w.N.z.w.z.w.w.w.w.w.w.w.w.w.0.9.9.z.W.z.0.w.w.w.w.w.w.w.w.w.w.w.w.w.w.w.w.W.9.w.z.9.z.w.L z.z.z.f.p.p.f.z.w.w.w.w.w.w.w.w.f.f.f.f.f.p.p.f.w.w.w.w.f.f.f.f.f.f.f.f.f.f.f.f.9.W.f.` 9.{.-.....@.....@.@.@...9.p.f.:.9.{.{.[.{. X{.W.N.3.:.w.w.f.w.w.0.w.w.w.9.w.z.z.z.z.z.W.w.w.w.w.w.w.w.w.w.w.w.w.w.w.w.w.w.w.w.w.w.w.w.w.w.w.w.w.w.w.w.w.w.w.w.w.w.w.w.w.w.w.w.w.w.w.w.w.",
"w.w.w.w.w.w.w.w.w.w.w.w.w.w.w.w.w.w.w.w.w.w.w.w.w.w.w.w.W.:.:.z.w.w.w.w.w.w.w.w.w.w.w.w.w.w.w.w.w.w.w.w.w.w.w.w.w.w.w.w.w.w.w.w.w.w.w.w.w.w.w.w.w.w.w.w.w.w.w.w.w.w.w.w.w.w.w.w.w.w.w.w.w.w.w.w.z.9.9.W.f.9.z.{.9.z.w.0.w.w.w.w.w.w.w.f.{.e.W.w.w.w.w.w.w.w.w.w.9.z.N.z.z.w.9.w.w.w.w.w.w.w.w.w.(.N.e.0.w.z.w.9.w.3.W.z.3.W.[.9.w.w.w.w.w.w.w.w.w.w.w.w.w.w.w.w.p.z.:.%.w.z.9.9.w.w.w.w.w.w.w.w.z.w.w.w.f.w.:.' w.w.w.w.w.w.w.w.w.w.w.w.w.w.w.w.z.@.%.w.0.z.N.:.@.9.v.0.9.0.p.9.0.0.0.w.w.w.w.w.0.0.0.0.0.0.0.0.w.w.w.w.w.w.w.w.0.0.0.0.0.0.0.0.W.W.@.@.+X%.' @.@.' ' @.%.%.@.%.z.z.w.-.3.W.w.3.9.w.3.9.N.9.>.W.w.f.f.w.w.z.W.z.w.z.z.z.z.w.w.9.w.w.w.w.w.w.w.w.w.w.w.w.w.w.w.w.w.w.w.w.w.w.w.w.w.w.w.w.w.w.w.w.w.w.w.w.w.w.w.w.w.w.w.w.w.w.w.w.",
"w.w.w.w.w.w.w.w.w.w.w.w.w.w.w.w.w.w.w.w.w.w.w.w.w.w.w.w.W.:.:.z.w.w.w.w.w.w.w.w.w.w.w.w.w.w.w.w.w.w.w.w.w.w.w.w.w.w.w.w.w.w.w.w.w.w.w.w.w.w.w.w.w.w.w.w.w.w.w.w.w.w.w.w.w.w.w.w.w.w.w.w.w.w.w.w.w.z.z.0.w.W.9.Y 9.w.w.w.z.f.w.w.w.w.z.0.3.' 9.N.w.w.w.w.w.w.w.w.z.9.@.@.9.z.z.w.w.w.w.w.w.w.w.w.' -.e.z.w.w.w.z.f.N.9.9.{.:.Y p.w.w.w.w.w.w.w.w.w.w.w.w.w.w.w.w.w.w.%.@.w.z.9.z.f.f.f.f.f.f.e.e.z.z.z.z.z.w.>.@.w.w.w.w.w.w.w.w.w.w.w.w.w.w.w.w.w.:.:.w.N.f.z.{.@.:.f.N.N.N.v.f.v.v.v.v.z.z.v.v.v.v.v.v.v.v.v.v.N.N.N.N.N.W.W.W.N.N.N.N.N.N.N.N.f.:.+.[.>.` ..@.-.` ` :.3.:.:.9.9.w.z.>.:.z.z.f.w.W.z.z.z.:.@.z.9.w.f.w.w.w.9.3.a.w.9.9.w.a.z.z.w.w.w.w.w.w.w.w.w.w.w.w.w.w.w.w.w.w.w.w.w.w.w.w.w.w.w.w.w.w.w.w.w.w.w.w.w.w.w.w.w.w.w.w.w.w.w.w.",
"w.w.w.w.w.w.w.w.w.w.w.w.w.w.w.w.w.w.w.w.w.w.w.w.w.w.w.w.W.:.:.z.w.w.w.w.w.w.w.w.w.w.w.w.w.w.w.w.w.w.w.w.w.w.w.w.w.w.w.w.w.w.w.w.w.w.w.w.w.w.w.w.w.w.w.w.w.w.w.w.w.w.w.w.w.w.w.w.w.w.w.w.w.w.w.w.f.z.z.w.w.z.9.` 9.w.w.w.z.p.w.w.w.w.w.w.9...9.z.w.w.w.w.w.w.w.w.z.9.%.%.9.z.f.w.w.w.w.w.w.w.w.w.@.:.w.f.w.w.f.f.w.z.w.w.W.3.` f.w.w.w.w.w.w.w.w.w.w.w.w.w.w.w.w.0.z.w.9.w.p.w.z.w.w.w.w.w.w.w.w.9.w.w.w.z.N.N.z.w.w.w.w.w.w.w.w.w.w.w.w.w.w.w.w.w.W.z.w.z.w.9.z.4.' P ' X.` Y ' ' ' ' ' ' ' ' ' ' ' ' ' ' ' ' ' ' ' ' ' ' ' ' ' ' ' ' ' ' ' ' ' ' @.f.8.Y ` Y ..:.' ` :.3.:.3.z.w.w.z.%.Y ..-.9.%.9.3.%.` G ' z.f.w.0.w.w.w.w.z.w.w.w.p.f.f.w.0.w.w.w.w.w.w.w.w.w.w.w.w.w.w.w.w.w.w.w.w.w.w.w.w.w.w.w.w.w.w.w.w.w.w.w.w.w.w.w.w.w.w.w.w.w.w.w.w.",
"w.w.w.w.w.w.w.w.w.w.w.w.w.w.w.w.w.w.w.w.w.w.w.w.w.w.w.w.W.:.:.z.w.w.w.w.w.w.w.w.w.w.w.w.w.w.w.w.w.w.w.w.w.w.w.w.w.w.w.w.w.w.w.w.w.w.w.w.w.w.w.w.w.w.w.w.w.w.w.w.w.w.w.w.w.w.w.w.w.w.w.w.w.w.w.w.z.9.w.z.w.9.z.W.9.w.w.w.z.w.w.z.w.w.w.z.{.w.N.w.w.w.w.w.w.w.w.w.0.z.z.z.z.w.9.w.w.w.w.w.w.w.w.w.W.N.w.0.w.z.f.0.0.9.W.z.9.N.W.f.w.w.w.w.w.w.w.w.w.w.w.w.w.w.w.w.w.N.z.z.w.w.w.w.z.z.z.z.z.z.z.z.z.z.z.w.w.w.w.w.w.w.w.w.w.w.w.w.w.w.w.w.w.w.w.w.3.z.f.9.w.z.f.z.[.9.@.@.@.] ] @.@.@.] ] ] | @.@.@.@.@.@.@.@.@.@.| | @.@.@.@.@.@.@.@.@.@.@.@.@.@.@.9.N.L ....T ..%.@.+.%.:.:.9.z.w.0.W.9.` L S S G S M S ` %.w.W.e.9.0.z.W.z.z.{.{.{.[.{.N.f.f.f.w.w.w.w.w.w.w.w.w.w.w.w.w.w.w.w.w.w.w.w.w.w.w.w.w.w.w.w.w.w.w.w.w.w.w.w.w.w.w.w.w.w.w.w.w.w.w.w.",
"w.w.w.w.w.w.w.w.w.w.w.w.w.w.w.w.w.w.w.w.w.w.w.w.w.w.w.w.W.:.:.z.w.w.w.w.w.w.w.w.w.w.w.w.w.w.w.w.w.w.w.w.w.w.w.w.w.w.w.w.w.w.w.w.w.w.w.w.w.w.w.w.w.w.w.w.w.w.w.w.w.w.w.w.w.w.w.w.w.w.w.w.w.w.w.w.f.0.w.w.w.z.z.9.w.z.w.9.z.w.w.z.p.W.N.w.z.w.{.z.w.w.w.w.w.w.w.w.w.f.w.0.p.w.9.w.w.w.w.w.w.w.w.w.0.e.f.e.w.w.f.w.N.0.w.w.p.p.9.z.w.w.w.w.w.w.w.w.w.w.w.w.w.w.w.w.z.w.0.w.w.z.z.0.w.w.w.w.w.w.w.w.w.w.z.w.w.w.w.w.w.w.w.w.w.w.w.w.w.w.w.w.w.w.w.w.z.w.w.w.9.w.f.w.0.{.+X[.[.@X+X[.+X+X+X+X+X+X+X+XoXXXXXXXoXoXoXoXoXoXoXoXoXoXoXoXXXXXXXXXXXXX[.[.+X+X@.@...%.3.@.-.:.-.%.-.9.w.z.W.9.f.z.w.W.N.z.N.z.N.W.z.z.z.0.z.w.z.W.9.Y b f f f f f f D @.t.w.w.w.w.w.w.w.w.w.w.w.w.w.w.w.w.w.w.w.w.w.w.w.w.w.w.w.w.w.w.w.w.w.w.w.w.w.w.w.w.w.w.w.w.w.w.w.w.",
"w.w.w.w.w.w.w.w.w.w.w.w.w.w.w.w.w.w.w.w.w.w.w.w.w.w.w.w.W.:.:.z.w.w.w.w.w.w.w.w.w.w.w.w.w.w.w.w.w.w.w.w.w.w.w.w.w.w.w.w.w.w.w.w.w.w.w.w.w.w.w.w.z.f.0.z.{.0.3.f.0.f.8.w.z.z.9.W.w.w.w.w.w.w.w.w.w.w.w.w.w.w.w.w.w.z.w.z.9.9.{.X.@.@.@.@.@.@.@.@.' (.8.9.N.w.z.w.w.w.w.w.w.w.w.w.w.w.w.w.w.w.w.w.w.w.w.w.w.w.w.w.z.0.w.z.f.w.z.z.w.w.w.w.w.w.w.w.w.w.w.w.w.w.w.w.9.{.N.9.z.w.9.N.w.w.w.w.w.w.w.w.z.z.w.9.w.z.W.z.w.w.w.w.w.w.w.w.w.w.w.w.w.w.w.w.w.w.w.w.w.w.w.w.f.w.9.9.9.9.9.9.z.:.w.9.9.z.9.w.3.0.9.9.9.w.9.0.0.0.9.9.9.0.0.0.9.9.9.0.0.0.9.9.9.3.3.3.3.9.9.>.9.9.3.3.9.9.w.w.w.w.w.w.w.w.w.w.w.w.w.w.w.w.w.w.z.f.w.z.N.S a V B j j z g a ' v.w.w.w.w.w.w.w.w.w.w.w.w.w.w.w.w.w.w.w.w.w.w.w.w.w.w.w.w.w.w.w.w.w.w.w.w.w.w.w.w.w.w.w.w.w.w.w.w.",
"w.w.w.w.w.w.w.w.w.w.w.w.w.w.w.w.w.w.w.w.w.w.w.w.w.w.w.w.W.:.:.z.w.w.w.w.w.w.w.w.w.w.w.w.w.w.w.w.w.w.w.w.w.w.w.w.w.w.w.w.w.w.w.w.w.w.w.w.w.w.w.w.z.N.w.3.0.N.v.p.0.N. XW.3.9.z.9.w.w.w.w.w.w.w.w.w.w.w.w.w.w.w.w.w.9.9.0.N.z.@.' @.@.@.@.@.@.@.@.' @.f.N.w.9.9.w.w.w.w.w.w.w.w.w.w.w.w.w.w.w.w.w.w.w.w.w.w.w.w.w.w.z.z.9.9.w.w.9.w.w.w.w.w.w.w.w.w.w.w.w.w.w.w.w.f.9.' ' 9.N.w.0.w.w.w.w.w.w.w.w.3.w.N.N.z.9...G w.w.w.w.w.w.w.w.w.w.w.w.w.w.w.w.>.....3.z.f.w.N.z.f.p.w.f.z.f.w.3.{.z.w.z.z.z.w.z.z.f.z.W.w.9.z.f.f.f.f.f.f.e.f.w.f.e.e.f.f.p.p.f.9.w.z.w.w.z.z.w.w.w.w.w.w.f.z.w.w.w.w.w.w.w.w.w.w.w.w.w.w.w.w.0.9.z.9.0.0.u.=.9.t.7.>.r.:.f.w.w.w.w.w.w.w.w.w.w.w.w.w.w.w.w.w.w.w.w.w.w.w.w.w.w.w.w.w.w.w.w.w.w.w.w.w.w.w.w.w.w.w.w.w.w.w.w.w.",
"w.w.w.w.w.w.w.w.w.w.w.w.w.w.w.w.w.w.w.w.w.w.w.w.w.w.w.w.W.:.:.z.w.w.w.w.w.w.w.w.w.w.w.w.w.w.w.w.w.w.w.w.w.w.w.w.w.w.w.w.w.w.w.w.w.w.w.w.w.w.w.w.w.w.z.W.w.9.w.f.W.9.3.9.w.W.W.w.w.w.w.w.w.w.w.w.w.w.w.w.w.w.w.w.p.w.W.3.N.f.Y w.z.z.z.z.z.z.z.z.0.L z.f.w.z.w.f.w.w.w.w.w.w.w.w.w.w.w.w.w.w.w.w.w.w.w.w.w.w.w.w.3.z.f.w.N.N.z.W.w.w.w.w.w.w.w.w.w.w.w.w.w.w.w.w.z.z.3.:.z.{.w.w.w.w.w.w.w.w.w.w.f.z.w.0.w.z.w.9.w.w.w.w.w.w.w.w.w.w.w.w.w.w.w.w.{.9.3.f.W.e.0.w.w.w.w.f.z.z.f.w.z.W.4.z.w.>.W.w.0.f.w.9.w.w.9.w.f.f.f.f.f.f.f.f.e.f.f.f.f.f.f.f.9.9.w.w.9.9.w.w.f.f.w.w.w.w.w.w.w.w.w.w.w.w.w.w.w.w.w.w.w.w.w.w.z.N.f.3.N.-.] ] P ' | ] ] ' 9.f.w.w.w.w.w.w.w.w.w.w.w.w.w.w.w.w.w.w.w.w.w.w.w.w.w.w.w.w.w.w.w.w.w.w.w.w.w.w.w.w.w.w.w.w.w.w.w.w.",
"w.w.w.w.w.w.w.w.w.w.w.w.w.w.w.w.w.w.w.w.w.w.w.w.w.w.w.w.W.:.:.z.w.w.w.w.w.w.w.w.w.w.w.w.w.w.w.w.w.w.w.w.w.w.w.w.w.w.w.w.w.w.w.w.w.w.w.w.w.w.w.w.z.9.f.z.p.z.v.9.9.A.z.W.0.f.4.p.w.w.w.w.w.w.w.w.w.w.w.w.w.w.w.w.z.w.{.9.z.0.L p.N.N.N.N.N.N.N.N.f.D f.9.f.z.z.z.w.w.w.w.w.w.w.w.w.w.w.w.w.w.w.w.w.w.w.w.w.w.w.w.f.z.9.w.z.%...9.w.w.w.w.w.w.w.w.w.w.w.w.w.w.w.w.9.W.W.z.N.w.9.w.w.w.w.w.w.w.w.w.z.z.w.w.w.z.z.z.w.w.w.w.w.w.w.w.w.w.w.w.w.w.w.w.w.z.N.f.w.w.w.w.w.w.w.w.w.w.w.w.f.:.z.N.9.N.{.9.9.N.z.9.w.W.z.w.w.w.w.w.w.w.w.w.w.w.w.w.w.w.w.w.f.N.W.e.9.z.z.9.w.w.w.w.w.w.w.w.w.w.w.w.w.w.w.w.w.w.w.w.w.w.w.w.9.f.z.f.f.g = 4 5 5 4 3 4 7 '  Xw.w.w.w.w.w.w.w.w.w.w.w.w.w.w.w.w.w.w.w.w.w.w.w.w.w.w.w.w.w.w.w.w.w.w.w.w.w.w.w.w.w.w.w.w.w.w.w.",
"w.w.w.w.w.w.w.w.w.w.w.w.w.w.w.w.w.w.w.w.w.w.w.w.w.w.w.w.W.:.:.z.w.w.w.w.w.w.w.w.w.w.w.w.w.w.w.w.w.w.w.w.w.w.w.w.w.w.w.w.w.w.w.w.w.w.w.w.w.w.w.w.w.f.w.3.w.{.' ; $ 3 = 7 3 >.{.w.w.w.w.w.w.w.w.w.w.w.w.w.w.w.w.w.f.9.w.w.v.p.' ` P P P P P P P P ' T N.0.W.9.w.f.w.w.w.w.w.w.w.w.w.w.w.w.w.w.w.w.w.w.w.w.w.w.w.w.f.z.9.w.z.%...9.w.w.w.w.w.w.w.w.w.w.w.w.w.w.w.w.w.w.9.9.w.w.w.z.w.w.w.w.w.w.w.w.9.w.w.f.w.w.0.9.w.w.w.w.w.w.w.w.w.w.w.w.w.w.w.w.9.f.z.w.9.w.z.f.w.w.w.w.w.f.z.z...O ; 3 3 1 1 /.f.z.w.w.z.w.0.w.f.f.f.f.w.w.w.w.f.f.f.f.f.f.f.f.z.0.w.f.p.z.z.w.w.w.f.f.z.f.w.w.w.w.w.w.w.w.w.w.w.w.w.w.w.w.w.w.9.9.W.z.0.@.| ] @.' ) ) ' G %.e.w.w.w.w.w.w.w.w.w.w.w.w.w.w.w.w.w.w.w.w.w.w.w.w.w.w.w.w.w.w.w.w.w.w.w.w.w.w.w.w.w.w.w.w.w.w.w.w.",
"w.w.w.w.w.w.w.w.w.w.w.w.w.w.w.w.w.w.w.w.w.w.w.w.w.w.w.w.W.:.:.z.w.w.w.w.w.w.w.w.w.w.w.w.w.w.w.w.w.w.w.w.w.w.w.w.w.w.w.w.w.w.w.w.w.w.w.w.w.w.w.w.0.f.w.w.v.p.S $ >.*.-.@.; D v.w.w.w.w.w.w.w.w.w.w.w.w.w.w.w.w.w.w.w.w.z.f.f.0.@.-.-.-.-.-.-.-.-.@.9.N.0.W.9.f.w.w.w.w.w.w.w.w.w.w.w.w.w.w.w.w.w.w.w.w.w.w.w.w.w.3.z.w.w.N.N.z.W.w.w.w.w.w.w.w.w.w.w.w.w.w.w.w.w.N.w.9.w.f.z.z.N.w.w.w.w.w.w.w.w.z.e.w.0.w.z.W.W.w.w.w.w.w.w.w.w.w.w.w.w.w.w.w.w.W.w.w.z.N.w.0.w.f.w.w.w.w.w.z.N.: r >.] >.@.; Y W.9.3.f.f.%.@.9.f.f.f.f.w.w.f.f.f.e.f.f.f.f.f.f.9.@.@.w.z.9.9.z.w.w.w.f.f.f.e.e.w.w.w.w.w.w.w.w.w.w.w.w.w.w.w.w.N.f.w.9.W.t.y.u.t.f.u.u.Z.0./.N.w.w.w.w.w.w.w.w.w.w.w.w.w.w.w.w.w.w.w.w.w.w.w.w.w.w.w.w.w.w.w.w.w.w.w.w.w.w.w.w.w.w.w.w.w.w.w.w.",
"w.w.w.w.w.w.w.w.w.w.w.w.w.w.w.w.w.w.w.w.w.w.w.w.w.w.w.w.W.:.:.z.w.w.w.w.w.w.w.w.w.w.w.w.w.w.w.w.w.w.w.w.w.w.w.w.w.w.w.w.w.w.w.w.w.w.w.w.w.w.w.w.W.f.9.w.v.0.9.0.,X{.+X>X9.4.N.0.w.w.w.w.w.w.w.w.w.w.w.w.w.w.w.w.9.z.z.f.0.p.W./.f.f.f.f.f.f.f.f.{.N.f.9.z.z.z.w.w.w.w.w.w.w.w.w.w.w.w.w.w.w.w.w.w.w.w.w.w.w.w.w.w.z.z.9.9.w.w.9.w.w.w.w.w.w.w.w.w.w.w.w.w.w.w.w.w.w.z.N.w.9.9.w.w.w.w.w.w.w.w.w.w.w.z.z.f.w.9.4.w.w.w.w.w.w.w.w.w.w.w.w.w.w.w.w.w.4.3.w.z.w.w.z.w.w.w.w.w.w.w.z.@.{.>X[.-X+X@.Z.W.w.9.z.z.3.:.w.w.w.w.w.w.w.w.w.w.w.w.w.w.w.w.w.w.%.:.z.z.w.w.N.w.w.w.w.w.w.w.w.w.w.w.w.w.w.w.w.w.w.w.w.w.w.w.w.9.0.9.9.{.A > 9 3 5 5 > 4 r X.z.w.w.w.w.w.w.w.w.w.w.w.w.w.w.w.w.w.w.w.w.w.w.w.w.w.w.w.w.w.w.w.w.w.w.w.w.w.w.w.w.w.w.w.w.w.w.w.w.",
"w.w.w.w.w.w.w.w.w.w.w.w.w.w.w.w.w.w.w.w.w.w.w.w.w.w.w.w.W.:.:.z.w.w.w.w.w.w.w.w.w.w.w.w.w.w.w.w.w.w.w.w.w.w.w.w.w.w.w.w.w.w.w.w.w.w.w.w.w.w.w.w.9.z.f.w.f.0.9.W.S.S.N.0.[.0.9.N.w.w.w.w.w.w.w.w.w.w.w.w.w.w.w.w.w.w.w.9.z.z.3.w.p.p.p.p.p.p.p.p.f.8.f.z.9.w.w.z.w.w.w.w.w.w.w.w.w.w.w.w.w.w.w.w.w.w.w.w.w.w.w.w.z.0.w.z.f.w.z.z.w.w.w.w.w.w.w.w.w.w.w.w.w.w.w.w.z.0.w.z.w.w.f.f.w.w.w.w.w.w.w.w.w.w.w.f.f.w.f.z.w.w.w.w.w.w.w.w.w.w.w.w.w.w.w.w.w.{.{.z.9.w.f.w.w.w.z.z.f.w.w.f.t.V.f.{.V.V.XX:.9.z.w.9.w.z.e.w.w.w.w.w.w.w.w.w.w.w.w.w.w.w.w.w.w.w.z.f.9.z.z.9.f.f.w.w.w.w.w.w.w.w.w.w.w.w.w.w.w.w.w.w.w.w.w.w.W.9.z.W.9.n a s d d d d a w ] W.w.w.w.w.w.w.w.w.w.w.w.w.w.w.w.w.w.w.w.w.w.w.w.w.w.w.w.w.w.w.w.w.w.w.w.w.w.w.w.w.w.w.w.w.w.w.w.w.",
"w.w.w.w.w.w.w.w.w.w.w.w.w.w.w.w.w.w.w.w.w.w.w.w.w.w.w.w.W.:.:.z.w.w.w.w.w.w.w.w.w.w.w.w.w.w.w.w.w.w.w.w.w.w.w.w.w.w.w.w.w.w.w.w.w.w.w.w.w.w.w.w.w.w.w.w.w.w.w.w.w.w.w.w.w.w.w.w.w.w.w.w.w.w.w.w.w.w.w.w.w.w.w.w.w.w.w.w.w.w.w.w.w.w.w.w.w.w.w.w.w.w.w.w.w.w.w.w.f.w.z.:.:.3.N.z.w.w.w.w.w.w.w.w.w.w.w.w.w.w.w.w.z.9.z.w.9.v.v.p.w.w.w.w.w.w.w.w.w.w.w.w.w.w.w.w.w.w.w.w.w.w.w.w.w.w.w.w.w.w.w.w.w.w.w.w.w.w.w.w.w.w.w.w.w.w.w.w.w.w.w.w.w.w.w.w.w...` 9.W.w.9.z.w.w.w.w.w.w.w.w.w.w.w.w.w.w.w.w.w.w.w.w.w.w.w.w.w.w.w.w.w.w.w.w.w.w.w.w.w.w.w.w.z.w.w.w.0.z.z.w.w.w.w.w.w.w.w.w.w.z.w.w.z.f.0.w.w.w.w.w.w.w.w.w.w.w.f.w.9.3.%.@.%.@.@.@.%.:.9.0.w.w.w.w.w.w.w.w.w.w.w.w.w.w.w.w.w.w.w.w.w.w.w.w.w.w.w.w.w.w.w.w.w.w.w.w.w.w.w.w.w.w.w.w.w.w.w.w.",
"w.w.w.w.w.w.w.w.w.w.w.w.w.w.w.w.w.w.w.w.w.w.w.w.w.w.w.w.W.:.:.z.w.w.w.w.w.w.w.w.w.w.w.w.w.w.w.w.w.w.w.w.w.w.w.w.w.w.w.w.w.w.w.w.w.w.w.w.w.w.w.w.w.w.w.w.w.w.w.w.w.w.w.w.w.w.w.w.w.w.w.w.w.w.w.w.w.w.w.w.w.w.w.w.w.w.w.w.w.w.w.w.w.w.w.w.w.w.w.w.w.w.w.w.w.w.w.w.w.0.9...` X.0.9.w.w.w.w.w.w.w.w.w.w.w.w.w.w.w.w.w.w.f.w.f.0.:.p.w.w.w.w.w.w.w.w.w.w.w.w.w.w.w.w.w.w.w.w.w.w.w.w.w.w.w.w.w.w.w.w.w.w.w.w.w.w.w.w.w.w.w.w.w.w.w.w.w.w.w.w.w.w.w.w.f.3.:.w.z.w.w.f.w.w.w.w.w.w.w.w.w.w.w.w.w.w.w.w.w.w.w.w.w.w.w.w.w.w.w.w.w.w.w.w.w.w.w.w.w.w.w.w.w.w.z.z.w.w.0.3.w.w.w.w.w.w.w.w.9.w.w.9.f.f.w.w.w.w.w.w.w.w.w.w.0.w.w.f.f.f.w.w.e.f.w.w.f.z.z.N.w.w.w.w.w.w.w.w.w.w.w.w.w.w.w.w.w.w.w.w.w.w.w.w.w.w.w.w.w.w.w.w.w.w.w.w.w.w.w.w.w.w.w.w.w.w.w.w.",
"w.w.w.w.w.w.w.w.w.w.w.w.w.w.w.w.w.w.w.w.w.w.w.w.w.w.w.w.W.:.:.z.w.w.w.w.w.w.w.w.w.w.w.w.w.w.w.w.w.w.w.w.w.w.w.w.w.w.w.w.w.w.w.w.w.w.w.w.w.w.w.w.w.w.w.w.w.w.w.w.w.w.w.w.w.w.w.w.w.w.w.w.w.w.w.w.w.w.w.w.w.w.w.w.w.w.w.w.w.w.w.w.w.w.w.w.w.w.w.w.w.w.w.w.w.w.w.w.z.z.f.' Y @.z.w.w.w.w.w.w.w.w.w.w.w.w.w.w.w.w.w.w.z.w.9.p.-.` 3.w.w.w.w.w.w.w.w.w.w.w.w.w.w.w.w.w.w.w.w.w.w.w.w.w.w.w.w.w.w.w.w.w.w.w.w.w.w.w.w.w.w.w.w.w.w.w.w.w.w.w.w.w.w.w.w.f.z.f.w.w.z.z.w.w.w.w.w.w.w.w.w.w.w.w.w.w.w.w.w.w.w.w.w.w.w.w.w.w.w.w.w.w.w.w.w.w.w.w.w.w.w.w.w.f.z.z.9.w.f.N.z.w.w.w.w.w.w.w.w.9.w.w.9.f.z.w.f.w.w.w.w.w.w.w.w.w.w.w.w.w.f.z.z.w.w.w.f.w.w.w.0.w.w.w.w.w.w.w.w.w.w.w.w.w.w.w.w.w.w.w.w.w.w.w.w.w.w.w.w.w.w.w.w.w.w.w.w.w.w.w.w.w.w.w.w.w.w.w.w.",
"w.w.w.w.w.w.w.w.w.w.w.w.w.w.w.w.w.w.w.w.w.w.w.w.w.w.w.w.W.:.:.z.w.w.w.w.w.w.w.w.w.w.w.w.w.w.w.w.w.w.w.w.w.w.w.w.w.w.w.w.w.w.w.w.w.w.w.w.w.w.w.w.w.w.w.w.w.w.w.w.w.w.w.w.w.w.w.w.w.w.w.w.w.w.w.w.w.w.w.w.w.w.w.w.w.w.w.w.w.w.w.w.w.w.w.w.w.w.w.w.w.w.w.w.w.w.w.w.9.f.z.' Y @.z.w.w.w.w.w.w.w.w.w.w.w.w.w.w.w.w.w.9.w.w.w.W.p.:./.w.w.w.w.w.w.w.w.w.w.w.w.w.w.w.w.w.w.w.w.w.w.w.w.w.w.w.w.w.w.w.w.w.w.w.w.w.w.w.w.w.w.w.w.w.w.w.w.w.w.w.w.w.w.w.w.w.z.z.w.w.z.z.w.w.w.w.w.w.w.w.w.w.w.w.w.w.w.w.w.w.w.w.w.w.w.w.w.w.w.w.w.w.w.w.w.w.w.w.w.w.w.w.w.f.f.w.9.z.f.N.z.N.N.N.N.N.N.N.N.9.z.z.w.f.z.w.w.w.w.w.w.w.w.w.w.z.f.w.w.w.w.w.w.w.w.w.w.w.w.w.w.w.w.w.w.w.w.w.w.w.w.w.w.w.w.w.w.w.w.w.w.w.w.w.w.w.w.w.w.w.w.w.w.w.w.w.w.w.w.w.w.w.w.w.w.w.w.w.w.",
"w.w.w.w.w.w.w.w.w.w.w.w.w.w.w.w.w.w.w.w.w.w.w.w.w.w.w.w.W.:.:.z.w.w.w.w.w.w.w.w.w.w.w.w.w.w.w.w.w.w.w.w.w.w.w.w.w.w.w.w.w.w.w.w.w.w.w.w.w.w.w.w.w.w.w.w.w.w.w.w.w.w.w.w.w.w.w.w.w.w.w.w.w.w.w.w.w.w.w.w.w.w.w.w.w.w.w.w.w.w.w.w.w.w.w.w.w.w.w.w.w.w.w.w.w.w.w.w.9.f.z.' Y @.z.w.w.w.w.w.w.w.w.w.w.w.w.w.w.w.w.w.f.9.z.w.w.N.z.z.w.w.w.w.w.w.w.w.w.w.w.w.w.w.w.w.w.w.w.w.w.w.w.w.w.w.w.w.w.w.w.w.w.w.w.w.w.w.w.w.w.w.w.w.w.w.w.w.w.w.w.w.w.w.w.w.w.w.w.w.w.f.f.w.w.w.w.w.w.w.w.w.f.f.f.w.f.f.f.f.w.w.w.w.w.w.w.w.w.w.w.w.w.w.w.w.w.w.w.w.w.w.w.w.0.w.z.9.W.3.%.@.@.@.@.@.@.@.@.@.3.f.z.w.e.z.w.w.w.w.w.w.w.w.w.w.w.w.w.w.f.f.f.f.f.f.f.f.w.z.z.z.w.w.w.w.w.w.w.w.w.w.w.w.w.w.w.w.w.w.w.w.w.w.w.w.w.w.w.w.w.w.w.w.w.w.w.w.w.w.w.w.w.w.w.w.w.w.w.w.",
"w.w.w.w.w.w.w.w.w.w.w.w.w.w.w.w.w.w.w.w.w.w.w.w.w.w.w.w.W.:.:.z.w.w.w.w.w.w.w.w.w.w.w.w.w.w.w.w.w.w.w.w.w.w.w.w.w.w.w.w.w.w.w.w.w.w.w.w.w.w.w.w.w.w.w.w.w.w.w.w.w.w.w.w.w.w.w.w.w.w.w.w.w.w.w.w.w.w.w.w.w.w.w.w.w.w.w.w.w.w.w.w.w.w.w.w.w.w.w.w.w.w.w.w.w.w.w.w.z.z.w.` Y @.z.w.w.w.w.w.w.w.w.w.w.w.w.w.w.w.w.w.W.0.z.w.3.f.p.4.w.w.w.w.w.w.w.w.w.w.w.w.w.w.w.w.w.w.w.w.w.w.w.w.w.w.w.w.w.w.w.w.w.w.w.w.w.w.w.w.w.w.w.w.w.w.w.w.w.w.w.w.w.w.w.w.z.w.w.f.z.w.w.w.w.w.w.w.w.w.w.w.w.w.w.w.w.w.w.w.w.w.w.w.w.w.w.w.w.w.w.w.w.w.w.w.w.w.w.w.w.w.w.w.w.w.z.9.W.@...@.%.%.%.%.%.%.%.%...9.w.w.w.f.w.f.w.w.w.w.w.w.w.w.w.w.w.f.f.w.w.w.f.w.w.w.9.w.w.w.w.w.w.w.w.w.w.w.w.w.w.w.w.w.w.w.w.w.w.w.w.w.w.w.w.w.w.w.w.w.w.w.w.w.w.w.w.w.w.w.w.w.w.w.w.w.w.w.",
"w.w.w.w.w.w.w.w.w.w.w.w.w.w.w.w.w.w.w.w.w.w.w.w.w.w.w.w.W.:.:.z.w.w.w.w.w.w.w.w.w.w.w.w.w.w.w.w.w.w.w.w.w.w.w.w.w.w.w.w.w.w.w.w.w.w.w.w.w.w.w.w.w.w.w.w.w.w.w.w.w.w.w.w.w.w.w.w.w.w.w.w.w.w.w.w.w.w.w.w.w.w.w.w.w.w.w.w.w.w.w.w.w.w.w.w.w.w.w.w.w.w.w.w.w.w.w.w.w.0.9...` @.0.9.w.w.w.w.w.w.w.w.w.w.w.w.w.w.w.w.0.9.z.p.v./.v.{.w.w.w.w.w.w.w.w.w.w.w.w.w.w.w.w.w.w.w.w.w.w.w.w.w.w.w.w.w.w.w.w.w.w.w.w.w.w.w.w.w.w.w.w.w.w.w.w.w.w.w.w.w.w.w.w.f.f.f.w.w.e.w.w.w.w.w.w.w.w.w.w.w.w.w.w.w.w.w.w.w.w.w.w.w.w.w.w.w.w.w.w.w.w.w.w.w.w.w.w.w.w.w.w.z.w.w.3.z.' %.W.f.w.f.f.f.f.w.e.Y :.f.w.w.w.w.f.w.w.w.w.w.w.w.w.w.w.w.w.w.w.9.9.z.z.z.w.w.e.f.f.w.w.w.w.w.w.w.w.w.w.w.w.w.w.w.w.w.w.w.w.w.w.w.w.w.w.w.w.w.w.w.w.w.w.w.w.w.w.w.w.w.w.w.w.w.w.w.w.",
"w.w.w.w.w.w.w.w.w.w.w.w.w.w.w.w.w.w.w.w.w.w.w.w.w.w.w.w.W.:.:.z.w.w.w.w.w.w.w.w.w.w.w.w.w.w.w.w.w.w.w.w.w.w.w.w.w.w.w.w.w.w.w.w.w.w.w.w.w.w.w.w.w.w.w.w.w.w.w.w.w.w.w.w.w.w.w.w.w.w.w.w.w.w.w.w.w.w.w.w.w.w.w.w.w.w.w.w.w.w.w.w.w.w.w.w.w.w.w.w.w.w.w.w.w.w.w.w.f.w.z.:.:.3.N.z.w.w.w.w.w.w.w.w.w.w.w.w.w.w.w.w.0.z.w.9.z.3.@.w.w.w.w.w.w.w.w.w.w.w.w.w.w.w.w.w.w.w.w.w.w.w.w.w.w.w.w.w.w.w.w.w.w.w.w.w.w.w.w.w.w.w.w.w.w.w.w.w.w.w.w.w.w.w.w.w.9.f.z.w.9.w.z.w.w.w.w.w.w.w.w.w.w.w.w.w.w.w.w.w.w.w.w.w.w.w.w.w.w.w.w.w.w.w.w.w.w.w.w.w.w.w.w.w.w.9.N.9.W.' @.[.z.z.z.z.z.z.z.z.L :.z.z.w.w.w.w.w.w.w.w.w.w.w.w.w.w.w.w.w.e.z.z.w.w.w.w.e.f.f.f.w.w.w.w.w.w.w.w.w.w.w.w.w.w.w.w.w.w.w.w.w.w.w.w.w.w.w.w.w.w.w.w.w.w.w.w.w.w.w.w.w.w.w.w.w.w.w.w.",
"w.w.w.w.w.w.w.w.w.w.w.w.w.w.w.w.w.w.w.w.w.w.w.w.z.0.z.9.v.:.%.z.f.9.f.z.w.z.f.f.w.9.w.9.z.N.w.N.w.w.w.w.w.w.w.w.w.w.w.w.w.w.w.w.w.w.w.w.w.w.w.w.w.w.w.w.w.w.w.w.T.w.z.w.0.N.f.f.w.w.w.w.w.w.w.w.w.w.w.w.w.w.w.w.w.w.w.w.w.w.w.w.w.w.w.w.w.w.w.w.w.w.w.w.w.w.w.w.w.w.w.w.w.w.w.w.w.w.w.w.w.w.w.w.w.w.w.w.w.w.w.w.w.w.w.N.N.@.' z.w.w.w.w.w.w.w.w.w.w.w.w.w.w.w.w.w.w.w.w.w.w.w.w.w.w.w.w.w.w.w.w.w.w.w.w.w.w.w.w.w.w.w.w.w.w.w.w.w.w.w.w.w.w.w.w.w.W.W.p.0.w.z.w.w.w.w.w.w.w.w.w.w.w.w.w.w.w.w.w.w.w.w.w.w.w.w.w.z.w.w.z.N.w.w.z.w.w.w.w.w.w.w.w.z.9.9.z.p.%.` L L L L L L L L L ' 3.z.w.9.w.f.9.9.z.z.z.z.w.w.f.w.w.w.w.w.w.w.w.p.w.w.z.W.w.9.N.w.w.w.w.w.w.w.w.w.w.w.w.w.w.w.w.w.w.w.w.w.w.w.w.w.w.w.w.w.w.w.w.w.w.w.w.w.w.w.w.w.w.w.w.w.w.w.w.",
"w.w.w.w.w.w.w.w.w.w.w.w.w.w.w.w.w.w.w.w.w.w.w.w.z.0.z.9.v.:.-.v.9.9.W.z.0.z.f.w.z.z.v.w.z.f.9.w.w.w.w.w.w.w.w.w.w.w.w.w.w.w.w.w.w.w.w.w.w.w.w.w.w.w.w.w.w.w.w.w.:...9.W.w.f.w.9.w.w.w.w.w.w.w.w.w.w.w.w.w.w.w.w.w.w.w.w.w.w.w.w.w.w.w.w.w.w.w.w.w.w.w.w.w.w.w.w.w.w.w.w.w.w.w.w.w.w.w.w.w.w.w.w.w.w.w.w.w.w.w.w.w.z.w.w.N.w.9.w.w.w.w.w.w.w.w.w.w.w.w.w.w.w.w.w.w.w.w.w.w.w.w.w.w.w.w.w.w.w.w.w.w.w.w.w.w.w.w.w.w.w.w.w.w.w.w.w.w.w.w.w.w.w.w.w.9.%.@.9.z.w.0.z.w.w.w.w.w.w.w.w.w.w.w.w.w.w.w.w.w.w.w.w.w.w.w.w.w.z.w.3.9.w.z.w.w.w.w.w.w.w.w.w.w.9.w.z.z.9.-.%.:.>.>.>.>.>.>.>.3.f.z.w.0.f.z.w.N.z.9.3.w.w.9.w.w.w.w.w.w.w.w.w.w.z.w.9.w.9.9.0.w.w.w.w.w.w.w.w.w.w.w.w.w.w.w.w.w.w.w.w.w.w.w.w.w.w.w.w.w.w.w.w.w.w.w.w.w.w.w.w.w.w.w.w.w.w.w.w.",
"w.w.w.w.w.w.w.w.w.w.w.w.w.w.w.w.w.w.w.w.w.w.w.w.z.0.z.9.N.:.-.v.z.9.w.w.9.9.9.9.9.9.w.9.0.0.9.W.w.w.w.w.w.w.w.w.w.w.w.w.w.w.w.w.w.w.w.w.w.w.w.w.w.w.w.w.w.w.w.w.D f ` z.9.w.W.z.w.w.w.w.w.w.w.w.w.w.w.w.w.w.w.w.w.w.w.w.w.w.w.w.w.w.w.w.w.w.w.w.w.w.w.w.w.w.w.w.w.w.w.w.w.w.w.w.w.w.w.w.w.w.w.w.w.w.w.w.w.w.w.w.w.z.w.9.f.W.N.w.w.w.w.w.w.w.w.w.w.w.w.w.w.w.w.w.w.w.w.w.w.w.w.w.w.w.w.w.w.w.w.w.w.w.w.w.w.w.w.w.w.w.w.w.w.w.w.w.w.w.w.w.w.w.w.w.z.%.@.9.W.w.9.z.w.w.w.w.w.w.w.w.w.w.w.w.w.w.w.w.w.w.w.w.w.w.w.w.z.0.w.z.N.w.w.f.w.w.w.w.w.w.w.w.p.w.w.0.w.z.W.{.z.z.z.z.z.z.z.z.N.z.w.0.9.w.w.w.w.z.z.w.z.w.w.z.w.w.w.w.w.w.w.w.0.z.f.0.w.z.z.z.w.w.w.w.w.w.w.w.w.w.w.w.w.w.w.w.w.w.w.w.w.w.w.w.w.w.w.w.w.w.w.w.w.w.w.w.w.w.w.w.w.w.w.w.w.w.w.w.",
"w.w.w.w.w.w.w.w.w.w.w.w.w.w.w.w.w.w.w.w.w.w.w.w.z.0.z.0.N.:.-.v.:.G S L L L D L G G L G L L L @.w.w.w.w.w.w.w.w.w.w.w.w.w.w.w.w.w.w.w.w.w.w.w.w.w.w.w.w.w.w.w.w.:.I :.W.w.w.w.T.w.w.w.w.w.w.w.w.w.w.w.w.w.w.w.w.w.w.w.w.w.w.w.w.w.w.w.w.w.w.w.w.w.w.w.w.w.w.w.w.w.w.w.w.w.w.w.w.w.w.w.w.w.w.w.w.w.w.w.w.w.w.w.w.f.w.w.f.0.0.w.w.w.w.w.w.w.w.w.w.w.w.w.w.w.w.w.w.w.w.w.w.w.w.w.w.w.w.w.w.w.w.w.w.w.w.w.w.w.w.w.w.w.w.w.w.w.w.w.w.w.w.w.w.w.w.w.w.z.z.z.z.w.w.w.w.w.w.w.w.w.w.w.w.w.w.w.w.w.w.w.w.w.w.w.w.w.w.w.w.z.w.w.z.N.w.w.f.w.w.w.w.w.w.w.w.p.z.w.9.0.z.z.p.p.p.p.p.p.p.p.p.z.w.9.w.w.w.w.w.0.z.z.w.z.w.w.z.w.w.w.w.w.w.w.w.0.z.f.w.z.z.w.f.w.w.w.w.w.w.w.w.w.w.w.w.w.w.w.w.w.w.w.w.w.w.w.w.w.w.w.w.w.w.w.w.w.w.w.w.w.w.w.w.w.w.w.w.w.w.w.w.",
"w.w.w.w.w.w.w.w.w.w.w.w.w.w.w.w.w.w.w.w.w.w.w.w.z.0.z.0.N.:.-.v.9.' ` ' ' ..` ..@.....` ....` -.w.w.w.w.w.w.w.w.w.w.w.w.w.w.w.w.w.w.w.w.w.w.w.w.w.w.w.w.w.w.w.w.[.A.N.f.z.w.3.T.w.w.w.w.w.w.w.w.w.w.w.w.w.w.w.w.w.w.w.w.w.w.w.w.w.w.w.w.w.w.w.w.w.w.w.w.w.w.w.w.w.w.w.w.w.w.w.w.w.w.w.w.w.w.w.w.w.w.w.w.w.w.w.w.w.0.w.w.w.w.f.w.w.w.w.w.w.w.w.w.w.w.w.w.w.w.w.w.w.w.w.w.w.w.w.w.w.w.w.w.w.w.w.w.w.w.w.w.w.w.w.w.w.w.w.w.w.w.w.w.w.w.w.w.w.w.w.w.9.N.W.w.9.f.z.w.w.w.w.w.w.w.w.w.w.w.w.w.w.w.w.w.w.w.w.w.w.w.w.w.0.W.w.@.@.w.W.9.w.w.w.w.w.w.w.w.9.z.z.z.f.0.-.` w.w.w.w.w.w.w.w.w.w.w.z.z.w.w.z.W.0.@.@.9.z.w.w.w.w.w.w.w.w.w.w.w.w.0.w.w.3.%.:.w.w.w.w.w.w.w.w.w.w.w.w.w.w.w.w.w.w.w.w.w.w.w.w.w.w.w.w.w.w.w.w.w.w.w.w.w.w.w.w.w.w.w.w.w.w.w.w.",
"w.w.w.w.w.w.w.w.w.w.w.w.w.w.w.w.w.w.w.w.w.w.w.w.z.0.z.0.N.:.-.v.N.z.{.z.0.W.W.z.N.f.z.N.W.N.w.{.w.w.w.w.w.w.w.w.w.w.w.w.w.w.w.w.w.w.w.w.w.w.w.w.w.w.w.w.w.w.w.w.9.k.e.>.z.T.9.W.w.w.w.w.w.w.w.w.w.w.w.w.w.w.w.w.w.w.w.w.w.w.w.w.w.w.w.w.w.w.w.w.w.w.w.w.w.w.w.w.w.w.w.w.w.w.w.w.w.w.w.w.w.w.w.w.w.w.w.w.w.w.w.w.w.f.w.9.z.W.W.w.w.w.w.w.w.w.w.w.w.w.w.w.w.w.w.w.w.w.w.w.w.w.w.w.w.w.w.w.w.w.w.w.w.w.w.w.w.w.w.w.w.w.w.w.w.w.w.w.w.w.w.w.w.w.w.w.w.w.0.w.w.f.f.w.w.w.w.w.w.w.w.w.w.w.w.w.w.w.w.w.w.w.w.w.w.w.w.w.w.N.w.%.%.w.z.9.w.w.w.w.w.w.w.w.w.f.w.w.f.p.3.@.f.f.f.f.p.f.f.p.f.w.w.f.w.w.w.z.z.0.:.-.0.z.w.w.w.w.w.w.w.w.w.w.f.w.9.z.z.3.-.3.w.w.w.w.w.w.w.w.w.w.w.w.w.w.w.w.w.w.w.w.w.w.w.w.w.w.w.w.w.w.w.w.w.w.w.w.w.w.w.w.w.w.w.w.w.w.w.w.",
"w.w.w.w.w.w.w.w.w.w.w.w.w.w.w.w.w.w.w.w.w.w.w.w.z.9.z.0.N.:.-.v.:...@...` @.......` ....@.@...3.w.w.w.w.w.w.w.w.w.w.w.w.w.w.w.w.w.w.w.w.w.w.w.w.w.w.w.w.w.w.w.w.e.f.z.w.z.z.9.f.w.w.w.w.w.w.w.w.w.w.w.w.w.w.w.w.w.w.w.w.w.w.w.w.w.w.w.w.w.w.w.w.w.w.w.w.w.w.w.w.w.w.w.w.w.w.w.w.w.w.w.w.w.w.w.w.w.w.w.w.w.w.w.w.w.z.w.w.z.w.3.w.w.w.w.w.w.w.w.w.w.w.w.w.w.w.w.w.w.w.w.w.w.w.w.w.w.w.w.w.w.w.w.w.w.w.w.w.w.w.w.w.w.w.w.w.w.w.w.w.w.w.w.w.w.w.w.w.z.w.0.f.z.w.w.w.w.w.w.w.w.w.w.w.w.w.w.w.w.w.w.w.w.w.w.w.w.w.w.w.z.w.w.N.W.w.w.z.w.w.w.w.w.w.w.w.z.f.0.9.w.z.v.z.w.w.w.w.w.w.w.w.w.f.w.w.9.w.w.w.9.z.z.z.z.f.w.z.w.w.w.w.w.w.w.w.w.f.w.z.N.f.w.z.w.w.w.w.w.w.w.w.w.w.w.w.w.w.w.w.w.w.w.w.w.w.w.w.w.w.w.w.w.w.w.w.w.w.w.w.w.w.w.w.w.w.w.w.w.w.w.w.",
"w.w.w.w.w.w.w.w.w.w.w.w.w.w.w.w.w.w.w.w.w.w.w.w.z.9.z.0.N.:.-.v.w.G M L Y L S L Y G L G G G L :.w.w.w.w.w.w.w.w.w.w.w.w.w.w.w.w.w.w.w.w.w.w.w.w.w.w.w.w.w.w.w.w.z.3.f.z.0.z.f.f.w.w.w.w.w.w.w.w.w.w.w.w.w.w.w.w.w.w.w.w.w.w.w.w.w.w.w.w.w.w.w.w.w.w.w.w.w.w.w.w.w.w.w.w.w.w.w.w.w.w.w.w.w.w.w.w.w.w.w.w.w.w.w.w.f.f.0.z.w.` Y w.w.w.w.w.w.w.w.w.w.w.w.w.w.w.w.w.w.w.w.w.w.w.w.w.w.w.w.w.w.w.w.w.w.w.w.w.w.w.w.w.w.w.w.w.w.w.w.w.w.w.w.w.w.w.w.w.w.z.z.f.w.w.w.w.w.w.w.w.w.w.w.w.w.w.w.w.w.w.w.w.w.w.w.w.w.w.w.w.w.w.w.w.w.f.w.w.w.w.w.w.w.w.w.w.w.w.f.z.z.p.w.w.w.w.w.w.w.w.w.w.0.w.f.w.f.z.w.9.z.z.0.9.f.z.w.w.w.w.w.w.w.w.w.w.w.z.w.9.w.f.w.f.w.w.w.w.w.w.w.w.w.w.w.w.w.w.w.w.w.w.w.w.w.w.w.w.w.w.w.w.w.w.w.w.w.w.w.w.w.w.w.w.w.w.w.w.w.w.w.w.",
"w.w.w.w.w.w.w.w.w.w.w.w.w.w.w.w.w.w.w.w.w.w.w.w.z.0.z.0.N.:.-.v.9.9.9.9.3.3.3.3.3.3.3.3.3.3.3.3.w.w.w.w.w.w.w.w.w.w.w.w.w.w.w.w.w.w.w.w.w.w.w.w.w.w.w.f.f.w.w.e.w.w.w.w.w.w.w.w.w.w.w.w.w.w.w.w.w.w.w.w.w.z.z.w.w.w.w.w.w.w.w.w.p.w.w.w.9.w.z.w.w.w.w.w.w.w.w.w.w.z.v.p.0.0.w.w.z.z.z.w.w.w.w.w.w.w.w.w.w.w.w.w.w.w.w.w.w.w.w.w.w.w.w.w.w.w.w.w.w.w.w.w.w.w.w.w.w.w.w.w.w.w.w.w.w.w.w.w.w.w.w.w.w.w.w.w.w.w.w.w.f.f.w.w.w.z.z.w.w.w.w.w.w.w.w.w.N.@.&.f.e.e.N.e.w.w.0.0.0.w.w.w.w.w.w.w.w.w.w.w.w.w.w.w.w.w.w.w.9.f.z.z.z.0.0.N.z.p.w.w.w.f.w.w.e.w.9.9.f.(.W.f.w.w.w.w.w.w.w.w.w.w.w.w.w.w.w.w.9.{.N.p.N.0.4.N.w.f.w.9.0.f.e.9.w.w.w.z.W.f.w.W.w.w.w.w.w.w.w.w.w.w.w.w.w.w.w.w.w.w.w.w.w.w.w.w.w.w.w.w.w.w.w.w.w.w.w.w.w.w.w.w.w.w.w.w.w.w.w.w.",
"w.w.w.w.w.w.w.w.w.w.w.w.w.w.w.w.w.w.w.w.w.w.w.w.z.0.z.0.N.:.-.v.w.w.w.f.p.f.f.p.w.w.w.w.w.w.w.w.w.w.w.w.w.w.w.w.w.w.w.w.w.w.w.w.w.w.w.w.w.w.w.w.W.z.w.w.z.z.w.w.w.w.w.w.w.w.w.w.w.w.w.w.w.w.w.w.f.N.W.z.w.w.w.w.w.w.w.w.w.w.w.w.w.w.W.W.w.w.z.w.w.w.w.w.w.w.w.w.9.9.w.w.z.N.N.z.3.0.f.w.w.w.w.e.w.w.w.w.w.w.w.w.w.w.w.w.w.w.w.w.w.w.w.w.w.w.w.w.w.w.w.w.w.w.w.w.w.w.w.w.w.w.w.w.w.w.w.w.w.w.w.w.w.w.w.w.w.w.w.w.0.f.N.z.w.9.9.9.w.w.w.w.w.w.w.w.w.@.&.0.9.9.e.w.z.z.f.f.z.z.z.z.z.z.f.z.f.z.z.z.z.z.z.z.z.z.z.z.0.W.3.Y @.N.N.-.w.w.w.w.e.f.w.w.w.f.z.f.w.3.+.L w.w.w.w.w.w.w.w.w.w.w.w.w.w.w.w.f.9.' ` 9.z.0.f.w.w.w.w.w.w.z.z.z.z.0.9.9.%...@.w.w.w.w.w.w.w.w.w.w.w.w.w.w.w.w.w.w.w.w.w.w.w.w.w.w.w.w.w.w.w.w.w.w.w.w.w.w.w.w.w.w.w.w.w.w.w.w.",
"w.w.w.w.w.w.w.w.w.w.w.w.w.w.w.w.w.w.w.w.w.w.w.w.z.9.z.0.N.:.-.v.w.w.w.w.e.f.f.z.z.z.z.z.z.z.z.z.w.w.w.w.w.w.w.w.w.w.w.w.w.w.w.w.w.w.w.w.w.w.w.w.>.w.W.w.%...>.W.w.w.w.w.w.w.w.w.w.w.w.w.w.w.w.w.L @.9.N.N.z.w.9.w.w.w.w.w.w.w.w.z.w.9.:.@.%.w.z.w.w.w.w.w.w.w.w.N.z.f.w.w.w.3.@.-.9.f.f.w.w.w.z.w.w.w.w.w.w.w.w.w.w.w.w.w.w.w.w.w.w.w.w.w.w.w.w.w.w.w.w.w.w.w.w.w.w.w.w.w.w.w.w.w.w.w.w.w.w.w.w.w.w.w.w.w.w.w.w.z.w.0.w.z.W.W.W.f.f.f.f.f.f.f.f.f.9.9.w.e.w.w.z.w.w.w.w.w.w.w.w.w.w.w.w.w.w.w.w.w.w.w.w.w.w.w.w.w.z.9.-.9.W.W.z.w.w.f.f.z.f.w.f.9.w.z.N.W.z.w.9.f.f.f.f.f.f.f.f.f.f.f.f.f.f.f.f.N.e.:.:.e.W.e.N.z.z.z.w.w.9.9.z.w.f.w.w.z.w.9.w.w.w.w.w.w.w.w.w.w.w.w.w.w.w.w.w.w.w.w.w.w.w.w.w.w.w.w.w.w.w.w.w.w.w.w.w.w.w.w.w.w.w.w.w.w.w.w.w.",
"w.w.w.w.w.w.w.w.w.w.w.w.w.w.w.w.w.w.w.w.w.w.w.w.z.0.z.0.N.:.-.v.0.0.0.w.w.w.w.w.w.w.w.w.w.w.w.w.w.w.w.w.w.w.w.w.w.w.w.w.w.w.w.w.w.w.w.w.w.w.w.w.f.f.f.w.9.3.9.z.w.w.w.w.w.w.w.w.w.w.w.w.w.w.w.w.:.9.w.w.0.w.z.z.w.w.w.w.w.w.w.w.w.w.z.w.3.9.w.w.w.w.w.w.w.w.w.w.w.w.w.w.w.w.9.:.3.0.z.z.p.w.w.w.w.w.w.w.w.w.w.w.w.w.w.w.w.w.w.w.w.w.w.w.w.w.w.w.w.w.w.w.w.w.w.w.w.w.w.w.w.w.w.w.w.w.w.w.w.w.w.w.w.w.w.w.w.w.w.w.0.0.w.z.z.w.9.9.e.e.z.z.w.w.w.w.w.z.z.f.z.w.w.f.z.z.z.z.w.e.w.w.z.z.z.z.w.w.w.z.e.w.w.w.z.z.z.a.w.w.w.W.W.9.3.W.w.z.z.e.w.w.w.w.w.w.w.0.w.f.z.N.w.w.w.w.w.w.w.w.w.w.w.w.w.w.w.w.8.z.N.z.e.9.8.9.0.9.w.z.z.w.z.!.w.w.w.w.N.z.w.z.w.w.w.w.w.w.w.w.w.w.w.w.w.w.w.w.w.w.w.w.w.w.w.w.w.w.w.w.w.w.w.w.w.w.w.w.w.w.w.w.w.w.w.w.w.w.w.w.",
"w.w.w.w.w.w.w.w.w.w.w.w.w.w.w.w.w.w.w.w.w.w.w.w.z.9.z.9.v.:.-.v.f.f.w.f.w.w.w.w.w.w.w.w.w.w.w.w.w.w.w.w.w.w.w.w.w.w.w.w.w.w.w.w.w.w.w.w.w.w.w.w.W.z.w.f.z.z.z.z.w.w.w.w.w.w.w.w.w.w.w.w.w.w.w.w.{.{.N.w.0.w.f.z.w.w.w.w.w.w.w.w.w.f.N.N.f.z.N.w.w.w.w.w.w.w.w.w.0.w.w.w.z.W.N.z.w.f.f.w.f.z.w.0.w.w.w.w.w.w.w.w.w.w.w.w.w.w.w.w.w.w.w.w.w.w.w.w.w.w.w.w.w.w.w.w.w.w.w.w.w.w.w.w.w.w.w.w.w.w.w.w.w.w.w.w.w.w.w.w.9.w.z.z.w.9.w.W.f.f.f.z.z.z.z.z.9.w.w.0.w.w.9.9.w.w.w.w.9.w.w.9.w.w.w.w.w.w.w.w.w.9.w.w.w.w.9.9.0.f.0.9.p.z.f.f.z.z.z.f.p.f.z.z.f.z.z.z.w.0.9.9.f.f.f.f.f.f.f.f.f.f.f.f.f.f.f.f.e.e.w.w.e.z.e.e.z.p.w.f.a.w.9.9.w.p.w.w.w.w.9.w.w.w.w.w.w.w.w.w.w.w.w.w.w.w.w.w.w.w.w.w.w.w.w.w.w.w.w.w.w.w.w.w.w.w.w.w.w.w.w.w.w.w.w.w.w.w.w.w.",
"w.w.w.w.w.w.w.w.w.w.w.w.w.w.w.w.w.w.w.w.w.w.w.w.z.9.z.9.v.:.-.v.f.w.w.w.w.w.w.w.w.w.w.w.w.w.w.w.w.w.w.w.w.w.w.w.w.w.w.w.w.w.w.w.w.w.w.w.w.w.w.w.9.0.w.z.w.9.0.z.w.w.w.w.w.w.w.w.w.w.w.w.w.w.w.w.3.9.w.f.z.z.w.9.w.w.w.w.w.w.w.w.z.w.0.9.9.w.z.w.w.w.w.w.w.w.w.w.z.N.z.f.w.w.f.w.z.e.w.9.w.z.f.w.w.w.w.w.w.w.w.w.w.w.w.w.w.w.w.w.w.w.w.w.w.w.w.w.w.w.w.w.w.w.w.w.w.w.w.w.w.w.w.w.w.w.w.w.w.w.w.w.w.w.w.w.w.w.w.w.W.w.9.w.z.z.f.z.p.p.f.f.p.p.p.p.z.f.f.N.N.N.N.N.z.z.z.z.z.z.z.z.z.z.z.z.z.z.z.z.z.z.z.z.z.z.z.z.p.{.W.p.z.N.v.f.p.w.0.0.p.f.f.f.e.e.f.N.N.f.z.N.0.0.0.w.w.w.w.w.0.0.0.p.w.w.w.w.N.f.w.e.z.N.N.f.f.f.f.f.v.W.W.a.w.z.w.w.z.z.z.N.w.w.w.w.w.w.w.w.w.w.w.w.w.w.w.w.w.w.w.w.w.w.w.w.w.w.w.w.w.w.w.w.w.w.w.w.w.w.w.w.w.w.w.w.w.w.w.w.",
"w.w.w.w.w.w.w.w.w.w.w.w.w.w.w.w.w.w.w.w.w.w.w.w.z.9.z.9.N.:.-.v.w.w.w.w.w.w.w.w.w.w.w.w.w.w.w.w.w.w.w.w.w.w.w.w.w.w.w.w.w.w.w.w.w.w.w.w.w.w.w.w.W.w.9.w.W.W.z.9.w.w.w.w.w.w.w.w.w.w.w.w.w.w.w.w.W.N.w.9.9.w.z.f.w.w.w.w.w.w.w.w.w.w.z.W.z.N.z.3.w.w.w.w.w.w.w.w.9.w.w.w.w.f.z.z.w.w.w.w.w.z.z.w.w.w.w.w.w.w.w.w.w.w.w.w.w.w.w.w.w.w.w.w.w.w.w.w.w.w.w.w.w.w.w.w.w.w.w.w.w.w.w.w.w.w.w.w.w.w.w.w.w.w.w.w.w.w.w.w.f.9.0.z.z.3.' L P P P P Y Y Y Y ' D D L D L P D P P L L L L L L L L L L P P L P L L L L P P L L L L L ' ' Y D Y Y P P P ) ) P K ' I Y Y P P Y I P P Y Y Y Y Y Y Y P P P Y Y Y Y P Y ' ' P P P K K ) ' ' X.3.w.9.z.z.f.0.w.9.9.9.w.w.w.w.w.w.w.w.w.w.w.w.w.w.w.w.w.w.w.w.w.w.w.w.w.w.w.w.w.w.w.w.w.w.w.w.w.w.w.w.w.w.w.w.w.w.w.w.",
"w.w.w.w.w.w.w.w.w.w.w.w.w.w.w.w.w.w.w.w.w.w.w.w.z.9.z.9.N.:.-.v.z.z.z.z.z.z.z.z.w.w.w.w.w.w.w.w.w.w.w.w.w.w.w.w.w.w.w.w.w.w.w.w.w.w.w.w.w.w.w.w.9.w.z.z.9.3.w.z.w.w.w.w.w.w.w.w.w.w.w.w.w.w.w.w.0.w.w.w.w.f.w.9.w.w.w.w.w.w.w.w.N.f.w.9.3.0.z.w.w.w.w.w.w.w.w.w.z.z.w.w.w.z.w.0.w.z.z.w.w.f.z.f.w.w.w.w.w.w.w.w.w.w.w.w.w.w.w.w.w.w.w.w.w.w.w.w.w.w.w.w.w.w.w.w.w.w.w.w.w.w.w.w.w.w.w.w.w.w.w.w.w.w.w.w.w.w.w.w.w.f.z.9.@...>.{.t.t.t.t.t.t.t.t.) h f h t f j s f f f f f f f f f f f f f f f f f f f f f f f f j t r S 7.S.V.t.u.t.t.t.V.t.7.=.k.0.0.t.y.t.0.t.t.t.t.t.t.t.t.t.t.t.t.t.t.t.t.t.Z.t.t.t.t.u.Z.u.t.V.t.:.-.9.z.p.w.z.w.0.w.z.w.z.w.w.w.w.w.w.w.w.w.w.w.w.w.w.w.w.w.w.w.w.w.w.w.w.w.w.w.w.w.w.w.w.w.w.w.w.w.w.w.w.w.w.w.w.w.w.w.w.",
"w.w.w.w.w.w.w.w.W.w.9.z.>.{.9./.z.>.N.0.w.9.N.e.z.0.w.9.N.3.' OXW.{.{.{.W.W.{. X9.9.9.w.z.w.9.z.w.w.w.w.w.w.w.w.w.w.w.w.w.w.w.w.z.z.z.f.w.w.w.w.w.w.w.w.w.w.w.w.w.w.w.w.w.w.w.w.w.w.w.w.w.w.w.w.w.w.w.w.w.w.w.w.w.w.w.w.w.w.w.w.w.w.w.w.w.w.w.w.w.w.w.w.w.w.f.z.w.w.w.w.w.w.w.w.w.w.w.w.z.z.f.z.f.f.w.z.0.9.z.9.w.W.9.9.z...L 9.w.w.w.w.w.w.w.w.w.w.w.w.w.w.w.w.w.w.w.w.w.w.w.w.w.w.w.w.w.w.w.w.z.9.w.a.w.z.z.w.f.v.9.' @.{.+Xw.N.N.N.N.N.N.N.N.D D D D L L D D L L L L L L L L L L L L L L L L L L L L L L L L K C m L @.f.!.!.N.z.z.z.W.v.9.:.W.z.z.N.W.z.z.N.z.z.z.z.z.z.z.z.z.z.z.z.z.z.z.z.z.z.z.z.z.z.z.z.N.0.N.+X-...v.0.f.f.w.9.w.z.z.0.w.w.w.w.w.w.w.w.w.w.w.w.w.w.w.w.w.w.w.w.w.w.w.w.w.w.w.w.w.w.w.w.w.w.w.w.w.w.w.w.0.f.z.p.w.p.w.9.",
"w.w.w.w.w.w.w.w.:.W.z.w.f.v.4.9.9.N.z.{.9.9.0.9.9.w.W.f.N.-.L f.3.9.9.9.9.0.w.w.:.w.z.f.z.z.w.w.w.w.w.w.w.w.w.w.w.w.w.w.w.w.w.w.3.9.w.f.z.z.w.w.w.w.w.w.w.w.w.w.w.w.w.w.w.w.w.w.w.w.w.w.w.w.w.w.w.w.w.w.w.w.w.w.w.w.w.w.w.w.w.w.w.w.w.w.w.w.w.w.z.f.f.w.w.w.w.w.w.w.w.w.w.w.w.w.z.z.w.w.w.9.9.9.w.w.w.z.w.f.W.z.9.z.w.w.W.9.>.W.f.f.f.f.f.e.f.f.w.w.w.w.f.f.f.f.z.z.z.z.z.f.z.z.z.z.z.z.z.z.z.z.9.W.z.0.z.w.w.W.f.@.Y 9.+XN.3.z.w.w.w.w.w.w.w.w.N.0.-.] ' ' @.@.' ] ' ' ' ' ' ' ' ] ] ] ' ' ' ' ] ] ] ] ' ' ' ' ) | :.0.f.f.w.9.w.w.w.w.f.p.3.@.z.w.w.w.f.w.w.w.w.w.w.w.w.w.w.w.w.w.w.w.w.w.w.w.w.w.w.w.w.w.w.w.f.f.0.e.N.-.@.N.0.e.e.w.z.w.w.f.w.w.w.w.w.w.w.w.w.w.w.w.w.w.w.w.w.w.w.w.w.w.w.w.w.w.w.w.w.w.w.w.w.w.w.w.w.w.w.w.z.w.0.9.9.w.w.w.",
"w.w.w.w.w.w.w.w.N.z.3.9.v.w.N.z.f.W.%.0.9.9.z.e.w.f.z.9.p.:.` v.W.W.N.W.{.W.z.w.' 9.z.w.w.z.z.0.w.w.w.w.w.w.w.w.w.w.w.w.w.w.w.w.W.z.f.w.w.w.w.w.w.w.w.w.w.w.w.w.w.w.w.w.w.w.w.w.w.w.w.w.w.w.w.w.w.w.w.w.w.w.w.w.w.w.w.w.w.w.w.w.w.w.w.w.w.w.w.w.w.w.w.w.w.f.f.f.w.w.w.w.w.w.w.w.0.w.w.w.w.z.w.z.z.z.f.w.w.w.0.0.9.z.w.9.z.z.w.w.w.w.w.w.w.w.w.w.w.w.w.w.w.w.w.w.w.w.w.w.w.w.w.w.w.w.w.0.w.0.0.w.z.9.f.{.z.9.9.w.' -.{.{.>.0./.9.w.w.w.w.w.w.w.w.f.N. X%X-X-X-X$X%X%X%X%X%X%X%X%X%X-X-X%X%X%X%X%X%X%X%X%X%X%X%X%X&X+X+X{.f.w.z.W.w.w.0.w.f.p.3.@.z.w.w.w.w.w.w.w.w.w.w.w.w.w.w.w.w.w.w.w.w.w.w.w.w.w.w.w.w.w.w.w.0.e.0.8.[.f.` 9.e.z.0.0.z.w.9.z.w.w.w.w.w.w.w.w.w.w.w.w.w.w.w.w.w.w.w.w.w.w.w.w.w.w.w.w.w.w.w.w.w.w.w.w.w.w.w.w.w.w.0.w.z.z.w.w.",
"w.w.w.w.w.w.w.w.z.9.N.{.9.0.N.f.f.{.{.N.[.9.9.e.w.w.w.0.N.:.S L %.@.@.@.%.@...` ` 3.z.9.w.z.z.w.w.w.w.w.w.w.w.w.w.w.w.w.w.w.w.w.9.9.w.f.z.f.w.9.w.w.w.w.w.w.w.w.w.w.w.w.w.w.w.w.w.w.w.w.w.w.w.w.w.w.w.w.w.w.w.w.w.w.w.w.w.w.w.w.w.w.w.w.w.w.w.w.w.w.w.w.w.w.w.w.f.f.f.f.f.f.f.f.f.z.w.z.9.w.w.w.w.0.w.w.z.z.w.z.z.z.z.w.w.z.z.9.z.z.z.z.z.z.z.z.z.z.z.z.z.z.z.z.z.z.z.f.f.w.w.w.f.f.e.w.w.w.w.p.p.w.w.9.9.{.w.L -.[.{.9.p.f.9.f.f.f.f.f.f.f.f.f.p.f.f.f.p.9.4.>.9.9.9.9.9.9.9.9.9.9.9.9.9.9.9.9.9.9.9.9.9.9.9.9.f.0.9.8.9.9.9.9.f.w.w.w.z.z.4.%.z.e.w.f.z.f.w.f.f.f.f.f.f.e.f.f.f.f.f.f.f.f.f.f.e.e.f.f.f.f.f.f.w.9.N.f.f.W.3.' f.N.0.9.z.z.w.z.w.w.w.w.w.w.w.w.w.w.w.w.w.w.w.w.w.w.w.w.w.w.w.w.w.w.w.w.w.w.w.w.w.w.w.w.w.w.w.w.w.0.w.z.z.w.w.w.",
"w.w.w.w.w.w.w.w.W.9.9.w.f.{.f 3 r 7 8 3 '  Xz.3.w.z.w.w.W.3.Y ' D D G G L L L L 9.z.z.w.w.w.w.f.w.w.w.w.w.w.w.w.w.w.w.w.w.w.w.w.W.N.z.w.w.w.f.f.w.w.w.w.w.w.w.w.w.w.w.w.w.w.w.w.w.w.w.w.w.w.w.w.w.w.w.w.w.w.w.w.w.w.w.w.w.w.w.w.w.w.w.w.w.w.w.w.w.w.w.w.w.w.0.9.w.w.w.w.w.w.w.w.w.w.0.z.3.z.N.z.N.z.W.z.W.W.4.z.w.9.w.f.0.0.f.w.w.w.w.w.w.w.w.w.w.w.w.w.w.w.w.w.w.w.w.w.w.w.w.w.w.w.w.w.f.f.f.f.p.z.4.w.N...Y {.+X9.9.z.w.p.W.9.w.w.w.w.w.w.w.w.f.0.9.9.9.0.z.N.f.f.f.f.f.f.f.f.f.f.f.f.f.f.f.f.f.f.f.f.f.f.f.f.9.9.0.z.W.{.N.w.w.w.w.w.z.f.4.%.z.w.w.f.f.w.w.e.w.w.w.w.w.w.w.w.w.w.w.w.w.w.w.w.w.w.w.w.w.w.w.w.z.0.z.W.9.z.{.@.&.e.z.0.f.z.f.f.w.w.w.w.w.w.w.w.w.w.w.w.w.w.w.w.w.w.w.w.w.w.w.w.w.w.w.w.w.w.w.w.w.w.w.w.w.w.w.w.z.w.w.w.9.9.w.z.",
"w.w.w.w.w.w.w.w.9.N.N.w.0.X.@ n S / ' 8 0 0.0.W.z.z.w.0.w.9.9.[.z.z.N.N.z.z.W.W.z.z.w.w.z.w.0.z.w.w.w.w.w.w.w.w.w.w.w.w.w.w.w.w.f.f.f.w.w.w.f.z.w.w.w.w.w.w.w.w.w.w.w.w.w.w.w.w.w.w.w.w.w.w.w.w.w.w.w.w.w.w.w.w.w.w.w.w.w.w.w.w.w.w.w.w.w.w.w.w.w.w.f.z.z.z.z.z.w.w.w.w.w.w.w.w.w.f.0.N.:.W.{.W.W.z.W.z.W.N.%.9.z.w.f.N.f.0.f.N.f.f.f.f.f.f.w.w.f.f.f.f.e.f.f.f.f.f.f.f.f.f.f.w.w.w.w.w.w.w.w.w.w.9.[.9.H :.+X0.3.W.z.9.z.z.9.T.w.w.w.w.w.w.w.w.w.z.z.N.z.f.0.9.p.p.w.w.w.w.w.w.p.w.w.w.w.w.w.w.w.w.w.w.w.w.w.w.z.z.z.w.9.9.0.w.p.w.w.w.z.f.4.%.z.w.w.f.z.w.w.f.w.w.w.w.w.w.w.w.w.w.w.w.w.w.w.w.w.w.w.w.w.w.w.w.z.N.3.f.z.9./.z.' >.N.N.w.w.z.z.w.w.w.w.w.w.w.w.w.w.w.w.w.w.w.w.w.w.w.w.w.w.w.w.w.w.w.w.w.w.w.w.w.w.w.w.w.w.w.w.w.z.z.z.f.f.f.w.",
"w.w.w.w.w.w.w.w.z.w.9.w.{.0.L ;XoX*X-X9...{.w.w.9.w.w.z.p.%.%.0.w.w.w.w.0.9.9.0.w.w.9.9.z.w.w.z.w.w.w.w.w.w.w.w.w.w.w.w.w.w.w.w.L ..3.z.W.z.0.9.w.w.w.w.w.w.w.w.w.w.w.w.w.w.w.w.w.w.w.w.w.w.w.w.w.w.w.w.w.w.w.w.w.w.w.w.w.w.w.w.w.w.w.w.w.w.w.w.w.w.w.f.z.f.w.w.z.z.z.z.z.z.z.z.W.N.w.z.@.w.w.w.9.3.w.9.W.W.@.0.W.z.z.z.z.w.w.z.z.z.z.z.z.z.z.z.z.z.z.z.z.z.z.z.z.z.z.z.z.z.z.z.z.z.z.z.z.z.z.z.f.z.' ' [.+X0.p.z.:.9.W.z.w.z.w.w.w.w.w.w.w.w.w.w.0.0.0.w.w.w.f.p.w.w.w.w.w.w.w.p.w.w.w.w.w.w.w.w.w.w.w.w.w.w.w.3.9.z.z.z.f.f.z.f.p.w.f.z.z.9.%.z.f.w.z.z.f.f.z.f.f.f.f.f.f.f.f.f.f.f.f.e.f.f.f.f.f.f.f.p.p.f.f.f.z.9.9.v.w.w.{.-.@.9.N.w.0.z.w.w.w.w.w.w.w.w.w.w.w.w.w.w.w.w.w.w.w.w.w.w.w.w.w.w.w.w.w.w.w.w.w.w.w.w.w.w.w.w.w.9.w.w.9.0.z.z.9.",
"w.w.w.w.w.w.w.w.w.9.{.w.4.N./.{.oXu.XXN.z.9.z.p.z.w.9.z.z.:.3.z.w.w.w.f.f.z.f.f.w.z.e.w.z.w.9.w.w.w.w.w.w.w.w.w.w.w.w.w.w.w.w.w.w.z.z.f.0.9.f.W.w.w.w.w.w.w.w.w.w.w.w.w.w.w.w.w.w.w.w.w.w.w.w.w.w.w.w.w.w.w.w.w.w.w.w.w.w.w.w.w.w.w.w.w.w.w.w.w.f.f.w.0.9.:.-.%.%.%.%.%.%.%.%.%.@.@.@.3.Y w.W.W.W.z.{.w.W.w.Y @.%.-.@.@.%.-.%.%.%.%.%.%.%.%.%.%.%.%.%.%.%.%.%.%.%.%.%.%.%.%.-.-.3.3.3.3.3.3.3.3.:.` -.+X{.3.9.v.w.N.z.9.9.w.w.z.w.w.w.w.w.w.w.w.w.w.f.f.f.f.w.w.p.p.w.w.w.w.w.w.w.w.w.w.w.w.w.w.w.w.w.w.w.w.w.w.T.w.w.w.w.w.w.w.w.w.w.w.f.p.3.@.z.w.w.w.w.w.w.w.w.w.w.w.w.w.w.w.w.w.w.w.w.w.w.w.w.w.w.w.w.w.w.w.w.w.!.w.9.W.9.9.[.@.@.f.w.f.N.9.w.w.w.w.w.w.w.w.w.w.w.w.w.w.w.w.w.w.w.w.w.w.w.w.w.w.w.w.w.w.w.w.w.w.w.w.w.w.w.w.z.9.@.Y ..9.z.w.",
"w.w.w.w.w.w.w.w.w.w.w.w.w.w.w.w.w.w.w.w.w.w.w.w.z.9.z.0.N.:.-.v.w.w.w.w.w.w.w.w.w.w.w.w.w.w.w.w.w.w.w.w.w.w.w.w.w.w.w.w.w.w.w.w.f.f.f.w.w.w.e.z.w.w.w.w.w.w.w.w.w.w.w.w.w.w.w.w.w.w.w.w.w.w.w.w.w.w.w.w.w.w.w.w.w.w.w.w.w.w.w.w.z.w.w.f.w.0.w.z.z.w.w.4.` ' @.' @.' @.@.' ' @.] | | | ' P S L ' Y ' ' ' L D Y ' ' | | | @.' ' @.] ] ] ] ] ] ] ] ] ] ] ] ] ] ] ] ] ] ] ] ] ] ] ] ) ) ) ) ) ) ) ) ..f. XW.9.9.f.e.w.w.w.w.w.w.w.w.a.9.9.t.V.{.v.4.w.w.w.w.w.w.w.w.w.w.w.w.w.w.w.w.z.w.0.0.0.0.f.z.w.w.w.w.w.w.w.w.w.w.w.w.w.w.w.w.w.w.w.w.z.f.3.@.z.z.f.w.w.f.w.w.w.w.w.w.w.w.w.w.w.w.f.w.w.w.e.z.w.w.w.w.w.w.w.w.z.3.z.z.e.9.W.3.0.}.L 9.9.N.w.e.w.w.w.w.w.w.w.w.w.w.w.w.w.w.w.w.w.w.w.w.w.w.w.w.w.w.w.w.w.w.w.w.w.w.w.w.w.w.w.w.f.e.Y f P w.f.9.",
"w.w.w.w.w.w.w.w.w.w.w.w.w.w.w.w.w.w.w.w.w.w.w.w.z.9.z.0.v.:.-.v.w.w.w.w.w.w.w.w.w.w.w.w.w.w.w.w.w.w.w.w.w.w.w.w.w.w.w.w.w.w.w.w.9.0.e.f.z.f.w.9.w.w.w.w.w.w.w.w.w.w.w.w.w.w.w.w.w.w.w.w.w.w.w.w.w.w.w.w.w.w.w.w.w.w.w.w.w.w.w.w.f.w.w.z.z.f.w.z.w.z.v.@.@.+X{.+XXXXX+X+XXX+X+X[.[.XX+X@X{.>.' ' @.' ' ' @.>.{.-X{.+XXX[.+X+XXX+XoXoXoXoXoXoXXXXXoXoXoXoXoXoXoXoXXXXXXXXXXXXXXXXXoXoXoXoXoXoXoXoX[.{.w.3.9.W.N.0.w.w.w.w.w.w.w.w.T./.{.=.C A :. Xw.w.w.w.w.w.w.w.w.w.w.w.w.w.w.w.9.W.f.' K @.w.w.w.w.w.w.w.w.w.w.w.w.w.w.w.w.w.w.w.w.w.w.z.f.3.@.z.p.w.w.w.z.z.w.w.w.w.w.w.w.w.w.w.w.w.w.w.w.e.e.w.w.w.w.w.w.w.w.z.N.9.w.w.0.3.W.0.-.3.' {.e.z.9.w.w.w.w.w.w.w.w.w.w.w.w.w.w.w.w.w.w.w.w.w.w.w.w.w.w.w.w.w.w.w.w.w.w.w.w.w.w.w.w.0.[.f.>.f.(.f.e.",
"w.w.w.w.w.w.w.w.w.w.w.w.w.w.w.w.w.w.w.w.w.w.w.w.z.9.z.9.N.:.-.v.w.w.w.w.w.w.w.w.w.w.w.w.w.w.w.w.w.w.w.w.w.w.w.w.w.w.w.w.w.w.w.w.N.z.f.f.f.f.w.w.w.w.w.w.w.w.w.w.w.w.w.w.w.w.w.w.w.w.w.w.w.w.w.w.w.w.w.w.w.w.w.w.w.w.w.w.w.w.w.w.f.w.w.f.z.z.w.w.9.N.:.Y {.9.{.-.:.9.9.>.9.0.9.>.0.4.3.9.w.f.z.W.z.z.z.v.v.f.9.4.9.v.p.4.9.p.9.>.9.9.9.9.9.9.9.9.9.9.9.9.9.9.9.9.9.9.9.9.9.9.9.9.0.0.0.0.0.9.9.9.W.z.w.9.w.z.z.w.w.w.w.w.w.w.w.w.4.9.9.' j b X.z.w.w.w.w.w.w.w.w.w.w.w.w.w.w.w.w.w.N.#.f r L 9.W.w.w.w.w.w.w.w.w.w.w.w.w.w.w.w.w.w.w.w.w.z.f.3.@.z.f.w.w.w.f.f.f.w.w.w.w.w.w.w.w.w.w.w.w.w.w.w.w.w.w.w.w.w.w.w.w.9.9.z.W.W.{.{.p.{.{.[.@.@.9.N.z.w.w.w.w.w.w.w.w.w.w.w.w.w.w.w.w.w.w.w.w.w.w.w.w.w.w.w.w.w.w.w.w.w.w.w.w.w.w.w.w.9.N.N.z.N.w.3.w.",
"w.w.w.w.w.w.w.w.w.w.w.w.w.w.w.w.w.w.w.w.w.w.w.w.z.9.z.9.v.:.-.v.w.w.w.w.w.w.w.w.w.w.w.w.w.w.w.w.w.w.w.w.w.w.w.w.w.w.w.w.w.w.w.w.0.w.e.e.w.w.z.z.w.w.w.w.w.w.w.w.w.w.w.w.w.w.w.w.w.w.w.w.w.w.w.w.w.w.w.w.w.w.w.w.w.w.w.w.w.w.w.w.f.w.w.w.w.w.w.w.0.p.D 0./.f.:.` L ' / Y ' ' Y ] {.z.w.w.p.w.w.f.9.9.w.a.z.W.z.a.9.f.p.w.N.W.N.W.w.w.w.w.w.w.w.w.w.w.w.w.w.w.w.w.e.e.e.e.e.e.e.e.w.w.w.w.w.w.9.w.>.9.z.N.w.9.w.z.w.w.w.w.w.w.w.w.W.f.z.f.0.0.z.a.w.w.w.w.w.w.w.w.w.w.w.w.w.w.w.w.9.f.N.N.k.N.w.9.w.w.w.w.w.w.w.w.w.w.w.w.w.w.w.w.w.w.w.w.z.f.3.@.z.f.w.w.w.w.w.w.w.w.w.w.w.w.w.w.w.w.w.w.w.w.w.w.w.w.w.w.w.w.w.w.f.f.9.8 7 ; t 5 r :.w.N...>.W.0.w.w.w.w.w.w.w.w.w.w.w.w.w.w.w.w.w.w.w.w.w.w.w.w.w.w.w.w.w.w.w.w.w.w.w.w.w.w.w.w.f.f.9.9.w.0.9.z.",
"w.w.w.w.w.w.w.w.w.w.w.w.w.w.w.w.f.f.f.f.f.f.f.f.z.0.z.9.N.:.-.v.w.w.w.w.w.w.w.w.w.w.w.w.w.w.w.w.w.w.w.w.w.w.w.w.w.w.w.w.w.w.w.w.' &.9.f.z.w.w.w.w.w.w.w.w.w.w.w.w.w.w.w.w.w.w.w.w.w.w.w.w.w.w.w.w.w.w.w.w.w.w.w.w.w.w.w.w.w.w.w.w.w.z.w.9.w.w.z./.' -.W.0.{.` %.' @.X.@.@.` ..9.9.9.w.z.f.p.w.w.!.W.w.w.9.9.w.w.p.p.w.f.f.4.3.p.z.z.a.a.w.a.z.z.z.z.z.a.z.z.z.z.e.e.e.e.e.e.e.e.e.e.e.e.e.e.e.e.z.f.w.w.f.w.w.z.w.w.w.w.w.w.w.w.w.9.0.w.0.0.w.9.w.w.w.w.w.w.w.w.w.w.w.w.w.w.w.w.W.9.>.9.w.0.w.z.w.w.w.w.w.w.w.w.w.w.w.w.w.w.w.w.w.w.w.w.z.f.3.@.z.w.w.w.z.w.w.z.w.w.w.w.w.w.w.w.f.w.w.w.f.f.w.0.w.w.w.w.w.w.w.w.f.N.n o Y ' L Y % n w.N.w.@.z.w.w.w.w.w.w.w.w.w.w.w.w.w.w.w.w.w.w.w.w.w.w.w.w.w.w.w.w.w.w.w.w.w.w.w.w.w.w.w.w.w.w.e.w.w.z.z.w.w.",
"w.w.w.w.w.w.w.w.w.w.w.w.w.w.w.w.w.w.w.w.w.w.w.w.z.0.z.9.N.:.-.v.w.w.w.w.w.w.w.w.w.w.w.w.w.w.w.w.w.w.w.w.w.w.w.w.w.w.w.w.w.w.w.w.&.3.e.z.f.w.w.w.w.w.w.w.w.w.w.w.w.w.w.w.w.w.w.w.w.w.w.w.w.w.w.w.w.w.w.w.w.w.w.w.w.w.w.w.w.w.w.w.w.w.w.w.w.w.z.z.:./ +X9.0.' ..` ' ' ' ' ' ' @.w.W.W.N.z.w.0.f.z.3.9.z.W.W.z.w.w.v.f.w.f.0.@.@.3.w.w.w.w.w.w.w.w.w.w.w.w.w.w.w.w.w.w.w.w.w.w.w.w.w.w.9.9.w.w.w.w.W.z.w.w.f.f.w.w.w.w.w.w.w.w.w.w.z.w.z.z.9.0.z.z.w.w.w.w.w.w.w.w.w.w.w.w.w.w.w.w.w.f.z.z.w.w.w.w.w.w.w.w.w.w.w.w.w.w.w.w.w.w.w.w.w.w.w.w.z.f.3.@.f.w.w.z.z.w.w.f.w.w.w.w.w.w.w.w.f.w.w.w.f.f.w.9.w.w.w.w.w.w.w.w.:.Z.@.' +X-XZ.;X:.' {.0.f.@.%.W.w.w.w.w.w.w.w.w.w.w.w.w.w.w.w.w.w.w.w.w.w.w.w.w.w.w.w.w.w.w.w.w.w.w.w.w.w.w.w.w.8.w.z.w.0.w.w.9.",
"w.w.w.w.w.w.w.w.w.w.w.w.w.w.w.w.w.w.w.w.w.w.w.w.z.0.z.0.N.:.-.v.w.w.w.w.w.w.w.w.w.w.w.w.w.w.w.w.w.w.w.w.w.w.w.w.w.w.w.w.w.w.w.w.N.N.z.w.w.w.f.z.w.w.w.w.w.w.w.w.w.w.w.w.w.w.w.w.w.w.w.w.w.w.w.w.w.w.w.w.w.w.w.w.w.w.w.w.w.w.w.w.w.w.w.w.f.z.f.9.L 0.0.W.-.' %.' ' ' ' ' ' @.9.e.3.9.0.e.f.f.e.w.z.z.z.w.w.0.w.w.9.9.9.f.N.w.0.(.f.f.f.f.f.f.f.f.f.f.p.p.p.p.f.f.f.e.e.f.f.f.f.f.f.e.w.e.f.f.f.z.8.w.z.z.f.w.w.w.w.w.w.w.w.w.w.w.p.9.w.z.w.z.z.w.w.w.w.w.w.w.w.w.w.w.w.w.w.w.w.w.0.z.W.z.w.z.w.0.w.w.w.w.w.w.w.w.w.w.w.w.w.w.w.w.w.w.w.w.z.f.3.@.z.w.w.z.f.3.:.3.w.w.w.w.w.w.w.w.f.w.w.w.f.f.w.9.w.w.w.w.w.w.w.w.{.0.9.{.[.+X[.[.{.0.f.f.w.N.` 9.w.w.w.w.w.w.w.w.w.w.w.w.w.w.w.w.w.w.w.w.w.w.w.w.w.w.w.w.w.w.w.w.w.w.w.w.w.w.w.w.z.z.z.e.9.w.z.z.",
"w.w.w.w.w.w.w.w.w.w.w.w.w.w.w.w.w.w.w.w.w.w.w.w.z.0.z.0.N.:.-.v.w.w.w.w.w.w.w.w.w.w.w.w.w.w.w.w.w.w.w.w.w.w.w.w.w.w.w.w.w.w.w.w.w.0.9.0.z.z.w.9.w.w.w.w.w.w.w.w.w.w.w.w.w.w.w.w.w.w.w.w.w.w.w.w.w.w.w.w.w.w.w.w.w.w.w.w.w.w.w.w.z.w.0.0.z.z.9.%.*.N.0.%...' ' @.' ' +.' ' 8.W.0.N.z.f.w.w.f.f.e.f.e.w.w.e.f.f.f.f.z.e.w.z.f.0.w.p.p.p.p.p.p.p.p.p.p.w.w.w.p.p.p.p.p.w.p.p.p.p.p.w.w.w.w.p.p.p.p.w.z.f.w.w.z.z.w.w.w.w.w.w.w.w.w.z.w.w.a.w.w.p.9.w.w.w.w.w.w.w.w.w.w.w.w.w.w.w.w.z.w.9.w.z.w.w.w.w.w.w.w.w.w.w.w.w.w.w.w.w.w.w.w.w.w.w.w.z.f.3.@.N.w.w.w.9.-.@.@.w.w.w.w.w.w.w.w.f.w.w.w.f.f.w.9.w.w.w.w.w.w.w.w.0.9.k.9.e.8.9.9.6.'.9.9.f.{.:...w.w.w.w.w.w.w.w.w.w.w.w.w.w.w.w.w.w.w.w.w.w.w.w.w.w.w.w.w.w.w.w.w.w.w.w.w.w.w.w.z.9.9.w.w.z.z.w.",
"z.z.z.w.0.w.f.z.f.w.w.w.e.w.w.w.f.w.0.0.w.w.e.w.9.z.w.w.w.3.:.w.f.w.f.z.w.0.w.w.w.w.w.w.z.f.w.w.w.w.w.w.w.w.w.w.w.w.f.f.f.w.w.w.w.9.9.9.e.e.e.e.a.z.a.w.w.a.a.a.f.p.w.e.e.e.e.e.e.w.w.w.w.e.e.e.w.w.w.0.0.w.f.N.e.e.w.e.e.e.e.e.w.w.z.0.f.(.@.I {.9.%.@.@.@.@.@.` %.@.' :.z.w.w.w.w.w.w.w.w.w.w.w.w.w.w.w.w.w.w.z.9.w.f.w.0.w.w.w.w.w.w.w.w.w.w.w.w.w.w.w.w.w.w.w.w.w.w.w.w.w.w.w.w.w.w.w.w.w.w.w.w.w.w.w.w.w.w.w.w.w.w.w.w.w.w.w.w.w.w.w.w.w.w.w.w.w.w.w.w.w.w.w.w.w.w.w.w.w.w.w.w.w.w.w.w.w.w.w.w.w.w.w.w.w.w.w.w.w.w.w.w.w.w.w.w.0.w.z.f.3.@.z.w.w.w.9.:.>.9.w.w.w.w.w.w.w.w.w.w.w.w.w.w.w.w.w.w.w.w.w.w.w.w.w.f.z.w.9.w.z.9.w.z.f.9.9.W.z.%.@.f.N.0.z.f.9.f.w.w.w.w.w.w.w.w.w.w.w.w.w.w.w.w.9.w.z.z.w.0.w.w.z.9.v.9.w.W.0.f.0.w.w.w.z.z.e.9.",
"f.w.w.w.z.N.z.w.w.w.w.w.w.z.z.w.0.w.z.z.w.w.w.w.N.z.w.z.W.:.%.N.w.z.f.w.z.W.z.9.z.w.w.w.z.z.z.w.w.w.w.w.w.w.w.w.f.w.w.w.w.f.f.w.N.W.W.z.w.w.f.z.w.w.p.f.f.w.w.w.p.z.z.f.w.w.w.9.f.f.f.w.w.w.f.e.z.f.f.z.W.z.0.3.w.w.w.w.w.w.w.w.w.w.f.9.f.e.Y 0.W.9.%.%.@.@...@.%.@.@.@.9.z.z.z.w.w.w.w.w.w.w.w.w.w.w.w.w.w.w.w.9.z.z.w.w.W.W.z.w.w.w.w.w.w.w.w.w.w.w.w.w.w.w.w.w.w.w.w.w.w.w.w.w.w.w.w.w.w.w.w.w.w.w.w.w.w.w.w.w.w.w.w.w.w.w.w.w.w.w.w.w.w.w.w.w.w.w.w.w.w.w.w.w.w.w.w.w.w.w.w.w.w.w.w.w.w.w.w.w.w.w.w.w.w.w.w.w.w.w.w.w.w.w.w.w.w.w.w.z.f.3.@.z.w.w.p.p.0.z.{.w.w.w.w.w.w.w.w.w.w.w.w.w.w.w.w.w.w.w.w.w.w.w.w.W.9.9.z.z.w.w.w.9.f.N.N.z.w.w.z.' 0.8.N.9.w.{.9.w.w.w.w.w.w.w.w.w.w.w.w.w.w.w.w.z.f.w.w.w.f.z.z.z.3.9.z.z.w.9.z.w.z.z.w.9.w.f.z.",
"z.w.0.w.z.w.-.` :.9.w.w.9.w.w.9.` %.0.z.w.9.w.z.0.@.` 9.W.:.@.W.w.z.%.Y @.z.z.w.w.9.w.9.:.>.w.f.w.w.w.w.w.w.w.w.z.w.w.w.w.w.0.9.L X.4.f.f.w.0.w.N.f.f.N.N.w.w.f.9.w.f.w.0.e.e.w.f.f.f.f.f.w.w.w.f.0.9.9.w.z.z.W.w.w.p.f.f.z.z.z.f.9.z.9.N...@.[.:.%.' ' @.` Y @.9.@.@.3.w.e.z.z.w.w.w.w.w.w.w.w.w.w.w.w.w.w.w.w.9.v.z.9.w.0.3.0.w.w.w.w.w.w.w.w.w.w.w.w.w.w.w.w.w.w.w.w.w.w.w.w.w.w.w.w.w.w.w.w.w.w.w.w.w.w.w.w.w.w.w.w.w.w.w.w.w.w.w.w.w.w.w.w.w.w.w.w.w.w.w.w.w.w.w.w.w.w.w.w.w.w.w.w.w.w.w.w.w.w.w.w.w.w.w.w.w.w.w.w.w.w.w.w.w.w.w.w.z.f.3.@.z.w.0.w.p.p.v.{.w.w.w.w.w.w.w.w.w.w.w.w.w.w.w.w.w.w.w.w.w.w.w.w.9.' Y 9.z.w.w.z.f.9.@...>.w.w.W.8.T z.9.w.z.z.w.w.w.w.w.w.w.w.w.w.w.w.w.w.w.w.w.p.w.0.w.f.9.@.' >.z.f.w.w.w.w.%.` -.w.z.w.w.w.e.",
"f.w.w.f.z.9.` M @.3.z.w.w.w.9.:.M ' 3.z.z.w.w.z.3.L M @.W.3.%.z.w.f.` M ` 8.w.z.w.9.z.9.' ` 9.z.w.w.w.w.w.w.w.w.0.w.w.z.z.N.z.z.9.w.f.f.f.p.f.z.w.9.9.e.f.w.f.N.w.W.W.w.0.f.e.e.w.f.f.f.f.f.w.w.w.z.W.W.z.w.9.9.v.z.f.w.0.0.0.0.z.w.0.W.:.' N.0...@.' ..-...` 3.9.%.:.z.w.w.f.w.w.w.w.w.w.w.w.w.w.w.w.w.w.w.w.w.f.z.9.w.z.%...9.w.w.w.w.w.w.w.w.w.w.w.w.w.w.w.w.w.w.w.w.w.w.w.w.w.w.w.w.w.w.w.w.w.w.w.w.w.w.w.w.w.w.w.w.w.w.w.w.w.w.w.w.w.w.w.w.w.w.w.w.w.w.w.w.w.w.w.w.w.w.w.w.w.w.w.w.w.w.w.w.w.w.w.w.w.w.w.w.w.w.w.w.w.w.w.w.w.w.w.w.z.f.3.@.z.w.9.w.p.0.0.p.w.w.w.w.w.w.w.w.w.w.w.w.w.w.w.w.w.w.w.w.w.w.w.w.:.G G :.z.0.0.z.z.9.Y M @.z.f.0.{.' 9.0.z.N.3.W.w.w.w.w.w.w.w.w.w.w.w.w.w.w.w.w.9.9.w.z.z.3.Y n @.W.z.0.9.f.z.` M ` 9.N.N.z.w.w.",
"9.w.w.f.z.w.-.` %.w.W.z.w.z.w.3.` %.9.z.z.w.w.w.f.%.` :.W.9.-.w.0.f.-...3.w.9.z.z.w.N.w.@.@.w.z.w.w.w.w.w.w.w.w.z.z.f.w.9.3.9.9.0.9.3.9.w.f.w.9.z.e.e.f.e.9.3.8.3.9.9.9.9.e.N.N.9.9.9.9.0.9.9.9.w.w.w.w.w.0.w.w.3.9.9.w.f.f.f.f.w.W.3.f.Y w.w...Y ` Y ..:.@.' 3.:.%.9.z.w.w.z.9.w.w.w.w.w.w.w.w.e.e.e.e.f.f.w.w.w.w.9.f.W.3.%.N.w.w.w.w.w.w.w.w.w.w.w.w.w.w.w.w.w.w.w.w.w.w.w.w.w.w.w.w.w.w.w.w.w.w.w.w.w.w.w.w.w.w.w.w.w.w.w.w.w.w.w.w.w.w.w.w.w.w.w.w.w.w.w.w.w.w.w.w.w.w.w.w.w.w.w.w.w.w.w.w.w.w.w.w.w.w.w.w.w.w.w.w.w.w.w.w.w.w.w.w.z.f.3.@.z.w.w.z.f.9.3.3.w.w.w.w.w.w.w.w.w.w.w.w.w.w.w.w.w.w.w.w.w.w.w.w.w.@.@.0.z.f.w.w.9.z.:...3.z.w.w.z.{.P z.w.f.w.w.w.w.w.w.w.w.w.w.w.w.w.w.w.w.w.w.z.w.w.w.f.0.:.@.:.w.9.z.z.0.z.3.@.:.0.w.w.w.z.z.",
"w.w.w.w.w.z.f.w.9.z.z.w.0.f.z.w.w.w.w.w.w.w.f.f.z.z.9.w.z.:.-.z.w.z.9.w.N.z.0.z.z.9.w.z.0.w.z.0.w.w.w.w.w.w.w.w.9.0.w.z.W. X$X;X=X$X$X$X$X+XW.9.9.e.(..X$X=X=X=X=X$X+X XW.w.9.9.-X-X$X$X$X$X$X$X XW.9.w.W.+X$X$X=X=X=X$X.X{.z.0.0.f.N.Y :.{.%.' ` ..` ..%.@...-.@.:.w.z.w.w.z.w.w.w.w.w.w.w.w.w.w.w.e.e.f.f.w.w.9.z.z.w.z.z.w.z.w.w.w.w.w.w.w.w.w.w.w.w.w.w.w.w.w.w.w.w.w.w.w.w.w.w.w.w.w.w.w.w.w.w.w.w.w.w.w.w.w.w.w.w.w.w.w.w.w.w.w.w.w.w.w.w.w.w.w.w.w.w.w.w.w.w.w.w.w.w.w.w.w.w.w.w.w.w.w.w.w.w.w.w.w.w.w.w.w.w.w.w.w.w.w.w.w.w.w.w.z.f.3.@.z.w.w.f.9.-.@.@.w.w.w.w.w.w.w.w.w.w.w.w.w.w.w.w.w.w.w.w.w.w.w.w.W.w.w.z.z.z.z.w.0.z.e.z.W.w.9.N.9.[.-.+.w.w.{.9.w.w.w.w.w.w.w.w.w.w.w.w.w.w.w.w.w.w.w.w.f.z.z.z.z.N.w.w.w.w.z.w.z.z.f.w.w.f.z.f.",
"w.z.w.0.0.w.z.w.w.f.w.9.0.w.z.f.z.p.w.0.w.f.z.z.0.z.z.p.w.:.:.z.f.w.w.w.w.w.w.z.w.0.w.f.z.z.f.9.w.w.w.w.w.w.w.w.z.z.w.9.9.:.@...+.+.....+.&.9.e.e.e.9.&.+.+...T +...$.3.w.w.a.z.$.@.+...........3.3.w.z.w.3.@.......+.$.&.8.9.z.0.9.9.Y {.9.3.:.:.3.3.3.3.3.3.>.:.w.z.w.f.f.w.z.w.w.w.w.w.w.w.w.f.e.f.f.f.f.f.w.w.z.z.w.w.z.z.w.w.w.w.w.w.w.w.w.w.w.w.w.w.w.w.w.w.w.w.w.w.w.w.w.w.w.w.w.w.w.w.w.w.w.w.w.w.w.w.w.w.w.w.w.w.w.w.w.w.w.w.w.w.w.w.w.w.w.w.w.w.w.w.w.w.w.w.w.w.w.w.w.w.w.w.w.w.w.w.w.w.w.w.w.w.w.w.w.w.w.w.w.w.w.w.w.w.w.w.w.z.f.3.@.z.w.w.w.9.-.-.>.w.w.w.w.w.w.w.w.w.w.w.w.w.w.w.w.w.w.w.w.w.w.w.w.w.w.f.f.9.w.z.w.N.w.9.w.w.w.w.f.w.9.[.T 3.w.z.w.w.w.w.w.w.w.w.w.w.w.w.w.w.w.w.w.0.w.w.z.z.e.w.0.w.w.z.9.9.z.w.9.w.f.f.f.z.z.f.0.",
"9.w.f.f.w.w.w.9.w.w.w.f.z.z.w.w.w.w.w.w.z.z.w.w.w.z.w.w.z.3.:.f.w.w.p.z.w.f.z.w.w.z.z.w.w.0.w.z.w.w.w.w.w.w.w.w.w.w.w.z.z.3.` D F G U U L T &.9.e.e.&.U F L T U L G T 3.z.w.w.z...E T U L L U U ..3.T.W.3...L G Y L G G T $.q.R.f.N.L {.f.:.z.w.9.9.w.0.9.w.w.3.w.W.z.w.z.w.9.z.w.w.w.w.w.w.w.w.f.f.f.f.f.f.w.w.z.9.w.z.f.w.z.z.w.w.w.w.w.w.w.w.w.w.w.w.w.w.w.w.w.w.w.w.w.w.w.w.w.w.w.w.w.w.w.w.w.w.w.w.w.w.w.w.w.w.w.w.w.w.w.w.w.w.w.w.w.w.w.w.w.w.w.w.w.w.w.w.w.w.w.w.w.w.w.w.w.w.w.w.w.w.w.w.w.w.w.w.w.w.w.w.w.w.w.w.w.w.w.w.w.w.w.w.z.f.3.@.f.w.w.f.f.f.{.+Xw.w.w.w.w.w.w.w.w.w.w.w.w.w.w.w.w.w.w.w.w.w.w.w.w.w.z.z.w.w.z.w.0.w.f.0.9.z.v.9.0.f.9.N...9.w.z.w.w.w.w.w.w.w.w.w.w.w.w.w.w.w.w.z.f.p.w.w.w.w.w.>.' :.z.W.w.:.W.w.f.w.w.w.z.z.w.",
"z.z.z.z.z.z.z.z.z.z.z.z.z.z.z.z.z.z.z.z.z.z.z.z.w.z.w.f.z.3.:.z.f.f.z.f.e.w.f.f.e.e.e.e.e.e.e.e.f.f.f.f.f.f.f.f.e.e.f.f.f.f.e.f.+Xf.f.f.p.v.v.p.f.f.z.z.z.v.z.z.N.f.f.v.v.f.f.z.N.0.-.-.f.W.v.f.p.p.p.p.p.p.p.p.v.v.N.0.v.4.' f.{.' @.W.9.w.{.9.w.w.w.w.w.w.w.w.f.%.@.9.W.z.w.z.w.w.w.w.w.w.w.w.f.w.z.z.3.@.:.N.3.N.f.0.W.w.3.f.T.w.9.w.N.z.9.9.w.w.w.w.w.w.w.w.w.w.w.w.w.w.w.w.w.w.w.w.w.w.w.w.w.w.w.w.w.w.w.w.w.w.w.w.w.w.w.w.w.w.w.w.w.w.w.w.w.w.w.w.w.w.w.w.w.w.w.w.w.w.w.w.w.w.w.w.w.w.w.w.w.w.w.w.w.w.w.w.f.9.z.z.w.z.f.z.f.z.z.0.z.W.:.@.w.w.w.0.w.z.z.w.w.w.w.w.w.w.w.w.w.w.w.w.w.w.w.w.w.w.w.w.w.w.w.w.w.w.w.w.w.w.w.w.w.w.w.w.w.w.w.w.N.3.0.{.%.X.W.9.N.0.9.e.N.f.e.f.f.f.f.e.e.e.f.f.f.e.f.f.f.f.f.f.>.3.9.w.e.e.w.w.f.f.f.e.e.e.f.f.",
"w.w.w.w.w.w.w.w.w.w.w.w.w.w.w.w.w.w.w.w.w.w.w.w.9.w.9.w.w.:.%.w.w.0.9.9.w.w.f.w.w.w.w.w.w.w.w.w.w.w.w.w.w.w.w.w.w.w.w.w.w.w.w.w.Y ` 0.N.0.w.p.z.0.0.0.0.0.w.w.w.9.9.0.w.w.0.w.e.9.4.-.-.9.p.0.0.e.f.e.f.z.z.z.f.p.w.w.N.w.@.-.0.@.@.9.W.w.0.z.w.w.w.w.w.w.w.w.w.w.:.%.9.z.w.9.w.w.w.w.w.w.w.w.w.w.0.w.w.9.-.3.z.z.z.9.0.w.@.` :.w.w.z.f.0.0.z.!.w.w.w.w.w.w.w.w.w.w.w.w.w.w.w.w.w.w.w.w.w.w.w.w.w.w.w.w.w.w.w.w.w.w.w.w.w.w.w.w.w.w.w.w.w.w.w.w.w.w.w.w.w.w.w.w.w.w.w.w.w.w.w.w.w.w.w.w.w.w.w.w.w.w.w.w.w.w.w.w.z.' Y ` ` ' L ` ' ' ` ` ` ` Y @.z.z.f.f.z.z.z.z.w.w.w.w.w.w.w.w.w.w.w.w.w.w.w.w.w.w.w.w.w.w.w.w.w.w.w.w.w.w.w.w.w.w.w.w.w.w.w.w.0.w.w.z.v.%.X./.f.f.z.f.9.9.9.f.w.w.w.w.w.w.w.w.w.w.w.w.w.w.w.w.w.w.w.z.z.z.w.w.w.w.w.w.w.w.w.w.",
"e.z.e.e.z.z.z.z.e.z.e.e.z.z.z.z.e.z.e.e.z.z.z.z.f.z.f.z.v.3.:.v.z.z.z.z.z.w.w.w.w.w.w.w.w.w.w.w.z.z.z.z.z.z.z.z.z.w.z.z.e.e.e.z.-.>.N.N.w.z.w.w.e.e.e.e.z.z.z.z.e.z.N.z.e.e.e.z.w.z.w.w.z.z.f.z.e.e.e.e.e.e.e.e.w.w.9.N.w.9.{.w.Y 9.N.e.z.w.9.z.w.w.w.w.w.w.w.w.w.0.0.w.z.w.w.z.w.w.w.w.w.w.w.w.z.w.w.w.w.w.w.f.w.w.9.w.W.0.3.W.w.0.f.f.9.e.z.9.w.w.w.w.w.w.w.w.w.w.w.w.w.w.w.w.w.w.w.w.w.w.w.w.w.w.w.w.w.w.w.w.w.w.w.w.w.w.w.w.w.w.w.w.w.w.w.w.w.w.w.w.w.w.w.w.w.w.w.w.w.w.w.w.w.w.w.w.w.w.w.w.w.w.w.w.w.w.w.w.9.L G L Y Y L Y Y L Y L Y L G @.z.w.f.z.w.3.>.3.w.w.w.w.w.w.w.w.w.w.w.w.w.w.w.w.w.w.w.w.w.w.w.w.w.w.w.w.w.w.w.w.w.w.w.w.w.w.w.w.9.z.z.9.[.w.Y 9.9.0.w.z.W.W.z.9.z.z.z.z.z.z.z.z.z.z.z.z.z.z.z.z.z.z.z.z.z.w.w.w.z.z.z.z.z.z.z.z.",
"9.9.9.9.9.9.9.9.9.9.9.9.9.9.9.9.9.9.9.9.9.9.9.9.9.w.9.w.a.:.%.w.9.9.w.w.w.w.z.W.w.w.w.w.w.w.w.w.w.w.w.w.w.w.w.w.w.w.w.w.w.w.w.w.N.e.e.8.8.R.e.z.w.w.w.w.w.w.w.w.9.e.e.9.9.9.9.9.w.z.p.w.z.w.9.w.w.e.w.9.w.w.w.w.z.W.w.0.w.z.w.` -.N.f.8.z.z.9.f.w.w.w.w.w.w.w.w.f.z.z.f.f.f.z.f.w.w.w.w.w.w.w.w.f.f.w.w.z.N.z.w.9.z.w.9.f.z.w.z.w.w.e.| n D 9.W.w.w.w.w.w.w.w.w.w.w.w.w.w.w.w.w.w.w.w.w.w.w.w.w.w.w.w.w.w.w.w.w.w.w.w.w.w.w.w.w.w.w.w.w.w.w.w.w.w.w.w.w.w.w.w.w.w.w.w.w.w.w.w.w.w.w.w.w.w.w.w.w.w.w.w.w.w.w.w.w.z.9.w.w.w.W.z.f.9.w.z.9.w.z.3.:.w.0.w.z.0.%.@.@.w.w.w.w.w.w.w.w.w.w.w.w.w.w.w.w.w.w.w.w.w.w.w.w.w.w.w.w.w.w.w.w.w.w.w.w.w.w.w.w.z.9.f.0.w./.3.` W.N.w.9.9.z.f.9.w.w.w.w.9.9.9.9.9.9.9.9.w.w.w.w.w.w.w.w.w.w.w.w.w.w.w.w.9.9.9.9.",
"e.e.e.e.e.e.e.e.e.e.e.e.e.e.e.e.e.e.e.e.e.e.e.e.w.z.w.f.z.3.:.z.a.a.a.a.a.a.w.w.w.w.w.a.a.a.a.a.w.w.9.w.9.w.w.w.w.w.w.w.w.w.w.w.9.9.N.9.9.e.9.e.e.e.e.e.e.e.e.e.e.e.e.w.e.z.e.w.f.z.w.0.z.f.w.f.e.e.e.e.e.e.e.e.:.w.f.9.W.W.@...N.z.0.9.w.z.f.w.w.w.w.w.w.w.w.w.w.f.w.9.w.z.w.9.w.w.w.w.w.w.w.w.w.w.w.w.w.z.f.w.w.N.z.9.0.w.w.9.z.f.k.#.C Y 0.W.w.w.w.w.w.w.w.w.w.w.w.w.w.w.w.w.w.w.w.w.w.w.w.w.w.w.w.w.w.w.w.w.w.w.w.w.w.w.w.w.w.w.w.w.w.w.w.w.w.w.w.w.w.w.w.w.w.w.w.w.w.w.w.w.w.w.w.w.w.w.w.w.w.w.w.w.w.w.w.w.w.>.3.>.:.9.:.-.:.3.9.-.3.9.@...z.w.w.z.w.>.:.9.w.w.w.w.w.w.w.w.w.w.w.w.w.w.w.w.w.w.w.w.w.w.w.w.w.w.w.w.w.w.w.w.w.w.w.w.w.w.w.w.z.9.9.z.9.z.{...%.0.W.N.w.w.f.z.z.z.z.z.z.z.z.z.z.a.z.z.z.z.a.a.z.z.a.a.z.z.W.T.z.z.z.z.z.z.z.z.",
"f.f.e.e.f.f.f.f.f.f.e.e.f.f.f.f.f.f.e.e.f.f.f.f.p.p.p.p.v.>.-.f.v.p.9.w.N.W.z.9.z.z.z.z.v.v.v.N.N.N.v.v.N.N.W.W.N.N.N.v.N.N.N.N.N.k.N.z.(.N.9.w.e.e.e.e.e.0.w.w.e.0.0.e.f.f.f.f.0.p.9.9.f.f.p.f.w.w.w.w.p.p.w.w.{.W.N.9.f.>.' f.N.0.e.z.w.w.z.f.w.w.w.w.w.w.w.w.w.f.w.0.w.z.z.0.w.w.w.w.w.w.w.w.w.f.z.w.w.w.w.w.z.9.9.z.N.z.z.W.z.w.z.N.N.{.W.3.w.w.w.w.w.w.w.w.w.w.w.w.w.w.w.w.w.w.w.w.w.w.w.w.w.w.w.w.w.w.w.w.w.w.w.w.w.w.w.w.w.w.w.w.w.w.w.w.w.w.w.w.w.w.w.w.w.w.w.w.w.w.w.w.w.w.w.w.w.w.w.w.w.w.w.w.w.w.w.w.9.L S G G G S G L D G G G G S ` W.w.w.w.w.w.W.[.w.w.w.w.w.w.w.w.w.w.w.w.w.w.w.w.w.w.w.w.w.w.w.w.w.w.w.w.w.w.w.w.w.w.w.w.w.w.w.w.9.z.9.z.z.9.W.z.' -.0.v.z.f.w.0.w.w.p.p.w.w.w.w.w.w.w.w.w.w.w.w.w.w.0.0.0.0.9.9.w.w.p.p.w.w.w.w.",
"P P P P P P P P P P P P P P P P P P P P P P P P P / P P / C B / H L P L D D S D A A A S S D S S D D D D D D D D D D D D D D D D A n j b D D S ' P P P P P P P P P L P / P D D / P Y P L / Y P / ` ` / ` / / / / P L D L ' ] *.{.0.e.f.f.w.w.w.z.w.w.w.w.w.w.w.w.f.z.z.f.w.z.z.w.w.w.w.w.w.w.w.w.z.z.z.z.w.w.w.z.z.9.9.f.w.9.9.0.9.w.z.z.w.w.z.T.w.w.w.w.w.w.w.w.w.w.w.w.w.w.w.w.w.w.w.w.w.w.w.w.w.w.w.w.w.w.w.w.w.w.w.w.w.w.w.w.w.w.w.w.w.w.w.w.w.w.w.w.w.w.w.w.w.w.w.w.w.w.w.w.w.w.w.w.w.w.w.w.w.w.w.w.w.w.w.w.{.@...@.%.%.@.:.%.@.%.@.%.@.X.3.z.w.0.0.w.z.W.{.w.w.w.w.w.w.w.w.w.w.w.w.w.w.w.w.w.w.w.w.w.w.w.w.w.w.w.w.w.w.w.w.w.w.w.w.w.w.w.w.9.z.w.f.W.0.0.{.:.' L D L P Y Y L L L L L L L L L L L L L L L L Y Y Y Y Y P P L L L L L L L L L ",
"S.S.S.S.S.S.S.S.S.S.S.S.S.S.S.S.S.S.S.S.S.S.S.S.S.S.S.S.[.t.0.[.N.XXXX9.L f t f f f f f f f f f f f f f f f f f f f f f f f f f s f j f f a g @.{.{.{.{.S.S.S.S.{.Z.{.XXN.9.0.{.Z.XXXX{.{.Z.u.Z././././.Z.Z.Z.Z.Z.XXZ.S.Z.Z.XX>.0.{.f.9.z.z.9.f.w.w.w.w.w.w.w.w.w.w.f.w.w.w.w.w.w.w.w.w.w.w.w.w.z.w.w.w.w.0.w.z.w.f.z.w.w.W.{.w.T.z.w.w.z.w.9.z.w.w.w.w.w.w.w.w.w.w.w.w.w.w.w.w.w.w.w.w.w.w.w.w.w.w.w.w.w.w.w.w.w.w.w.w.w.w.w.w.w.w.w.w.w.w.w.w.w.w.w.w.w.w.w.w.w.w.w.w.w.w.w.w.w.w.w.w.w.w.w.w.w.w.w.w.w.w.w.w.z.0.N.z.f.N.f.f.z.z.z.w.z.W.:.@.w.w.f.w.z.z.w.3.w.w.w.w.w.w.w.w.w.w.w.w.w.w.w.w.w.w.w.w.w.w.w.w.w.w.w.w.w.w.w.w.w.w.w.w.w.w.w.w.z.w.W.9.w.{.0.9.[.S.S.[.[.S.S.S.{.{.{.{.{.{.{.{.{.{.{.[.{.{.{.{.{.{.{.{.{.{.{.{.{.{.{.{.{.{.{.{.",
"w.w.w.w.w.w.w.w.w.w.w.w.w.w.w.w.w.w.w.w.w.w.w.w.w.w.w.w.w.w.w.w.e.N.e.@.G S L T L L L L L L H H L L L K L L L L L L L L L L L L D L P L D S A S w.w.w.w.w.w.w.w.w.w.f.w.N.-.:.z.z.z.z.z.z.z.z.z.z.z.z.z.z.z.z.z.z.z.z.z.z.z.z.z.w.w.w.w.w.w.w.w.w.w.w.w.w.w.w.w.w.w.w.w.w.w.w.w.w.w.w.w.w.w.w.w.w.w.w.w.w.w.w.w.9.N.0.w.N.@.Y 0.w.w.w.w.w.w.w.w.w.f.z.3.z.z.w.z.w.N.w.9.z.z.w.z.w.w.w.w.w.w.w.w.w.w.w.w.w.w.w.w.w.w.w.w.w.w.w.w.w.w.w.w.w.w.w.w.w.w.w.w.w.w.w.w.w.w.w.w.w.w.w.w.w.w.w.w.w.w.w.w.w.w.w.w.w.w.w.w.w.w.w.w.w.w.w.w.w.w.0.w.z.f.3.@.z.w.w.w.w.w.w.w.w.w.w.w.w.w.w.w.w.w.w.w.w.w.w.w.w.w.w.w.w.w.w.w.w.w.w.w.w.w.w.w.w.w.w.w.w.w.w.w.w.w.w.w.w.w.w.w.w.w.w.w.w.w.w.w.w.w.w.w.w.w.w.w.w.w.w.w.w.w.w.w.w.p.f.f.f.f.z.z.w.w.w.w.w.w.w.w.",
"w.w.w.w.w.w.w.w.w.w.w.w.w.w.w.w.w.w.w.w.w.w.w.w.w.w.w.w.w.w.w.w.9.e.N.f.9.>.@.Y ' ' ' ' ' ' ' ' ' ' ] ] ' ' ' ' ' ' ' ' ] ] ' ' @.@.@.@.@.:.0.N.w.w.w.w.w.w.w.w.w.w.f.w.N.-.:.z.w.w.w.w.w.w.w.w.w.w.w.w.w.w.w.w.w.w.w.w.w.w.w.w.w.w.w.w.w.w.w.w.w.w.w.w.w.w.w.w.w.w.w.w.w.w.w.w.w.w.w.w.w.w.w.w.w.w.w.w.w.w.w.w.0.W.w.w.W.9.-.z.w.w.w.w.w.w.w.w.w.w.f.9.W.w.w.3.9.z.z.z.z.0.9.w.w.w.w.w.w.w.w.w.w.w.w.w.w.w.w.w.w.w.w.w.w.w.w.w.w.w.w.w.w.w.w.w.w.w.w.w.w.w.w.w.w.w.w.w.w.w.w.w.w.w.w.w.w.w.w.w.w.w.w.w.w.w.w.w.w.w.w.w.w.w.w.w.w.w.w.w.z.f.3.@.z.w.w.f.z.w.w.f.w.w.w.w.w.w.w.w.w.w.w.w.w.w.w.w.w.w.w.w.w.w.w.w.w.w.w.w.w.w.w.w.w.w.w.w.w.w.w.w.w.w.w.w.w.w.w.w.w.w.w.w.w.w.w.w.w.w.w.w.w.w.w.w.w.w.w.w.w.w.w.w.w.w.w.w.w.w.w.w.w.w.w.w.w.w.w.w.",
"w.w.w.w.w.w.w.w.w.w.w.w.w.w.w.w.w.w.w.w.w.w.w.w.w.w.w.w.w.w.w.w.w.0.9.w.{.-X:X;X-X-X-X-X-X-X-X-X%X%X-X-X-X-X-X-X%X-X-X-X-X-X-X-Xf.{.+X-X$X[.N.p.w.w.w.w.w.w.w.w.w.w.f.w.N.-.:.z.w.w.w.w.w.w.w.w.w.w.w.w.w.w.w.w.w.w.w.w.w.w.w.w.w.w.w.w.w.w.w.w.w.w.w.w.w.w.w.w.w.w.w.w.w.w.w.w.w.w.w.w.w.w.w.w.w.w.w.w.w.w.w.w.9.z.w.9.z.v.f.w.w.w.w.w.w.w.w.w.w.z.f.f.f.3.{.N.N.w.9.w.w.f.z.z.w.w.w.w.w.w.w.w.w.w.w.w.w.w.w.w.w.w.w.w.w.w.w.w.w.w.w.w.w.w.w.w.w.w.w.w.w.w.w.w.w.w.w.w.w.w.w.w.w.w.w.w.w.w.w.w.w.w.w.w.w.w.w.w.w.w.w.w.w.w.w.w.w.w.w.w.z.f.3.@.z.w.w.w.w.w.w.w.w.w.w.w.w.w.w.w.w.w.w.w.w.w.w.w.w.w.w.w.w.w.w.w.w.w.w.w.w.w.w.w.w.w.w.w.w.w.w.w.w.w.w.w.w.w.w.w.w.w.w.w.w.w.w.w.w.w.w.w.w.w.w.w.w.w.w.w.w.w.w.w.w.w.w.w.w.w.w.w.w.w.w.w.w.w.w.w.",
"w.w.w.w.w.w.w.w.w.w.w.w.w.w.w.w.w.w.w.w.w.w.w.w.w.w.w.w.w.w.w.w.f.z.e.9.>.9.9.9.0.0.0.0.0.0.0.0.9.9.0.9.0.0.0.0.9.9.9.0.0.0.0.0...%.9.p.v.v.f.f.w.w.w.w.w.w.w.w.w.w.f.w.N.-.:.z.f.f.f.f.f.f.f.f.f.f.f.f.f.f.f.f.w.w.w.w.w.w.w.w.w.w.w.w.w.w.w.w.w.w.w.w.w.w.w.w.w.w.w.w.w.w.w.w.w.w.w.w.w.w.w.w.w.w.w.w.w.w.w.w.w.w.w.0.0.z.z.9.w.w.w.w.w.w.w.w.w.z.w.z.w.-. XW.{.(. X+X[.[.(.8.w.w.w.w.w.w.w.w.w.w.w.w.w.w.w.w.w.w.w.w.w.w.w.w.w.w.w.w.w.w.w.w.w.w.w.w.w.w.w.w.w.w.w.w.w.w.w.w.w.w.w.w.w.w.w.w.w.w.w.w.w.w.w.w.w.w.w.w.w.w.w.w.w.w.w.w.z.f.3.@.z.w.w.w.w.w.w.w.w.w.w.w.w.w.w.w.w.w.w.w.w.w.w.w.w.w.w.w.w.w.w.w.w.w.w.w.w.w.w.w.w.w.w.w.w.w.w.w.w.w.w.w.w.w.w.w.w.w.w.w.w.w.w.w.w.w.w.w.w.w.w.w.w.w.w.w.w.w.w.w.w.w.w.p.w.z.z.z.w.w.w.w.w.w.w.w.",
"w.w.w.w.w.w.w.w.w.w.w.w.w.w.w.w.w.w.w.w.w.w.w.w.w.w.w.w.w.w.w.w.9.w.N.z.z.w.z.z.f.f.f.f.f.f.f.f.f.f.f.f.f.f.f.f.f.f.f.f.f.f.f.f.{.N.f.0.9.9.0.e.w.w.w.w.w.w.w.w.w.w.f.w.N.-.:.z.f.f.f.f.f.f.f.f.w.w.w.w.w.w.w.w.f.f.f.f.f.f.f.f.w.w.w.w.w.w.w.w.w.w.w.w.w.w.w.w.w.w.w.w.w.w.w.w.w.w.w.w.w.w.w.w.w.w.w.w.w.w.w.w.z.w.z.z.w.w.z.w.w.w.w.w.w.w.w.w.z.w.9.z.z.-.W.9.3.9.z.0.>.0.w.%.w.w.w.w.w.w.w.w.w.w.w.w.w.w.w.w.w.w.w.w.w.w.w.w.w.w.w.w.w.w.w.w.w.w.w.w.w.w.w.w.w.w.w.w.w.w.w.w.w.w.w.w.w.w.w.w.w.w.w.w.w.w.w.w.w.w.w.w.w.w.w.w.w.w.w.w.z.f.3.@.z.f.w.f.z.f.w.f.w.w.w.w.w.w.w.w.w.w.w.w.w.w.w.w.w.w.w.w.w.w.w.w.w.w.w.w.w.w.w.w.w.w.w.w.w.w.w.w.w.w.w.w.w.w.w.w.w.w.w.w.w.w.w.w.w.w.w.w.w.w.w.w.w.w.w.w.w.w.w.w.w.w.w.w.w.w.w.w.w.w.w.w.w.w.w.w.",
"w.w.w.w.w.w.w.w.w.w.w.w.w.w.w.w.w.w.w.w.w.w.w.w.w.w.w.w.w.w.w.w.N.z.w.9.9.w.w.w.w.w.w.w.w.w.w.w.w.w.w.w.w.w.w.w.w.w.w.w.w.w.w.w.9.w.f.z.z.z.w.w.w.w.w.w.w.w.w.w.w.w.f.w.N.-.:.z.w.w.w.w.w.w.w.w.w.w.w.w.w.w.w.w.w.w.w.w.w.w.w.w.w.w.w.w.w.w.w.w.w.w.w.w.w.w.w.w.w.w.w.w.w.w.w.w.w.w.w.w.w.w.w.w.w.w.w.w.w.w.w.w.z.9.w.z.w.9.w.z.w.w.w.w.w.w.w.w.e.e.f.z.9...w.N.{./.f.0.f.{.f.@.w.w.w.w.w.w.w.w.w.w.w.w.w.w.w.w.w.w.w.w.w.w.w.w.w.w.w.w.w.w.w.w.w.w.w.w.w.w.w.w.w.w.w.w.w.w.w.w.w.w.w.w.w.w.w.w.w.w.w.w.w.w.w.w.w.w.w.w.w.w.w.w.w.w.w.w.z.f.3.@.z.w.w.w.w.w.w.w.w.w.w.w.w.w.w.w.w.w.w.w.w.w.w.w.w.w.w.w.w.w.w.w.w.w.w.w.w.w.w.w.w.w.w.w.w.w.w.w.w.w.w.w.w.w.w.w.w.w.w.w.w.w.w.w.w.w.w.w.w.w.w.w.w.w.w.w.w.w.w.w.z.z.f.w.w.w.w.w.w.w.w.w.w.w.w.w.",
"w.w.w.w.w.w.w.w.w.w.w.w.w.w.w.w.w.w.w.w.w.w.w.w.w.w.w.w.w.w.w.w.w.0.0.z.z.z.w.9.w.w.w.w.w.w.w.w.w.w.p.p.w.w.w.w.w.w.w.w.w.w.w.w.f.w.w.w.w.w.z.z.w.w.w.w.w.w.w.w.w.w.f.w.N.-.:.z.w.w.w.w.w.w.w.w.f.f.f.f.f.f.f.f.w.w.w.w.w.w.w.w.w.w.w.w.w.w.w.w.w.w.w.w.w.w.w.w.w.w.w.w.w.w.w.w.w.w.w.w.w.w.w.w.w.w.w.w.w.w.w.w.w.w.w.f.w.w.w.f.w.w.w.w.w.w.w.w.w.w.N.w.9.` %.w.9.9.>.9.0.>./ B w.w.w.w.w.w.w.w.w.w.w.w.w.w.w.w.w.w.w.w.w.w.w.w.w.w.w.w.w.w.w.w.w.w.w.w.w.w.w.w.w.w.w.w.w.w.w.w.w.w.w.w.w.w.w.w.w.w.w.w.w.w.w.w.w.w.w.w.w.w.w.w.w.w.w.w.z.f.3.@.z.w.w.w.w.w.0.w.w.w.w.w.w.w.w.w.w.w.w.w.w.w.w.w.w.w.w.w.w.w.w.w.w.w.w.w.w.w.w.w.w.w.w.w.w.w.w.w.w.w.w.w.w.w.w.w.w.w.w.w.w.w.w.w.w.w.w.w.w.w.w.w.w.w.w.w.w.w.w.w.w.w.w.w.w.w.w.f.w.w.w.w.w.w.w.w.",
"w.w.w.w.w.w.w.w.w.w.w.w.w.w.w.w.w.w.w.w.w.w.w.w.w.w.w.w.w.w.w.w.w.z.z.z.w.9.w.z.w.w.w.w.w.w.w.w.w.w.w.w.w.w.w.w.w.w.w.w.w.w.w.w.w.w.w.w.w.w.w.0.w.w.w.w.w.w.w.w.w.w.f.w.N.-.:.z.w.w.w.w.w.w.w.w.w.w.w.w.w.w.w.w.f.f.f.f.f.f.f.f.w.w.w.w.w.w.w.w.w.w.w.w.w.w.w.w.w.w.w.w.w.w.w.w.w.w.w.w.w.w.w.w.w.w.w.w.w.w.w.w.w.z.f.w.z.z.w.w.w.w.w.w.w.w.w.w.N.9.0.w.{.%.S M n D D A A n Y t.w.w.w.w.w.w.w.w.w.w.w.w.w.w.w.w.w.w.w.w.w.w.w.w.w.w.w.w.w.w.w.w.w.w.w.w.w.w.w.w.w.w.w.w.w.w.w.w.w.w.w.w.w.w.w.w.w.w.w.w.w.w.w.w.w.w.w.w.w.w.w.w.w.w.w.w.z.f.3.@.W.z.z.z.z.z.z.z.w.w.w.w.w.w.w.w.w.w.w.w.w.w.w.w.w.w.w.w.w.w.w.w.w.w.w.w.w.w.w.w.w.w.w.w.w.w.w.w.w.w.w.w.w.w.w.w.w.w.w.w.w.w.w.w.w.w.w.w.w.w.w.w.w.w.w.w.w.w.w.w.3.9.9.9.w.w.f.z.w.w.w.w.w.w.w.w.",
"w.w.w.w.w.w.w.w.w.w.w.w.w.w.w.w.w.w.w.w.w.w.w.w.w.w.w.w.w.w.w.w.w.w.w.w.w.w.w.w.w.w.w.w.w.w.w.w.w.w.w.w.w.w.w.w.w.w.w.w.w.w.w.w.W.N.f.e.w.w.w.w.w.w.w.w.w.w.w.w.w.w.f.w.N.-.:.z.w.w.w.w.w.w.w.w.w.w.w.w.w.w.w.w.w.w.w.w.w.w.w.w.w.w.w.w.w.w.w.w.w.w.w.w.w.w.w.w.w.w.w.w.w.w.w.w.w.w.w.w.w.w.w.w.w.w.w.w.w.w.w.w.9.W.w.0.{.W.0.z.w.w.w.w.w.w.w.w.w.f.z.w.w.z.z.z.z.f.p.z.z.z.z.z.w.w.w.w.w.w.w.w.w.w.w.w.w.w.w.w.w.w.w.w.w.w.w.w.w.w.w.w.w.w.w.w.w.w.w.w.w.w.w.w.w.w.w.w.w.w.w.w.w.w.w.w.w.w.w.w.w.w.w.w.w.w.w.w.w.w.w.w.w.w.w.w.w.0.f.w.p.z.>.-.8.+.%.@.-.*.-.@.3.w.w.w.f.f.w.e.w.w.w.w.w.w.w.w.w.w.w.w.w.w.w.w.w.w.w.w.w.w.w.w.w.w.w.w.w.w.w.w.w.w.w.w.w.w.w.w.w.w.w.w.w.w.w.w.w.w.w.w.w.w.w.w.w.w.w.w.w.w.w.w.:.L >.z.w.N.9.N.w.w.w.w.w.w.w.w.",
"w.w.w.w.w.w.w.w.w.w.w.w.w.w.w.w.w.w.w.w.w.w.w.w.w.w.w.w.w.w.w.w.w.w.w.w.w.w.w.w.w.w.w.w.w.w.w.w.w.w.w.w.w.w.w.w.w.w.w.w.w.w.w.w.:.>.9.0.w.w.f.z.w.w.w.w.w.w.w.w.w.w.f.w.N.-.:.z.w.w.w.w.w.w.w.w.w.w.w.w.w.w.w.w.w.w.w.w.w.w.w.w.w.w.w.w.w.w.w.w.w.w.w.w.w.w.w.w.w.w.w.w.w.w.w.w.w.w.w.w.w.w.w.w.w.w.w.w.w.w.w.w.0.w.9.0.w.@...9.w.w.w.w.w.w.w.w.w.f.f.w.9.w.w.w.w.w.w.w.w.w.w.w.w.w.w.w.w.w.w.w.w.w.w.w.w.w.w.w.w.w.w.w.w.w.w.w.w.w.w.w.w.w.w.w.w.w.w.w.w.w.w.w.w.w.w.w.w.w.w.w.w.w.w.w.w.w.w.w.w.w.w.w.w.w.w.w.w.w.w.w.w.w.w.w.w.w.z.w.p.z.>.-.&.T ' Y ' ' ' ` 3.w.w.w.f.f.w.e.w.w.w.w.w.w.w.w.w.w.w.w.w.w.w.w.w.w.w.w.w.w.w.w.w.w.w.w.w.w.w.w.w.w.w.w.w.w.w.w.w.w.w.w.w.w.w.w.w.w.w.w.w.w.w.w.w.w.w.w.w.w.w.w.{.0.{.z.0.N.w.9.w.w.w.w.w.w.w.w.",
"w.w.w.w.w.w.w.w.w.w.w.w.w.w.w.w.w.w.w.w.w.w.w.w.w.w.w.w.w.w.w.w.w.w.w.w.w.w.w.w.w.w.w.w.w.w.w.w.w.w.w.w.w.w.w.w.w.w.w.w.w.w.w.w.T @.9.z.z.f.w.0.w.w.w.w.w.w.w.w.w.w.f.w.N.-.:.z.w.w.w.w.w.w.w.w.w.w.w.w.w.w.w.w.w.w.w.w.w.w.w.w.w.w.w.w.w.w.w.w.w.w.w.w.w.w.w.w.w.w.w.w.w.w.w.w.w.w.w.w.w.w.w.w.w.w.w.w.w.w.w.w.f.z.f.z.z.>.%.z.w.w.w.w.w.w.w.w.w.w.w.w.w.z.z.w.w.w.w.w.w.w.f.f.w.w.w.w.w.w.w.w.w.w.w.w.w.w.w.w.w.w.w.w.w.w.w.w.w.w.w.w.w.w.w.w.w.w.w.w.w.w.w.w.w.w.w.w.w.w.w.w.w.w.w.w.w.w.w.w.w.w.w.w.w.w.w.w.w.w.w.w.w.w.w.w.w.w.z.w.f.z.>.%.3.T ' Y ' ' ' ` 3.w.f.w.f.f.w.e.w.w.w.w.w.w.w.w.w.w.w.w.w.w.w.w.w.w.w.w.w.w.w.w.w.w.w.w.w.w.w.w.w.w.w.w.w.w.w.w.w.w.w.w.w.w.w.w.w.w.w.w.w.w.w.w.w.w.w.w.w.w.w.w.0.e.e.9.9.z.z.w.w.w.w.w.w.w.w.w.",
"w.w.w.w.w.w.w.w.w.w.w.w.w.w.w.w.w.w.w.w.w.w.w.w.w.w.w.w.w.w.w.w.w.w.w.w.w.w.w.w.w.w.w.w.w.w.w.w.w.w.w.w.w.w.w.w.w.w.w.w.w.w.w.w.N.N.N.f.w.0.w.z.w.w.w.w.w.w.w.w.w.w.f.w.N.-.:.z.w.w.w.w.w.w.w.w.w.w.w.w.w.w.w.w.w.w.w.w.w.w.w.w.w.w.w.w.w.w.w.w.w.w.w.w.w.w.w.w.w.w.w.w.w.w.w.w.w.w.w.w.w.w.w.w.w.w.w.w.w.w.w.w.9.z.0.9.z.W.p.w.w.w.w.w.w.w.w.w.w.w.w.w.f.z.f.w.w.f.w.w.w.w.f.f.w.w.w.w.w.w.w.w.w.w.w.w.w.w.w.w.w.w.w.w.w.w.w.w.w.w.w.w.w.w.w.w.w.w.w.w.w.w.w.w.w.w.w.w.w.w.w.w.w.w.w.w.w.w.w.w.w.w.w.w.w.w.w.w.w.w.w.w.w.w.w.w.f.w.z.w.f.z.>.-.3.T ' Y ' ' ' ' 3.w.f.w.f.f.w.e.w.w.w.w.w.w.w.w.w.w.w.w.w.w.w.w.w.w.w.w.w.w.w.w.w.w.w.w.w.w.w.w.w.w.w.w.w.w.w.w.w.w.w.w.w.w.w.w.w.w.w.w.w.w.w.w.w.w.w.w.w.w.w.w.e.z.0.f.W.w.w.w.w.w.w.w.w.w.w.w.",
"w.w.w.w.w.w.w.w.w.w.w.w.w.w.w.w.w.w.w.w.w.w.w.w.w.w.w.w.w.w.w.w.w.w.w.w.w.w.w.w.w.w.w.w.w.w.w.w.w.w.w.w.w.w.w.w.w.w.w.w.w.w.w.w.z.f.e.f.f.w.f.f.w.w.w.w.w.w.w.w.w.w.f.w.N.-.:.z.w.w.w.w.w.w.w.w.w.w.w.w.w.w.w.w.w.w.w.w.w.w.w.w.w.w.w.w.w.w.w.w.w.w.w.w.w.w.w.w.w.w.w.w.w.w.w.w.w.w.w.w.w.w.w.w.w.w.w.w.w.w.w.w.w.z.w.9.f.N.w.9.w.w.w.w.w.w.w.w.z.z.w.w.w.w.0.9.0.w.w.w.0.w.w.0.w.w.w.w.w.w.w.w.w.w.w.w.w.w.w.w.w.w.w.w.w.w.w.w.w.w.w.w.w.w.w.w.w.w.w.w.w.w.w.w.w.w.w.w.w.w.w.w.w.w.w.w.w.w.w.w.w.w.w.w.w.w.w.w.w.w.w.w.w.w.w.w.f.w.z.w.f.z.>.-.:.T ' Y ' ) ' ' 3.w.f.w.f.f.w.f.w.w.w.w.w.w.w.w.w.w.w.w.w.w.w.w.w.w.w.w.w.w.w.w.w.w.w.w.w.w.w.w.w.w.w.w.w.w.w.w.w.w.w.w.w.w.w.w.w.w.w.w.w.w.w.w.w.w.w.w.w.w.w.w.f.z.0.z.W.w.w.f.w.w.w.w.w.w.w.w.",
"w.w.w.w.w.w.w.w.w.w.w.w.w.w.w.w.w.w.w.w.w.w.w.w.w.w.w.w.w.w.w.w.w.w.w.w.w.w.w.w.w.w.w.w.w.w.w.w.w.w.w.w.w.w.w.w.w.w.w.w.w.w.w.w.9.9.9.e.z.z.e.w.w.w.w.w.w.w.w.w.w.w.f.w.N.-.:.z.w.w.w.w.w.w.w.w.w.w.w.w.w.w.w.w.w.w.w.w.w.w.w.w.w.w.w.w.w.w.w.w.w.w.w.w.w.w.w.w.w.w.w.w.w.w.w.w.w.w.w.w.w.w.w.w.w.w.w.w.w.w.w.w.z.w.w.v.z.9.0.z.w.w.w.w.w.w.w.w.f.w.w.f.e.w.z.N.z.N.z.z.z.W.z.0.w.w.w.w.w.w.w.w.w.w.w.w.w.w.w.w.w.w.w.w.w.w.w.w.w.w.w.w.w.w.w.w.w.w.w.w.w.w.w.w.w.w.w.w.w.w.w.w.w.w.w.w.w.w.w.w.w.w.w.w.w.w.w.w.w.w.w.w.w.w.w.w.f.w.z.w.f.z.>.-.@.L Y S K K J J 3.w.f.w.f.f.w.f.w.w.w.w.w.w.w.w.w.w.w.w.w.w.w.w.w.w.w.w.w.w.w.w.w.w.w.w.w.w.w.w.w.w.w.w.w.w.w.w.w.w.w.w.w.w.w.w.w.w.w.w.w.w.w.w.w.w.w.w.w.w.w.w.0.e.e.9.9.z.z.w.w.w.w.w.w.w.w.w.",
"w.w.w.w.w.w.w.w.w.w.w.w.w.w.w.w.w.w.w.w.w.w.w.w.w.w.w.w.w.w.w.w.w.w.w.w.w.w.w.w.w.w.w.w.w.w.w.w.w.w.w.w.w.w.w.w.w.w.w.w.w.w.w.w. X{.z.0.9.0.z.W.w.w.w.w.w.w.w.w.w.w.f.w.N.-.:.z.w.w.w.w.w.w.w.w.w.w.w.w.w.w.w.w.w.w.w.w.w.w.w.w.w.w.w.w.w.w.w.w.w.w.w.w.w.w.w.w.w.w.w.w.w.w.w.w.w.w.w.w.w.w.w.w.w.w.w.w.w.w.w.w.w.3.9.p.0.9.0.z.w.w.w.w.w.w.w.w.w.w.w.f.w.w.z.{.v.W.W.z.W.{.z.9.w.w.w.w.w.w.w.w.w.w.w.w.w.w.w.w.w.w.w.w.w.w.w.w.w.w.w.w.w.w.w.w.w.w.w.w.w.w.w.w.w.w.w.w.w.w.w.w.w.w.w.w.w.w.w.w.w.w.w.w.w.w.w.w.w.w.w.w.w.w.w.w.w.w.z.w.f.z.>.-...S L A J S S C 3.w.f.w.f.f.w.f.w.w.w.w.w.w.w.w.w.w.w.w.w.w.w.w.w.w.w.w.w.w.w.w.w.w.w.w.w.w.w.w.w.w.w.w.w.w.w.w.w.w.w.w.w.w.w.w.w.w.w.w.w.w.w.w.w.w.w.w.w.w.w.w.N.9.W.f.9.N.w.0.w.w.w.w.w.w.w.w.",
"w.w.w.w.w.w.w.w.w.w.w.w.w.w.w.w.w.w.w.w.w.w.w.w.w.w.w.w.w.w.w.w.w.w.w.w.w.w.w.w.w.w.w.w.w.w.w.w.w.w.w.w.w.w.w.w.w.w.w.w.w.w.w.w.P +.8.f.N.z.w.w.w.w.w.w.w.w.w.w.w.w.f.w.N.-.:.z.w.w.w.w.w.w.w.w.w.w.w.w.w.w.w.w.w.w.w.w.w.w.w.w.w.w.w.w.w.w.w.w.w.w.w.w.w.w.w.w.w.w.w.w.w.w.w.w.w.w.w.w.w.w.w.w.w.w.w.w.w.w.w.w.z.z.w.w.w.{.{.9.w.w.w.w.w.w.w.w.z.w.w.0.3.:.3.w.0.w.w.9.w.z.9.%.w.w.w.w.w.w.w.w.w.w.w.w.w.w.w.w.w.w.w.w.w.w.w.w.w.w.w.w.w.w.w.w.w.w.w.w.w.w.w.w.w.w.w.w.w.w.w.w.w.w.w.w.w.w.w.w.w.w.w.w.w.w.w.w.w.w.w.w.w.w.w.w.p.w.z.w.f.z.:.-.9.+.@.| *.@.@.@.3.w.f.w.f.f.w.f.w.w.w.w.w.w.w.w.w.w.w.w.w.w.w.w.w.w.w.w.w.w.w.w.w.w.w.w.w.w.w.w.w.w.w.w.w.w.w.w.w.w.w.w.w.w.w.w.w.w.w.w.w.w.w.w.w.w.w.w.w.w.w.w.%.D :.e.0.z.9.N.w.w.w.w.w.w.w.w.",
"w.w.w.w.w.w.w.w.w.w.w.w.w.w.w.w.w.w.w.w.w.w.w.w.w.w.w.w.w.w.w.w.w.w.w.w.w.w.w.w.w.w.w.w.w.w.w.w.w.w.w.w.w.w.w.w.w.w.w.w.w.w.w.w.:.9.z.z.w.9.9.f.w.w.w.w.w.w.w.w.w.w.f.w.N.-.:.z.w.w.w.w.w.w.w.w.w.w.w.w.w.w.w.w.w.w.w.w.w.w.w.w.w.w.w.w.w.w.w.w.w.w.w.w.w.w.w.w.w.w.w.w.w.w.w.w.w.w.w.w.w.w.w.w.w.w.w.w.w.w.w.w.w.z.9.w.z.%...9.w.w.w.w.w.w.w.w.z.w.w.z.3.%.4.{.z.{.N.9.z.[.w.` w.w.w.w.w.w.w.w.w.w.w.w.w.w.w.w.w.w.w.w.w.w.w.w.w.w.w.w.w.w.w.w.w.w.w.w.w.w.w.w.w.w.w.w.w.w.w.w.w.w.w.w.w.w.w.w.w.w.w.w.w.w.w.w.w.w.w.w.w.w.w.w.w.w.0.w.z.f.3.@.3.N.z.8.9.3.W.9.0.w.w.w.p.z.f.w.w.w.w.w.w.w.w.w.w.w.w.w.w.w.w.w.w.w.w.w.w.w.w.w.w.w.w.w.w.w.w.w.w.w.w.w.w.w.w.w.w.w.w.w.w.w.w.w.w.w.w.w.w.w.w.w.w.w.w.w.w.w.w.w.z.e.e.f.0.w.e.9.w.w.w.w.w.w.w.w.",
"w.w.w.w.w.w.w.w.w.w.w.w.w.w.w.w.w.w.w.w.w.w.w.w.w.w.w.w.w.w.w.w.w.w.w.w.w.w.w.w.w.w.w.w.w.w.w.w.w.w.w.w.w.w.w.w.w.w.w.w.w.w.w.w.N.w.9.0.z.N.z.w.w.w.w.w.w.w.w.w.w.w.f.w.N.-.:.z.w.w.w.w.w.w.w.w.w.w.w.w.w.w.w.w.w.w.w.w.w.w.w.w.w.w.w.w.w.w.w.w.w.w.w.w.w.w.w.w.w.w.w.w.w.w.w.w.w.w.w.w.w.w.w.w.w.w.w.w.w.w.w.w.w.z.w.w.z.3.%.f.w.w.w.w.w.w.w.w.9.9.0.w.:.` L Y @.@.@.:.@.Y S S w.w.w.w.w.w.w.w.w.w.w.w.w.w.w.w.w.w.w.w.w.w.w.w.w.w.w.w.w.w.w.w.w.w.w.w.w.w.w.w.w.w.w.w.w.w.w.w.w.w.w.w.w.w.w.w.w.w.w.w.w.w.w.w.w.w.w.w.w.w.w.w.w.w.w.w.z.f.3.@.z.0.3.9.(.9.f.3.w.w.f.w.w.z.f.w.w.w.w.w.w.w.w.w.w.w.w.w.w.w.w.w.w.w.w.w.w.w.w.w.w.w.w.w.w.w.w.w.w.w.w.w.w.w.w.w.w.w.w.w.w.w.w.w.w.w.w.w.w.w.w.w.w.w.w.w.w.w.w.w.w.0.w.0.9.z.N.w.w.w.w.w.w.w.w.w.",
"w.w.w.w.w.w.w.w.w.w.w.w.w.w.w.w.w.w.w.w.w.w.w.w.w.w.w.w.w.w.w.w.w.w.w.w.w.w.w.w.w.w.w.w.w.w.w.w.w.w.w.w.w.w.w.w.w.w.w.w.w.w.w.w.0.w.w.w.p.f.w.w.w.w.w.w.w.w.w.w.w.w.f.w.N.-.:.z.w.w.w.w.w.w.w.w.w.w.w.w.w.w.w.w.w.w.w.w.w.w.w.w.w.w.w.w.w.w.w.w.w.w.w.w.w.w.w.w.w.w.w.w.w.w.w.w.w.w.w.w.w.w.w.w.w.w.w.w.w.w.w.w.0.z.w.w.W.w.9.z.w.w.w.w.w.w.w.w.w.w.z.N.z.3.X.' ` D S L L L &.[.w.w.w.w.w.w.w.w.w.w.w.w.w.w.w.w.w.w.w.w.w.w.w.w.w.w.w.w.w.w.w.w.w.w.w.w.w.w.w.w.w.w.w.w.w.w.w.w.w.w.w.w.w.w.w.w.w.w.w.w.w.w.w.w.w.w.w.w.w.w.w.w.w.w.w.w.z.f.3.@.e.9.9.0.N.:.9.9.w.f.f.w.w.f.f.w.w.w.w.w.w.w.w.w.w.w.w.w.w.w.w.w.w.w.w.w.w.w.w.w.w.w.w.w.w.w.w.w.w.w.w.w.w.w.w.w.w.w.w.w.w.w.w.w.w.w.w.w.w.w.w.w.w.w.w.w.w.w.w.w.N.z.z.e.0.z.z.0.w.w.w.w.w.w.w.w.",
"w.w.w.w.w.w.w.w.w.w.w.w.w.w.w.w.w.w.w.w.w.w.w.w.w.w.w.w.w.w.w.w.w.w.w.w.w.w.w.w.w.w.w.w.w.w.w.w.w.w.w.w.w.w.w.w.w.w.w.w.w.w.w.w.0.f.z.z.w.9.w.f.w.w.w.w.w.w.w.w.w.w.f.w.N.-.:.z.w.w.w.w.w.w.w.w.w.w.w.w.w.w.w.w.w.w.w.w.w.w.w.w.w.w.w.w.w.w.w.w.w.w.w.w.w.w.w.w.w.w.w.w.w.w.w.w.w.w.w.w.w.w.w.w.w.w.w.w.w.w.w.w.0.z.w.w.z.z.w.z.w.w.w.w.w.w.w.w.w.w.w.w.z.N.z.9.f.N.{.[.{.z.0.9.w.w.w.w.w.w.w.w.w.w.w.w.w.w.w.w.w.w.w.w.w.w.w.w.w.w.w.w.w.w.w.w.w.w.w.w.w.w.w.w.w.w.w.w.w.w.w.w.w.w.w.w.w.w.w.w.w.w.w.w.w.w.w.w.w.w.w.w.w.w.w.w.w.w.w.w.z.f.3.@.9.0.f.8.9.:.0.0.w.z.z.w.w.f.f.w.w.w.w.w.w.w.w.w.w.w.w.w.w.w.w.w.w.w.w.w.w.w.w.w.w.w.w.w.w.w.w.w.w.w.w.w.w.w.w.w.w.w.w.w.w.w.w.w.w.w.w.w.w.w.w.w.w.w.w.w.w.w.w.w.z.0.w.z.w.w.f.w.w.w.w.w.w.w.w.w.",
"w.w.w.w.w.w.w.w.w.w.w.w.w.w.w.w.w.w.w.w.w.w.w.w.w.w.w.w.w.w.w.w.w.w.w.w.w.w.w.w.w.w.w.w.w.w.w.w.w.w.w.w.w.w.w.w.w.w.w.w.w.w.w.w.W.z.w.w.w.f.z.z.w.w.w.w.w.w.w.w.w.w.p.w.N.-.:.z.w.w.w.w.w.w.w.w.w.w.w.w.w.w.w.w.w.w.w.w.w.w.w.w.w.w.w.w.w.w.w.w.w.w.w.w.w.w.w.w.w.w.w.w.w.w.w.w.w.w.w.w.w.w.w.w.w.w.w.w.w.w.w.w.w.z.f.9.w.z.w.0.w.w.w.w.w.w.w.w.w.w.w.9.0.z.z.z.e.e.0.8.9.z.N.f.w.w.w.w.w.w.w.w.w.w.w.w.w.w.w.w.w.w.w.w.w.w.w.w.w.w.w.w.w.w.w.w.w.w.w.w.w.w.w.w.w.w.w.w.w.w.w.w.w.w.w.w.w.w.w.w.w.w.w.w.w.w.w.w.w.w.w.w.w.w.w.w.w.w.w.w.z.f.3.@.0.9.0.>.0.0.e.9.w.f.z.w.w.w.e.e.w.w.w.w.w.w.w.w.w.w.w.w.w.w.w.w.w.w.w.w.w.w.w.w.w.w.w.w.w.w.w.w.w.w.w.w.w.w.w.w.w.w.w.w.w.w.w.w.w.w.w.w.w.w.w.w.w.w.w.w.w.w.w.w.8.@.:.z.z.0.w.z.w.w.w.w.w.w.w.w.",
"w.w.w.w.w.w.w.w.w.w.w.w.w.w.w.w.w.w.w.w.w.w.w.w.w.w.w.w.w.w.w.w.w.w.w.w.w.w.w.w.w.w.w.w.w.w.w.w.w.w.w.w.w.w.w.w.w.w.w.w.w.w.w.w.%.3.9.f.f.w.f.z.w.w.w.w.w.w.w.w.w.w.p.w.N.-.:.z.w.w.w.w.w.w.w.w.w.w.w.w.w.w.w.w.w.w.w.w.w.w.w.w.w.w.w.w.w.w.w.w.w.w.w.w.w.w.w.w.w.w.w.w.w.w.w.w.w.w.w.w.w.w.w.w.w.w.w.w.w.w.w.w.w.z.f.w.w.f.w.9.w.w.w.w.w.w.w.w.f.z.z.z.w.w.w.9.w.w.f.f.e.0.9.0.w.w.w.w.w.w.w.w.w.w.w.w.w.w.w.w.w.w.w.w.w.w.w.w.w.w.w.w.w.w.w.w.w.w.w.w.w.w.w.w.w.w.w.w.w.w.w.w.w.w.w.w.w.w.w.w.w.w.w.w.w.w.w.w.w.w.w.w.w.w.w.w.w.w.w.w.z.f.3.@.9.>.e.9.f.9.8.9.9.w.z.f.w.w.f.w.w.w.w.w.w.w.w.w.w.w.w.w.w.w.w.w.w.w.w.w.w.w.w.w.w.w.w.w.w.w.w.w.w.w.w.w.w.w.w.w.w.w.w.w.w.w.w.w.w.w.w.w.w.w.w.w.w.w.w.w.w.w.w.w.9.@.:.z.z.9.9.z.w.w.w.w.w.w.w.w.",
"w.w.w.w.w.w.w.w.w.w.w.w.w.w.w.w.w.w.w.w.w.w.w.w.w.w.w.w.w.w.w.w.w.w.w.w.w.w.w.w.w.w.w.w.w.w.w.w.w.w.w.w.w.w.w.w.w.w.w.w.w.w.w.w.` %.w.z.z.0.w.w.w.w.w.w.w.w.w.w.w.w.f.w.N.-.:.z.w.w.w.w.w.w.w.w.w.w.w.w.w.w.w.w.w.w.w.w.w.w.w.w.w.w.w.w.w.w.w.w.w.w.w.w.w.w.w.w.w.w.w.w.w.w.w.w.w.w.w.w.w.w.w.w.w.w.w.w.w.w.w.w.f.w.p.f.w.w.z.w.w.w.w.w.w.w.w.w.9.0.w.f.w.0.0.w.9.9.0.f.f.e.w.f.w.w.w.w.w.w.w.w.w.w.w.w.w.w.w.w.w.w.w.w.w.w.w.w.w.w.w.w.w.w.w.w.w.w.w.w.w.w.w.w.w.w.w.w.w.w.w.w.w.w.w.w.w.w.w.w.w.w.w.w.w.w.w.w.w.w.w.w.w.w.w.w.w.w.w.w.z.f.3.@.>.&.9.@.-.-.%.:.3.0.z.f.w.w.w.w.w.w.w.w.w.w.w.w.w.w.w.w.w.w.w.w.w.w.w.w.w.w.w.w.w.w.w.w.w.w.w.w.w.w.w.w.w.w.w.w.w.w.w.w.w.w.w.w.w.w.w.w.w.w.w.w.w.w.w.w.w.w.w.w.f.9.0.z.z.w.w.w.w.w.w.w.w.w.w.w.",
"w.w.w.w.w.w.w.w.w.w.w.w.w.w.w.w.w.w.w.w.w.w.w.w.w.w.w.w.w.w.w.w.w.w.w.w.w.w.w.w.w.w.w.w.w.w.w.w.w.w.w.w.w.w.w.w.w.w.w.w.w.w.w.w.W.z.w.w.z.z.z.w.w.w.w.w.w.w.w.w.w.w.f.w.N.-.:.z.w.w.w.w.w.w.w.w.w.w.w.w.w.w.w.w.w.w.w.w.w.w.w.w.w.w.w.w.w.w.w.w.w.w.w.w.w.w.w.w.w.w.w.w.w.w.w.w.w.w.w.w.w.w.w.w.w.w.w.w.w.w.w.w.w.w.w.z.w.w.z.z.w.w.w.w.w.w.w.w.z.w.w.w.f.z.W.[.[.[.{.N.{.[.(.9.w.w.w.w.w.w.w.w.w.w.w.w.w.w.w.w.w.w.w.w.w.w.w.w.w.w.w.w.w.w.w.w.w.w.w.w.w.w.w.w.w.w.w.w.w.w.w.w.w.w.w.w.w.w.w.w.w.w.w.w.w.w.w.w.w.w.w.w.w.w.w.w.w.w.w.w.z.f.3.@.8.&.@.A T >.&.T 3.9.f.f.w.w.w.w.w.w.w.w.w.w.w.w.w.w.w.w.w.w.w.w.w.w.w.w.w.w.w.w.w.w.w.w.w.w.w.w.w.w.w.w.w.w.w.w.w.w.w.w.w.w.w.w.w.w.w.w.w.w.w.w.w.w.w.w.w.w.w.w.e.e.f.w.0.z.W.w.w.w.w.w.w.w.w.w.",
"w.w.w.w.w.w.w.w.w.w.w.w.w.w.w.w.z.w.f.w.w.w.w.z.0.z.9.w.z.w.z.f.w.w.w.w.w.w.w.w.w.w.z.z.9.9.e.e.f.f.0.f.z.0.a.z.w.w.w.w.w.w.w.w.f.f.f.z.z.z.w.w.w.w.w.w.w.w.w.w.w.w.w.w.N.-.:.z.w.9.z.{.9.9.{.W. XW.{.[.(.{.(.9.w.w.w.w.w.w.w.w.w.w.w.w.w.w.w.w.w.w.w.w.w.w.w.w.w.w.w.w.w.w.w.w.w.w.w.w.w.w.w.w.w.w.w.w.w.w.w.w.w.w.v.3.p.W.@.9.w.w.w.w.w.w.w.w.z.0.0.w.w.:.{.z.w.f.W.N.w.z.f.%.w.w.w.w.w.w.w.w.w.w.w.w.w.w.w.w.w.w.w.w.w.w.w.w.w.w.w.w.w.w.w.w.w.w.w.w.w.w.w.w.w.w.w.w.w.w.w.w.w.w.w.w.w.w.w.w.w.w.w.w.w.w.w.w.w.w.w.w.w.w.w.w.f.w.z.w.p.z.3.-.%.n @.@.4.D P -.:.N.9.w.+X XW.{.{. X{. XW.9.z.9.z.z.w.w.9.9.w.f.z.0.9.0.w.z.w.z.w.w.w.w.w.w.w.w.z.w.w.w.9.9.w.z.w.w.w.w.w.w.w.w.0.0.w.z.z.w.w.w.w.w.w.w.w.w.w.w.9.f.w.9.f.z.w.w.9.w.9.0.W.N.w.9.",
"w.w.w.w.w.w.w.w.w.w.w.w.w.w.w.w.w.0.f.f.f.f.w.f.w.f.w.z.z.9.9.w.w.w.w.w.w.w.w.w.z.w.w.w.w.e.e.9.w.z.w.w.z.z.z.w.w.w.w.w.w.w.w.w.0.0.0.0.w.w.e.z.w.w.w.w.w.w.w.w.w.w.w.w.N.-.:.z.z.w.9.9.%.3.W.9.9.f.N.f.e.N.9.@.w.w.w.w.w.w.w.w.w.w.w.w.w.w.w.w.w.w.w.w.w.w.w.w.w.w.w.w.w.w.w.w.w.w.w.w.w.w.w.w.w.w.w.w.w.w.w.w.p.4.z.z.w.%.' v.w.w.w.w.w.w.w.w.0.w.N.W.w...3.9.z.0.9.9.w.N.w.-.w.w.w.w.w.w.w.w.w.w.w.w.w.w.w.w.w.w.w.w.w.w.w.w.w.w.w.w.w.w.w.w.w.w.w.w.w.w.w.w.w.w.w.w.w.w.w.w.w.w.w.w.w.w.w.w.w.w.w.w.w.w.w.w.w.w.w.w.w.w.w.w.f.w.z.w.p.z.3.-.@.G -.Y @.Y ' @.>.N.:.%.w.9.9.0.f.9.3.f.9.%.w.W.w.w.w.f.z.z.N.N.z.z.z.z.z.w.w.w.w.w.w.w.w.w.w.w.w.w.z.N.W.N.w.w.w.w.w.w.w.w.w.w.z.N.z.w.9.9.w.W.w.w.w.w.w.w.w.w.N.z.z.z.z.z.w.w.w.W.W.z.w.9.0.W.",
"w.w.w.w.w.w.w.w.w.w.w.w.w.w.w.w.w.z.z.z.w.w.9.9.9.9.w.f.f.w.9.z.w.w.w.w.w.w.w.w.w.z.w.w.z.z.w.z.e.z.z.w.w.z.e.9.w.w.w.w.w.w.w.w.z.N.W.z.f.w.w.w.w.w.w.w.w.w.w.w.w.w.f.w.N.-.:.z.0.z.W.W.3.:.z.w.e.f.9.3.e.N.9.@.w.w.w.w.w.w.w.w.w.w.w.w.w.w.w.w.w.w.w.w.w.w.w.w.w.w.w.w.w.w.w.w.w.w.w.w.w.w.w.w.w.w.w.w.w.w.w.w.f.0.w.z.p.9.9.f.w.w.w.w.w.w.w.w.w.w.w.w.p.@.w.+XN.W.W.W.{.w.%.` w.w.w.w.w.w.w.w.w.w.w.w.w.w.w.w.w.w.w.w.w.w.w.w.w.w.w.w.w.w.w.w.w.w.w.w.w.w.w.w.w.w.w.w.w.w.w.w.w.w.w.w.w.w.w.w.w.w.w.w.w.w.w.w.w.w.w.w.w.w.w.w.f.w.z.w.f.z.3.-.w.@.>.n ' @.:.Y @.N.w.9.z.z.f.z.z.w.w.W.w.>.0.w.w.w.w.f.z.w.9.9.:.w.N.z.w.w.w.w.w.w.w.w.w.w.w.w.w.f.3.:.0.z.w.w.w.w.w.w.w.w.w.w.9.9.9.9.z.N.w.>.w.w.w.w.w.w.w.w.9.:.9.z.w.w.f.w.w.9.>.>.w.z.w.f.",
"w.w.w.w.w.w.w.w.w.w.w.w.w.w.w.w.w.z.w.z.f.N.W.N.W.z.W.z.w.z.w.w.w.w.w.w.w.w.w.w.9.z.z.w.w.9.9.a.w.w.e.9.9.w.0.e.w.w.w.w.w.w.w.w.X.-.9.w.w.w.w.z.w.w.w.w.w.w.w.w.w.w.f.w.N.-.:.z.z.9.9.w.@.Y :.z.w.w.0.z.N.@.Y ` w.w.w.w.w.w.w.w.w.w.w.w.w.w.w.w.w.w.w.w.w.w.w.w.w.w.w.w.w.w.w.w.w.w.w.w.w.w.w.w.w.w.w.w.w.w.w.w.f.z.w.w.w.N./.9.w.w.w.w.w.w.w.w.N.z.w.9.9.Y M M G L G D G S S Y w.w.w.w.w.w.w.w.w.w.w.w.w.w.w.w.w.w.w.w.w.w.w.w.w.w.w.w.w.w.w.w.w.w.w.w.w.w.w.w.w.w.w.w.w.w.w.w.w.w.w.w.w.w.w.w.w.w.w.w.w.w.w.w.w.w.w.w.w.w.w.w.f.w.z.w.f.z.3.-.@.A -.@.>.L ` @.9.w...Y :.z.z.9.:.z.W.-.L ` 9.W.z.w.w.w.w.9.3.:.@.9.w.w.w.z.z.w.w.w.w.w.w.w.w.w.w.N.:...>.w.w.z.w.w.w.w.w.w.w.w.N.W.z.f.z.f.%.G w.w.w.w.w.w.w.w.3.@.:.f.9.9.z.w.w.:...@.f.{.z.9.",
"w.w.w.w.w.w.w.w.w.w.w.w.w.w.w.w.w.z.%.3.%.:.:.:.:.-.>.%.%.w.N.w.w.w.w.w.w.w.w.w.9.w.w.w.a.a.a.z.f.0.N.z.9.e.8.e.w.w.w.w.w.w.w.w...%.9.w.f.w.f.z.w.w.w.w.w.w.w.w.w.w.f.w.N.-.:.z.W.f.p. Xz.` A c S S M M M n Y W.w.w.w.w.w.w.w.w.w.w.w.w.w.w.w.w.w.w.w.w.w.w.w.w.w.w.w.w.w.w.w.w.w.w.w.w.w.w.w.w.w.w.w.w.w.w.w.w.w.w.w.z.w.4.w.w.w.w.w.w.w.w.w.w.0.w.z.w. Xz.>.%.%.:.-.-.3.:.9. Xf.f.f.e.e.e.f.f.w.w.w.w.w.w.w.w.w.w.w.w.w.w.w.w.w.w.w.w.w.w.w.w.w.w.w.w.w.w.w.w.w.w.w.w.w.w.w.w.w.w.w.w.w.w.w.w.w.w.w.w.w.w.w.w.w.w.w.w.w.w.w.w.f.w.z.w.f.z.3.-.3.L -.Y -.' X.X.%.{.w.` n f M G G M c n Y z.{.9.f.w.w.w.z.z.w.0.3.w.z.w.w.z.z.0.w.w.w.w.w.w.w.w.9.W.w.3.z.N.w.f.w.w.w.w.w.w.w.w.:.w.z.w.0.z.N.z.w.w.w.w.w.w.w.w.z.:.9.W.w.w.z.w.z.z.9.9.f.z.w.z.",
"w.w.w.w.w.w.w.w.w.w.w.w.w.w.w.w.z.w.Y -.........` ....@.' :.W.w.w.w.w.w.w.w.w.w.R.9.w.z.f.N./.f.N.t.{.f.e.N.8.e.w.w.w.w.w.w.w.w.z.z.W.z.f.w.w.w.w.w.w.w.w.w.w.w.w.w.f.w.N.-.:.z.9.w.3.9.w.w.N.w.9.z.z.f.z.f.w.z.w.w.w.w.w.w.w.w.w.w.w.w.w.w.w.w.w.w.w.w.w.w.w.w.w.w.w.w.w.w.w.w.w.w.w.w.w.w.w.w.w.w.w.w.w.w.w.w.w.w.w.w.p.v.z.p.w.w.w.w.w.w.w.w.z.f.N.3.w.f.z.N.w.w.w.v.{.z.9.9.f.f.f.f.e.e.f.f.w.w.w.w.w.w.w.w.w.w.w.w.w.w.w.w.w.w.w.w.w.w.w.w.w.w.w.w.w.w.w.w.w.w.w.w.p.w.w.w.w.w.w.w.w.w.w.w.w.w.w.w.w.w.w.w.w.w.w.w.w.w.w.w.p.w.z.w.f.z.3.-.p.@.>.A ..@.:.' %.z.f.f.N.z.z.3.w.9.v.W.z.z.0.w.f.w.w.w.z.z.z.z.z.z.z.w.w.z.z.0.w.w.w.w.w.w.w.w.9.W.z.w.N.z.w.w.w.w.w.w.w.w.w.w.z.W.W.w.9.w.w.w.w.w.w.w.w.w.w.w.W.9.w.W.w.w.z.w.w.W.W.z.w.0.9.z.",
"w.w.w.w.w.w.w.w.w.w.w.w.w.w.w.w.9.9.Y w.w.w.z.N.f.W.0.z.%.' z.9.w.w.w.w.w.w.w.w.R.9.z.9./ P ] / _ ^ _ D ' z.0.w.w.w.w.w.w.w.w.w.9.0.0.0.w.w.w.z.w.w.w.w.w.w.w.w.w.w.f.w.v.-.:.z.9.W.N.w.w.0.z.w.z.9.9.9.w.{.W.3.w.w.w.w.w.w.w.w.w.w.w.w.w.w.w.w.w.w.w.w.w.w.w.w.w.w.w.w.w.w.w.w.w.w.w.w.w.w.w.w.w.w.w.w.w.w.w.w.w.w.z.9.z.{.9.w.w.w.w.w.w.w.w.w.9.3.{.z.z.w.w.w.W.w.9.0.9.p.z.z.f.f.f.f.e.f.f.f.w.w.w.w.w.w.w.w.w.w.w.w.w.w.w.w.w.w.w.w.w.w.w.w.w.w.w.w.w.w.w.w.w.w.w.w.w.w.w.w.w.w.w.w.w.w.w.w.w.w.w.w.w.w.w.w.w.w.w.w.w.w.w.w.p.w.z.w.f.z.3.-.` b -.@.>.D ` 3.3.z.w.0.9.9.z.f.W.3.w.9.9.w.0.z.f.f.w.w.w.w.w.w.w.w.w.w.w.w.f.f.w.w.w.w.w.w.w.w.w.w.w.9.0.w.w.f.w.w.w.w.w.w.w.w.w.9.9.w.z.W.z.w.w.w.w.w.w.w.w.w.w.w.9.w.w.w.f.w.0.w.w.0.w.w.9.w.",
"w.w.w.w.w.w.w.w.w.w.w.w.w.w.w.w.w.9.Y {.W.W.z.N.z.{.w. X:.L z.f.w.w.w.w.w.w.w.w.e.9.W.@.3 + - - - & : # r 9.e.e.w.w.w.w.w.w.w.w.p.p.f.z.z.z.w.w.w.w.w.w.w.w.w.w.w.w.f.w.N.-.:.z.w.f.4.w.W.w.w.w.z.9.z.W.w.9.z.z.w.w.w.w.w.w.w.w.w.w.w.w.w.w.w.w.w.w.w.w.w.w.w.w.w.w.w.w.w.w.w.w.w.w.w.w.w.w.w.w.w.w.w.w.w.w.w.w.z.9.z.f.w.@.G w.w.w.w.w.w.w.w.w.{.3.z.w.e.w.w.z.w.w.W.W.0.0.z.w.f.f.f.f.e.e.f.f.w.w.w.w.w.w.w.w.w.w.w.w.w.w.w.w.w.w.w.w.w.w.w.w.w.w.w.w.w.w.w.w.w.w.w.w.w.w.w.w.w.w.w.w.w.w.w.w.w.w.w.w.w.w.w.w.w.w.w.w.w.w.w.w.p.w.z.w.f.z.3.-.w.' -.H @.@.@.` :.0.0.z.z.w.z.9.w.0.W.p.9.N.w.w.w.w.w.w.w.w.w.w.z.w.w.f.w.0.w.z.w.w.w.w.w.w.w.w.z.9.w.z.z.f.z.w.w.w.w.w.w.w.w.w.w.w.f.z.w.9.w.z.w.w.w.w.w.w.w.w.z.W.f.0.f.z.w.f.w.z.f.w.z.w.w.z.",
"w.w.w.w.w.w.w.w.w.w.w.w.w.w.w.w.N.>.' Y Y ' ' T ' ` Y L ` :.w.z.w.w.w.w.w.w.w.w.f.9.0.9.S D ' P ^ / K P D f.9.v.w.w.w.w.w.w.w.w.w.9.9.w.z.z.w.9.w.w.w.w.w.w.w.w.w.w.w.w.N.-.:.z.w.w.w.w.w.w.w.w.w.w.w.w.w.w.w.w.w.w.w.w.w.w.w.w.w.w.w.w.w.w.w.w.w.w.w.w.w.w.w.w.w.w.w.w.w.w.w.w.w.w.w.w.w.w.w.w.w.w.w.w.w.w.w.w.N.:.z.z.0.z.0.z.>.9.9.7.>.9.9.>.9.4.7.7.7.7.7.7.4.4.4.4.4.4.9.9.7.7.7.>.9.9.9.9.9.9.9.9.9.9.9.9.>.>.>.>.>.>.>.>.>.3.p.-.t.9.>.9.3.>.0.9.9.9.>.7.4.9.9.9.9.9.9.7.0.w.N.9.p.W.4.z.w.w.w.w.w.w.w.w.w.w.w.w.w.w.w.w.w.w.w.w.f.p.3.%.3...-.S @.X.%.' 3.z.w.z.9.z.9.w.f.w.z.9.z.w.z.w.z.9.f.w.f.w.9.W.9.W.p.z.w.f.W.w.w.w.N.z.w.z.w.z.z.f.e.z.z.w.w.w.w.w.w.w.w.w.w.w.w.w.w.w.w.w.w.w.w.w.w.w.w.w.w.w.9.@.:.N.f.0.f.9.w.w.w.w.w.w.w.w.",
"w.w.w.w.w.w.w.w.w.w.w.w.w.w.w.w.f.9.-.@.@.@.@.@.@.%.%.@.%.9.0.9.w.w.w.w.w.w.w.w.w.W.f.v.9.t.>.>.r.*.7.*.9.v.w.z.w.w.w.w.w.w.w.w.N.z.z.w.w.w.f.z.w.w.w.w.w.w.w.w.w.w.w.w.N.-.:.z.w.w.w.w.w.w.w.w.w.w.w.w.w.w.w.w.w.w.w.w.w.w.w.w.w.w.w.w.w.w.w.w.w.w.w.w.w.w.w.w.w.w.w.w.w.w.w.w.w.w.w.w.w.w.w.w.w.w.w.w.w.w.w.w.w.z.0.w.N.9.W.-.D L Y Y Y Y Y P Y Y Y Y Y Y Y Y Y Y P P P P Y Y Y Y Y Y Y Y Y Y / / / / / / / / Y Y Y Y Y Y Y Y ` ' D P ' S Y Y / Y L D L Y ' Y P P P P P P L L :.N.0.w.w.9.v.w.w.w.w.w.w.w.w.w.w.w.w.w.w.w.w.w.w.w.w.w.f.p.3.%...S -.:.9.A ` 9.3.w.9.f.f.W.9.w.f.0.w.3.z.w.z.9.w.9.W.0.z.w.w.w.w.z.9.z.0.0.w.0.f.w.z.0.w.z.w.e.w.w.w.w.z.e.w.w.w.w.w.w.w.w.w.w.w.w.w.w.w.w.w.w.w.w.w.w.w.w.w.w.9.@.>.z.w.w.z.w.w.w.w.w.w.w.w.w.",
"w.w.w.w.w.w.w.w.w.w.w.w.w.w.w.w.N.N.N.f.f.e.f.z.w.z.z.z.z.N.z.f.w.w.w.w.w.w.w.w.9.0.f.@.3 * ; : = = = ; r 9.w.0.w.w.w.w.w.w.w.w.%.3.w.z.f.w.w.w.w.w.w.w.w.w.w.w.w.w.f.w.N.-.:.z.w.w.w.w.w.w.w.w.w.w.w.w.w.w.w.w.w.w.w.w.w.w.w.w.w.w.w.w.w.w.w.w.w.w.w.w.w.w.w.w.w.w.w.w.w.w.w.w.w.w.w.w.w.w.w.w.w.w.w.w.w.w.w.w.9.{.9.0.z.f.9...{.{.[.+X+XOX+X+X X X X X X X X[.+X+X+X+XOXOX[. X X X[.[. X X X X[.[.[.[.[.[.[.[.[.[.[.[.[.[.[.[.+XOX+X-X{.+X;X[.+X+X+X-X+X{.[.+XOXOX+X+XOXOX X[.` 4.0.N.w.9.W.9.w.w.w.w.w.w.w.w.w.w.w.w.w.w.w.w.w.w.w.w.f.p.3.%.0.@.@.n ' X.%.' %.z.W.{.w.w.0.W.9.z.{.z.f.9.z.W.w.f.{.w.f.z.z.w.N.W.w.{.W.z.z.W.z.w.z.w.f.W.w.w.w.w.w.w.w.w.w.w.w.w.w.w.w.w.w.w.w.w.w.w.w.w.w.w.w.w.w.w.w.w.w.w.w.8.0.N.w.w.N.w.w.w.w.w.w.w.w.w.",
"w.w.w.w.w.w.w.w.w.w.w.w.w.w.w.w.9.w.f.f.f.e.w.f.w.z.f.w.w.w.f.w.w.w.w.w.w.w.w.w.{.9.p.4.f g S g j C g s f {.z.z.w.w.w.w.w.w.w.w.' %.9.z.z.w.w.w.w.w.w.w.w.w.w.w.w.w.f.w.N.-.:.z.w.w.w.w.w.w.w.w.w.w.w.w.w.w.w.w.w.w.w.w.w.w.w.w.w.w.w.w.w.w.w.w.w.w.w.w.w.w.w.w.w.w.w.w.w.w.w.w.w.w.w.w.w.w.w.w.w.w.w.w.w.w.w.w.w.z.w.f.9./...-.v.p.0.0.9.3.4.9.w.w.w.w.w.w.w.w.0.0.0.0.0.0.0.0.w.w.0.0.0.w.w.w.0.0.0.0.0.0.0.0.0.w.0.0.0.0.0.0.9.>.p.4.9.>.; = 3 = > 5 P W.W.9.0.0.0.0.w.w.w.0.-.@.z.v.w.z.0.w.w.w.w.w.w.w.w.w.w.w.w.w.w.w.w.w.w.w.w.w.f.p.3.%.@.` @.L @.` ..' -.:...%.>.9.@.@.9.%.%.@.9.9.3.@.9.9.9.3.%.9.:.9.%.%.:.:.9.@.3.:.3.-.3.9.9.9.%.>.3.w.w.w.w.w.w.f.w.w.w.w.w.w.w.w.w.w.w.w.w.w.w.w.w.w.w.w.w.w.w.w.z.e.N.N.0.w.z.w.w.w.w.w.w.w.w.w.",
"w.w.w.w.w.w.w.w.w.w.w.w.w.w.w.w.9.0.w.w.w.w.w.9.w.w.w.9.9.w.w.w.w.w.w.w.w.w.w.w.9.w.9.f.0.u.t.t.y.7.S.7.0.0.9.w.w.w.w.w.w.w.w.w.w.w.w.w.w.w.z.z.w.w.w.w.w.w.w.w.w.w.f.w.N.-.:.z.w.w.w.w.w.w.w.w.w.w.w.w.w.w.w.w.w.w.w.w.w.w.w.w.w.w.w.w.w.w.w.w.w.w.w.w.w.w.w.w.w.w.w.w.w.w.w.w.w.w.w.w.w.w.w.w.w.w.w.w.w.w.w.w.z.9.z.w.w.3...p.w.0.0.f.z.z.W.{.p.p.p.p.p.p.p.p.0.0.w.p.p.p.p.p.p.p.p.p.p.p.p.p.f.f.f.f.f.f.f.f.f.f.f.p.p.p.p.p.f.{.p.9.[.' O ' | _ ) 8 v {.W.9.f.f.f.f.z.z.v.v.v.@.3.9.9.z.0.z.w.w.w.w.w.w.w.w.w.w.w.w.w.w.w.w.w.w.w.w.f.p.3.%.-.` 9.9.f.' X.9.3.:...%.:.9.%.@.9.%.@.@.9.8.3...9.9.@.3.Y :.T -.L ..9.' @.S %.@.:.S L :.-.G S :.` %.w.z.w.w.w.f.w.w.w.w.w.w.w.w.w.w.w.w.w.w.w.w.w.w.w.w.w.w.w.w.9.0.e.0.9.f.z.p.w.w.w.w.w.w.w.w.",
"w.w.w.w.w.w.w.w.w.w.w.w.w.w.w.w.N.z.f.f.z.z.z.w.z.z.z.z.z.z.z.f.w.w.w.w.w.w.w.w.w.N.{.9.b a f g d a g g P f.z.W.w.w.w.w.w.w.w.w.z.z.f.f.f.f.f.w.w.w.w.w.w.w.w.w.w.w.f.w.N.-.:.z.w.w.w.w.w.w.w.w.w.w.w.w.w.w.w.w.w.w.w.w.w.w.w.w.w.w.w.w.w.w.w.w.w.w.w.w.w.w.w.w.w.w.w.w.w.w.w.w.w.w.w.w.w.w.w.w.w.w.w.w.w.w.w.w.f.w.w.9.W.Y 9.v.z.z.p.9.-.@...` @.@.@.@.@.@.@.@.@.@.@.@.@.@.@.@.@.@.@.@.@.@.@.@.@.@.@.@.@.@.@.@.@.@.@.@.@.@.@.@.' @.' @.@.S ' ,X[.+X,X:.D ' L @.' ' ' ' ' ` ' ' -.X.Y 9.N.0.W.0.w.w.w.w.w.w.w.w.w.w.w.w.w.w.w.w.w.w.w.w.f.p.3.%.N.9.9.@.>.9.9.-.:.0.9.w.:.>.>.N.:.3.z.3.3.%.9.9.3.3.@.0.T %.G ..3...' D w.%.3.S ..3.9.Y Y :.:.@.M ' 9.z.z.f.f.w.w.w.w.w.w.w.w.w.w.w.w.w.w.w.w.w.w.w.w.w.w.w.w.w.e.f.e.0.w.p.f.w.w.w.w.w.w.w.w.w.",
"w.w.w.w.w.w.w.w.w.w.w.w.w.w.w.w.w.w.w.9.w.w.w.w.w.w.w.w.w.w.0.0.w.w.w.w.w.w.w.w.W.3.9.@.4 3 9 : 5 5 = ; 5 N.w.0.w.w.w.w.w.w.w.w.9.9.w.z.z.f.w.9.w.w.w.w.w.w.w.w.w.w.f.w.N.-.:.z.w.w.w.w.w.w.w.w.w.w.w.w.w.w.w.w.w.w.w.w.w.w.w.w.w.w.w.w.w.w.w.w.w.w.w.w.w.w.w.w.w.w.w.w.w.w.w.w.w.w.w.w.w.w.w.w.w.w.w.w.w.w.w.w.w.z.w.3.9.@.N.f.9.p.p.4.3.0.w.9.9.9.9.9.9.9.9.9.:.:.-.-.%.-.-.-.9.9.9.9.9.9.9.9.3.3.3.3.3.3.3.3.3.3.3.3.4.9.9.9.z.>.9.N.9.0.+X9.{.N.[.[.0.] L Y Y Y Y Y P Y Y Y P ' Y :.z.w.z.9.w.w.w.w.w.w.w.w.w.w.w.w.w.w.w.w.w.w.w.w.f.p.3.%.-.X.-.-.>.@.@.:.-.%...%.-.3.@.-.:.%.%.@.>.:.:.@.:.:.%.3...%.' @.' @.:.@.@.L @...:.Y Y @.@.Y L -.Y %.w.f.w.f.f.w.w.w.w.w.w.w.w.w.w.w.w.w.w.w.w.w.w.w.w.w.w.w.w.w.N.N.e.e.z.p.w.w.w.w.w.w.w.w.w.w.",
"w.w.w.w.w.w.w.w.w.w.w.w.w.w.w.w.w.w.z.z.w.w.z.z.f.w.w.w.w.w.f.z.w.w.w.w.w.w.w.w.9.v.N.p.' / / ) / ) | K ' z.f.9.w.w.w.w.w.w.w.w.z.z.f.w.w.w.z.z.w.w.w.w.w.w.w.w.w.w.f.w.N.-.:.z.w.w.w.w.w.w.w.w.w.w.w.w.w.w.w.w.w.w.w.w.w.w.w.w.w.w.w.w.w.w.w.w.w.w.w.w.w.w.w.w.w.w.w.w.w.w.w.w.w.w.w.w.w.w.w.w.w.w.w.w.w.w.w.w.w.z.w.3.' {.w.w.z.N.9.@.` @.%.@.@.@.@.@.@.@.@.@.%.@.@...' ......@.@.@.@.@.@.@.@.@.@.@.@.@.@.@.@.@.@.@.@.%.%.%.-.@.@.4.X.-.-.@.*.@.>.' ' ' ' -.' @.@.@.@.] ] ] @.@.@.:...:.z.9.z.w.w.w.w.w.w.w.w.w.w.w.w.w.w.w.w.w.w.w.w.f.p.3.%.f.9.f.0.0.:.@.X.w.f.9.z.w.w.3.w.w.9.f.9.f.9.w.9.9.0.z.9.9.w.w.w.9.9.9.z.z.9.w.f.p.9.w.w.f.z.9.9.w.z.N.w.9.w.f.w.w.w.w.w.w.w.w.w.w.w.w.w.w.w.w.w.w.w.w.w.w.w.w.w.e.0.9.0.v.z.w.z.w.w.w.w.w.w.w.w.",
"e.e.z.e.e.e.z.e.w.0.w.z.w.f.z.w.e.w.a.w.a.w.e.e.w.w.e.e.e.e.a.z.w.w.p.f.f.p.w.w.z.f.f.f.f.f.f.f.z.z.z.z.z.z.z.z.w.w.w.w.w.w.w.w.w.w.w.w.w.w.w.w.w.w.w.w.w.w.w.w.w.w.z.3.f...9.z.9.w.z.T.w.9.W.p.w.N.w.N.z.9.z.w.w.w.w.w.w.w.w.w.w.w.w.w.w.w.w.w.w.w.w.w.w.w.w.w.w.w.w.w.w.w.w.w.w.w.w.w.w.w.w.w.w.w.w.z.z.w.w.w.z.w.9.J A.f.W.w.0.W.*.) =.) ] @...' ' @.@.` ' ' ` ' ' ' ' ' ' ' Y ' ' ' ....' ' ] ' ' ' ' ] ] ] | | ] ] ] ] @.@.@.@.@.@.@.@.@.@.@.@.@.@.@.@.@.@.@.@.@.@.@.@.@.@.@.-.| *.' N.N.0.e.e.e.e.e.w.w.e.w.w.w.w.w.w.w.w.w.f.w.w.z.z.3.X.z.w.f.f.w.-.Y ` 9.9.9.w.e.e.e.e.w.w.w.w.w.w.w.w.w.w.w.w.w.w.w.w.w.w.w.w.w.w.w.w.z.a.a.w.z.z.z.z.| n Y z.f.w.T.9.e.w.e.e.e.z.9.e.w.a.z.z.a.w.w.w.e.9.9.e.e.9.9.e.@.P :.w.z.w.W.z.w.w.w.w.w.w.w.w.",
"0.f.f.w.0.f.f.e.f.e.f.e.0.e.f.w.e.w.f.p.p.p.f.e.w.p.z.z.z.w.f.z.0.p.p.p.p.p.f.p.p.p.p.p.p.p.p.p.p.p.p.p.p.p.p.p.f.f.f.f.f.p.f.f.f.f.f.f.f.f.f.f.p.p.p.f.f.f.f.f.z.z.:.+X[.9.' N.!.a.9.v.v.0.z.p.9.N.9.9.w.{.w.w.w.w.w.w.w.w.w.w.w.w.w.w.w.w.w.w.w.w.w.w.w.w.w.w.w.w.w.w.w.w.w.w.w.w.w.w.w.w.w.w.w.w.w.w.w.w.w.w.3. X' #.k.9.8.z.0.w.| ' ' @.P / -.-.:.9.4.-.:.9.-.-.-.-.-.-.-.-.-.3.4.:.:.9.9.:.*.@.@.@.@.] ] ' ' ' ' ] ] @.@.-.%.-.-.-.-.-.-.-.-.-.-.-.-.-.-.-.-.-.-.:.:.:.:.:.@.*.7.0.-.@.>.N.f.f.f.e.f.f.f.f.f.f.f.f.f.p.f.f.f.z.f.w.f.f.4.@.N.w.f.w.0.%.Y ' w.w.e.f.f.f.f.f.f.f.f.f.f.f.f.f.p.p.p.f.f.f.f.f.f.f.f.f.f.f.f.f.f.p.p.p.p.f.f.f.} m Y 9.0.0.W.z.f.0.e.e.w.e.0.f.z.z.z.z.z.a.z.a.f.w.e.f.f.e.e.f.{.9.W.N.v.0.w.9.e.f.e.f.f.p.f.w.",
"9.9.9.9.9.9.9.9.9.0.0.9.8.9.9.9.9.9.9.9.4.4.9.9.9.9.9.9.9.9.9.9.9.9.9.9.9.9.9.9.9.9.9.9.9.9.9.9.9.9.9.9.9.9.9.9.9.9.9.9.9.9.9.9.9.9.9.9.9.9.9.9.9.9.9.9.9.9.9.9.3.0.N.@.-.' -.0.>.9.4.9.9.9.w.9.e.3.{.8.w.9.w.N.w.w.w.w.w.w.w.w.w.w.w.w.w.w.w.w.w.w.w.w.w.w.w.w.w.w.w.w.w.w.w.w.w.w.w.w.w.w.w.w.w.w.w.w.w.w.w.w.z.>.T {.0.{.e.w.z.@.' ' ' @.D ' ' ` @.@.@.' @.-.%.@.@.@.@.@.@.@.X.-.@.` ' @.@...P H H D S S A A S S D D D P ` ' 4.4.9.9.9.9.9.9.9.9.9.9.9.9.9.9.3.3.3.3.9.9.9.9.w.-.9.9.N.@.-.0.9.9.9.9.9.9.9.9.9.9.9.9.9.9.9.9.9.9.9.9.9.9.:.@.0.4.9.9.9.-.Y ' 4.9.9.9.9.9.9.9.9.9.9.9.9.9.9.9.9.9.9.9.9.9.9.9.9.9.9.9.9.9.9.9.9.9.9.9.9.9.9.9.y.:.>.0.0.8.9.9.9.9.9.9.9.4.9.0.9.9.9.9.9.4.4.4.9.9.4.9.9.9.9.9.9.-.9.-.9.9.0.0.9.9.9.9.9.9.9.9.",
"P Y / P Y / Y P D Y Y L P P Y Y Y Y Y / / / Y P Y Y P P P P / ' Y Y Y Y P P Y Y Y Y Y P Y Y Y Y Y P P P P Y Y Y P P P P P P P P P P P P P P P P P P P P P P P P Y S ' ' ) ' P P K ' Y P / Y ` P Y n -.{.N.9.w.9.w.w.w.w.w.w.w.w.w.w.w.w.w.w.w.w.w.w.w.w.w.w.w.w.w.w.w.w.w.w.w.w.w.w.w.w.w.w.w.w.w.w.w.w.w.w.f.f.f.Y 8.N.9.{.>.e.f.Y ) ) | / X.9.9.9.0.f.w.9.0.f.f.p.w.0.w.0.w.p.w.f.w.9.9.w.p.9.9.9.9.9.9.9.4.3.>.>.>.>.3.4.9.0.0.w.p.p.f.f.f.f.f.f.f.f.f.f.f.f.N.N.W.W./.{.{.{.{.N.{.N.=X9.' D Y Y P P P P Y Y P P P P P P P P K P P P P Y P D P L Y Y Y S f f L P P P P P P P P P P P P P P P P P P P P P P P P P P P P P P P Y Y P P P P Y Y ' ) Y P Y Y Y Y / Y / Y / D Y / Y Y Y P / / / / Y P P / / Y Y / L L ' D / / Y ` P P Y Y Y Y P P ",
"[.XXXX[.XX+XXX{.0.[.}.'.[.[.[.[.f.f.t.t.t.f.t.t.t.p.u.u.u.u.Z.Z.+X+X+X+XXXXXXX[.[.[.[.[.[.[.XXXX[.[.[.[.[.[.[.[.XXXXXXXXXXXXXXXXXXXXXXXXXXXXXXXXXXXXXXXXXXXXXXXX[.+X+Xf.[.{.A.S.XX+X{.XX+X{.[.OX-XN.` z.3.W.w.z.w.w.w.w.w.w.w.w.w.w.w.w.w.w.w.w.w.w.w.w.w.w.w.w.w.w.w.w.w.w.w.w.w.w.w.w.w.w.w.w.w.w.w.w.w.z.f.w.' :.[.>.f.>.Y W.*./ ) ' ' L 0.W.w.w.w.f.z.f.w.w.w.w.w.w.p.p.w.w.f.w.w.w.w.w.w.w.f.f.f.f.z.v.v.z.f.f.f.f.w.w.p.z.w.w.w.w.w.w.w.w.f.f.f.f.f.f.f.f.9.9.0.w.w.e.e.e.w.z.0.>.z.(.{.+XXXXXXXXXXXXXXXXXXXXXXXXXXXXXXXXX[.XXXXXXXXOXXX+XXX[.+X[.{.t.@.@.[.[.[.XXXXXXXX[.XXXXXXXXXXXXXXXXXXXXXXXXXXXXXXXXXXXXXXXXXXXXXXXXXXXXXXXXXXXXXXXXS.[.[.{.[.}. X+XXXXXXX[.+Xt.XXXX}.[.Z.Z.Z.u.u.u.f.t.t.f.f.f.f.f.z.{.$X{.+XXX{.{.}.}.}.}.}.}.}.[.",
"0.0.0.0.0.w.9.4.+.9.e.9.e.w.9.w.' ' ' ` ' ' ` Y ` ) ( _ _ ] X.@.9.0.0.0.0.0.0.9.9.9.9.9.9.9.9.9.9.9.9.9.9.9.9.9.0.0.0.0.0.0.0.0.0.0.0.0.0.0.0.0.0.0.0.0.0.0.0.0.>.N.n . 5 = = : w =.f.9.9.0.p.9.>.{.@.` {.z.f.0.w.w.w.w.w.w.w.w.w.w.w.w.w.w.w.w.w.w.w.w.w.w.w.w.w.w.w.w.w.w.w.w.w.w.w.w.w.w.w.w.w.w.w.w.e.z.w.3.' N.f.f.f.>.:.0.D @.) ] D @.N.a.w.w.w.w.z.z.f.w.w.f.z.z.z.v.z.z.f.0.w.z.z.w.w.z.0.0.9.0.w.w.0.9.w.e.f.p.w.w.w.w.w.w.f.f.w.w.w.w.w.w.w.w.w.w.w.w.f.f.z.z.z.z.z.z.9.z.z.{.z.f.3.w.0.0.0.0.0.0.0.0.0.0.0.0.0.0.0.0.0.0.0.0.0.0.9.0.0.9.p.9.9.>.' ' 0.0.0.0.0.0.0.9.0.0.0.0.0.0.0.0.0.0.0.0.0.0.0.0.0.0.0.0.0.0.0.0.0.0.0.0.9.9.0.0.0.N.f.0.0.0.9.9.9.0.0.9.p.X.0.9.9.>.*. .] ] _ ) ` ` ` ' ' ' ' ' T ..9.3.0.0.9.9.9.0.0.0.0.0.0.0.",
"f.f.e.e.f.z.e.9.@.f.N.9.z.z.0.z.$.+.X.@.@.X.X.' X.X.[ [  .*.:.:.4.9.9.w.p.p.w.0.p.p.p.p.p.p.p.p.p.p.p.p.p.p.p.p.p.p.p.p.p.p.p.p.p.p.p.p.p.p.p.p.p.p.p.p.p.p.p.p./.p.3 C 9.f.' >.; @.{.9.9.z.W.9.0.[.[.Y 0.>.W.w.w.w.w.w.w.w.w.w.w.w.w.w.w.w.w.w.w.w.w.w.w.w.w.w.w.w.w.w.w.w.w.w.w.w.w.w.w.w.w.w.w.f.w.w.e.z.3.@.0.f.9.{.w.z.[.} P | ) ) P 9.v.9.f.e.w.w.z.z.z.f.w.w.w.w.w.w.w.w.f.w.w.z.z.w.w.f.z.z.z.z.z.z.w.w.w.w.w.w.w.w.w.z.w.w.f.f.f.f.f.w.w.w.w.w.w.w.w.w.0.0.w.w.w.w.0.0.z.9.3.z.0.w.0.w.0.0.0.0.w.w.w.w.p.p.p.p.p.p.p.p.p.p.p.p.p.w.w.w.w.0.f.p.v.z.9.0.w.e.e.e.e.w.w.w.p.p.p.p.p.p.p.p.p.p.p.p.p.p.p.p.p.p.p.p.p.p.p.p.w.w.w.w.w.w.w.w.9.w.w.0.w.f.z.w.e.f.e.0.N...f.w.N.p.4.;.*.*. .] X.' ..@.@.@.@.@.&.$.R.R.z.w.z.9.w.w.w.w.w.w.w.w.",
"e.e.w.w.e.z.w.8.@.z.z.9.f.w.9.z.$.+.....X.X...' X.X.[ [ [ *.-.-.:.3.9.w.f.p.f.w.w.w.w.w.w.w.w.w.w.w.w.w.w.w.w.w.w.w.w.w.w.w.w.w.w.w.w.w.w.w.w.w.w.w.w.w.w.w.w.w.p.v.' +X+X+X-X+X@.t.9.w.W.w.9.T.f.8.f.z.Y W.W.9.w.w.w.w.w.w.w.w.w.w.w.w.w.w.w.w.w.w.w.w.w.w.w.w.w.w.w.w.w.w.w.w.w.w.w.w.w.w.w.w.w.f.w.w.e.w.:.` S.0.z.9.w.w.>.P *./ ' J =.f.z.w.w.z.z.z.w.w.w.w.z.z.w.w.w.w.w.z.w.z.z.w.w.w.w.9.w.w.w.w.w.w.0.9.w.e.e.e.w.w.e.G.9.w.w.w.w.w.w.w.w.w.w.w.w.w.w.w.f.f.p.f.f.f.w.w.z.w.z.z.9.z.W.w.e.e.e.e.e.e.e.e.w.w.w.w.w.w.w.w.w.w.w.f.z.z.f.z.w.w.w.9.f.z.0.z.e.e.e.e.e.e.w.w.w.w.w.w.w.w.w.w.w.w.w.w.w.w.w.w.w.w.w.w.w.w.w.w.w.w.w.w.w.w.w.w.T.e.z.z.w.w.z.w.w.e.e.9.N.' e.w.e.9.:.;.O.*. .| ..' ' ..X...X.@.$.o.G.G.9.w.z.p.z.e.z.z.z.z.z.z.",
"9.z.w.f.f.z.3.G b -.w.z.z.0.w.f.` n S X.X.X.@.' @.' V V ] ,.-.-.%.3.f.-.L @.z.w.w.w.w.w.w.w.w.w.p.w.w.w.w.w.w.w.w.w.w.w.w.w.w.w.w.w.f.f.z.z.w.9.w.w.w.w.w.w.w.w.p.f.z.z.z.W.W.W.w.w.w.w.w.w.w.w.z.9.0. X@.@.N.9.w.w.w.a.z.z.w.w.w.w.w.w.w.w.w.w.w.w.w.w.w.w.w.w.w.w.w.w.w.w.w.w.w.w.w.w.w.w.w.w.w.e.z.W.0.9.' v.0.9.e.G.9.v.] ( _ | D P N.w.e.e.w.w.w.w.w.w.w.w.w.0.z.3.G L 3.z.9.w.w.z.w.` G %.w.w.w.w.v.z.%.G Y 9.W.w.9.z.z.9.L L >./.w.w.z.0.w.w.w.w.w.w.w.w.w.w.w.w.w.w.w.w.w.w.w.w.w.w.w.w.w.w.w.w.w.w.w.w.w.w.w.w.w.w.w.w.w.w.w.w.w.w.w.w.w.w.w.w.w.w.w.w.w.w.w.w.w.w.w.w.w.w.w.w.w.w.w.w.w.w.w.w.w.w.w.w.w.w.w.w.w.w.w.w.w.w.w.w.w.w.w.w.w.w.w.w.w.w.w.w.w.z.w.w.w.@.w.p.G.9.>.;.O.O.O.] X.' ' X.@...X.%.:.:.e.f.w.z.9.a.w.w.w.w.w.w.w.w.",
"9.w.0.w.w.w.9.` n :.w.w.z.w.f.f.Y M D ' ' ..@.' ` / V V (  .@.@.4.4.9.@.G ..w.w.w.w.w.w.w.w.w.w.w.w.w.w.w.w.w.w.w.w.w.w.w.w.w.w.f.e.9.9.9.w.z.W.w.w.w.w.w.w.w.w.w.w.w.w.w.w.w.f.w.w.w.w.w.w.w.w.w.w.W.9.{.@.%.W.z.f.z.z.w.9.w.z.w.w.w.w.w.w.w.p.w.w.w.w.w.w.w.w.w.w.w.w.w.w.w.w.w.w.w.w.w.w.w.w.9.9.w.w.w.' 0.f.0.W.8.9.).-./ [ | / D 9.f.w.8.N.w.w.w.w.w.w.w.w.w.9.w.:.L Y 3.z.w.z.w.w.0.' L @.z.z.w.w.w.9.@.L ..3.z.w.9.w.w.9.Y L :.z.w.w.N.w.w.w.w.w.w.w.w.w.w.w.w.w.w.w.w.w.w.w.w.w.w.w.w.w.w.w.w.w.w.w.w.w.w.w.w.w.w.w.w.w.w.w.w.w.w.w.w.w.w.w.w.w.w.w.w.w.w.w.w.w.w.w.w.w.w.w.w.w.w.w.w.w.w.w.w.w.w.w.w.w.w.w.w.w.w.w.w.w.w.w.w.w.w.w.w.w.w.w.w.w.w.w.w.w.w.z.w.w.w.@.w.p.e.9.>.*.*.[ [ | ] ' ' ' ....+.@.Y T :.9.w.z.w.N.w.w.w.w.w.w.w.w.",
"w.f.0.f.w.w.w.%.I 0.z.w.z.9.w.0.$.T ..@...@.@.` ' | _ _  .=.=.:.:.:.9.3.@.:.z.z.w.w.w.w.w.w.w.w.w.w.w.w.w.w.w.w.w.w.w.w.w.w.w.w.0.e.N.N.z.w.w.w.w.w.w.w.w.w.w.w.w.w.w.w.w.w.w.w.w.w.w.w.w.w.w.w.9.z.w.9.{.p.` p.w.9.w.z.z.w.9.f.f.f.f.f.p.p.f.f.f.f.f.f.z.f.f.f.f.p.f.f.f.f.f.f.f.f.f.f.p.p.f.f.w.z.w.z.@.@.N.p.9.W.9.8.N./ _ [ | C ' {.w.w.9.e.w.w.w.w.w.w.w.w.z.w.z.9.@.%.w.z.9.z.w.w.f.:.@.9.w.w.w.w.f.z.9.%.:.9.z.w.w.f.f.0.:.@.9.W.w.w.z.w.w.w.w.w.w.w.w.w.w.w.w.w.w.w.w.w.w.w.w.w.w.w.w.w.w.w.w.w.w.w.w.w.w.w.w.w.w.w.w.w.w.w.w.w.w.w.w.w.w.w.w.w.w.w.w.w.w.w.w.w.w.w.w.w.w.w.w.w.w.w.w.w.w.w.w.w.w.w.w.w.w.w.w.w.w.w.w.w.w.w.w.w.w.w.w.w.w.w.w.w.w.w.w.w.w.z.w.w.w.@.w.p.e.9.>.*. .[ ] | | ' ' ] @.+.@.:.$.<.e.T.z.z.9.w.w.w.w.w.w.w.w.w.",
"z.p.w.z.f.w.z.9.@.N.z.w.z.9.0.0.3.&.&.$.......Y ' ' ] ] | *.@.@.-.:.w.W.z.f.z.z.w.w.w.w.w.w.w.w.w.w.w.w.w.w.w.w.w.w.w.w.w.w.w.w.L ' :.0.z.f.w.w.w.w.w.w.w.w.w.w.z.z.z.f.f.f.w.w.w.w.w.w.w.w.w.w.z.w.9.f.4.[.:...z.z.w.w.f.z.p.w.w.w.w.w.w.w.w.w.w.w.w.w.w.w.w.w.w.w.w.w.w.w.w.w.w.w.w.w.w.w.w.w.w.e.z.3.` /.p.0.w.9.N.w.@.) ,._ ) S 9.p.w.w.z.9.w.w.w.w.w.w.w.w.f.w.N.W.0.0.z.w.9.f.w.w.N.z.w.N.w.w.w.w.z.W.N.w.w.w.z.z.z.z.z.z.N.w.w.W.w.w.f.0.w.w.w.w.w.w.w.w.w.w.w.w.w.w.w.w.w.w.w.w.w.w.w.w.w.w.w.w.w.w.w.w.w.w.w.w.w.w.w.w.w.w.w.w.w.w.w.w.w.w.w.w.w.w.w.w.w.w.w.w.w.w.w.w.w.w.w.w.w.w.w.w.w.w.w.w.w.w.w.w.w.w.w.w.w.w.w.w.w.w.w.w.w.w.w.w.w.w.w.w.w.w.w.w.w.z.w.w.w.@.w.p.e.9.:.*.| | ] ] ' ' ' ` ` ` ..@.o.<.F.T.z.z.9.w.w.w.w.w.w.w.w.w.",
"w.w.9.z.w.9.f.9.@.f.w.w.z.w.f.N.$.&.&.$.....X...&.-.:.>.>.:.:.-.9.9.0.z.f.w.w.f.w.w.w.w.w.w.w.w.w.w.w.w.w.w.w.w.w.w.w.w.w.w.w.w.z.N.W.N.f.0.0.w.w.w.w.w.w.w.w.w.w.w.w.w.w.w.w.w.w.w.w.w.w.w.w.w.W.9.z.0.w.0.[.' 9.f.f.9.4.0.p.0.f.f.f.f.f.f.f.f.f.f.f.f.f.f.f.f.f.f.f.f.f.f.p.p.f.f.f.f.f.f.f.f.p.9.0.' 9.N.f.w.a.9.W.f.` |  . .) ] N.9.w.z.f.e.w.w.w.w.w.w.w.w.w.w.w.z.f.f.f.w.w.z.w.w.w.w.w.w.f.f.w.w.w.w.f.w.f.w.w.w.w.w.w.w.z.w.w.w.w.w.z.f.w.w.w.w.w.w.w.w.w.w.w.w.w.w.w.w.w.w.w.w.w.w.w.w.w.w.w.w.w.w.w.w.w.w.w.w.w.w.w.w.w.w.w.w.w.w.w.w.w.w.w.w.w.w.w.w.w.w.w.w.w.w.w.w.w.w.w.w.w.w.w.w.w.w.w.w.w.w.w.w.w.w.w.w.w.w.w.w.w.w.w.w.w.w.w.w.w.w.w.w.w.w.w.w.w.z.w.w.w.@.w.p.w.9.3.:.:.:.:.-.&.%.@.$.@.@.<.<.$.<.F.w.w.e.9.z.w.w.w.w.w.w.w.w.",
"w.w.w.z.w.9.f.9.@.f.w.w.z.0.0.e.G.R.R.z.a.z.v.v.T.a.T.T.p.a.p.4.w.9.9.w.w.w.w.f.w.w.w.w.w.w.w.w.w.w.w.w.w.w.w.w.w.w.w.w.w.w.w.w.9.9.0.0.0.w.z.W.w.w.w.w.w.w.w.w.w.w.w.w.w.w.w.w.w.w.w.w.w.w.w.w.w.z.9.N.N.3.N.p.' 3.W.N.p.f.v.f.0.0.0.0.0.9.0.0.0.0.0.0.0.0.0.0.0.9.0.0.0.0.0.9.0.0.0.0.0.0.0.0.N.f...-.W.9.w.z.w.f.0.9.-.@.D 9.@.0.0.z.w.N.3.N.w.w.w.w.w.w.w.w.z.w.9.9.w.w.f.z.f.f.w.w.w.w.w.0.f.f.w.w.0.0.w.w.f.w.0.w.w.w.w.w.w.w.w.w.w.w.f.z.w.w.w.w.w.w.w.w.w.w.w.w.w.w.w.w.w.w.w.w.w.w.w.w.w.w.w.w.w.w.w.w.w.w.w.w.w.w.w.w.w.w.w.w.w.w.w.w.w.w.w.w.w.w.w.w.w.w.w.w.w.w.w.w.w.w.w.w.w.w.w.w.w.w.w.w.w.w.w.w.w.w.w.w.w.w.w.w.w.w.w.w.w.w.w.w.w.w.w.w.w.w.w.w.w.z.w.w.w.@.w.p.F.e.9.9.9.w.F.F.Y.w.w.w.q.e.F.F.w.e.R.z.w.e.9.a.w.w.w.w.w.w.w.w.",
"w.z.w.z.w.w.N.9.@.z.z.e.z.3.>.>.3.3.3.3.3.3.:.4.4.3.4.9.:.3.9.-.9.0.w.f.W.z.w.f.w.w.w.w.w.w.w.w.w.w.w.w.w.w.w.w.w.w.w.w.w.w.w.w.z.N.N.N.N.z.w.w.w.w.w.w.w.w.w.w.w.f.f.f.f.f.f.f.w.w.w.w.w.w.w.w.9.W.3.W.w.f.3.[.@.:.9.z.v.f.0.9.v.v.N.N.v.v.v.v.N.N.v.N.v.v.v.v.v.v.N.N.N.N.v.v.v.v.N.N.N.N.N.N.9.9.' W.z.w.9.z.w.R.9.3.w.:...z.9.N.8.W.z.z.9.z.w.w.w.w.w.w.w.w.z.z.w.9.w.f.w.z.f.w.w.f.w.w.z.f.w.w.w.w.w.w.z.z.w.w.w.w.w.f.f.w.f.z.z.w.f.w.w.w.w.w.w.w.w.w.w.w.w.w.w.w.w.w.w.w.w.w.w.w.w.w.w.w.w.w.w.w.w.w.w.w.w.w.w.w.w.w.w.w.w.w.w.w.w.w.w.w.w.w.w.w.w.w.w.w.w.w.w.w.w.w.w.w.w.w.w.w.w.w.w.w.w.w.w.w.w.w.w.w.w.w.w.w.w.w.w.w.w.w.w.w.w.w.w.w.w.w.w.w.w.w.w.w.w.z.w.w.w.@.w.p.w.w.w.w.e.z.T.T.w.w.w.w.9.w.w.w.9.8.w.9.w.z.w.z.w.w.w.w.w.w.w.w.",
"9.p.w.w.0.w.N.3.@.e.f.e.z.3.>.>.3.3.:.3.9.4.>.9.9.3.0.0.3.0.V.0.W.W.e.w.f.w.w.f.w.w.w.w.w.w.w.w.w.w.w.w.w.w.w.w.w.w.w.w.w.w.w.w.0.0.0.w.w.f.f.w.w.w.w.w.w.w.w.w.w.w.w.w.w.w.w.w.w.w.w.w.w.w.w.w.N.9.W.3.f.v.w.0./.@.D G Y Y P Y L L L L L L L L P P L L L L L L L L L P P P L L L L L L L L L L ` H 0.0.f.z.e.9.9.N.w.9.z.5.!.e.0.k.e.9.T.9.{.9.w.w.w.w.w.w.w.w.9.f.w.w.z.w.9.w.z.0.w.z.w.9.w.w.w.w.w.w.w.w.w.w.0.w.f.w.w.f.f.w.9.z.f.w.z.f.w.f.w.w.w.w.w.w.w.w.w.w.w.w.w.w.w.w.w.w.w.w.w.w.w.w.w.w.w.w.w.w.w.w.w.w.w.w.w.w.w.w.w.w.w.w.w.w.w.w.w.w.w.w.w.w.w.w.w.w.w.w.w.w.w.w.w.w.w.w.w.w.w.w.w.w.w.w.w.w.w.w.w.w.w.w.w.w.w.w.w.w.w.w.w.w.w.w.w.w.w.w.w.w.w.w.w.z.w.w.w.@.w.p.e.e.0.0.0.0.w.9.0.0.0.0.0.e.e.e.(.e.N.w.e.z.w.a.w.w.w.w.w.w.w.w.",
"9.0.w.w.p.z.w.9.@.z.w.9.z.z.{.{.{.{.{.{.{.{.{.{.{.{.{.{.{.{.{.{.w.w.w.w.w.w.w.w.T.w.f.0.w.z.w.T.w.w.w.w.w.w.w.w.w.w.w.w.w.w.w.w.w.w.w.f.z.z.p.w.w.w.w.w.w.w.w.w.w.w.w.w.w.w.w.w.w.w.w.w.w.w.w.w.w.w.w.w.w.w.w.w.N.N.N.N.N.N.N.N.f.f.f.f.f.v.v.v.f.f.f.f.f.f.f.f.v.v.f.f.f.N.f.f.f.f.f.f.f.f.f.f.{.{.W.w.0.z.z.w.0.z.w.w.z.w.w.z.w.w.w.w.w.w.w.w.z.w.w.z.z.w.w.z.w.w.w.w.w.w.w.w.9.w.p.f.w.w.w.z.w.w.w.w.w.w.w.w.w.w.w.w.w.w.w.w.9.W.w.z.9.z.9.z.w.w.w.w.w.w.w.w.w.w.f.w.w.z.z.w.w.w.w.w.w.w.w.w.w.w.w.w.w.w.w.w.w.w.w.w.w.w.w.w.w.w.w.w.w.w.w.w.w.w.w.w.w.w.w.w.w.w.w.w.w.w.w.w.w.w.w.w.w.w.w.w.w.w.w.w.w.w.w.w.w.w.w.w.w.w.w.w.w.w.N.w.9.z.f.N.z.z.z.z.z.z.z.z.w.e.z.z.w.@.9.z.w.w.w.w.w.w.w.w.w.w.w.w.w.w.w.w.-.L %.z.w.w.0.W.w.w.w.w.w.w.w.w.",
"9.w.w.w.f.z.w.9.@.z.e.9.w.w.z.f.z.z.z.z.z.z.z.z.z.z.z.z.z.z.z.z.w.w.w.w.w.w.w.w.w.w.W.z.z.N.w.9.w.w.w.w.w.w.w.w.w.w.w.w.w.w.w.w.w.w.w.w.w.w.f.z.w.w.w.w.w.w.w.w.w.w.w.w.w.w.w.w.w.w.w.w.w.w.w.w.w.w.w.w.w.w.w.w.f.f.f.f.f.f.f.f.f.f.f.f.f.f.f.f.f.f.f.f.f.f.f.f.f.f.f.p.f.f.N.Z.f.f.f.f.f.f.f.f.9.w.w.w.w.f.z.w.w.N.z.9.w.w.0.9.w.w.w.w.w.w.w.w.w.w.w.f.w.w.w.w.w.w.w.w.w.w.w.w.z.z.w.w.w.9.w.w.w.w.w.w.w.w.w.w.w.w.w.w.w.w.w.w.9.z.w.z.0.z.w.w.w.w.w.w.w.w.w.w.w.z.z.w.w.w.w.9.w.w.w.w.w.w.w.w.w.w.w.w.w.w.w.w.w.w.w.w.w.w.w.w.w.w.w.w.w.w.w.w.w.w.w.w.w.w.w.w.w.w.w.w.w.w.w.w.w.w.w.w.w.w.w.w.w.w.w.w.w.w.w.w.w.w.w.w.w.w.w.w.w.w.z.w.w.z.9.3.9.9.9.9.9.9.9.9.9.8.3.9.z.:.w.f.w.w.w.w.w.w.w.w.w.w.w.w.w.w.w.w.z.-.f.W.9.w.w.w.w.w.w.w.w.w.w.w.",
"0.w.w.w.w.f.w.9.@.z.z.w.f.w.w.9.w.w.w.w.w.w.w.w.w.w.w.w.w.w.w.w.w.w.w.w.w.w.w.w.T.w.w.9.9.0.9.z.w.w.w.w.w.w.w.w.w.w.w.w.w.w.w.w.f.z.z.z.w.w.w.w.w.w.w.w.w.w.w.w.w.w.w.w.w.w.w.w.w.w.w.w.w.w.w.w.w.w.w.w.w.w.w.w.w.w.w.w.w.w.w.w.f.f.f.f.f.f.f.f.f.f.f.f.f.f.f.f.w.w.f.w.w.w.w.z.f.f.f.f.f.f.f.f.W.z.z.z.f.w.w.f.0.z.f.0.z.z.p.w.w.w.w.w.w.w.w.w.w.z.z.f.w.z.z.w.w.w.w.w.w.w.w.w.z.w.f.f.z.z.w.w.w.w.w.w.w.w.w.w.w.w.w.w.w.w.w.w.z.w.w.N.w.z.z.z.w.w.w.w.w.w.w.w.w.f.z.f.w.z.z.w.w.w.w.w.w.w.w.w.w.w.w.w.w.w.w.w.w.w.w.w.w.w.w.w.w.w.w.w.w.w.w.w.w.w.w.w.w.w.w.w.w.w.w.w.w.w.w.w.w.w.w.w.w.w.w.w.w.w.w.w.w.w.w.w.w.w.w.w.w.w.w.w.p.9.w.w.z.w...S L L L L L L L L Y G S L ....9.f.w.w.w.w.w.w.w.w.w.w.w.w.w.w.w.w.z.0.W.f.8.z.z.9.w.w.w.w.w.w.w.w.",
"w.w.w.w.w.f.w.9...z.z.w.z.w.f.w.w.w.w.w.w.w.w.w.e.w.w.w.f.f.f.f.w.w.w.w.w.w.w.w.T.0.z.N.N.N.w.z.w.w.w.w.w.w.w.w.w.w.w.w.w.w.w.w...%.3.w.w.w.f.z.w.w.w.w.w.w.w.w.w.w.w.w.w.w.w.w.w.w.w.w.w.w.w.w.w.w.w.w.w.w.w.w.a.a.a.a.a.a.a.a.e.e.e.e.e.e.e.e.e.e.e.e.e.e.e.e.9.9.T.R.w.8.3.8.8.8.8.8.8.8.8.8.3.>.9.f.z.w.w.z.w.w.w.w.z.w.9.z.w.w.w.w.w.w.w.w.z.f.w.w.w.w.f.z.w.w.w.w.w.w.w.w.9.w.f.z.z.z.w.w.w.w.w.w.w.w.w.w.w.w.w.w.w.w.w.w.v.w.w.z.9.w.z.z.w.w.w.w.w.w.w.w.w.w.w.w.w.f.z.z.w.w.w.w.w.w.w.w.w.w.w.w.w.w.w.w.w.w.w.w.w.w.w.w.w.w.w.w.w.w.w.w.w.w.w.w.w.w.w.w.w.w.w.w.w.w.w.w.w.w.w.w.w.w.w.w.w.w.w.w.w.w.w.w.w.w.w.w.w.w.w.w.z.0.w.0.f.w.@.' ........................@...0.W.w.w.w.w.w.w.w.w.w.w.w.w.w.w.w.w.w.w.z.w.4.z.z.w.w.w.w.w.w.w.w.w.",
"w.w.p.w.w.f.w.9.@.z.f.w.z.e.z.f.w.w.w.w.w.w.w.w.w.w.w.w.w.w.w.w.w.w.w.w.w.w.w.w.z.w.8.' @.f.z.w.w.w.w.w.w.w.w.w.w.w.w.w.w.w.w.w.%.>.w.z.z.w.w.w.w.w.w.w.w.w.w.w.w.w.w.w.w.w.w.w.w.w.w.w.w.w.w.w.w.w.w.w.w.w.w.w.z.z.z.z.z.z.z.z.e.e.e.e.e.e.e.e.e.e.e.e.e.e.e.e.e.e.e.9.&.T L L L L L L L L L L S G ..9.z.w.w.f.z.w.w.z.w.%.%.0.w.w.w.w.w.w.w.w.w.9.w.z.z.w.0.w.w.w.w.w.w.w.w.w.w.f.z.w.0.w.w.w.w.w.w.w.w.w.w.w.w.w.w.w.w.w.w.w.w.w.f.f.w.9.w.w.w.w.w.w.w.w.w.w.z.f.w.w.9.9.w.w.w.w.w.w.w.w.w.w.w.w.w.w.w.w.w.w.w.w.w.w.w.w.w.w.w.w.w.w.w.w.w.w.w.w.w.w.w.w.w.w.w.w.w.w.w.w.w.w.w.w.w.w.w.w.w.w.w.w.w.w.w.w.w.w.w.w.w.w.w.w.w.w.w.w.W.w.9.f.w.W.z.z.z.z.z.z.z.z.e.N.R.z.z.:.w.w.w.w.w.w.w.w.w.w.w.w.w.w.w.w.w.w.z.w.w.z.w.w.f.w.w.w.w.w.w.w.w.w.",
"w.w.p.w.w.f.w.9.@.z.f.9.w.w.w.w.w.w.w.w.w.w.w.w.w.w.w.w.w.w.w.w.w.w.w.w.w.w.w.w.f.z.%.f b 8.W.w.w.w.w.w.w.w.w.w.w.w.w.w.w.w.w.w.W.W.W.N.z.w.w.w.w.w.w.w.w.w.w.w.w.w.w.w.w.w.w.w.w.w.w.w.w.w.w.w.w.w.w.w.w.w.w.w.w.w.w.w.w.w.w.w.e.e.e.e.e.e.e.e.e.e.e.e.e.e.e.e.e.e.e.9.:.+...+.+.+.+.+.+.+.+.+.@.@.:.0.e.w.9.w.z.w.w.z.f.-.%.w.w.w.w.w.w.w.w.w.w.w.f.z.N.f.w.w.w.w.w.w.w.w.w.w.e.z.f.0.0.z.N.z.w.w.w.w.w.w.w.w.w.w.w.w.w.w.w.w.0.z.N.w.W.f.w.w.w.w.w.w.w.w.w.w.f.w.w.f.z.f.f.z.w.w.w.w.w.w.w.w.w.w.w.w.w.w.w.w.w.w.w.w.w.w.w.w.w.w.w.w.w.w.w.w.w.w.w.w.w.w.w.w.w.w.w.w.w.w.w.w.w.w.w.w.w.w.w.w.w.w.w.w.w.w.w.w.w.w.w.w.w.w.w.w.f.0.f.w.f.f.%...................+.+.' ..-.@.9.9.w.w.w.w.w.w.w.w.w.w.w.w.w.w.w.w.w.w.9.z.z.9.w.f.w.w.w.w.w.w.w.w.",
"w.f.f.w.w.f.w.9.@.z.z.0.w.w.w.w.f.f.f.f.f.f.f.f.f.f.f.f.f.f.f.f.w.w.w.w.w.w.w.w.0.N.f.@.@.k.N.9.w.w.w.w.w.w.w.w.w.w.w.w.w.w.w.w.9.9.9.9.0.w.z.z.w.w.w.w.w.w.w.w.w.w.w.w.w.w.w.w.w.w.w.w.w.w.w.w.w.w.w.w.w.w.w.w.w.w.w.w.w.w.w.w.f.f.f.f.f.e.f.e.f.e.f.f.f.f.z.z.9.9.w.N.N.z.z.{.W.W.W.W.W.W.W.W.N.z.w.f.f.w.w.w.w.w.w.f.z.w.9.z.w.w.w.w.w.w.w.w.w.z.w.3.3.f.z.w.w.w.w.w.w.w.w.w.w.z.w.w.f.N.w.3.w.w.w.w.w.w.w.w.w.w.w.w.w.w.w.w.0.W.w.%.W.z.w.w.w.w.w.w.w.w.w.w.w.0.w.z.z.w.9.0.w.w.w.w.w.w.w.w.w.w.w.w.w.w.w.w.w.w.w.w.w.w.w.w.w.w.w.w.w.w.w.w.w.w.w.w.w.w.w.w.w.w.w.w.w.w.w.w.w.w.w.w.w.w.w.w.w.w.w.w.w.w.w.w.w.w.w.w.w.w.w.w.z.9.0.w.z.w.` M H L L L L L L L L L G G ' @.f.W.w.w.w.w.w.w.w.w.w.w.w.w.w.w.w.w.0.z.9.f.z.9.z.z.w.w.w.w.w.w.w.w.",
"w.f.w.w.w.f.w.0.@.z.z.w.z.w.w.w.w.w.w.w.w.w.w.w.w.w.w.w.w.w.w.w.w.w.w.w.w.w.w.w.f.0.A.[.{.f.8.z.w.w.w.w.w.w.w.w.w.w.w.w.w.w.w.w.f.f.f.z.z.z.w.w.w.w.w.w.w.w.w.w.w.w.w.w.w.w.w.w.w.w.w.w.w.w.w.w.w.w.w.w.w.w.w.w.e.e.e.e.e.e.e.e.p.p.p.p.p.p.p.p.p.p.p.p.p.p.p.p.N.f.f.p.3.X.` ' ' ' ' ' ........` ..:.w.z.z.f.w.w.z.w.9.z.N.w.0.w.w.w.w.w.w.w.w.0.N.9.` ` 9.N.0.w.w.w.w.w.w.w.w.w.f.w.w.z.0.@.D w.w.w.w.w.w.w.w.w.w.w.w.w.w.w.w.9.z.%.G 9.w.0.f.w.w.w.w.w.w.w.w.w.w.w.z.9.:.@...w.w.w.w.w.w.w.w.w.w.w.w.w.w.w.w.w.w.w.w.w.w.w.w.w.w.w.w.w.w.w.w.w.w.w.w.w.w.w.w.w.w.w.w.w.w.w.w.w.w.w.w.w.w.w.w.w.w.w.w.w.w.w.w.w.w.w.w.w.w.w.w.w.w.W.f.w.w.3.3.9.9.9.9.4.4.9.9.&.8.9.3.3.@.9.w.w.w.w.w.w.w.w.w.w.w.w.w.w.w.w.w.z.{.w.f.z.0.z.w.w.w.w.w.w.w.w.w.",
"w.w.w.f.w.w.f.9.@.z.w.w.z.w.w.f.w.w.w.w.w.w.w.w.w.w.w.w.w.w.w.w.w.w.w.w.w.w.w.w.w.w.w.w.w.w.w.w.w.w.w.w.w.w.w.w.w.w.w.w.w.w.w.w.{.N.N.0.0.f.0.f.w.w.w.w.w.w.w.w.w.w.w.w.w.w.w.w.w.w.w.w.w.w.w.w.w.w.w.w.w.w.w.w.w.w.w.w.w.w.w.w.w.w.w.w.w.w.w.w.f.e.w.w.0.9.9.9.9.9.9.9.%.Y L L U U U U L L L L G L ..3.9.9.9.9.9.9.w.w.w.w.w.w.w.w.w.w.w.w.w.w.w.w.w.w.w.w.w.w.w.w.w.w.w.w.w.w.w.w.w.w.w.w.w.w.w.w.w.w.w.w.w.w.w.w.w.w.w.w.w.w.w.w.w.w.w.w.w.w.w.w.w.w.w.w.w.w.w.w.w.w.w.w.w.w.w.w.w.w.w.w.w.w.w.w.w.w.w.w.w.w.w.w.w.w.w.w.w.w.w.w.w.w.w.w.w.w.w.w.w.w.w.w.w.w.w.w.w.w.w.w.w.w.w.w.w.w.w.w.w.w.w.w.w.w.w.w.w.w.w.w.w.w.w.w.w.w.w.w.w.w.w.w.w.w.z.z.z.z.z.z.z.z.w.z.w.w.w.@.w.w.w.w.w.w.w.w.w.w.w.w.w.w.w.w.w.w.9.' 9.f.0.N.9.w.w.w.w.w.w.w.w.w.",
"w.w.w.w.w.e.f.9.@.z.w.w.z.w.w.f.w.w.w.w.w.w.w.w.w.w.w.w.w.w.w.w.w.w.w.w.w.w.w.w.w.w.w.w.w.w.w.w.w.w.w.w.w.w.w.w.w.w.w.w.w.w.w.w...@.9.w.z.N.w.f.w.w.w.w.w.w.w.w.w.w.w.w.w.w.w.w.w.w.w.w.w.w.w.w.w.w.w.w.w.w.w.w.w.w.w.w.w.w.w.w.w.w.w.w.w.w.w.w.e.w.w.w.w.w.w.w.9.9.0.w.9.>.:.9.8.8.8.8.8.8.8.8.9.3.3.w.w.9.9.w.9.0.w.w.f.w.w.w.w.w.w.w.w.w.w.w.w.w.w.w.w.w.w.w.w.w.w.w.w.w.w.w.w.w.w.w.w.w.w.w.w.w.w.w.w.w.w.w.w.w.w.w.w.w.w.w.w.w.w.w.w.w.w.w.w.w.w.w.w.w.w.w.w.w.w.w.w.w.w.w.w.w.w.w.w.w.w.w.w.w.w.w.w.w.w.w.w.w.w.w.w.w.w.w.w.w.w.w.w.w.w.w.w.w.w.w.w.w.w.w.w.w.w.w.w.w.w.w.w.w.w.w.w.w.w.w.w.w.w.w.w.w.w.w.w.w.w.w.w.w.w.w.w.w.w.w.w.w.w.w.f.f.f.e.f.f.f.f.w.z.w.w.w.@.w.w.w.w.w.w.w.w.w.w.w.w.w.w.w.w.w.w.9.@.9.e.w.z.w.z.w.w.w.w.w.w.w.w.",
"w.w.w.w.w.w.f.9.@.z.w.w.z.w.w.f.w.w.w.w.w.w.w.w.w.w.w.w.w.w.w.w.w.w.w.w.w.w.w.w.w.w.w.w.w.w.w.w.w.w.w.w.w.w.w.w.w.w.w.w.w.w.w.w.@.-.w.e.w.z.w.z.w.w.w.w.w.w.w.w.w.w.w.w.w.w.w.w.w.w.w.w.w.w.w.w.w.w.w.w.w.w.w.w.w.w.w.w.w.w.w.w.w.w.w.w.w.w.w.w.w.w.w.w.w.f.f.f.f.w.w.z.z.w.f.W.e.e.e.e.e.e.e.e.W.z.w.f.w.w.w.z.w.w.w.w.f.w.w.w.w.w.w.w.w.w.w.w.w.w.w.w.w.w.w.w.w.w.w.w.w.w.w.w.w.w.w.w.w.w.w.w.w.w.w.w.w.w.w.w.w.w.w.w.w.w.w.w.w.w.w.w.w.w.w.w.w.w.w.w.w.w.w.w.w.w.w.w.w.w.w.w.w.w.w.w.w.w.w.w.w.w.w.w.w.w.w.w.w.w.w.w.w.w.w.w.w.w.w.w.w.w.w.w.w.w.w.w.w.w.w.w.w.w.w.w.w.w.w.w.w.w.w.w.w.w.w.w.w.w.w.w.w.w.w.w.w.w.w.w.w.w.w.w.w.w.w.w.w.w.w.w.w.w.w.w.w.w.w.w.w.z.w.w.w.@.w.w.w.w.w.w.w.w.w.w.w.w.w.w.w.w.w.w.e.0.w.f.f.e.w.e.w.w.w.w.w.w.w.w.",
"w.w.w.w.w.w.f.9.@.z.w.w.z.w.w.f.w.w.w.w.w.w.w.w.w.w.w.w.w.w.w.w.w.w.w.w.w.w.w.w.w.w.w.w.w.w.w.w.w.w.w.w.w.w.w.w.w.w.w.w.w.w.w.w.f.e.N.f.w.w.0.z.w.w.w.w.w.w.w.w.w.w.w.w.w.w.w.w.w.w.w.w.w.w.w.w.w.w.w.w.w.w.w.w.w.w.w.w.w.w.w.w.w.w.w.w.w.w.w.w.w.w.w.w.w.f.f.z.z.w.w.w.w.w.w.w.w.w.w.w.w.w.w.w.w.9.0.w.w.w.w.z.w.w.w.w.f.w.w.w.w.w.w.w.w.w.w.w.w.w.w.w.w.w.w.w.w.w.w.w.w.w.w.w.w.w.w.w.w.w.w.w.w.w.w.w.w.w.w.w.w.w.w.w.w.w.w.w.w.w.w.w.w.w.w.w.w.w.w.w.w.w.w.w.w.w.w.w.w.w.w.w.w.w.w.w.w.w.w.w.w.w.w.w.w.w.w.w.w.w.w.w.w.w.w.w.w.w.w.w.w.w.w.w.w.w.w.w.w.w.w.w.w.w.w.w.w.w.w.w.w.w.w.w.w.w.w.w.w.w.w.w.w.w.w.w.w.w.w.w.w.w.w.w.w.w.w.w.w.w.w.w.w.w.w.w.w.w.w.w.w.z.w.w.w.@.w.w.w.w.w.w.w.w.w.w.w.w.w.w.w.w.w.w.f.W.e.e.e.9.w.w.w.w.w.w.w.w.w.w.",
"w.w.w.f.w.f.f.9.@.z.f.w.z.w.w.f.w.w.w.w.w.w.w.w.w.w.w.w.w.w.w.w.w.w.w.w.w.w.w.w.w.w.w.w.w.w.w.w.w.w.w.w.w.w.w.w.w.w.w.w.w.w.w.w.w.9.f.e.w.z.w.w.w.w.w.w.w.w.w.w.w.w.w.w.w.w.w.w.w.w.w.w.w.w.w.w.w.w.w.w.w.w.w.w.w.w.w.w.w.w.w.w.w.w.w.w.w.w.w.w.w.w.w.w.w.w.w.w.f.w.w.w.z.f.w.w.z.z.f.f.f.f.f.f.w.w.w.w.w.w.w.w.f.f.f.f.f.w.w.w.w.w.w.w.w.w.w.w.w.w.w.w.w.w.w.w.w.w.w.w.w.w.w.w.w.w.w.w.w.w.w.w.w.w.w.w.w.w.w.w.w.w.w.w.w.w.w.w.w.w.w.w.w.w.w.w.w.w.w.w.w.w.w.w.w.w.w.w.w.w.w.w.w.w.w.w.w.w.w.w.w.w.w.w.w.w.w.w.w.w.w.w.w.w.w.w.w.w.w.w.w.w.w.w.w.w.w.w.w.w.w.w.w.w.w.w.w.w.w.w.w.w.w.w.w.w.w.w.w.w.w.w.w.w.w.w.w.w.w.w.w.w.w.w.w.w.w.w.w.w.w.w.w.w.w.w.w.w.w.w.w.z.w.w.w.@.w.w.w.w.w.w.w.w.w.w.w.w.w.w.w.w.w.w.9.z.0.0.f.9.w.w.w.w.w.w.w.w.w.w.",
"w.w.w.f.w.w.f.9.@.z.f.w.z.w.w.f.w.w.w.w.w.w.w.w.w.w.w.w.w.w.w.w.w.w.w.w.w.w.w.w.w.w.w.w.w.w.w.w.w.w.w.w.w.w.w.w.w.w.w.w.w.w.w.w.W.e.f.9.w.z.w.z.w.w.w.w.w.w.w.w.w.w.w.w.w.w.w.w.w.w.w.w.w.w.w.w.w.w.w.w.w.w.w.w.w.w.w.w.w.w.w.w.w.w.w.w.w.w.w.w.f.w.w.w.w.w.w.w.w.w.w.z.z.z.z.f.w.w.w.w.w.w.w.w.z.f.w.w.w.w.w.f.f.p.f.w.w.w.w.w.w.w.w.w.w.w.w.w.w.w.w.w.w.w.w.w.w.w.w.w.w.w.w.w.w.w.w.w.w.w.w.w.w.w.w.w.w.w.w.w.w.w.w.w.w.w.w.w.w.w.w.w.w.w.w.w.w.w.w.w.w.w.w.w.w.w.w.w.w.w.w.w.w.w.w.w.w.w.w.w.w.w.w.w.w.w.w.w.w.w.w.w.w.w.w.w.w.w.w.w.w.w.w.w.w.w.w.w.w.w.w.w.w.w.w.w.w.w.w.w.w.w.w.w.w.w.w.w.w.w.w.w.w.w.w.w.w.w.w.w.w.w.w.w.w.w.w.w.w.w.w.w.w.w.w.w.w.w.w.w.w.z.w.w.w.@.w.w.w.w.w.w.w.w.w.w.w.w.w.w.w.w.w.w.z.w.f.z.z.w.w.w.w.w.w.w.w.w.w.w.",
"w.w.w.f.w.w.e.3.@.z.f.w.z.w.w.f.w.w.w.w.w.w.w.w.w.w.w.w.w.w.w.w.w.w.w.w.w.w.w.w.w.w.w.w.w.w.w.w.w.w.w.w.w.w.w.w.w.w.w.w.w.w.w.w.N.e.z.9.9.f.w.z.w.w.w.w.w.w.w.w.w.w.w.w.w.w.w.w.w.w.w.w.w.w.w.w.w.w.w.w.w.w.w.w.w.w.w.w.w.w.w.w.w.w.w.w.w.w.w.w.w.w.w.w.w.w.w.w.w.w.z.f.w.w.w.w.f.f.f.f.f.f.f.f.w.w.w.w.w.w.f.z.w.w.w.w.w.w.w.w.w.w.w.w.w.w.w.w.w.w.w.w.w.w.w.w.w.w.w.w.w.w.w.w.w.w.w.w.w.w.w.w.w.w.w.w.w.w.w.w.w.w.w.w.w.w.w.w.w.w.w.w.w.w.w.w.w.w.w.w.w.w.w.w.w.w.w.w.w.w.w.w.w.w.w.w.w.w.w.w.w.w.w.w.w.w.w.w.w.w.w.w.w.w.w.w.w.w.w.w.w.w.w.w.w.w.w.w.w.w.w.w.w.w.w.w.w.w.w.w.w.w.w.w.w.w.w.w.w.w.w.w.w.w.w.w.w.w.w.w.w.w.w.w.w.w.w.w.w.w.w.w.w.w.w.w.w.w.w.w.w.z.w.w.w.@.w.w.w.w.w.w.w.w.w.w.w.w.w.w.w.w.w.w.z.-.e.N.w.z.9.w.w.w.w.w.w.w.w.w.",
"w.w.w.f.w.e.e.3.@.z.f.w.z.w.w.f.w.w.w.w.w.w.w.w.w.w.w.w.w.w.w.w.w.w.w.w.w.w.w.w.w.w.w.w.w.w.w.w.w.w.w.w.w.w.w.w.w.w.w.w.w.w.w.w.' @.9.f.z.z.9.w.w.w.w.w.w.w.w.w.w.w.w.w.w.w.w.w.w.w.w.w.w.w.w.w.w.w.w.w.w.w.w.w.w.w.w.w.w.w.w.w.w.w.w.w.w.w.w.w.w.w.w.w.w.f.f.f.w.f.e.w.w.w.w.f.p.p.p.p.p.p.p.p.w.w.z.p.f.f.w.0.w.w.w.w.w.w.w.f.w.w.w.w.w.w.w.w.w.w.w.w.w.w.w.w.w.w.w.w.w.w.w.w.w.w.w.w.w.w.w.w.w.w.w.w.w.w.w.w.w.w.w.w.w.w.w.w.w.w.w.w.w.w.w.w.w.w.w.w.w.w.w.w.w.w.w.w.w.w.w.w.w.w.w.w.w.w.w.w.w.w.w.w.w.w.w.w.w.w.w.w.w.w.w.w.w.w.w.w.w.w.w.w.w.w.w.w.w.w.w.w.w.w.w.w.w.w.w.w.w.w.w.w.w.w.w.w.w.w.w.w.w.w.w.w.w.w.w.w.w.w.w.w.w.w.w.w.w.w.w.w.w.w.w.w.w.w.w.w.w.z.w.w.w.@.w.w.w.w.w.w.w.w.w.w.w.w.w.w.w.w.w.w.:.L :.0.9.N.9.z.w.w.w.w.w.w.w.w.",
"w.w.w.f.w.f.f.9.@.z.e.w.z.w.w.f.w.w.w.w.w.w.w.w.w.w.w.w.w.w.w.w.w.w.w.w.w.w.w.w.9.W.9.w.N.{.0.Z.Z.f.N.{.p.z.9.W.w.w.w.w.w.w.w.w.-.3.0.z.z.z.w.w.w.w.w.w.w.w.w.w.w.w.w.w.w.w.w.w.f.w.w.z.z.w.w.p.z.f.9.9.z.w.9.f.w.f.w.w.w.z.z.w.w.w.f.f.w.w.w.z.f.f.9.w.z.w.w.z.w.w.w.w.w.w.w.w.w.w.w.w.w.w.w.w.w.w.w.w.w.w.w.w.w.w.w.w.w.w.w.w.w.w.w.w.w.w.w.w.w.w.w.w.w.w.w.w.w.w.w.w.w.w.w.w.w.w.w.w.w.w.w.w.w.w.w.w.w.w.w.w.w.w.w.w.w.w.w.w.w.w.w.w.w.w.w.w.w.w.w.w.w.w.w.w.w.w.w.w.w.w.w.w.w.w.w.w.w.w.w.w.w.w.w.w.w.w.w.w.w.w.w.w.w.w.w.w.w.w.w.w.w.w.w.w.w.w.w.w.w.w.w.w.f.w.9.w.z.f.0.f.z.9.w.w.w.f.z.0.z.9.w.N.f.0.z.W.w.f.f.f.w.w.w.z.w.z.w.w.f.w.w.z.w.w.w.w.w.w.w.w.w.z.w.w.w.@.w.p.w.w.w.w.w.w.w.w.z.0.0.f.z.z.w.w.z.z.w.w.z.z.w.9.f.w.w.f.f.w.w.9.",
"w.w.w.f.w.f.f.8.@.z.e.w.z.w.w.f.w.w.w.w.w.w.w.w.w.w.w.w.w.w.w.w.w.w.w.w.w.w.w.w.R.9.w.f.' ] @.) ' | @.@.%./.w.9.w.w.w.w.w.w.w.w.z.z.z.f.w.w.w.w.w.w.w.w.w.w.w.w.w.w.w.w.w.w.w.w.w.z.z.w.9.w.f.f.w.f.w.w.z.w.w.z.w.w.w.w.w.0.0.w.w.w.w.w.f.w.w.w.0.z.z.w.w.w.w.w.w.w.w.w.w.w.w.w.w.w.w.w.w.w.w.w.w.w.w.w.w.w.w.w.w.w.w.w.w.w.w.w.w.w.w.w.w.w.w.w.w.w.w.w.w.w.w.w.w.w.w.w.w.w.w.w.w.w.w.w.w.w.w.w.w.w.w.w.w.w.w.w.w.w.w.w.w.w.w.w.w.w.w.w.w.w.w.w.w.w.w.w.w.w.w.w.w.w.w.w.w.w.w.w.w.w.w.w.w.w.w.w.w.w.w.w.w.w.w.w.w.w.w.w.w.w.w.w.w.w.w.w.w.w.w.w.z.w.9.w.z.w.0.w.w.z.w.9.w.f.w.f.w.w.w.z.0.w.z.w.z.w.w.w.w.w.w.9.z.w.0.w.z.z.w.9.9.w.9.0.z.f.w.w.w.w.w.w.w.w.w.w.w.z.w.w.w.@.w.p.w.w.w.w.w.w.w.w.w.z.f.0.9.w.z.w.9.W.z.9.z.z.w.z.f.w.w.f.f.w.w.9.",
"w.w.w.f.w.f.f.8.@.z.w.w.z.w.w.f.w.w.w.w.w.w.w.w.w.w.w.w.w.w.w.w.w.w.w.w.w.w.w.w.9.9.N.9.r 4 w 9 w 9 3 3 t -.e.N.w.w.w.w.w.w.w.w.z.w.w.0.w.w.f.z.w.w.w.w.w.w.w.w.w.w.w.w.w.w.w.w.0.f.f.9.0.z.z.w.w.w.w.w.z.w.0.z.z.w.w.z.w.9.9.z.f.w.w.w.e.e.w.w.9.z.z.w.0.w.f.w.w.w.w.w.w.w.w.w.w.w.w.w.w.w.w.w.w.w.w.w.w.w.w.w.w.w.w.w.w.w.w.w.w.w.w.w.w.w.w.w.w.w.w.w.w.w.w.w.w.w.w.w.w.w.w.w.w.w.w.w.w.w.w.w.w.w.w.w.w.w.w.w.w.w.w.w.w.w.w.w.w.w.w.w.w.w.w.w.w.w.w.w.w.w.w.w.w.w.w.w.w.w.w.w.w.w.w.w.w.w.w.w.w.w.w.w.w.w.w.w.w.w.w.w.w.w.w.w.w.w.w.w.w.w.w.w.w.w.w.f.f.w.w.f.w.z.z.w.z.w.0.f.0.9.w.z.w.w.z.w.f.f.w.0.w.z.z.9.f.w.w.w.f.z.z.w.w.f.9.9.z.z.w.w.w.w.w.w.w.w.w.w.w.f.w.w.w.@.w.p.w.w.w.w.w.w.w.w.w.w.z.z.w.w.w.w.9.W.f.9.f.f.9.w.f.w.w.w.f.w.w.0.",
"w.w.w.f.w.f.e.8.@.z.p.w.z.w.w.f.w.w.w.w.w.w.w.w.w.w.w.w.w.w.w.w.w.w.w.w.w.w.w.w.e.w.9.0.=.=.=.*.=.=.@.@.@.t.0.f.w.w.w.w.w.w.w.w.9.9.9.w.w.f.f.w.w.w.w.w.w.w.w.w.w.w.w.w.w.w.w.w.w.w.w.w.z.z.z.w.w.f.w.w.z.w.0.z.z.w.w.w.w.w.f.N.w.z.z.f.w.w.f.w.z.w.w.w.0.w.z.f.w.w.w.w.w.w.w.w.w.w.w.w.w.w.w.w.w.w.w.w.w.w.w.w.w.w.w.w.w.w.w.w.w.w.w.w.w.w.w.w.w.w.w.w.w.w.w.w.w.w.w.w.w.w.w.w.w.w.w.w.w.w.w.w.w.w.w.w.w.w.w.w.w.w.w.w.w.w.w.w.w.w.w.w.w.w.w.w.w.w.w.w.w.w.w.w.w.w.w.w.w.w.w.w.w.w.w.w.w.w.w.w.w.w.w.w.w.w.w.w.w.w.w.w.w.w.w.w.w.w.w.w.w.w.w.w.w.z.W.f.0.w.f.w.w.w.w.z.W.w.9.z.w.9.w.z.w.w.z.w.w.f.w.w.z.z.z.z.9.w.z.w.w.w.z.z.f.N.f.0.w.w.w.w.w.w.w.w.w.w.w.w.w.f.w.w.w.@.w.p.w.w.w.w.w.w.w.w.w.9.w.z.z.w.9.w.W.w.f.N.z.z.z.w.f.w.w.w.p.w.w.w.",
"w.w.w.w.w.w.p.4.@.z.f.w.z.w.w.f.w.w.w.w.w.w.w.w.w.w.w.w.w.w.w.w.w.w.w.w.w.w.w.w.N.f.0.f.:.7.7.7.=.7.7.9.9.{.w.9.w.w.w.w.w.w.w.w.z.z.z.z.z.w.w.9.w.w.w.w.w.w.w.w.w.w.w.w.w.w.w.w.z.w.w.z.9.%.:.w.w.w.0.w.N.w.:.-.0.p.f.9.w.z.w.3.@.3.f.z.w.w.f.z.w.-.:.f.z.w.w.w.w.w.w.w.w.w.w.w.w.w.w.w.w.w.w.w.w.w.w.w.w.w.w.w.w.w.w.w.w.w.w.w.w.w.w.w.w.w.w.w.w.w.w.w.w.w.w.w.w.w.w.w.w.w.w.w.w.w.w.w.w.w.w.w.w.w.w.w.w.w.w.w.w.w.w.w.w.w.w.w.w.w.w.w.w.w.w.w.w.w.w.w.w.w.w.w.w.w.w.w.w.w.w.w.w.w.w.w.w.w.w.w.w.w.w.w.w.w.w.w.w.w.w.w.w.w.w.w.w.w.w.w.w.w.w.w.f.9.3.0.z.w.w.w.z.z.3.%.3.w.w.z.z.f.z.9.%.-.9.f.w.w.w.z.w.:.@.3.w.f.z.w.f.w.9.-.%.9.z.w.w.w.w.f.w.w.w.w.w.w.w.w.w.z.w.w.w.@.w.p.w.w.w.w.w.w.w.w.z.w.3.-.>.w.z.f.w.@.3.z.@.@.f.z.f.w.w.w.w.f.w.w.",
"w.w.w.e.w.w.f.9.@.z.f.w.z.w.w.f.w.w.w.w.w.w.w.w.w.w.w.w.w.w.w.w.w.w.w.w.w.w.w.w.9.9.W.9.8 > 9 9 5 9 3 3 a >.e.w.w.w.w.w.w.w.w.w.w.w.z.f.w.w.w.w.w.w.w.w.w.w.w.w.w.w.w.w.w.w.w.w.w.w.z.w.@.D ` w.w.w.w.w.z.:.Y D 3.w.z.w.w.z.3...G @.0.z.z.z.z.w.@.G ` 0.z.w.w.w.w.w.w.w.w.w.w.w.w.w.w.w.w.w.w.w.w.w.w.w.w.w.w.w.w.w.w.w.w.w.w.w.w.w.w.w.w.w.w.w.w.w.w.w.w.w.w.w.w.w.w.w.w.w.w.w.w.w.w.w.w.w.w.w.w.w.w.w.w.w.w.w.w.w.w.w.w.w.w.w.w.w.w.w.w.w.w.w.w.w.w.w.w.w.w.w.w.w.w.w.w.w.w.w.w.w.w.w.w.w.w.w.w.w.w.w.w.w.w.w.w.w.w.w.w.w.w.w.w.w.w.w.w.w.w.w.9.L D :.W.f.9.z.w.z.%.D Y 9.v.w.w.f.z.:.L L -.z.9.w.w.z.w.` G ` z.w.w.w.N.z.%.L Y :.w.w.z.w.w.f.w.w.w.w.w.w.w.w.w.z.w.w.w.@.w.p.w.w.w.w.w.w.w.w.w.w.%.S L 9.W.0.9.` >.9.S S :.w.w.w.w.w.w.f.w.w.",
"w.w.w.f.w.f.f.9.@.z.f.w.z.w.w.f.w.w.w.w.w.w.w.w.w.w.w.w.w.w.w.w.w.w.w.w.w.w.w.w.z.9.9.9.S S D B S S B b D 0.0.3.w.w.w.w.w.w.w.w.%.:.9.w.w.w.w.z.w.w.w.w.w.w.w.w.w.w.w.w.w.w.w.w.w.w.f.w.@.L ..w.f.z.w.w.w.:.Y L 9.w.w.w.w.w.3.@.Y %.w.f.w.f.z.w.@.G ' 0.w.w.z.w.w.w.w.w.w.w.w.w.w.w.w.w.w.w.w.w.w.w.w.w.w.w.w.w.w.w.w.w.w.w.w.w.w.w.w.w.w.w.w.w.w.w.w.w.w.w.w.w.w.w.w.w.w.w.w.w.w.w.w.w.w.w.w.w.w.w.w.w.w.w.w.w.w.w.w.w.w.w.w.w.w.w.w.w.w.w.w.w.w.w.w.w.w.w.w.w.w.w.w.w.w.w.w.w.w.w.w.w.w.w.w.w.w.w.w.w.w.w.w.w.w.w.w.w.w.w.w.w.w.w.w.w.w.w.w.w.3.Y G :.W.f.0.z.0.z.:.Y ' 9.z.0.w.w.w.>.` ` >.f.9.z.w.w.f.@.Y @.z.w.w.w.z.z.:.' ..3.w.w.f.f.w.f.w.w.w.w.w.w.w.w.w.z.w.w.w.@.w.p.w.w.w.w.w.w.w.w.0.w.:.Y ` 9.N.9.z.9.z.w...' 3.z.w.w.w.w.w.f.w.w.",
"w.w.w.f.w.e.f.9.@.z.e.w.z.w.w.e.w.w.w.w.w.w.w.w.w.w.w.w.w.w.w.w.w.w.w.w.w.w.w.w.9.!.w.w.p.v.9.Z.f.f.f.f.9.W.9.w.w.w.w.w.w.w.w.w...%.0.z.z.w.w.w.w.w.w.w.w.w.w.w.w.w.w.w.w.w.w.w.w.w.f.z.w.8.9.z.w.w.0.w.z.w.9.9.p.w.w.w.w.w.w.w.:.w.z.w.9.w.z.w.W.3.9.N.w.w.z.9.w.w.w.w.w.w.w.w.w.w.w.w.w.w.w.w.w.w.w.w.w.w.w.w.w.w.w.w.w.w.w.w.w.w.w.w.w.w.w.w.w.w.w.w.w.w.w.w.w.w.w.w.w.w.w.w.w.w.w.w.w.w.w.w.w.w.w.w.w.w.w.w.w.w.w.w.w.w.w.w.w.w.w.w.w.w.w.w.w.w.w.w.w.w.w.w.w.w.w.w.w.w.w.w.w.w.w.w.w.w.w.w.w.w.w.w.w.w.w.w.w.w.w.w.w.w.w.w.w.w.w.w.w.w.w.w.w.0.9.w.w.w.w.w.f.z.w.w.z.z.w.z.z.w.f.z.w.f.z.f.w.N.w.9.N.w.9.W.0.f.z.w.w.z.z.0.9.W.N.0.0.w.w.f.w.w.w.w.w.w.w.w.w.z.w.w.w.@.w.p.w.w.w.w.w.w.w.w.z.w.w.w.w.z.z.z.w.N.w.9.w.z.w.w.w.w.w.w.w.f.w.w.",
"w.w.w.w.w.f.w.9.@.f.9.f.z.w.9.z.w.w.w.w.w.w.w.w.w.z.z.w.w.w.z.z.N.0.w.f.w.w.z.w.z.8.N.9.S B K B V Z K n D S.0.0.w.w.w.w.w.w.w.w.W.z.z.w.w.w.f.z.w.w.w.w.w.w.w.w.w.w.w.w.w.w.w.w.w.w.w.w.w.w.w.w.w.w.w.w.w.w.w.w.e.w.w.w.w.w.w.w.w.w.w.w.w.w.w.w.w.w.w.w.9.w.w.w.e.8.&.:.9.w.w.9.8.9.w.w.w.w.w.0.w.w.w.w.w.w.w.w.9.9.9.w.w.w.9.9.9.0.w.w.w.w.0.9.9.0.w.w.w.w.w.w.w.w.w.w.w.w.w.w.w.w.w.w.w.w.w.0.8.9.9.9.w.w.f.f.w.w.p.p.f.p.p.w.w.w.w.w.w.w.w.w.e.w.9.w.w.w.w.p.w.w.w.w.w.w.w.w.9.e.e.w.>.@.@.N.w.w.w.w.w.w.w.w.w.w.w.w.w.w.w.w.w.w.w.w.w.w.w.w.w.w.w.w.w.w.w.w.w.w.w.w.w.w.w.w.w.w.w.w.w.w.w.w.w.w.w.w.w.w.w.w.w.w.w.w.w.w.w.w.w.w.w.w.w.w.w.w.w.w.w.w.w.w.w.w.w.z.w.w.w.@.w.p.w.w.w.w.w.w.w.w.w.w.w.w.w.w.w.w.w.z.w.w.z.z.w.w.w.w.w.w.w.w.w.w.",
"w.w.w.w.w.f.w.9.*.V.0.0.w.N.w.w.w.w.w.w.w.w.w.w.w.f.f.w.w.p.w.9.f.0.N.N.w.9.w.w.9.e.{.:.r : 5 5 , , 4 > r >.9.N.w.w.w.w.w.w.w.w.0.0.0.w.w.w.z.z.w.w.w.w.w.w.w.w.w.w.w.w.w.w.w.w.w.w.w.w.w.w.w.w.w.w.w.w.w.w.w.w.e.w.w.w.w.w.w.w.w.w.w.9.9.q.q.q.e.e.e.e.e.e.e.e.9.8.8.9.w.w.w.0.9.w.w.9.9.9.9.8.e.e.e.e.e.e.e.e.9.9.9.e.e.e.e.e.8.8.9.9.w.w.9.9.0.0.w.w.w.w.w.w.w.w.w.w.w.w.w.w.w.w.w.w.w.w.w.w.9.9.9.9.9.w.9.9.9.9.9.9.9.9.9.9.9.9.9.9.9.9.9.9.e.9.9.9.w.9.9.w.w.w.w.w.w.w.w.w.e.8.9.W.@.t b 9.w.w.w.w.w.w.w.w.w.w.w.w.w.w.w.w.w.w.w.w.w.w.w.w.w.w.w.w.w.w.w.w.w.w.w.w.w.w.w.w.w.w.w.w.w.w.w.w.w.w.w.w.w.w.w.w.w.w.w.w.w.w.w.w.w.w.w.w.w.w.w.w.w.w.w.w.w.w.w.w.w.z.w.w.w.@.w.p.w.w.w.w.w.w.w.w.w.w.w.w.w.w.w.w.z.w.w.w.w.w.w.w.w.w.w.w.w.w.w.w.",
"w.w.w.w.w.f.w.9.s m S 9.f.w.w.z.w.w.w.w.w.w.w.w.f.w.w.w.z.z.0.:.s m | 0.w.w.z.z.9.9.N.9.' L / ) ) ) ' L Y p.w.z.w.w.w.w.w.w.w.w.w.w.w.e.f.w.w.w.w.w.w.w.w.w.w.w.w.w.w.w.w.w.w.w.w.w.w.w.w.w.w.w.w.w.w.w.w.w.w.w.e.w.w.w.w.w.w.w.w.9.q.8.q.q.q.5.5.5.5.5.5.5.5.5.8.9.e.w.w.w.w.w.9.w.w.q.8.q.q.q.5.5.5.5.5.5.5.5.5.5.5.5.5.q.q.q.q.q.q.q.9.e.9.9.w.w.w.w.w.w.w.w.w.w.w.w.w.w.w.w.f.w.w.w.w.w.w.w.w.w.0.9.q.q.q.q.q.q.q.q.q.q.q.q.q.q.q.q.q.q.q.q.q.q.q.q.q.3.8.9.w.w.w.w.w.w.w.w.9.8.9.z.9.@.#.{.w.w.w.w.w.w.w.w.w.w.w.w.w.w.w.w.w.w.w.w.w.w.w.w.w.w.w.w.w.w.w.w.w.w.w.w.w.w.w.w.w.w.w.w.w.w.w.w.w.w.w.w.w.w.w.w.w.w.w.w.w.w.w.w.w.w.w.w.w.w.w.w.w.w.w.w.w.w.w.w.w.z.w.w.w.@.w.p.w.w.w.w.w.w.w.w.w.w.w.w.w.w.w.w.W.0.w.z.w.w.f.w.w.w.w.w.w.w.w.w.",
"w.w.w.w.w.f.w.9.k B K f.N.w.9.f.w.w.w.w.w.w.w.w.f.w.w.w.z.z.9.3.j J #.f.z.z.e.w.z.e.9.w.N.N.f.t.v.f./.f.w.W.w.w.w.w.w.w.w.w.w.w.z.z.z.z.w.w.w.w.w.w.w.w.w.w.w.w.w.w.w.w.w.w.w.w.w.w.w.w.w.w.w.w.w.w.w.w.w.w.w.w.e.w.w.w.w.w.w.w.9.8.5.5.q.D.D.q.q.q.q.q.D.D.q.D.q.9.e.w.w.w.w.w.w.w.9.8.q.q.q.q.q.q.q.q.q.q.q.D.q.q.q.q.D.D.D.D.q.q.q.q.q.q.e.e.w.w.w.w.w.w.w.w.w.w.w.w.w.w.w.w.f.w.w.w.w.w.w.w.p.w.9.9.q.q.q.q.q.q.q.q.q.q.q.q.q.q.q.q.q.q.q.q.q.q.q.e.8.5.8.9.w.w.w.w.w.w.w.w.9.N.9.3.z.[.{.w.w.w.w.w.w.w.w.w.w.w.w.w.w.w.w.w.w.w.w.w.w.w.w.w.w.w.w.w.w.w.w.w.w.w.w.w.w.w.w.w.w.w.w.w.w.w.w.w.w.w.w.w.w.w.w.w.w.w.w.w.w.w.w.w.w.w.w.w.w.w.w.w.w.w.w.w.w.w.w.w.w.z.w.w.w.@.w.p.w.w.w.w.w.w.w.w.w.w.w.w.w.w.w.w.w.-.3.z.9.9.z.w.w.w.w.w.w.w.w.w.",
"w.w.w.w.w.f.w.9.*.t.t.N.9.N.{.w.w.w.w.w.w.w.w.w.w.w.w.w.w.f.w.0.V.t.k.N.w.0.w.w.w.z.e.0.f.0.9.w.w.9.w.9.9.w.w.z.w.w.w.w.w.w.w.w.w.w.w.w.w.w.w.f.w.w.w.w.w.w.w.w.w.w.w.w.w.w.w.w.w.w.w.w.w.w.w.w.w.w.w.w.w.w.w.w.e.w.w.w.w.w.w.w.9.9.q.q.e.F.F.D.D.D.D.D.D.D.D.D.9.9.9.w.w.w.w.9.w.w.9.q.q.q.D.q.D.D.D.D.D.D.D.D.D.D.D.q.q.q.D.D.F.F.D.e.q.e.e.e.w.w.w.w.w.w.w.w.w.w.w.w.w.w.w.w.w.w.w.w.w.w.w.w.p.w.w.9.q.q.q.D.q.q.q.D.D.D.F.F.e.e.e.F.F.F.e.e.q.q.q.e.q.8.q.e.w.w.w.w.w.w.w.w.9.e.9.w.z.9.9.0.w.w.w.w.w.w.w.w.w.w.w.w.w.w.w.w.w.w.w.w.w.w.w.w.w.w.w.w.w.w.w.w.w.w.w.w.w.w.w.w.w.w.w.w.w.w.w.w.w.w.w.w.w.w.w.w.w.w.w.w.w.w.w.w.w.w.w.w.w.w.w.w.w.w.w.w.w.w.w.w.w.z.w.w.w.@.w.p.w.w.w.w.w.w.w.w.w.w.w.w.w.w.w.w.>...:.z.0.w.N.f.w.w.w.w.w.w.w.w.",
"w.w.w.w.w.f.w.9.@.f.f.f.9.f.N.w.w.w.w.w.w.w.w.w.w.f.f.w.w.w.z.z.N.0.9.w.9.w.z.z.9.f.e.w.w.w.w.N.N.f.v.w.z.0.a.z.w.w.w.w.w.w.w.w.p.w.w.w.w.w.w.f.w.w.w.w.w.w.w.w.w.w.w.w.w.w.w.w.w.w.w.w.w.w.w.w.w.w.w.w.w.w.w.w.e.w.w.w.w.w.w.w.w.9.e.e.e.F.F.e.q.q.q.q.q.q.q.q.e.9.9.9.w.w.w.w.9.w.9.q.q.e.e.F.q.q.q.q.q.q.q.q.e.q.q.q.q.q.q.q.e.e.e.e.9.e.e.w.w.w.w.w.w.w.w.w.w.w.w.w.w.w.w.w.w.w.w.w.w.w.w.w.w.w.w.9.e.e.q.q.e.e.e.e.e.e.F.F.e.e.q.q.q.q.q.e.e.e.e.e.e.q.9.w.w.w.w.w.w.w.w.w.8.9.9.z.z.9.9.W.w.w.w.w.w.w.w.w.w.w.w.w.w.w.w.w.w.w.w.w.w.w.w.w.w.w.w.w.w.w.w.w.w.w.w.w.w.w.w.w.w.w.w.w.w.w.w.w.w.w.w.w.w.w.w.w.w.w.w.w.w.w.w.w.w.w.w.w.w.w.w.w.w.w.w.w.w.w.w.w.w.z.w.w.w.@.w.p.w.w.w.w.w.w.w.w.w.w.w.w.w.w.w.w.w.3.9.N.f.w.z.0.w.w.w.w.w.w.w.w.",
"w.w.w.w.w.f.w.9.@.0.9./.z.w.3.w.w.w.w.w.w.w.w.w.w.f.w.w.w.e.z.e.w.9.w.z.z.z.z.w.z.w.w.w.z.e.e.9.9.9.z.w.W.9.z.9.w.w.w.w.w.w.w.w.w.w.w.p.f.w.w.w.w.w.w.w.w.w.w.w.w.w.w.w.w.w.w.w.w.w.w.w.w.w.w.w.w.w.w.w.w.w.w.w.w.w.w.w.w.w.w.w.w.w.w.w.e.e.e.e.w.w.e.e.e.e.e.e.9.9.9.w.w.w.w.w.9.w.w.w.w.w.w.9.w.w.e.e.e.e.e.e.e.e.9.9.9.9.9.9.9.9.9.9.9.9.w.w.0.0.w.w.w.w.w.w.w.w.w.w.w.w.w.w.w.w.w.w.w.w.w.w.w.w.w.w.9.w.9.9.w.w.9.9.9.w.w.w.w.w.9.9.9.w.w.w.w.e.9.9.w.9.w.w.w.w.w.w.w.w.w.w.9.e.9.9.w.z.w.9.w.w.w.w.w.w.w.w.w.w.w.w.w.w.w.w.w.w.w.w.w.w.w.w.w.w.w.w.w.w.w.w.w.w.w.w.w.w.w.w.w.w.w.w.w.w.w.w.w.w.w.w.w.w.w.w.w.w.w.w.w.w.w.w.w.w.w.w.w.w.w.w.w.w.w.w.w.w.w.w.w.f.w.w.w.@.w.p.w.w.w.w.w.w.w.w.w.w.w.w.w.w.w.w.W.z.z.z.z.f.w.0.w.w.w.w.w.w.w.w.",
"w.w.w.w.w.f.w.9...!.9.w.w.W.f.k.w.w.w.w.w.w.w.w.w.w.w.w.w.z.e.w.W.F.Y.T.w.w.w.0.f.w.f.z.w.e.e.w.f.w.f.9.z.9.W.p.w.w.w.w.w.w.w.w.3.3.9.w.f.f.f.w.w.w.w.w.w.w.w.w.w.w.w.w.w.w.w.w.w.w.w.w.w.w.w.w.w.w.w.w.w.w.w.w.w.w.w.w.w.w.w.w.9.9.w.9.w.w.w.e.9.9.0.0.0.0.0.0.9.9.w.w.w.w.0.w.9.w.w.w.w.w.w.9.9.9.0.0.0.0.0.0.0.9.9.9.9.9.9.9.8.9.9.9.9.0.0.0.9.0.w.w.w.w.w.w.w.w.w.w.w.w.w.w.w.w.w.w.w.w.w.0.w.9.w.0.9.0.0.0.w.0.9.9.9.9.w.w.w.w.w.w.w.w.w.w.e.9.9.w.w.w.w.w.w.w.w.w.w.w.w.w.9.e.9.w.z.z.w.z.w.w.w.w.w.w.w.w.w.w.w.w.w.w.w.w.w.w.w.w.w.w.w.w.w.w.w.w.w.w.w.w.w.w.w.w.w.w.w.w.w.w.w.w.w.w.w.w.w.w.w.w.w.w.w.w.w.w.w.w.w.w.w.w.w.w.w.w.w.w.w.w.w.w.w.w.w.w.w.w.w.f.w.w.w.@.w.p.w.w.w.w.w.w.w.w.w.w.w.w.w.w.w.w.w.f.0.9.w.z.z.z.w.w.w.w.w.w.w.w.",
"w.w.w.w.w.f.f.9.@.z.f.w.z.w.w.f.w.w.w.w.w.w.w.w.w.w.w.w.w.w.w.w.w.w.w.w.w.w.w.w.w.w.z.z.0.z.z.0.z.9.z.z.9.z.z.w.w.w.w.w.w.w.w.w.` @.f.N.w.w.9.z.w.w.w.w.w.w.w.w.w.w.w.w.w.w.w.w.w.w.w.w.w.w.w.w.w.w.w.f.f.f.f.w.9.w.w.a.z.9.9.z.9.w.f.f.9.z.(.@.n j j j j j j j b b b b b b j j j j b b b b b b j j j j j j j j b L @.9.9.4.9.9.3.0.9.f.>.f.N.0.0.N.f.3.[.z.w.z.f.f.f.f.f.f.f.f.f.f.f.f.f.f.f.f.p.p.p.p.p.p.p.p.p.p.p.p.p.p.p.w.0.z.z.f.w.z.z.w.f.0.f.k.f.0.0.f.e.W.3.w.T.9.z.9.w.f.w.9.w.w.9.w.w.w.w.w.w.w.w.w.w.w.f.z.f.w.w.w.w.w.w.w.w.w.w.w.w.w.w.w.w.w.w.w.w.w.w.z.f.9.0.w.f.9.w.f.9.e.N.9.f.8.w.f.W.3.9.e.w.w.w.w.w.w.w.w.w.w.w.w.w.w.w.w.w.w.w.w.w.w.w.w.w.z.w.w.w.@.w.p.w.w.w.w.w.w.w.w.w.w.w.w.w.w.w.w.w.9.9.z.f.w.w.w.w.w.w.w.w.w.w.w.",
"w.w.w.w.w.f.f.9.@.z.f.w.z.w.w.f.w.w.w.w.w.w.w.w.w.w.w.w.w.w.w.w.w.w.w.w.w.w.w.w.w.w.w.w.w.z.z.w.f.w.f.w.9.w.w.0.w.w.w.w.w.w.w.w.w.9.e.0.w.z.w.w.w.w.w.w.w.w.w.w.f.f.f.w.w.w.w.z.w.w.w.w.w.w.w.w.w.w.w.f.f.f.w.w.w.0.9.w.p.p.w.w.0.-.+.-.-.@.Y y S S C S C C S C S S S S S S S S S S S S S S S S S S S S S S S S f b S Y ' @.' ` @.` ..@.@.' Y ' ' @.9.%.X.@.:.%.@.@.@.@.@.@.@.@.@.@.@.@.@.@.@.@.@.@.@.@.@.@.@.@.@.@.@.@.@.@.@.@.@.@.@.@.@.@.@.@.@.@.@.@.@.@.@.#.@.@.W.9.9.w.w.0.w.w.0.0.w.w.w.w.w.w.w.w.w.w.w.w.z.w.w.w.w.p.z.z.w.w.w.w.w.w.w.w.w.w.w.w.w.w.w.w.w.w.w.p.z.e.w.w.N.N.N.N.f.N.(.f.f.(.N.3.9.z.W.w.w.w.w.w.w.w.w.w.w.w.w.w.w.w.w.w.w.w.w.w.w.w.w.w.w.z.w.w.w.@.w.p.w.w.w.w.w.w.w.w.w.w.w.w.w.w.w.w.{.N.N.z.w.z.z.9.w.w.w.w.w.w.w.w.",
"w.w.w.w.w.f.e.9.@.z.f.w.z.w.w.f.w.w.w.w.w.w.w.w.w.w.w.w.w.w.w.w.w.w.w.w.w.w.w.w.z.w.w.w.w.9.w.0.w.z.z.w.z.w.z.N.w.w.w.w.w.w.w.w.{.e.e.9.w.z.0.w.w.w.w.w.w.w.w.w.f.f.f.w.w.w.w.f.w.w.w.w.w.w.w.w.w.w.w.f.f.w.w.w.w.9.w.w.w.z.z.0.@.@.' @.@.@.-.@.D D D D D D D D D D D D D D D D D D D D D D D D D D D D D D D D Y ' ] @.@.@.-.-.] @.-.' X * : 3 > O 8 *.-.@.%.@.@.@.@.@.@.@.@.@.@.@.@.@.@.@.@.@.@.@.@.@.@.@.@.@.@.@.@.@.@.@.@.@.=.| | | | | | @.@.@.@.@.@.@.@.@.#.' 9.z.9.z.9.w.w.9.9.w.9.w.z.w.w.w.w.w.w.w.w.w.z.w.w.w.w.w.f.w.w.w.w.w.w.w.w.w.w.w.w.w.w.w.w.w.w.w.w.w.z.z.w.9.@.z.[.{.W.N.(.{.[.9.%.w.W.z.9.w.w.w.w.w.w.w.w.w.w.w.w.w.w.w.w.w.w.w.w.w.w.w.w.w.w.z.w.w.w.@.w.p.w.w.w.w.w.w.w.w.w.w.w.w.w.w.w.w.9.9.w.9.9.z.W.w.w.w.w.w.w.w.w.w.",
"w.w.w.f.w.f.w.3.@.z.f.w.z.w.w.f.w.w.w.w.w.w.w.w.w.w.w.w.w.w.w.w.w.w.w.w.w.w.w.w.z.w.w.w.W.w.w.f.9.f.9.4.z.3.9.9.w.w.w.w.w.w.w.w.9.9.z.f.w.z.9.f.w.w.w.w.w.w.w.w.w.w.w.w.f.f.w.w.w.w.w.w.w.w.w.w.w.w.w.w.w.w.w.w.9.w.z.f.9.w.z.9.} A.+X}.[.[.}.A.{.{.{.{.{.{.{.{.S.S.S.S.S.S.S.S.S.S.S.S.S.S.S.S.{.{.{.{.{.{.{.{.[.XX+XOX[.{.[.+X+X+X+Xt.3 f.Z.9.{.C A +X-X[.{.+X+X+X+X+X+X+X+X+X+X+X+X+X+X+X+X+X+X+X+X+X+X+X+X+X+X+X+X+X+X+X+X+X+X}.}.+X+X}.'.}.+X.X[. X+X+X.X.XN.9.` z.z.w.w.z.w.9.w.w.9.0.w.9.w.w.w.w.w.w.w.w.w.w.e.w.w.w.w.0.w.w.w.w.w.w.w.w.w.w.w.w.w.w.w.w.w.e.f.w.w.z.w.9.9.z.9.:.0.z.0.9.0.e.9.f.3.w.9.f.w.w.w.w.w.w.w.w.w.w.w.w.w.w.w.w.w.w.w.w.w.w.w.w.w.z.w.w.w.@.w.p.w.w.w.w.w.w.w.w.w.w.w.w.w.w.w.w.N.z.z.z.w.f.z.0.w.w.w.w.w.w.w.w.",
"w.w.w.f.w.w.w.3.@.z.w.w.z.w.w.e.w.w.w.w.w.w.w.w.w.w.w.w.w.w.w.w.w.w.w.w.w.w.w.w.w.0.w.9. XW.{.{.{. X{.N.+Xw.f.w.w.w.w.w.w.w.w.w.e.0.N.f.w.e.0.z.w.w.w.w.w.w.w.w.w.w.w.e.z.z.f.w.w.w.w.w.w.w.w.w.w.w.w.w.w.w.w.w.f.f.f.0.0.p.9.-.@.f.0.0.f.f.9.' W.{.[.[.{.{.{.[.{.{.{.{.{.{.{.{.{.{.{.{.{.{.{.{.[.[.[.[.[.[.[.[.N.e.9.9.f.z.w.9.t.>.9.] f.-X+X-X>XN.:.0.>.9.9.f.9.9.9.9.9.9.9.9.9.9.9.9.9.9.9.9.9.9.9.9.3.3.9.9.9.9.9.9.8.9.4.3.9.9.9.9.9.3.3.9.9.9.9.9.9.9.9.9.{.{...%.z.w.9.w.9.w.w.z.w.9.w.w.w.w.w.w.w.w.w.w.w.w.z.z.w.w.w.f.w.w.w.w.w.w.w.w.w.w.w.w.w.w.w.w.f.z.z.w.w.f.w.0.@.f.W.N.W.N.f.N.f.8.@.0.w.z.0.z.w.w.w.w.w.w.w.w.w.w.w.w.w.w.w.w.w.w.w.w.w.w.w.w.w.z.w.w.w.@.w.p.w.w.w.w.w.w.w.w.w.w.w.w.w.w.w.w.w.3.9.z.z.w.w.w.w.w.w.w.w.w.w.w.",
"w.w.w.f.w.f.w.3.@.z.w.w.z.w.w.f.w.w.w.w.w.w.w.w.w.w.w.w.w.w.w.w.w.w.w.w.w.w.w.w.w.w.w.:.{.z.N.z.w.f.w.9.W.%.w.9.w.w.w.w.w.w.w.w.{.z.z.0.w.z.w.z.w.w.w.w.w.w.w.w.f.e.w.w.f.f.w.w.w.w.w.w.w.w.w.w.w.w.w.w.w.w.w.w.f.f.9.9.v.f.-.@.{.z.>.9.f.f.e.:.4.9.0.0.9.9.9.0.9.9.9.9.9.9.9.9.9.9.9.9.9.9.9.9.9.9.9.9.9.9.9.9.e.w.0.w.f.f.w.w.w.0.{.p.{.0.>.W.9.Z.v.p.f./.v.z.z.z.z.z.z.z.z.z.z.z.z.z.z.z.z.z.z.z.z.z.z.z.z.z.z.z.z.z.z.z.z.z.T.T.T.w.z.T.!.W.e.z.N.z.z.z.z.z.0.f.W.Y 0.w.9.a.9.w.w.9.z.w.9.w.w.w.w.w.w.w.w.w.w.w.w.w.w.w.w.z.w.w.w.w.w.w.w.w.w.w.w.w.w.w.w.w.z.w.0.w.f.f.w.f.A ' >.3.:.%.@.:.%.L L w.[.z.3.z.w.w.w.w.w.w.w.w.w.w.w.w.w.w.w.w.w.w.w.w.w.w.w.w.w.z.w.w.w.@.w.p.w.w.w.w.w.w.w.w.w.w.w.w.w.w.w.w.:...%.w.w.9.w.z.w.w.w.w.w.w.w.w.",
"w.w.w.f.w.f.f.9.@.z.w.w.z.w.w.f.w.w.w.w.w.w.w.w.w.w.w.w.w.w.w.w.w.w.w.w.w.w.w.w.z.z.0...z.0.w.9.9.w.z.w.w...N.z.w.w.w.w.w.w.w.w.>.>.w.w.w.z.w.z.w.w.w.w.w.w.w.w.w.z.z.w.3.>.9.z.w.w.w.w.w.w.w.w.w.w.w.w.w.w.w.0.%.0.9.9.N.9.@.4.z.f.f.{.z.w.9.@.9.w.z.z.z.f.f.z.w.w.w.w.w.w.w.w.w.w.w.w.w.w.w.w.w.w.w.w.w.w.w.w.9.e.N.z.w.0.f.W.z.9.w.W.3.v.z.9.z.p.w.9.z.w.w.9.w.w.w.w.w.w.w.w.w.w.w.w.w.w.w.w.w.w.w.w.w.w.w.w.w.w.w.w.w.w.w.w.w.f.w.9.w.z.w.:.3.9.f.w.9.9.w.w.9.9.[.%.:.9.w.F.w.z.:.%.z.z.9.f.w.w.w.w.w.w.w.w.w.w.w.w.w.0.3.:.w.w.w.w.w.w.w.w.w.w.w.w.w.w.w.w.z.3.-.9.z.e.w.z.>.Y n n D P L A M @.f.0.9.9.w.w.w.w.w.w.w.w.w.w.w.w.w.w.w.w.w.w.w.w.w.w.w.w.w.w.w.z.w.w.w.@.w.p.w.w.w.w.w.w.w.w.w.w.w.w.w.w.w.w.z.9.0.N.z.w.w.w.w.w.w.w.w.w.w.w.",
"w.w.w.f.w.f.f.9.@.z.e.w.z.w.w.f.w.w.w.w.w.w.w.w.w.w.w.w.w.w.w.w.w.w.w.w.w.w.w.w.w.z.9.Y w.w.W.z.z.z.W.w.>.G w.w.w.w.w.w.w.w.w.w.n Y 9.N.z.w.9.z.w.w.w.w.w.w.w.w.0.z.z.9.@.@.>.z.w.w.w.w.w.w.w.w.w.w.w.w.w.w.w.0.G 9.f.p.z.-.@.[.w.w.w.w.9.z.).@.9.9.f.f.w.w.w.f.w.w.w.w.w.w.w.w.w.w.w.w.w.w.w.w.w.w.w.w.w.w.w.w.f.e.0.w.f.f.w.w.w.z.w.3.{.9.z.w.z.4.z.a.z.9.!.w.w.w.w.w.w.w.w.w.w.w.w.w.w.w.w.w.w.z.z.z.w.w.w.w.w.z.z.z.z.z.z.z.0.f.f.0.f.N.>.Y :.0.z.z.w.w.z.z.T.z.>.[.+.:.T.9.0.w...` w.z.3.w.w.w.w.w.w.w.w.w.w.0.0.f.z.9.@.Y w.w.w.w.w.w.w.w.w.w.w.w.w.w.w.w.w.@...:.e.w.w.w.(.w.N.{.z.e.N.N.W.f.z.9.z.w.f.9.w.w.w.w.w.w.w.w.w.w.w.w.w.w.w.w.w.w.w.w.w.w.w.w.w.z.w.w.w.@.w.p.w.w.w.w.w.w.w.w.w.w.w.w.w.w.w.w.f.9.w.f.w.p.z.w.w.w.w.w.w.w.w.w.",
"w.w.w.f.w.f.f.9.@.z.e.w.z.w.w.f.w.w.w.w.w.w.w.w.z.w.w.w.w.z.z.9.w.9.z.f.0.w.w.z.z.z.9.%.n S S S D A D b G 3.9.9.w.w.w.w.w.w.w.w.W.z.f.w.w.w.w.z.w.w.w.w.w.w.w.w.w.w.w.w.w.w.w.w.z.w.w.w.z.z.w.w.w.w.w.w.w.w.w.9.{.3.w.z.%...[.9.w.0.w.w.z.w.z.@.4.w.w.w.f.f.w.w.w.w.w.w.w.w.w.w.w.w.w.w.w.w.w.w.w.w.w.w.w.w.w.w.w.w.w.w.w.w.w.w.w.w.w.w.w.w.w.w.w.w.w.w.w.w.w.w.w.w.w.w.w.w.w.w.w.w.w.w.w.w.w.w.w.w.w.w.w.w.w.w.w.z.9.w.z.w.w.w.z.w.z.z.z.w.w.T.0.9.f.0.w.e.w.w.w.z.w.w.w.' 3.f.w.w.w.w.w.w.w.e.w.w.9.9.w.w.9.z.9.w.w.w.w.w.z.z.w.w.w.w.w.w.w.w.w.w.w.w.w.w.w.w.9.W.W.0.9.z.z.9.9.9.9.9.9.9.9.9.9.w.w.w.N.w.9.z.w.w.w.w.w.w.w.w.w.w.w.f.f.w.w.f.w.w.w.w.w.w.w.w.w.z.w.w.w.@.w.p.w.w.w.w.w.w.w.w.w.w.w.w.w.w.w.w.w.z.f.w.z.z.w.w.w.w.w.w.w.w.w.w.",
"w.w.w.f.w.f.f.8.@.z.f.w.z.w.w.f.w.w.w.w.w.w.w.w.e.w.w.w.w.f.z.9.@.@.9.f.w.z.w.w.0.f.z.z.-.9.9.9.>.-.8.-.8.W.z.z.w.w.w.w.w.w.w.w.9.9.w.w.z.w.w.9.w.w.w.w.w.w.w.w.w.w.w.w.w.w.w.w.f.w.f.f.w.w.w.z.f.f.f.z.z.z.z.z.w.w.z.w.' z.9.w.w.0.w.w.z.w.z.@.4.w.w.w.f.f.w.w.w.w.w.w.w.w.w.w.w.w.w.w.w.w.w.w.w.w.w.w.w.w.w.w.w.w.w.w.w.w.w.w.w.w.w.w.w.w.w.w.w.w.w.w.w.w.w.w.w.w.w.w.w.w.w.w.w.w.w.w.w.w.w.w.w.w.w.w.w.w.w.w.w.z.9.w.z.9.w.w.9.9.9.w.0.9.9.w.W.f.w.9.w.e.w.f.w.w.w.z.f.9.:.w.9.9.9.9.9.9.9.9.9.z.w.9.w.w.w.w.9.0.0.w.w.w.w.w.w.w.w.w.w.w.w.w.w.w.w.w.w.w.w.w.z.w.w.z.w.4.9.z.w.w.w.w.w.w.w.e.9.w.9.9.0.w.w.w.w.w.w.w.w.p.f.f.w.w.w.w.w.w.w.f.w.w.w.w.w.w.w.w.w.z.w.w.w.@.w.p.w.w.w.w.w.w.w.w.w.w.w.w.w.w.w.w.w.w.0.w.w.w.w.w.w.w.w.w.w.w.w.w.",
"w.w.w.f.w.f.f.8.@.z.w.w.z.w.w.p.w.w.w.w.w.w.w.w.f.w.w.w.w.w.w.3.L Y >.f.z.z.w.w.w.w.w.W.w.z.w.9.z.0.z.z.z.T.9.w.w.w.w.w.w.w.w.w.N.z.w.w.w.f.w.w.w.w.w.w.w.w.w.w.w.w.w.w.w.w.w.w.w.f.z.f.w.w.w.z.9.9.9.0.0.0.w.w.9.w.w...3.W.9.f.w.w.f.w.z.w.z.@.4.w.w.w.e.f.w.w.w.w.w.w.w.w.w.w.w.w.w.w.w.w.w.w.w.w.w.w.w.w.w.w.w.w.w.w.w.w.w.w.w.w.w.w.w.w.w.w.w.w.w.w.w.w.w.w.w.w.w.w.w.w.w.w.w.w.w.w.w.w.w.w.w.w.w.w.w.w.w.w.0.z.w.f.w.9.z.w.N.N.N.W.W.z.N.W.f.e.w.f.w.w.w.f.f.w.w.z.9.z...%.z.z.z.z.z.z.z.z.0.0.w.f.N.9.8.0.p.p.p.p.f.p.p.p.p.p.p.p.p.p.p.p.p.p.p.p.p.p.p.p.f.w.w.f.W.W.z.0.p.p.p.p.p.p.f.f.w.z.W.z.9.w.w.9.w.w.0.0.w.w.w.w.f.w.w.w.w.w.w.w.w.w.w.w.w.w.w.w.w.z.w.w.w.@.w.p.w.w.w.w.w.w.w.w.w.w.w.w.w.w.w.w./.w.f.W.w.w.z.w.w.w.w.w.w.w.w.w.",
"w.w.w.f.w.f.e.8.@.z.w.w.z.w.w.f.w.w.w.w.w.w.w.w.w.w.w.f.w.w.w.3.T ` 8.f.w.z.w.e.f.9.9.f.p.z.p.f.z.w.w.z.z.w.w.w.w.w.w.w.w.w.w.w.f.z.z.w.w.w.f.z.w.w.w.w.w.w.w.w.w.w.w.w.w.w.w.w.w.f.z.w.w.w.f.e.w.w.e.e.f.f.f.f.N.e.@...{.9.z.w.w.w.f.w.z.w.z.@.9.w.w.w.w.f.w.w.w.w.w.w.w.w.w.w.w.w.w.w.w.w.w.w.w.w.w.w.w.w.w.w.w.w.w.w.w.w.w.w.w.w.w.w.w.w.w.w.w.w.w.w.w.w.w.w.w.w.w.w.w.w.w.w.w.w.w.w.w.w.w.w.w.w.w.w.w.w.w.w.w.f.w.z.w.w.z.9.@.@.@.@.@.@.@.@.@.-.>.N.f.w.0.f.w.w.w.w.w.z.@.@.' ' ' ' ' ' ` ` ' @.Y n n n n m b b b b b b b b b b b b b b b b b b b b b b b b f b n v c n H Y P P P P P P P P ` @.9.N.0.9.z.e.w.0.0.0.w.w.e.e.w.f.w.w.w.f.w.w.w.w.w.w.w.w.w.w.w.z.w.w.w.@.w.p.w.w.w.w.w.w.w.w.w.w.w.w.w.w.w.w.N.3.0.W.w.w.N.w.w.w.w.w.w.w.w.w.",
"w.w.w.w.w.w.p.4.@.z.f.w.z.w.w.f.w.w.w.w.w.w.w.w.w.w.p.z.w.w.w.3.' ' 9.f.w.f.w.z.N.f.w.0.f.w.w.f.0.w.w.w.w.w.T.z.w.w.w.w.w.w.w.w...-.0.z.z.w.w.w.w.w.w.w.w.w.w.w.w.w.w.w.w.w.w.w.w.w.w.w.z.z.w.3.0.w.w.p.p.f.f.f.0.0.' N.z.w.w.z.f.w.f.w.z.w.z.@.8.w.w.w.e.f.w.w.w.w.w.w.w.w.w.w.w.w.w.w.w.w.w.w.w.w.w.w.w.w.w.w.w.w.w.w.w.w.w.w.w.w.w.w.w.w.w.w.w.w.w.w.w.w.w.w.w.w.w.w.w.w.w.w.w.w.w.w.w.w.w.w.w.w.w.w.w.w.w.w.w.w.9.p.f.z.w.@.@.@.@.@.@.@.%.%.@.@.` 0.w.e.w.f.9.z.9.9.W.w.z.9.{.{.{.{.{.{.{.{.f.{.-.b f A D n D D D S S S S S S S S S S S S S S S S S S S S S D A D H n c X.+X{.{.{.{.{.{.{.{.9.:.9.N.p.p.N.v.z.z.z.f.z.z.z.v.9.w.z.w.w.f.w.w.w.w.w.w.w.w.w.w.w.z.w.w.w.@.w.p.w.w.w.w.w.w.w.w.w.w.w.w.w.w.w.w.>...:.z.0.9.z.w.w.w.w.w.w.w.w.w.",
"w.w.w.e.w.w.f.9.@.z.f.w.z.w.w.f.w.w.w.w.w.w.w.w.f.w.p.z.w.f.w.3.L Y 8.z.f.z.w.f.z.z.z.9.v.w.w.w.0.N.z.z.f.w.z.w.w.w.w.w.w.w.w.w.@.:.w.z.f.w.w.z.w.w.w.w.w.w.w.w.w.w.w.w.w.w.w.w.e.w.0.w.z.N.9.@.S S D D D D D D ' ' w.z.9.z.9.z.f.w.f.w.z.w.z.@.3.w.w.w.e.f.w.w.w.w.w.w.w.w.w.w.w.w.w.w.w.w.w.w.w.w.w.w.w.w.w.w.w.w.w.w.w.w.w.w.w.w.w.w.w.w.w.w.w.w.w.w.w.w.w.w.w.w.w.w.w.w.w.w.w.w.w.w.w.w.w.w.w.w.w.w.w.w.w.w.z.w.0.f.w.w.9.L e.z.N.N.N.N.N.N.{.9.P 9.w.z.f.9.w.W.w.9.W.9.{.z.0.w.w.w.w.0.w.w.f.0.*.' Y L D L D D D D D D D D H H H H H H H H H H H H H H H H H D H L H L @.p.p.p.p.p.p.p.p.p.[.>.' Y P Y P L L L L P P P P P -.9.f.f.w.f.w.w.w.w.w.w.w.w.w.w.w.z.w.w.w.@.w.p.w.w.w.w.w.w.w.w.w.w.w.w.w.w.w.w.9.:.3.z.w.w.z.w.w.w.w.w.w.w.w.w.",
"w.w.w.f.w.f.f.9.@.z.f.w.z.w.w.f.w.w.w.w.w.w.w.w.p.w.f.z.w.e.w.3.L T 8.z.w.z.w.f.9.w.w.3.{.{.[.[.N.{.N.{.W.9.z.z.w.w.w.w.w.w.w.w.z.z.z.w.w.w.z.N.w.w.w.w.w.w.w.w.w.w.w.w.w.w.w.w.w.w.w.w.z.f.%.Y H L L L K K L H A ' {.9.z.w.z.T.e.w.p.w.z.w.z.@.8.w.w.w.f.f.w.w.w.w.w.w.w.w.w.w.w.w.w.w.w.w.w.w.w.w.w.w.w.w.w.w.w.w.w.w.w.w.w.w.w.w.w.w.w.w.w.w.w.w.w.w.w.w.w.w.w.w.w.w.w.w.w.w.w.w.w.w.w.w.w.w.w.w.w.w.w.w.w.w.z.w.w.f.0.f.w.L 0.f.N.z.z.N.N.z.N.9.P e.w.z.w.9.f.z.w.w.z.9.w.f.f.f.f.f.f.f.f.f./.w.p. X+Xv.9./.Z.Z.Z.Z.Z.Z.Z.Z.Z.Z.Z.Z.Z.Z.Z.Z.Z.Z.Z.Z.Z.Z.Z.Z.N.Z.Z.N.[.+X[.t.e.e.e.e.e.e.e.e.f.9.' A S L L D D D D D D D D D ` :.w.f.w.w.w.w.w.w.w.w.w.w.w.w.w.f.w.w.w.@.w.p.w.w.w.w.w.w.w.w.w.w.w.w.w.w.w.w.z.z.z.z.z.z.w.w.w.w.w.w.w.w.w.w.",
"w.w.w.f.w.e.f.9.@.z.f.w.z.w.w.f.w.w.w.w.w.w.w.w.z.w.f.e.w.z.f.9.' ' 9.z.w.w.w.z.w.z.9.@.f.f.f.0.f.0.>.f.w.@.9.f.w.w.w.w.w.w.w.w.w.w.w.w.f.f.w.0.w.w.w.w.w.w.w.w.w.w.w.w.w.w.w.w.w.f.w.w.f.9.@.D ` ' / / / / / / I f.9.N.z.w.w.w.e.w.f.w.z.w.z.@.9.w.w.w.f.f.w.w.w.w.w.w.w.w.w.w.w.w.w.w.w.w.w.w.w.w.w.w.w.w.w.w.w.w.w.w.w.w.w.w.w.w.w.w.w.w.w.w.w.w.w.w.w.w.w.w.w.w.w.w.w.w.w.w.w.w.w.w.w.w.w.w.w.w.w.w.w.w.w.w.w.w.w.z.0.z.N.' D L P L L Y Y L G ' G N.f.w.w.z.w.0.w.z.w.W.3.N.e.e.e.e.e.e.e.e.9.f.0.9.N.+X+X[.[.[.[.[.[.[.[.[.[.[.[.[.[.[.[.[.[.[.[.[.[.[.[.[.+X{.{.[.{.f.9.0.e.e.e.e.e.e.e.e.>.{.t.' P ' / Y ' ' ' ' ' ' ' ' L @.9.w.w.w.f.w.w.w.w.w.w.w.w.w.w.f.w.w.w.@.w.p.w.w.w.w.w.w.w.w.w.w.w.w.w.w.w.w.w.z.w.9.w.w.w.w.w.w.w.w.w.w.w.w.",
"w.w.w.f.w.p.w.9.@.z.w.w.z.w.w.f.0.w.w.w.f.w.w.f.w.w.z.w.w.w.z.z.w.w.w.w.w.w.w.w.0.w.3.3.z.z.0.f.w.3.w.W.w.:.3.w.w.w.w.w.w.w.w.w.9.0.w.z.z.z.w.0.w.w.w.w.w.w.w.w.w.w.w.w.w.w.w.w.a.w.p.N.p.@.L Y P ' J Y ' P ' D w.w.w.w.w.w.w.w.w.w.f.w.z.w.z.@.3.w.w.w.f.f.w.w.w.w.w.w.w.w.w.w.w.w.w.w.w.w.w.w.w.w.w.w.w.w.w.w.w.w.w.w.w.w.w.w.w.w.w.w.w.w.w.w.w.w.w.w.w.w.w.w.w.w.w.w.w.w.w.w.w.w.w.w.w.w.w.w.w.w.w.w.w.w.w.w.w.w.w.w.w.w.w.w.:.:.:.:.:.:.:.:.3.3.9.w.f.f.w.w.w.w.w.w.w.w.w.w.w.w.w.z.w.w.w.z.w.w.w.w.w.w.w.w.9.9.9.9.0.0.0.0.0.0.0.0.0.0.0.0.0.0.9.9.9.0.0.0.0.0.0.w.w.w.w.w.w.w.w.w.w.w.w.w.N.>.+X>.D L ] Y Y Y / / / / Y / ' L @.z.f.9.z.w.w.w.w.w.w.w.w.w.w.z.w.w.w.@.w.p.w.w.w.w.w.w.w.w.w.w.w.w.w.w.w.w.z.0.w.f.0.w.z.z.w.w.w.w.w.w.w.w.",
"w.w.w.f.w.p.f.9.@.z.w.w.z.w.w.p.f.w.w.w.w.w.w.w.f.f.f.w.w.w.w.w.w.w.w.w.w.w.w.w.w.z.3...@.9.z.z.z.N.W.3.Y L :.{.w.w.w.w.w.w.w.w.W.N.z.w.w.w.z.v.w.w.w.w.w.w.w.w.w.w.w.w.w.w.w.w.9.z.f.4.@.' L Y Y Y Y P P ' A @.w.w.w.w.w.w.w.w.w.w.f.w.z.w.z.@.3.w.w.w.f.f.w.w.w.w.w.w.w.w.w.w.w.w.w.w.w.w.w.w.w.w.w.w.w.w.w.w.w.w.w.w.w.w.w.w.w.w.w.w.w.w.w.w.w.w.w.w.w.w.w.w.w.w.w.w.w.w.w.w.w.w.w.w.w.w.w.w.w.w.w.w.w.w.w.w.w.w.w.w.w.w.w.w.z.z.z.z.z.z.z.z.w.w.w.f.f.f.w.w.w.w.w.w.w.w.w.w.w.w.w.w.w.w.w.w.w.z.z.e.w.w.w.w.w.w.w.w.w.w.w.w.w.w.w.w.w.w.w.w.w.w.w.w.w.w.w.w.w.w.w.w.w.w.w.w.w.w.w.w.w.w.w.w.9.W.9.{.' P P Y Y Y Y Y Y Y Y Y P Y ' 3.z.z.w.z.w.w.w.w.w.w.w.w.w.z.w.w.w.@.w.p.w.w.w.w.w.w.w.w.w.w.w.w.w.w.w.w.z.w.z.W.z.w.w.9.w.w.w.w.w.w.w.w.",
"w.w.w.f.w.w.f.3.@.z.f.w.z.w.w.f.w.w.w.w.w.w.z.z.z.e.w.f.e.f.w.w.w.w.w.w.w.w.w.w.z.z.9.` S S G n S M n n P 9.W.f.w.w.w.w.w.w.w.w.:.3.0.w.w.w.w.w.w.w.w.w.w.w.w.w.w.w.w.w.w.w.w.w.9.N.z.%.' T ' ' ' Y ` L ' Y L z.w.w.w.w.w.w.w.w.f.w.f.w.z.w.z.@.3.w.w.w.f.f.w.w.w.w.w.w.w.w.w.w.w.w.w.w.w.w.w.w.w.w.w.w.w.w.w.w.w.w.w.w.w.w.w.w.w.w.w.w.w.w.w.w.w.w.w.w.w.w.w.w.w.w.w.w.w.w.w.w.w.w.w.w.w.w.w.w.w.w.w.w.w.w.w.w.w.w.w.w.w.w.w.w.w.w.w.w.w.w.w.w.z.z.z.z.f.w.w.w.w.w.w.w.w.w.w.w.z.z.f.w.w.w.f.f.w.f.z.f.w.w.w.f.f.f.f.f.f.f.f.f.f.f.f.f.f.f.f.f.f.w.p.w.f.f.f.f.w.w.w.w.w.w.w.w.w.w.w.w.w.w.w.w.0.N.9.N.N.` L ' ' ' ` ` ` ` ' ' L ' Y ' w.z.9.w.w.w.w.w.w.w.w.w.w.z.w.w.w.@.w.p.w.w.w.w.w.w.w.w.w.w.w.w.w.w.w.w.w.9.9.w.0.w.z.z.w.w.w.w.w.w.w.w.",
"w.w.w.f.w.f.f.9.@.z.e.w.z.w.w.f.w.w.w.w.w.f.w.w.w.w.w.w.z.f.f.f.w.w.w.w.w.w.w.w.w.9.z.W.w.9.w.0.0.w.w.0.0.W.z.>.w.w.w.w.w.w.w.w.` %.9.z.z.w.0.9.w.w.w.w.w.w.w.w.w.w.w.w.w.w.w.w.w.e.9.@.` ' ..` ' ' ' ' @.D 9.(.w.w.w.w.w.w.w.w.f.w.f.w.z.w.z.@.3.w.w.w.e.f.w.w.w.w.w.w.w.w.w.w.w.w.w.w.w.w.w.w.w.w.w.w.w.w.w.w.w.w.w.w.w.w.w.w.w.w.w.w.w.w.w.w.w.w.w.w.w.w.w.w.w.w.w.w.w.w.w.w.w.w.w.w.w.w.w.w.w.w.w.w.w.w.w.w.w.w.w.w.w.w.w.w.w.w.w.w.w.w.w.w.w.w.w.w.w.w.w.f.w.w.w.w.w.w.w.w.f.f.w.w.w.z.f.w.w.w.w.w.w.w.w.z.w.w.w.w.w.w.w.w.w.w.w.w.w.w.w.w.w.w.w.w.w.w.w.w.w.f.f.f.f.p.w.w.w.w.w.w.w.w.w.w.z.9.N.8.[.>.Y ' ` ` ` ' ' ` ` ` ' @.' ' >.z.z.f.w.w.w.w.w.w.w.w.w.z.w.w.w.@.w.p.w.w.w.w.w.w.w.w.w.w.w.w.w.w.w.w.[.W.N.N.w.w.z.w.w.w.w.w.w.w.w.w.",
"w.w.w.f.w.f.f.8.@.z.f.w.z.w.w.f.w.w.w.w.w.f.w.9.w.9.0.f.f.w.w.e.w.w.w.w.w.w.w.w.W.9.w.W.w.9.z.w.9.w.W.W.9.9.z.z.w.w.w.w.w.w.w.w.9.w.w.z.w.w.w.z.w.w.w.w.w.w.w.w.w.w.w.w.w.w.w.w.z.3.@...` ....Y ' ' +.@.' @.{.z.w.w.w.w.w.w.w.w.f.w.e.w.z.w.z.@.8.w.w.w.e.f.w.w.w.w.w.w.w.w.w.w.w.w.w.w.w.w.w.w.w.w.w.w.w.w.w.w.w.w.w.w.w.w.w.w.w.w.w.w.w.w.w.w.w.w.w.w.w.w.w.w.w.w.w.w.w.w.w.w.w.w.w.w.w.w.w.w.w.w.w.w.w.w.w.w.w.w.w.w.w.w.w.w.f.f.f.f.f.f.f.f.w.w.w.w.w.w.f.z.w.w.w.w.w.w.w.w.9.w.w.0.0.w.w.9.e.w.w.f.f.w.w.z.w.w.w.w.w.w.w.w.w.w.w.w.w.w.w.w.w.w.w.w.w.w.w.w.w.w.w.w.w.w.w.w.w.w.w.w.w.w.w.w.z.0.w.f.4.[.@.Y ' ' ' ' ' ' ' ` ' Y ) Y ' >.N.w.w.w.w.w.w.w.w.w.w.z.w.w.w.@.w.p.w.w.w.w.w.w.w.w.w.w.w.w.w.w.w.w.` ` %.9.w.f.z.w.w.w.w.w.w.w.w.w.",
"w.w.w.f.w.f.f.9.@.z.f.w.z.w.w.f.w.f.w.w.z.W.W.z.N.N.N.W.N.w.0.f.w.w.w.w.w.w.w.w.9.w.w.9.9.z.W.9.W.9.3.w.w.w.f.w.w.w.w.w.w.w.w.w.z.z.z.w.w.w.f.z.w.w.w.w.w.w.w.w.w.w.w.w.w.w.w.w.R.@.Y Y Y T ..T ' ' @.:.Y W.w.w.w.w.w.w.w.w.w.w.w.w.e.w.z.w.z.@.3.w.w.w.f.f.w.w.w.w.w.w.w.w.w.w.w.w.w.w.w.w.w.w.w.w.w.w.w.w.w.w.w.w.w.w.w.w.w.w.w.w.w.w.w.w.w.w.w.w.w.w.w.w.w.w.w.w.w.w.w.w.w.w.w.w.w.w.w.w.w.w.w.w.w.w.w.w.w.w.w.w.w.w.w.w.w.w.w.w.w.w.w.w.w.w.f.f.w.w.w.w.w.w.w.w.w.w.w.w.w.w.0.v.N.v.z.N.N.z.W.f.w.f.z.w.w.w.w.w.w.w.w.w.w.w.w.w.w.w.w.w.w.w.w.w.w.w.w.w.w.w.w.w.w.w.w.w.w.w.w.w.w.w.w.w.w.w.w.z.0.N.0.z.N.L A A A S A A A A D n D J A ' 0.0.w.w.w.w.w.w.w.w.w.z.w.w.w.@.w.p.w.w.w.w.w.w.w.w.w.w.w.w.w.w.w.w.w.9.z.W.z.w.w.9.w.w.w.w.w.w.w.w.",
"w.w.w.f.w.f.f.8.@.z.f.w.z.w.w.f.w.w.w.9.w.{.{.W.N.N.N.{.N.9.9.f.w.w.w.w.w.w.w.w.w.W.N.w.z.z.0.3.f.w.z.W.w.9.w.w.w.w.w.w.w.w.w.w.9.0.w.w.f.w.w.w.w.w.w.w.w.w.w.w.w.w.w.w.w.w.w.w.3.Y L Y L E $.E Y @.-.%.%. X9.w.w.w.w.w.w.w.w.w.w.w.w.w.z.w.z.@.3.w.w.w.f.f.w.w.w.w.w.w.w.w.w.w.w.w.w.w.w.w.w.w.w.w.w.w.w.w.w.w.w.w.w.w.w.w.w.w.w.w.w.w.w.w.w.w.w.w.w.w.w.w.w.w.w.w.w.w.w.w.w.w.w.w.w.w.w.w.w.w.w.w.w.w.w.w.w.w.w.w.w.w.w.w.w.w.e.e.e.f.f.f.f.f.f.f.f.f.e.w.w.w.w.w.w.w.w.w.w.w.9.v.{.W.N././.N.W.w.9.w.z.f.w.w.f.f.f.f.f.f.f.f.p.f.f.f.f.f.f.f.f.f.f.f.f.f.f.f.f.f.w.w.w.w.w.w.w.w.w.w.w.w.w.w.w.0.z.w.N.3.{.@.P P I I ) ) Y Y P L P Y P T -.f.w.w.w.w.w.w.w.w.w.z.w.w.w.@.w.p.w.w.w.w.w.w.w.w.w.w.w.w.w.w.w.w.z.9.0.w.0.w.z.z.w.w.w.w.w.w.w.w.",
"w.w.w.f.w.e.f.8.@.z.f.w.z.w.w.f.z.f.9.:.>.0.w.9.0.0.e.z.9.>.3.0.w.w.w.w.w.w.w.w.w.w.9.w.N.w.9.W.w.0.w.f.0.w.z.w.w.w.w.w.w.w.w.w.z.f.w.w.f.z.z.z.w.w.w.w.w.w.w.w.w.w.w.w.w.w.w.w.Y N G Y L ..$.E L 9.:.` [.0.z.9.w.w.w.w.w.w.w.w.w.w.w.w.z.w.z.@.9.w.w.w.f.f.w.w.w.w.w.w.w.w.w.w.w.w.w.w.w.w.w.w.w.w.w.w.w.w.w.w.w.w.w.w.w.w.w.w.w.w.w.w.w.w.w.w.w.w.w.w.w.w.w.w.w.w.w.w.w.w.w.w.w.w.w.w.w.w.w.w.w.w.w.w.w.w.w.w.w.w.w.w.w.w.w.w.w.w.w.w.w.w.w.w.w.w.w.w.e.w.w.w.w.w.w.w.w.w.w.w.%.9.f.w.9.0.w.0.z.3.:.9.z.z.w.w.w.w.w.w.w.w.w.w.w.w.w.w.w.w.w.w.w.w.w.w.w.w.w.w.f.f.f.f.w.w.w.w.w.w.w.w.w.w.w.w.z.3.0.z.9.v.9.XXP P P I I P P P I ' Y Y ' L Y 9.w.w.w.w.w.w.w.w.w.z.w.w.w.@.w.p.w.w.w.w.w.w.w.w.w.w.w.w.w.w.w.w.f.0.w.z.w.w.w.9.w.w.w.w.w.w.w.w.",
"w.w.w.w.z.z.w.9.@.9.f.0.w.f.w.f.w.w.0.%.3.{./.w.z.w.w. Xf.@.9.z.9.w.9.w.w.z.z.p.W.z.w.w.4.w.p.w.9.9.f.9.9.z.e.z.w.w.f.z.f.f.w.w.f.f.f.w.f.f.f.f.w.w.w.w.w.f.f.z.f.w.w.w.z.w.9.:.Y Y Y P ' ..@...T 3.Y e.W.3.0.f.w.w.w.w.w.w.w.w.9.e.9.z.0.w.z.@.9.w.w.0.w.w.w.w.w.w.w.w.w.w.w.w.w.w.w.w.w.w.w.w.z.f.w.w.z.z.f.w.w.w.w.w.w.w.w.w.w.w.w.f.z.w.w.w.w.w.w.w.w.w.w.w.w.w.w.w.w.w.w.w.f.z.z.z.0.9.w.N.w.w.w.w.w.w.w.w.0.z.z.z.f.z.f.w.w.w.w.w.w.w.w.w.w.w.w.w.w.w.w.w.w.w.w.w.w.w.w.w.-.f.{.f.0.z.v.w.{.3.%.9.z.0.9.W.w.w.w.w.w.w.w.w.w.w.w.w.w.w.w.w.w.w.w.w.w.w.w.w.9.z.f.0.0.0.9.e.w.w.w.w.w.w.f.f...Y L L P P L L Y D Y ' ` Y ` Y Y Y Y Y Y ` ' ' e.z.0.0.N.z.9.N.w.w.N.w.z.@.w.z.z.w.0.w.f.z.z.z.z.f.w.w.w.f.f.f.z.w.f.9.w.9.W.w.w.w.w.w.w.w.w.w.",
"z.z.z.w.w.f.w.w.%.w.z.w.w.f.w.w.w.z.z.@.L ..-.9.3.9.3.:.Y D %.w.e.e.e.w.w.w.w.0.0.9.0.z. X{.W.w.W.W.W.{.N.9.9.0.9.w.w.w.w.w.w.w.w.w.w.w.w.w.w.w.z.z.z.z.f.w.0.9.w.w.w.f.z.w.9.3.:.:.>.3.:.&.:.:.9.Y :.N.w.N.9.N.f.f.f.p.w.w.f.f.w.e.e.z.w.f.f.X.9.w.w.w.f.w.w.w.w.w.w.w.w.w.w.w.w.w.w.w.w.w.w.w.9.9.9.w.w.z.f.w.w.w.w.w.w.w.w.w.z.w.0.0.0.w.w.z.w.w.w.w.w.w.w.w.w.w.w.w.w.w.w.w.0.9.9.w.z.N.w.9.w.w.w.w.w.w.w.w.w.w.w.9.9.0.w.w.w.w.w.w.w.w.w.w.w.w.w.w.w.w.w.w.w.w.w.w.w.w.w.w.G ` @.:.4.9.3.>...Y Y 3.W.N.0.9.w.w.w.w.w.w.w.w.w.w.w.w.w.w.w.w.w.w.w.w.w.w.w.w.9.w.w.z.W.z.w.z.w.w.w.w.w.w.f.f.@...T T ' ' ` ` ..@.Y G P Y P Y ` ` ` Y ` ' ' ' %.9.9.9.9.9.9.9.0.3.3.%.:.Y :.9.3.3.3.9.9.3.:.:.-.>.9.0.0.9.9.9.3.:.9.9.w.3.9.:.0.0.0.0.9.9.9.9.",
"3.9.9.3.3.9.w.w.@.w.z.w.w.w.9.9.w.f.W.3...P n f c f f n S ' :.:.:.3.8.3.3.4.9.9.z.w.9.:.N.9.v.{.W.z.3.{.{.3.3.3.9.9.0.w.w.w.w.w.w.w.w.w.w.w.w.w.9.9.9.9.9.3.:.-.:.:.:.3.9.9.9.9.9.:.9.w.3.:.9.9.:.' [.w.3.{.w.w.z.z.z.z.z.z.z.z.e.e.9.w.9.w.z.%.9.w.w.w.f.f.w.w.w.w.w.w.w.w.w.w.w.w.w.w.w.w.w.w.{.W.f.0.0.w.w.z.w.w.w.w.w.w.w.w.w.f.z.N.N.z.p.w.w.w.w.w.w.w.w.w.w.w.w.w.w.w.w.w.W.W.z.w.w.w.w.f.w.w.w.w.w.w.w.w.w.w.z.N.z.z.w.w.w.w.w.w.w.w.w.w.w.w.w.w.w.w.w.w.w.w.w.w.w.w.w.w.%.' G G S n n S L ..9.z.f.9.9.z.w.w.w.w.w.w.w.w.w.w.w.w.w.w.w.w.w.w.w.w.w.w.w.w.{.T.w.9.w.9.9.z.w.w.w.w.w.w.f.f.R.e.9.e.e.e.e.e.w.{.:.Y ' X.Y ' ' ' ` ` ' ' ' ' ' &.w.0.3.9.0.3.9.:.%.' @.L %.:.' ` ....` Y Y ` -.3.w.z.w.w.0.w.{.f.z.9.w.9.N.z.w.w.w.w.w.w.w.w.",
"@.@.@.@.%.:.>.:...9.z.9.9.3.:.:.w.3.0.z.{. Xv.p.T ` ....' ` @.@.+.%.&.-.-.:.9.9.9.0.9.@.W.9.w.w.f.z.>.z.w...3.3.9.9.w.w.w.w.w.w.w.w.w.w.w.w.w.w.9.w.w.w.w.w.9.9.9.9.9.w.w.w.w.f.w.3.0.f.9.w.z.9.Y f.[.9.z.3.9.9.9.9.9.9.3.9.9.9.9.8.9.f.w.f.z.@.9.w.w.w.f.f.w.w.w.w.w.w.w.w.w.w.w.w.w.w.w.w.w.w.3.9.w.z.z.z.w.9.w.w.w.w.w.w.w.w.f.w.w.9.9.9.w.w.w.w.w.w.w.w.w.w.w.w.w.w.w.w.w.w.3.0.z.z.w.w.w.w.w.w.w.w.w.w.w.w.z.w.9.9.9.9.w.z.w.w.w.w.w.w.w.w.w.w.w.w.w.w.w.w.w.w.w.w.w.w.w.w.W.0.0.N.{.N.N.{.w.f.z.z.f.z.f.f.w.w.w.w.w.w.w.w.w.w.w.w.w.w.w.w.w.w.w.w.w.w.w.w.9.w.w.w.T.z.w.z.w.w.w.w.w.w.f.f.:.%.@.%.%.%.%.%.@.8.@.P ' ` Y ' ` ` ` ` ` ` ` ` Y @.9.z.9.w.z.9.9.:.:.@.3.` :.:.` ` ` ` Y Y @.3.w.z.N.z.z.f.z.z.@.+.9.9.z.w.z.w.z.z.z.z.z.z.z.z.",
"%.%.@.@.%.%.@...` 3.w.9.9.9.3.3.v.9.w.9.9.9.9./.@.Y Y ` Y Y ..-.&.3.8.3.>.3.9.0.z.W.w.` N.W.{.w.w. Xz.N.:.' z.{.w.w.w.w.w.w.w.w.w.w.w.w.w.w.w.w.w.w.f.f.z.z.z.N.W.W.W.z.f.w.w.w.W.w.w.w.w.z.w.@.3.(.9.0.w.M L Y L L L L L L L L S L ' 9.w.z.z.@.9.w.w.w.f.f.w.w.w.w.w.w.w.w.w.w.w.w.w.w.w.w.w.w.z.f.f.w.w.w.w.f.w.w.w.w.w.w.w.w.w.z.z.z.z.z.z.w.w.w.w.w.w.w.w.w.w.w.w.w.w.w.w.w.W.z.0.9.w.z.z.9.w.w.w.w.w.w.w.w.w.w.w.z.z.f.w.w.w.w.w.w.w.w.w.w.w.w.w.w.w.w.w.w.w.w.w.w.w.w.w.w.z.w.w.w.w.0.9.9.N.N.f.9.9.z.z.w.w.w.w.w.w.w.w.w.w.w.w.w.w.w.w.w.w.w.w.w.w.w.w.w.9.W.z.9.w.z.a.z.w.w.w.w.w.w.f.f.Y L G L L L L H G G Y Y P L Y ' Y Y Y Y Y Y Y Y Y Y &.f.f.w.z.w.w.3.3.%.9.@.3.:.........` ` :.W.z.z.w.w.w.w.w.w.>.@.e.0.z.w.0.9.w.w.w.w.w.w.w.w.",
"-.%.@.%.:.:.%.' Y :.w.w.w.w.w.w.4.4.z.z.w.w.9.W.w.Y L ` ....` @.&.:.3.3.3.9.w.p.9.z.9.S H L ' ' L ..L L L ` 9.9.w.w.w.w.w.w.w.w.w.w.w.w.w.w.w.w.w.9.9.9.9.0.w.w.w.w.w.0.9.9.0.w.w.w.0.9.w.w.:...+X9.0.f.:.` ..' ' ' ' ' ' ' ' ' T T +.3.9.p.z.@.9.w.w.w.f.f.w.w.w.w.w.w.w.w.w.w.w.w.w.w.w.w.w.w.N.z.w.0.9.w.z.N.w.w.w.w.w.w.w.w.9.z.z.z.w.z.z.w.w.w.w.w.w.w.w.w.w.w.w.w.w.w.w.w.f.z.z.w.9.e.z.w.w.w.w.w.w.w.w.w.w.f.w.w.z.z.f.0.w.w.w.w.w.w.w.w.w.w.w.w.w.w.w.w.w.w.w.w.w.w.w.w.w.z.w.9.9.z.W.W.3.w.W.z.9.0.w.z.w.w.w.w.w.w.w.w.w.w.w.w.w.w.w.w.w.w.w.w.w.w.w.w.9.z.p.9.w.p.0.9.w.w.w.w.w.w.f.f.3.>.:.:.>.:.:.:.3.@.-.9.@.Y ` ' Y Y Y Y Y Y Y Y T L ' 9.z.f.w.w.f.9.:.@.:.` :.%.' ' ` ` Y Y %.z.w.w.0.w.w.w.w.9.+Xw.{.0.w.w.w.W.w.w.w.w.w.w.w.w.",
"@.@.@.%.:.3.:.@.Y :.w.w.w.w.w.z.z.9.w.9.0.f.w.N.@.G ` @.` Y Y :.+.$.$.%.:.9.w.f.3.W.[.9.@.` ' ....` Y ` %.w.z.w.w.w.w.w.w.w.w.w.w.w.w.w.w.w.w.w.e.w.w.w.w.w.w.w.9.9.0.w.w.z.z.z.9.z.w.w.W.9.:.w.N.8.N.N.9.{.W.z.W.W.W.W.W.W.W.W. XR.w.N.f.w.w.@.9.w.w.w.e.w.w.w.w.w.w.w.w.w.w.w.w.w.w.w.w.w.w.w.Y @.3.z.W.v.w.9.w.w.w.w.w.w.w.w.z.w.3.....:.w.W.w.w.w.w.w.w.w.w.w.w.w.w.w.w.w.w.D @.z.W.z.z.w.9.w.w.w.w.w.w.w.w.W.z.:...@.3.z.z.w.w.w.w.w.w.w.w.w.w.w.w.w.w.w.w.w.w.w.w.w.w.w.w.9.f.z.z.z.z.w.9.z.w.9.w.W.{.z.3.w.w.w.w.w.w.w.w.w.w.w.w.w.w.w.w.w.w.w.w.w.w.w.w.N.f.f.{.+X{.N.N.w.w.w.w.w.w.f.f.v.z.f.z.z.f.f.z.{.z.w.z.9.' L P ` ` ' ' ` ` Y Y ' Y T @.w.z.w.e.w.3.:...%.' :.%.` ` ....` ` &.z.0.w.f.z.z.z.w.w.@.' 9.9.z.z.9.e.f.f.f.f.f.f.p.p.",
"%.%.%.%.-.:.%.@.Y :.w.0.9.0.0.w.w.9.z.w.w.z.w.z.9.Y Y ' ` ..` $.$.&.&.%.:.9.w.0.z.9.9.z.z.W.W.z.z.z.{.z.w.w.9.w.w.w.w.w.f.f.f.f.w.w.w.w.w.w.w.w.w.w.w.w.w.w.w.w.w.w.w.w.w.w.w.9.9.z.9.9.w.@.@. X9.N.9.z.9.@.L -.@.@.@.@.@.@.@.@.+...@.0.z.z.z.@.9.w.w.w.e.w.w.w.w.w.w.w.w.w.w.w.w.w.w.w.w.w.w.w.9.w.w.w.w.w.w.z.w.w.w.w.w.w.w.w.9.z.z.w.0.w.f.w.w.w.w.w.w.w.w.w.w.w.w.w.w.w.w.w.9.w.z.0.9.f.z.p.w.w.w.w.w.w.w.w.9.z.z.9.0.W.z.3.w.w.w.w.w.w.w.w.w.w.w.w.w.w.w.w.w.w.w.w.w.w.w.w.T.w.9.9.w.z.z.z.w.f.w.w.9.0.w.z.w.w.w.w.w.w.w.w.w.w.w.w.w.w.w.w.w.w.w.w.w.w.w.w.N.' t 8 r 8 t A w.w.w.w.w.w.f.f.p.w.w.p.f.w.p.f.9.w.9.z.[.4.Y ' ' ' ' ' ' ' ' ` T ' Y ' 3.f.9.w.w.3.3.+.:.` >.%.' ` ` ' T Y %.N.w.p.z.f.w.9.w.z.>...f.0.z.N.9.z.w.w.w.w.w.w.w.w.",
"-.@.@.*.>.>.-.@.X.>.p.f.p.f.z.p.f.p.w.p.f.z.p.9.' ' ` ' ' ' ..-.%.%.&.:.3.9.w.z.f.f.f.f.f.f.f.f.f.f.f.f.f.f.f.f.f.f.f.f.f.f.f.f.f.f.p.p.f.f.f.f.f.f.p.p.f.f.f.f.w.0.0.p.v.v.f.w.z.p.z.0.%.-.w.z.z.w.w.w.%.L S L L L L L L L L L L G Y 3.p.z.z.%.4.w.w.w.f.w.w.w.w.w.w.w.w.w.w.w.w.w.w.w.w.w.w.w.w.w.w.w.w.w.w.w.w.w.w.w.w.w.w.w.w.w.w.w.w.w.w.w.w.w.w.w.w.w.w.w.w.w.w.w.w.w.w.w.w.w.w.w.w.w.w.w.w.w.w.w.w.w.w.w.w.w.w.w.w.w.w.w.w.w.w.w.w.w.w.w.w.w.w.w.w.w.w.w.w.w.w.w.w.w.w.w.w.w.w.w.w.w.w.w.w.w.w.w.w.w.w.w.w.w.w.w.w.w.w.w.w.w.w.w.w.w.w.w.w.w.w.w.w.w.w.w.oX= ; L j C S o :.0.z.w.0.w.f.w.w.w.w.w.w.w.w.w.w.z.w.9.z.W.3.Y @.+...' ' +.@.@.' @.@...@.9.f.z.0.>.3.&.4.@.K l B / @.' ' ' @.0.f.f.z.v.v.z.f.f.W.v.z.t.f.>.Z x 4.w.v.f.f.f.f.f.",
"@.' ' @.@.@.@.' ' -.3.3.>.9.9.>.9.9.9.9.9.:.@...P L L Y P L Y ' @.@.@.@.%.:.3.3.9.9.9.9.9.9.9.9.9.9.4.4.9.9.9.9.9.9.9.9.9.9.4.4.9.9.4.4.9.9.9.9.9.9.4.4.9.9.9.9.9.3.-.@.@.@.@.@.@...@.@.:.9.z.f.w.0.w.z.w.:.:.3.3.3.3.3.3.3.3.3.3.:.:.f.z.z.w.@.9.w.w.w.w.w.w.w.w.w.w.w.w.w.w.w.w.w.w.w.w.w.w.w.w.w.w.w.w.w.w.w.w.w.w.w.w.w.w.w.w.w.w.w.w.w.w.w.w.w.w.w.w.w.w.w.w.w.w.w.w.w.w.w.w.w.w.w.w.w.w.w.w.w.w.w.w.w.w.w.w.w.w.w.w.w.w.w.w.w.w.w.w.w.w.w.w.w.w.w.w.w.w.w.w.w.w.w.w.w.w.w.w.w.w.w.w.w.w.w.w.w.w.w.w.w.w.w.w.w.w.w.w.w.w.w.w.w.w.w.w.w.w.w.w.w.w.w.w.w.w.w.f.Y >.;X+X+X[.L 3.w.z.w.0.w.f.w.w.w.w.w.w.w.w.w.0.w.w.9.w.z.9.@.Y Y P P Y Y Y T L L L G Y @.3.9.9.-.%.....D n i n D Y Y P D H ' :.:.>.4.4.9.9.9.9.9.0.9.9.] g i -.4.9.9.4.9.9.9.",
"0.0.0.p.f.f.p.w.0.z.W.N.N.W.W.v.N.v.N.N.W.v.0.9.0.9.0.f.p.9.w.v.f.f.f.f.f.N.N.N.v.v.N.N.N.N.N.N.N.v.v.v.v.N.N.N.N.N.N.N.N.v.v.v.N.N.v.v.N.N.N.N.N.N.v.v.N.N.N.N.p.9.:.-.%.-.-.:.:.-.@.-.0.f.0.9.z.w.w.z.z.z.z.z.z.z.z.z.z.z.z.z.N.e.w.z.w.e.z.@.9.w.w.w.f.f.w.w.w.w.w.w.w.w.w.w.w.w.w.w.w.w.w.w.w.w.w.w.w.w.w.w.w.w.w.w.w.w.w.w.w.w.w.w.w.w.w.w.w.w.w.w.w.w.w.w.w.w.w.w.w.w.w.w.w.w.w.w.w.w.w.w.w.w.w.w.w.w.w.w.w.w.w.w.w.w.w.w.w.w.w.w.w.w.w.w.w.w.w.w.w.w.w.w.w.w.w.w.w.w.w.w.w.w.w.w.w.w.w.w.w.w.w.w.w.w.w.w.w.w.w.w.w.w.w.w.w.w.w.w.w.w.w.w.w.w.w.w.w.w.w.w.0.f.{.[.{.+X+X{.9.f.z.w.w.p.f.w.w.w.w.w.w.w.w.w.w.f.f.w.w.w.e.w.3.>.>.>.>.>.3.8.3.8.>.-.>.0.N.N.N.f.N.p.v.0.t.0.9.p.p.p.f.w.9.0.p.f.z.N.W.W././.N.f.f.0.N.{.t.V.f.N.W.N.v.N.N.N.",
"W./.{.{.{.{.{.{.W.{./.N.W.{.{.W./.N.N.N.W.{.{.{./.W.{.{.{././.{.{.{.A.A.A.A.{.{.W.W.W.W.W.W.W.W.W.W.N.W.N.W.W.W.W.W.W.W.N.N.N.W././.W.W.W.W.W.W././.W.W.W.W.W.W.[.[.{.[. XOXOXOX[.+X[.{. X{.f.N.z.z.w.w.w.f.w.0.w.w.w.w.w.w.w.w.9.e.w.w.9.f.N.@.9.w.w.w.f.f.w.w.w.w.w.w.w.w.w.w.w.w.w.w.w.w.w.w.w.w.w.w.w.w.w.w.w.w.w.w.w.w.w.w.w.w.w.w.w.w.w.w.w.w.w.w.w.w.w.w.w.w.w.w.w.w.w.w.w.w.w.w.w.w.w.w.w.w.w.w.w.w.w.w.w.w.w.w.w.w.w.w.w.w.w.w.w.w.w.w.w.w.w.w.w.w.w.w.w.w.w.w.w.w.w.w.w.w.w.w.w.w.w.w.w.w.w.w.w.w.w.w.w.w.w.w.w.w.w.w.w.w.w.w.w.w.w.w.w.w.w.w.w.w.w.w.p.f.0.9.w.9.9.f.w.z.f.w.w.z.z.w.w.w.w.w.w.w.w.w.f.f.f.f.w.w.z.W..X.X X X X.X.X+X{.{.{.(.W.{.{.W.{./.{./.{.{.[.[.[.[./.W.[.[.{.[.N.W.W./././././.S.f./.W.{.[.{.XXN././.W.N.N.W./.",
"9.0.w.w.0.0.0.w.w.w.9.9.9.w.w.0.f.w.w.0.w.w.w.w.9.9.0.w.0.9.9.9.0.0.0.0.0.0.0.0.0.0.w.w.w.w.w.w.w.w.w.w.0.w.w.w.w.w.w.w.w.w.w.w.w.w.w.w.w.w.w.w.w.w.w.w.w.w.w.w.9.9.0.w.w.w.0.9.3.f.w.9.w.9.3.w.w.f.z.w.w.f.f.w.f.e.e.e.w.w.w.w.9.e.e.e.9.z.z.@.9.w.w.w.f.f.w.w.w.w.w.w.w.w.w.w.w.w.w.w.w.w.w.w.w.w.w.w.w.w.w.w.w.w.w.w.w.w.w.w.w.w.w.w.w.w.w.w.w.w.w.w.w.w.w.w.w.w.w.w.w.w.w.w.w.w.w.w.w.w.w.w.w.w.w.w.w.w.w.w.w.w.w.w.w.w.w.w.w.w.w.w.w.w.w.w.w.w.w.w.w.w.w.w.w.w.w.w.w.w.w.w.w.w.w.w.w.w.w.w.w.w.w.w.w.w.w.w.w.w.w.w.w.w.w.w.w.w.w.w.w.w.w.w.w.w.w.w.w.w.w.w.N.0.0.N.W.w.9.e.z.z.w.w.w.e.w.w.w.w.w.w.w.w.w.w.f.w.w.w.w.9.w.z.9.9.9.9.9.9.9.9.9.0.w.w.w.w.w.9.w.0.9.9.9.9.9.9.0.0.9.9.0.0.9.w.w.w.w.w.w.0.0.9.V.0.v.f.9.9.>.3.w.w.w.w.w.0.w.w.",
"w.w.w.w.w.w.w.w.w.w.w.w.w.w.w.w.w.w.f.z.p.w.w.9.w.f.z.z.z.f.w.w.w.w.w.e.e.e.e.e.w.w.w.w.w.w.w.w.w.w.w.w.w.w.w.w.w.w.w.w.w.w.w.w.w.w.w.w.w.w.w.w.w.w.w.w.w.w.w.w.z.f.w.w.w.w.w.w.w.w.0.0.z.z.f.z.0.f.z.z.f.f.f.f.f.f.e.e.w.w.w.w.9.e.e.z.w.z.z.@.9.w.w.w.f.f.w.w.w.w.w.w.w.w.w.w.w.w.w.w.w.w.w.w.w.w.w.w.w.w.w.w.w.w.w.w.w.w.w.w.w.w.w.w.w.w.w.w.w.w.w.w.w.w.w.w.w.w.w.w.w.w.w.w.w.w.w.w.w.w.w.w.w.w.w.w.w.w.w.w.w.w.w.w.w.w.w.w.w.w.w.w.w.w.w.w.w.w.w.w.w.w.w.w.w.w.w.w.w.w.w.w.w.w.w.w.w.w.w.w.w.w.w.w.w.w.w.w.w.w.w.w.w.w.w.w.w.w.w.w.w.w.w.w.w.w.w.w.w.w.w.w.z.w.w.w.9.w.N.z.z.f.w.w.w.f.w.w.w.w.w.w.w.w.w.w.z.w.w.w.w.w.w.w.f.f.f.f.f.f.z.z.w.w.0.9.9.w.e.z.w.w.9.z.f.W.f.f.w.f.f.f.z.z.w.w.w.w.w.w.w.w.w.p.>.-.9.w.w.z.z.W.z.w.w.w.w.w.w.f.",
"z.f.p.w.p.f.f.p.w.w.w.f.w.w.w.w.0.w.w.f.p.p.f.w.w.w.w.w.w.w.w.w.w.w.w.w.f.f.f.f.w.w.w.w.w.w.w.w.w.w.w.w.w.w.w.w.w.w.w.w.w.w.w.w.w.w.w.w.w.w.w.w.w.w.w.w.w.w.w.w.f.f.w.w.w.w.z.z.N.w.w.w.w.w.w.9.f.f.e.z.w.w.w.w.w.w.w.w.w.w.w.w.9.9.9.z.w.z.z.@.9.w.w.w.e.e.w.w.w.w.w.w.w.w.w.w.w.w.w.w.w.w.w.w.w.w.w.w.w.w.w.w.w.w.w.w.w.w.w.w.w.w.w.w.w.w.w.w.w.w.w.w.w.w.w.w.w.w.w.w.w.w.w.w.w.w.w.w.w.w.w.w.w.w.w.w.w.w.w.w.w.w.w.w.w.w.w.w.w.w.w.w.w.w.w.w.w.w.w.w.w.w.w.w.w.w.w.w.w.w.w.w.w.w.w.w.w.w.w.w.w.w.w.w.w.w.w.w.w.w.w.w.w.w.w.w.w.w.w.w.w.w.w.w.w.w.w.w.w.w.w.w.3.w.z.z.z.z.w.9.w.w.w.f.w.w.w.f.w.w.w.w.w.w.w.w.z.z.e.w.z.z.f.w.w.w.w.w.w.w.w.w.z.z.f.w.w.w.w.f.z.z.0.z.9.e.9.9.w.z.f.w.z.f.0.w.w.w.w.w.w.f.z.z.@...9.W.T.T.9.8.w.w.w.w.f.w.w.f.",
"f.w.w.w.w.w.w.w.w.w.z.z.w.w.w.w.T.z.w.w.w.w.w.w.z.z.w.w.w.z.z.w.w.w.w.w.w.w.w.w.w.w.w.w.w.w.w.w.w.w.w.w.w.w.w.w.w.w.w.w.w.w.w.w.w.w.w.w.w.w.w.w.w.w.w.w.w.w.w.w.w.w.w.w.w.w.w.z.w.9.z.W.9.9.T.z.z.w.9.w.z.w.w.z.f.f.f.f.f.f.f.f.e.e.9.z.w.f.f.@.9.w.w.w.e.w.w.w.w.w.w.w.w.w.w.w.w.w.w.w.w.w.w.w.w.w.w.w.w.w.w.w.w.w.w.w.w.w.w.w.w.w.w.w.w.w.w.w.w.w.w.w.w.w.w.w.w.w.w.w.w.w.w.w.w.w.w.w.w.w.w.w.w.w.w.w.w.w.w.w.w.w.w.w.w.w.w.w.w.w.w.w.w.w.w.w.w.w.w.w.w.w.w.w.w.w.w.w.w.w.w.w.w.w.w.w.w.w.w.w.w.w.w.w.w.w.w.w.w.w.w.w.w.w.w.w.w.w.w.w.w.w.w.w.w.w.w.w.w.w.w.w.z.z.9.9.W.z.w.z.w.w.w.f.w.w.w.f.w.w.w.w.w.w.w.w.w.f.z.w.w.z.z.w.w.w.w.w.w.w.w.w.w.w.w.w.e.w.w.w.w.z.0.N.9.z.w.T.z.z.0.9.w.f.w.z.w.w.w.w.w.w.w.w.[.9.W.T.9.e.N.e.z.w.w.z.T.z.w.z."
};
